; LightBurn 1.3.01
; GRBL device profile, absolute coords
; Bounds: X10 Y10 to X778.1 Y391.12
G00 G17 G40 G21 G54
G90
M4
; Scan @ 3000 mm/min, 100% power
M8
G0 X669.304Y250.155
; Layer GatoGranLim
G91
G0 X1.25
G1 X0.797F3000S1000
G0 X1.25
G0 X0.449Y0.1
G0 X-1.25
G1 X-1.602
G0 X-1.25
G0 X-0.203Y0.1
G0 X1.25
G1 X2.084
G1 X28.848F5000S0
G1 X1.8F3000S1000
G0 X1.25
G0 X0.451Y0.1
G0 X-1.25
G1 X-2.745
G1 X-28.136F5000S0
G1 X-2.447F3000S1000
G0 X-1.25
G0 X-0.114Y0.1
G0 X1.25
G1 X2.727
G1 X27.625F5000S0
G1 X3.409F3000S1000
G0 X1.25
G0 X0.261Y0.1
G0 X-1.25
G1 X-3.915
G1 X-27.221F5000S0
G1 X-2.977F3000S1000
G0 X-1.25
G0 X-0.078Y0.1
G0 X1.25
G1 X3.17
G1 X26.889F5000S0
G1 X4.342F3000S1000
G0 X1.25
G0 X0.193Y0.1
G0 X-1.25
G1 X-4.712
G1 X-26.597F5000S0
G1 X-3.353F3000S1000
G0 X-1.25
G0 X-0.055Y0.1
G0 X1.25
G1 X3.524
G1 X13.886F5000S0
G1 X0.875F3000S1000
G1 X4.74F5000S0
G1 X0.676F3000S1000
G1 X6.151F5000S0
G1 X5.039F3000S1000
G0 X1.25
G0 X0.149Y0.1
G0 X-1.25
G1 X-5.342
G1 X-5.562F5000S0
G1 X-1.631F3000S1000
G1 X-3.692F5000S0
G1 X-1.939F3000S1000
G1 X-13.249F5000S0
G1 X-3.675F3000S1000
G0 X-1.25
G0 X-0.037Y0.1
G0 X1.25
G1 X3.805
G1 X12.889F5000S0
G1 X2.522F3000S1000
G1 X3.052F5000S0
G1 X2.156F3000S1000
G1 X5.242F5000S0
G1 X5.61F3000S1000
G0 X1.25
G0 X0.129Y0.1
G0 X-1.25
G1 X-5.852
G1 X-4.977F5000S0
G1 X-2.557F3000S1000
G1 X-2.567F5000S0
G1 X-2.955F3000S1000
G1 X-5.194F5000S0
G1 X-1.193F3000S1000
G1 X-6.212F5000S0
G1 X-3.932F3000S1000
G0 X-1.25
G0 X-0.023Y0.1
G0 X1.25
G1 X4.048
G1 X5.876F5000S0
G1 X1.673F3000S1000
G1 X4.788F5000S0
G1 X3.34F3000S1000
G1 X2.131F5000S0
G1 X2.909F3000S1000
G1 X4.731F5000S0
G1 X6.084F3000S1000
G0 X1.25
G0 X0.118Y0.1
G0 X-1.25
G1 X-6.3
G1 X-4.537F5000S0
G1 X-3.21F3000S1000
G1 X-1.758F5000S0
G1 X-3.654F3000S1000
G1 X-4.472F5000S0
G1 X-2.02F3000S1000
G1 X-5.621F5000S0
G1 X-4.145F3000S1000
G0 X-1.25
G0 X-0.011Y0.1
G0 X1.25
G1 X4.231
G1 X5.429F5000S0
G1 X2.283F3000S1000
G1 X4.206F5000S0
G1 X3.942F3000S1000
G1 X1.429F5000S0
G1 X3.464F3000S1000
G1 X4.359F5000S0
G1 X6.493F3000S1000
G0 X1.25
G0 X0.094Y0.1
G0 X-1.25
G1 X-6.672
G1 X-4.206F5000S0
G1 X-3.693F3000S1000
G1 X-1.135F5000S0
G1 X-4.189F3000S1000
G1 X-3.974F5000S0
G1 X-2.519F3000S1000
G1 X-5.236F5000S0
G1 X-4.312F3000S1000
G0 X-1.25
G0 Y0.1
G0 X1.25
G1 X4.387
G1 X5.074F5000S0
G1 X2.725F3000S1000
G1 X3.76F5000S0
G1 X4.415F3000S1000
G1 X0.847S0
G1 X3.917S1000
G1 X4.054F5000S0
G1 X6.851F3000S1000
G0 X1.25
G0 X0.094Y0.1
G0 X-1.25
G1 X-7.014
G1 X-3.935F5000S0
G1 X-4.09F3000S1000
G1 X-0.603S0
G1 X-4.624S1000
G1 X-3.565F5000S0
G1 X-2.918F3000S1000
G1 X-4.924F5000S0
G1 X-4.442F3000S1000
G0 X-1.25
G0 X0.01Y0.1
G0 X1.25
G1 X4.491
G1 X4.787F5000S0
G1 X3.086F3000S1000
G1 X3.394F5000S0
G1 X4.808F3000S1000
G1 X0.378S0
G1 X4.257S1000
G1 X3.827F5000S0
G1 X7.157F3000S1000
G0 X1.25
G0 X0.075Y0.1
G0 X-1.25
G1 X-7.295
G1 X-3.723F5000S0
G1 X-4.421F3000S1000
G1 X-0.151S0
G1 X-4.981S1000
G1 X-3.235F5000S0
G1 X-3.238F3000S1000
G1 X-4.665F5000S0
G1 X-4.536F3000S1000
G0 X-1.25
G0 X0.019Y0.1
G0 X1.25
G1 X4.576
G1 X4.544F5000S0
G1 X3.39F3000S1000
G1 X3.077F5000S0
G1 X9.646F3000S1000
G1 X3.636F5000S0
G1 X4.315F3000S1000
G1 X0.82S0
G1 X2.296S1000
G0 X1.25
G0 X0.075Y0.1
G0 X-1.25
G1 X-1.944
G1 X-1.682F5000S0
G1 X-3.936F3000S1000
G1 X-3.555F5000S0
G1 X-9.725F3000S1000
G1 X-2.955F5000S0
G1 X-3.514F3000S1000
G1 X-4.43F5000S0
G1 X-4.603F3000S1000
G0 X-1.25
G0 X0.037Y0.1
G0 X1.25
G1 X4.617
G1 X4.337F5000S0
G1 X3.624F3000S1000
G1 X2.836F5000S0
G1 X9.795F3000S1000
G1 X3.493F5000S0
G1 X3.73F3000S1000
G1 X2.212F5000S0
G1 X1.729F3000S1000
G0 X1.25
G0 X0.061Y0.1
G0 X-1.25
G1 X-1.602
G1 X-2.605F5000S0
G1 X-3.569F3000S1000
G1 X-3.437F5000S0
G1 X-9.857F3000S1000
G1 X-2.719F5000S0
G1 X-3.733F3000S1000
G1 X-4.243F5000S0
G1 X-4.623F3000S1000
G0 X-1.25
G0 X0.06Y0.1
G0 X1.25
G1 X4.614
G1 X4.15F5000S0
G1 X3.84F3000S1000
G1 X2.615F5000S0
G1 X9.907F3000S1000
G1 X3.382F5000S0
G1 X3.478F3000S1000
G1 X2.924F5000S0
G1 X1.479F3000S1000
G0 X1.25
G0 X0.06Y0.1
G0 X-1.25
G1 X-1.404
G1 X-3.176F5000S0
G1 X-3.405F3000S1000
G1 X-3.334F5000S0
G1 X-5.917F3000S1000
G1 X-0.902S0
G1 X-3.132S1000
G1 X-2.526F5000S0
G1 X-3.921F3000S1000
G1 X-4.066F5000S0
G1 X-4.598F3000S1000
G0 X-1.25
G0 X0.086Y0.1
G0 X1.25
G1 X0.92
G1 X0.95S0
G1 X2.693S1000
G1 X3.982F5000S0
G1 X4.003F3000S1000
G1 X2.44F5000S0
G1 X2.969F3000S1000
G1 X1.379F5000S0
G1 X5.631F3000S1000
G1 X3.311F5000S0
G1 X3.329F3000S1000
G1 X3.419F5000S0
G1 X1.33F3000S1000
G0 X1.25
G0 X0.061Y0.1
G0 X-1.25
G1 X-1.279
G1 X-3.622F5000S0
G1 X-3.265F3000S1000
G1 X-3.293F5000S0
G1 X-5.446F3000S1000
G1 X-1.694F5000S0
G1 X-2.859F3000S1000
G1 X-2.361F5000S0
G1 X-4.086F3000S1000
G1 X-3.897F5000S0
G1 X-2.501F3000S1000
G1 X-1.374F5000S0
G1 X-0.633F3000S1000
G0 X-1.25
G0 X0.134Y0.1
G0 X1.25
G1 X0.374
G1 X1.691F5000S0
G1 X2.36F3000S1000
G1 X3.813F5000S0
G1 X4.168F3000S1000
G1 X2.283F5000S0
G1 X2.776F3000S1000
G1 X1.88F5000S0
G1 X5.355F3000S1000
G1 X3.283F5000S0
G1 X3.205F3000S1000
G1 X3.806F5000S0
G1 X1.243F3000S1000
G0 X1.25
G0 X0.058Y0.1
G0 X-1.25
G1 X-1.205
G1 X-3.976F5000S0
G1 X-3.158F3000S1000
G1 X-3.287F5000S0
G1 X-5.399F3000S1000
G1 X-1.883F5000S0
G1 X-2.725F3000S1000
G1 X-2.214F5000S0
G1 X-1.043F3000S1000
G1 X-0.432S0
G1 X-2.768S1000
G1 X-3.73F5000S0
G1 X-2.29F3000S1000
G1 X-1.902F5000S0
G1 X-0.103F3000S1000
G0 X-1.25
G0 X2.125Y0.1
G0 X1.25
G1 X2.215
G1 X3.652F5000S0
G1 X2.731F3000S1000
G1 X0.62S0
G1 X0.968S1000
G1 X2.153F5000S0
G1 X2.675F3000S1000
G1 X1.876F5000S0
G1 X5.444F3000S1000
G1 X3.289F5000S0
G1 X3.115F3000S1000
G1 X4.131F5000S0
G1 X1.17F3000S1000
G0 X1.25
G0 X0.05Y0.1
G0 X-1.25
G1 X-1.136
G1 X-4.277F5000S0
G1 X-3.069F3000S1000
G1 X-3.316F5000S0
G1 X-5.478F3000S1000
G1 X-1.859F5000S0
G1 X-2.635F3000S1000
G1 X-2.091F5000S0
G1 X-0.928F3000S1000
G1 X-0.753S0
G1 X-2.707S1000
G1 X-3.581F5000S0
G1 X-2.157F3000S1000
G0 X-1.25
G0 X0.093Y0.1
G0 X1.25
G1 X2.11
G1 X3.51F5000S0
G1 X2.681F3000S1000
G1 X0.866S0
G1 X0.909S1000
G1 X2.031F5000S0
G1 X2.606F3000S1000
G1 X1.83F5000S0
G1 X5.498F3000S1000
G1 X3.363F5000S0
G1 X3.022F3000S1000
G1 X4.415F5000S0
G1 X1.103F3000S1000
G0 X1.25
G0 X0.049Y0.1
G0 X-1.25
G1 X-1.081
G1 X-4.539F5000S0
G1 X-2.977F3000S1000
G1 X-3.41F5000S0
G1 X-0.978F3000S1000
G1 X-0.558S0
G1 X-3.982S1000
G1 X-1.802F5000S0
G1 X-2.569F3000S1000
G1 X-1.979F5000S0
G1 X-0.9F3000S1000
G1 X-0.964S0
G1 X-2.66S1000
G1 X-3.439F5000S0
G1 X-2.063F3000S1000
G0 X-1.25
G0 X0.092Y0.1
G0 X1.25
G1 X2.016
G1 X3.368F5000S0
G1 X2.648F3000S1000
G1 X1.048F5000S0
G1 X0.897F3000S1000
G1 X1.927F5000S0
G1 X2.532F3000S1000
G1 X1.773F5000S0
G1 X3.725F3000S1000
G1 X1.204F5000S0
G1 X0.576F3000S1000
G1 X3.489F5000S0
G1 X2.944F3000S1000
G1 X4.653F5000S0
G1 X1.059F3000S1000
G0 X1.25
G0 X0.05Y0.1
G0 X-1.25
G1 X-1.038
G1 X-4.765F5000S0
G1 X-2.911F3000S1000
G1 X-3.589F5000S0
G1 X-0.29F3000S1000
G1 X-1.61F5000S0
G1 X-3.572F3000S1000
G1 X-1.731F5000S0
G1 X-2.507F3000S1000
G1 X-1.881F5000S0
G1 X-0.889F3000S1000
G1 X-1.133F5000S0
G1 X-2.635F3000S1000
G1 X-3.297F5000S0
G1 X-1.973F3000S1000
G0 X-1.25
G0 X0.077Y0.1
G0 X1.25
G1 X1.941
G1 X3.226F5000S0
G1 X2.623F3000S1000
G1 X1.217F5000S0
G1 X0.882F3000S1000
G1 X1.842F5000S0
G1 X2.476F3000S1000
G1 X1.687F5000S0
G1 X3.457F3000S1000
G1 X5.671F5000S0
G1 X2.885F3000S1000
G1 X4.86F5000S0
G1 X1.027F3000S1000
G0 X1.25
G0 X0.044Y0.1
G0 X-1.25
G1 X-1.009
G1 X-4.952F5000S0
G1 X-2.862F3000S1000
G1 X-5.823F5000S0
G1 X-3.361F3000S1000
G1 X-1.655F5000S0
G1 X-2.445F3000S1000
G1 X-1.804F5000S0
G1 X-0.874F3000S1000
G1 X-1.291F5000S0
G1 X-2.615F3000S1000
G1 X-3.162F5000S0
G1 X-1.908F3000S1000
G0 X-1.25
G0 X0.077Y0.1
G0 X1.25
G1 X1.87
G1 X3.105F5000S0
G1 X2.606F3000S1000
G1 X1.358F5000S0
G1 X0.872F3000S1000
G1 X1.767F5000S0
G1 X2.414F3000S1000
G1 X1.623F5000S0
G1 X3.282F3000S1000
G1 X5.97F5000S0
G1 X2.827F3000S1000
G1 X5.042F5000S0
G1 X0.988F3000S1000
G0 X1.25
G0 X0.04Y0.1
G0 X-1.25
G1 X-0.975
G1 X-5.113F5000S0
G1 X-2.804F3000S1000
G1 X-6.106F5000S0
G1 X-3.214F3000S1000
G1 X-1.577F5000S0
G1 X-2.387F3000S1000
G1 X-1.739F5000S0
G1 X-0.872F3000S1000
G1 X-1.424F5000S0
G1 X-2.597F3000S1000
G1 X-3.046F5000S0
G1 X-1.833F3000S1000
G0 X-1.25
G0 X0.069Y0.1
G0 X1.25
G1 X1.803
G1 X2.988F5000S0
G1 X2.596F3000S1000
G1 X1.481F5000S0
G1 X0.874F3000S1000
G1 X1.709F5000S0
G1 X2.361F3000S1000
G1 X1.532F5000S0
G1 X3.329F3000S1000
G1 X6.059F5000S0
G1 X2.78F3000S1000
G1 X5.182F5000S0
G1 X0.963F3000S1000
G0 X1.25
G0 X0.04Y0.1
G0 X-1.25
G1 X-0.952
G1 X-5.249F5000S0
G1 X-2.758F3000S1000
G1 X-6.01F5000S0
G1 X-3.446F3000S1000
G1 X-1.487F5000S0
G1 X-2.334F3000S1000
G1 X-1.685F5000S0
G1 X-0.87F3000S1000
G1 X-1.536F5000S0
G1 X-2.598F3000S1000
G1 X-2.93F5000S0
G1 X-1.778F3000S1000
G0 X-1.25
G0 X0.064Y0.1
G0 X1.25
G1 X1.753
G1 X2.872F5000S0
G1 X2.6F3000S1000
G1 X1.589F5000S0
G1 X0.868F3000S1000
G1 X1.67F5000S0
G1 X2.302F3000S1000
G1 X1.437F5000S0
G1 X3.564F3000S1000
G1 X5.961F5000S0
G1 X2.741F3000S1000
G1 X5.307F5000S0
G1 X0.945F3000S1000
G0 X1.25
G0 X0.039Y0.1
G0 X-1.25
G1 X-0.941
G1 X-5.36F5000S0
G1 X-2.725F3000S1000
G1 X-5.912F5000S0
G1 X-3.681F3000S1000
G1 X-1.379F5000S0
G1 X-2.279F3000S1000
G1 X-1.655F5000S0
G1 X-0.872F3000S1000
G1 X-1.636F5000S0
G1 X-2.598F3000S1000
G1 X-2.818F5000S0
G1 X-1.728F3000S1000
G0 X-1.25
G0 X0.063Y0.1
G0 X1.25
G1 X1.704
G1 X2.767F5000S0
G1 X2.593F3000S1000
G1 X1.682F5000S0
G1 X0.877F3000S1000
G1 X1.641F5000S0
G1 X2.255F3000S1000
G1 X1.321F5000S0
G1 X3.798F3000S1000
G1 X5.872F5000S0
G1 X2.7F3000S1000
G1 X5.412F5000S0
G1 X0.939F3000S1000
G0 X1.25
G0 X0.035Y0.1
G0 X-1.25
G1 X-0.932
G1 X-5.459F5000S0
G1 X-2.675F3000S1000
G1 X-5.836F5000S0
G1 X-3.917F3000S1000
G1 X-1.262F5000S0
G1 X-2.224F3000S1000
G1 X-1.635F5000S0
G1 X-0.88F3000S1000
G1 X-1.729F5000S0
G1 X-2.588F3000S1000
G1 X-2.716F5000S0
G1 X-1.687F3000S1000
G0 X-1.25
G0 X0.052Y0.1
G0 X1.25
G1 X1.669
G1 X2.67F5000S0
G1 X2.582F3000S1000
G1 X1.776F5000S0
G1 X0.885F3000S1000
G1 X1.628F5000S0
G1 X2.196F3000S1000
G1 X1.212F5000S0
G1 X4.017F3000S1000
G1 X5.807F5000S0
G1 X2.656F3000S1000
G1 X5.492F5000S0
G1 X0.928F3000S1000
G0 X1.25
G0 X0.03Y0.1
G0 X-1.25
G1 X-0.924
G1 X-5.526F5000S0
G1 X-2.636F3000S1000
G1 X-5.779F5000S0
G1 X-1.201F3000S1000
G1 X-2.915
G1 X-1.156F5000S0
G1 X-2.173F3000S1000
G1 X-1.624F5000S0
G1 X-0.891F3000S1000
G1 X-1.819F5000S0
G1 X-2.577F3000S1000
G1 X-2.624F5000S0
G1 X-1.651F3000S1000
G0 X-1.25
G0 X0.052Y0.1
G0 X1.25
G1 X1.632
G1 X2.578F5000S0
G1 X2.573F3000S1000
G1 X1.858F5000S0
G1 X0.898F3000S1000
G1 X1.623F5000S0
G1 X2.149F3000S1000
G1 X1.101F5000S0
G1 X2.881F3000S1000
G1 X0.138S0
G1 X1.196S1000
G1 X5.752F5000S0
G1 X2.615F3000S1000
G1 X5.56F5000S0
G1 X0.92F3000S1000
G0 X1.25
G0 X0.03Y0.1
G0 X-1.25
G1 X-0.921
G1 X-5.579F5000S0
G1 X-2.605F3000S1000
G1 X-5.724F5000S0
G1 X-1.19F3000S1000
G1 X-0.268S0
G1 X-2.856S1000
G1 X-1.046F5000S0
G1 X-2.125F3000S1000
G1 X-1.621F5000S0
G1 X-0.906F3000S1000
G1 X-1.894F5000S0
G1 X-2.57F3000S1000
G1 X-2.534F5000S0
G1 X-1.613F3000S1000
G0 X-1.25
G0 X0.051Y0.1
G0 X1.25
G1 X1.596
G1 X2.49F5000S0
G1 X2.566F3000S1000
G1 X1.93F5000S0
G1 X0.913F3000S1000
G1 X1.63F5000S0
G1 X2.091F3000S1000
G1 X0.991S0
G1 X2.83S1000
G1 X0.398S0
G1 X1.182S1000
G1 X5.704F5000S0
G1 X2.591F3000S1000
G1 X5.594F5000S0
G1 X0.926F3000S1000
G0 X1.25
G0 X0.03Y0.1
G0 X-1.25
G1 X-0.93
G1 X-5.609F5000S0
G1 X-2.566F3000S1000
G1 X-5.699F5000S0
G1 X-1.175F3000S1000
G1 X-0.513S0
G1 X-2.814S1000
G1 X-0.93S0
G1 X-2.063S1000
G1 X-1.639F5000S0
G1 X-0.921F3000S1000
G1 X-1.964F5000S0
G1 X-2.563F3000S1000
G1 X-2.447F5000S0
G1 X-1.58F3000S1000
G0 X-1.25
G0 X0.05Y0.1
G0 X1.25
G1 X1.563
G1 X2.404F5000S0
G1 X2.559F3000S1000
G1 X1.998F5000S0
G1 X0.931F3000S1000
G1 X1.648F5000S0
G1 X2.039F3000S1000
G1 X0.864S0
G1 X2.798S1000
G1 X0.627S0
G1 X1.169S1000
G1 X5.693F5000S0
G1 X2.544F3000S1000
G1 X5.622F5000S0
G1 X0.934F3000S1000
G0 X1.25
G0 X0.019Y0.1
G0 X-1.25
G1 X-0.933
G1 X-5.62F5000S0
G1 X-2.531F3000S1000
G1 X-5.688F5000S0
G1 X-1.163F3000S1000
G1 X-0.74S0
G1 X-2.782S1000
G1 X-0.798S0
G1 X-2.016S1000
G1 X-1.667F5000S0
G1 X-0.93F3000S1000
G1 X-2.031F5000S0
G1 X-2.556F3000S1000
G1 X-2.36F5000S0
G1 X-2.768F3000S1000
G0 X-1.25
G0 X-0.078Y0.1
G0 X1.25
G1 X4.866
G1 X0.33S0
G1 X2.552S1000
G1 X2.064F5000S0
G1 X0.89F3000S1000
G1 X1.729F5000S0
G1 X1.99F3000S1000
G1 X0.732S0
G1 X2.766S1000
G1 X0.851S0
G1 X1.16S1000
G1 X5.682F5000S0
G1 X2.518F3000S1000
G1 X5.619F5000S0
G1 X0.886F3000S1000
G0 X1.25
G0 X-0.049Y0.1
G0 X-1.25
G1 X-0.818
G1 X-5.616F5000S0
G1 X-2.505F3000S1000
G1 X-5.681F5000S0
G1 X-1.156F3000S1000
G1 X-0.959S0
G1 X-2.744S1000
G1 X-0.671S0
G1 X-1.955S1000
G1 X-1.828F5000S0
G1 X-0.822F3000S1000
G1 X-1.79F5000S0
G1 X-8.1F3000S1000
G0 X-1.25
G0 X-0.038Y0.1
G0 X1.25
G1 X8.271
G1 X1.677F5000S0
G1 X0.721F3000S1000
G1 X1.958F5000S0
G1 X1.929F3000S1000
G1 X0.608S0
G1 X2.717S1000
G1 X1.066F5000S0
G1 X1.149F3000S1000
G1 X5.689F5000S0
G1 X2.493F3000S1000
G1 X5.607F5000S0
G1 X0.72F3000S1000
G0 X1.25
G0 X-0.146Y0.1
G0 X-1.25
G1 X-0.553
G1 X-5.594F5000S0
G1 X-2.475F3000S1000
G1 X-5.707F5000S0
G1 X-1.142F3000S1000
G1 X-1.165F5000S0
G1 X-2.7F3000S1000
G1 X-0.541S0
G1 X-1.905S1000
G1 X-2.155F5000S0
G1 X-0.555F3000S1000
G1 X-1.599F5000S0
G1 X-8.397F3000S1000
G0 X-1.25
G0 X-0.015Y0.1
G0 X1.25
G1 X8.467
G1 X4.303F5000S0
G1 X1.882F3000S1000
G1 X0.475S0
G1 X2.681S1000
G1 X1.258F5000S0
G1 X1.142F3000S1000
G1 X5.724F5000S0
G1 X2.457F3000S1000
G0 X1.25
G0 X0.035Y0.1
G0 X-1.25
G1 X-2.44
G1 X-5.743F5000S0
G1 X-1.141F3000S1000
G1 X-1.35F5000S0
G1 X-2.663F3000S1000
G1 X-0.409S0
G1 X-1.849S1000
G1 X-4.312F5000S0
G1 X-8.519F3000S1000
G0 X-1.25
G0 Y0.1
G0 X1.254
G1 X8.535
G1 X4.353F5000S0
G1 X1.815F3000S1000
G1 X0.341S0
G1 X2.645S1000
G1 X1.443F5000S0
G1 X1.134F3000S1000
G1 X5.767F5000S0
G1 X2.435F3000S1000
G0 X1.25
G0 X0.046Y0.1
G0 X-1.25
G1 X-2.429
G1 X-5.791F5000S0
G1 X-1.133F3000S1000
G1 X-1.53F5000S0
G1 X-2.627F3000S1000
G1 X-0.263S0
G1 X-1.791S1000
G1 X-4.395F5000S0
G1 X-8.533F3000S1000
G0 X-1.25
G0 X0.03Y0.1
G0 X1.25
G1 X8.512
G1 X4.448F5000S0
G1 X1.766F3000S1000
G1 X0.185S0
G1 X2.61S1000
G1 X1.614F5000S0
G1 X1.134F3000S1000
G1 X5.829F5000S0
G1 X2.409F3000S1000
G0 X1.25
G0 X0.057Y0.1
G0 X-1.25
G1 X-2.395
G1 X-5.873F5000S0
G1 X-1.136F3000S1000
G1 X-0.728S0
G1 X-0.114S1000
G1 X-0.85S0
G1 X-2.597S1000
G1 X-0.107S0
G1 X-1.736S1000
G1 X-4.509F5000S0
G1 X-8.475F3000S1000
G0 X-1.25
G0 X0.065Y0.1
G0 X1.25
G1 X8.401
G1 X4.593F5000S0
G1 X1.698F3000S1000
G1 X0.029S0
G1 X2.588S1000
G1 X0.838S0
G1 X0.387S1000
G1 X0.542S0
G1 X2.369S1000
G1 X4.685F5000S0
G1 X2.384F3000S1000
G0 X1.25
G0 X0.059Y0.1
G0 X-1.25
G1 X-2.372
G1 X-4.497F5000S0
G1 X-3.618F3000S1000
G1 X-0.828S0
G1 X-4.188S1000
G1 X-4.683F5000S0
G1 X-8.304F3000S1000
G0 X-1.25
G0 X0.114Y0.1
G0 X1.25
G1 X8.162
G1 X4.786F5000S0
G1 X4.063F3000S1000
G1 X0.838S0
G1 X3.834S1000
G1 X4.392F5000S0
G1 X2.371F3000S1000
G0 X1.25
G0 X0.074Y0.1
G0 X-1.25
G1 X-2.364
G1 X-4.358F5000S0
G1 X-3.98F3000S1000
G1 X-0.857S0
G1 X-3.93S1000
G1 X-4.907F5000S0
G1 X-7.959F3000S1000
G0 X-1.25
G0 X0.242Y0.1
G0 X1.25
G1 X7.665
G1 X5.05F5000S0
G1 X3.788F3000S1000
G1 X0.877S0
G1 X4.12S1000
G1 X4.344F5000S0
G1 X2.344F3000S1000
G0 X1.25
G0 X0.094Y0.1
G0 X-1.25
G1 X-2.344
G1 X-4.359F5000S0
G1 X-4.215F3000S1000
G1 X-0.909S0
G1 X-3.649S1000
G1 X-5.206F5000S0
G1 X-3.126F3000S1000
G1 X-1.786F5000S0
G1 X-1.356F3000S1000
G0 X-1.25
G0 X0.033Y0.1
G0 X1.25
G1 X1.352
G1 X1.753F5000S0
G1 X2.521F3000S1000
G1 X5.907F5000S0
G1 X3.514F3000S1000
G1 X0.947S0
G1 X4.289S1000
G1 X4.384F5000S0
G1 X2.355F3000S1000
G1 X0.434S0
G1 X1.163S1000
G0 X1.25
G0 X0.459Y0.1
G0 X-1.25
G1 X-4.317
G1 X-4.411F5000S0
G1 X-4.361F3000S1000
G1 X-0.984S0
G1 X-3.367S1000
G1 X-6.017F5000S0
G1 X-2.52F3000S1000
G1 X-1.721F5000S0
G1 X-1.346F3000S1000
G0 X-1.25
G0 X0.034Y0.1
G0 X1.25
G1 X1.34
G1 X1.689F5000S0
G1 X2.518F3000S1000
G1 X6.133F5000S0
G1 X3.214F3000S1000
G1 X1.029F5000S0
G1 X4.406F3000S1000
G1 X4.482F5000S0
G1 X4.41F3000S1000
G0 X1.25
G0 X0.143Y0.1
G0 X-1.25
G1 X-4.427
G1 X-4.561F5000S0
G1 X-4.433F3000S1000
G1 X-1.092F5000S0
G1 X-3.061F3000S1000
G1 X-6.248F5000S0
G1 X-2.517F3000S1000
G1 X-1.657F5000S0
G1 X-1.335F3000S1000
G0 X-1.25
G0 X0.034Y0.1
G0 X1.25
G1 X1.328
G1 X1.626F5000S0
G1 X2.516F3000S1000
G1 X6.371F5000S0
G1 X2.901F3000S1000
G1 X1.155F5000S0
G1 X4.459F3000S1000
G1 X4.639F5000S0
G1 X4.42F3000S1000
G0 X1.25
G0 X0.1Y0.1
G0 X-1.25
G1 X-4.395
G1 X-4.734F5000S0
G1 X-4.468F3000S1000
G1 X-1.219F5000S0
G1 X-2.725F3000S1000
G1 X-6.51F5000S0
G1 X-2.514F3000S1000
G1 X-1.595F5000S0
G1 X-1.322F3000S1000
G0 X-1.25
G0 X0.034Y0.1
G0 X1.25
G1 X1.315
G1 X1.564F5000S0
G1 X2.513F3000S1000
G1 X6.649F5000S0
G1 X2.642F3000S1000
G1 X1.208F5000S0
G1 X4.449F3000S1000
G1 X4.856F5000S0
G1 X4.316F3000S1000
G0 X1.25
G0 X0.039Y0.1
G0 X-1.25
G1 X-4.203
G1 X-4.988F5000S0
G1 X-4.428F3000S1000
G1 X-1.115F5000S0
G1 X-2.685F3000S1000
G1 X-6.745F5000S0
G1 X-2.512F3000S1000
G1 X-1.533F5000S0
G1 X-1.308F3000S1000
G0 X-1.25
G0 X0.033Y0.1
G0 X1.25
G1 X1.301
G1 X1.504F5000S0
G1 X2.51F3000S1000
G1 X6.726F5000S0
G1 X2.831F3000S1000
G1 X1.054F5000S0
G1 X4.387F3000S1000
G1 X4.86F5000S0
G1 X4.331F3000S1000
G0 X1.25
G0 X-0.01Y0.1
G0 X-1.25
G1 X-4.443
G1 X-4.741F5000S0
G1 X-4.308F3000S1000
G1 X-1.015F5000S0
G1 X-2.971F3000S1000
G1 X-6.707F5000S0
G1 X-2.507F3000S1000
G1 X-1.476F5000S0
G1 X-1.292F3000S1000
G0 X-1.25
G0 X0.033Y0.1
G0 X1.25
G1 X1.285
G1 X1.447F5000S0
G1 X2.505F3000S1000
G1 X6.687F5000S0
G1 X3.111F3000S1000
G1 X1.004F5000S0
G1 X4.201F3000S1000
G1 X4.625F5000S0
G1 X4.535F3000S1000
G0 X1.25
G0 X-0.048Y0.1
G0 X-1.25
G1 X-4.583
G1 X-4.533F5000S0
G1 X-4.068F3000S1000
G1 X-1.019F5000S0
G1 X-3.249F3000S1000
G1 X-6.668F5000S0
G1 X-2.503F3000S1000
G1 X-1.419F5000S0
G1 X-1.276F3000S1000
G0 X-1.25
G0 X0.034Y0.1
G0 X1.25
G1 X1.268
G1 X1.39F5000S0
G1 X2.5F3000S1000
G1 X6.649F5000S0
G1 X3.369F3000S1000
G1 X1.157F5000S0
G1 X3.826F3000S1000
G1 X4.447F5000S0
G1 X4.569F3000S1000
G0 X1.25
G0 X-0.133Y0.1
G0 X-1.25
G1 X-4.531
G1 X-4.38F5000S0
G1 X-2.107F3000S1000
G1 X-2.756F5000S0
G1 X-3.486F3000S1000
G1 X-6.629F5000S0
G1 X-2.498F3000S1000
G1 X-1.362F5000S0
G1 X-1.26F3000S1000
G0 X-1.25
G0 X0.032Y0.1
G0 X1.25
G1 X1.254
G1 X1.332F5000S0
G1 X2.497F3000S1000
G1 X6.61F5000S0
G1 X3.603F3000S1000
G1 X3.341F5000S0
G1 X1.4F3000S1000
G1 X4.335F5000S0
G1 X2.348F3000S1000
G1 X0.272S0
G1 X1.791S1000
G0 X1.25
G0 X-2.136Y0.1
G0 X-1.25
G1 X-2.346
G1 X-4.292F5000S0
G1 X-0.999F3000S1000
G1 X-3.622F5000S0
G1 X-1.332F3000S1000
G1 X-0.044S0
G1 X-2.34S1000
G1 X-6.595F5000S0
G1 X-2.494F3000S1000
G1 X-1.304F5000S0
G1 X-1.25F3000S1000
G0 X-1.25
G0 X0.029Y0.1
G0 X1.25
G1 X1.247
G1 X1.276F5000S0
G1 X2.491F3000S1000
G1 X6.584F5000S0
G1 X2.325F3000S1000
G1 X0.133S0
G1 X1.352S1000
G1 X3.774F5000S0
G1 X0.722F3000S1000
G1 X4.269F5000S0
G1 X2.35F3000S1000
G0 X1.25
G0 X-0.05Y0.1
G0 X-1.25
G1 X-2.366
G1 X-4.279F5000S0
G1 X-0.47F3000S1000
G1 X-3.876F5000S0
G1 X-1.369F3000S1000
G1 X-0.221S0
G1 X-2.311S1000
G1 X-6.57F5000S0
G1 X-2.491F3000S1000
G1 X-1.248F5000S0
G1 X-1.243F3000S1000
G0 X-1.25
G0 X0.029Y0.1
G0 X1.25
G1 X1.239
G1 X1.22F5000S0
G1 X2.491F3000S1000
G1 X6.556F5000S0
G1 X2.297F3000S1000
G1 X0.309S0
G1 X1.385S1000
G1 X3.953F5000S0
G1 X0.209F3000S1000
G1 X4.335F5000S0
G1 X2.371F3000S1000
G0 X1.25
G0 X-0.049Y0.1
G0 X-1.25
G1 X-2.378
G1 X-8.367F5000S0
G1 X-1.403F3000S1000
G1 X-0.393S0
G1 X-2.286S1000
G1 X-6.543F5000S0
G1 X-2.49F3000S1000
G1 X-1.191F5000S0
G1 X-1.236F3000S1000
G0 X-1.25
G0 X0.029Y0.1
G0 X1.25
G1 X1.232
G1 X1.164F5000S0
G1 X2.489F3000S1000
G1 X6.53F5000S0
G1 X2.276F3000S1000
G1 X0.463S0
G1 X1.428S1000
G1 X8.242F5000S0
G1 X2.384F3000S1000
G0 X1.25
G0 X-0.036Y0.1
G0 X-1.25
G1 X-2.395
G1 X-8.136F5000S0
G1 X-1.443F3000S1000
G1 X-0.533S0
G1 X-2.267S1000
G1 X-6.516F5000S0
G1 X-2.489F3000S1000
G1 X-1.135F5000S0
G1 X-1.23F3000S1000
G0 X-1.25
G0 X0.029Y0.1
G0 X1.25
G1 X1.226
G1 X1.107F5000S0
G1 X2.489F3000S1000
G1 X6.502F5000S0
G1 X2.257F3000S1000
G1 X0.604S0
G1 X1.457S1000
G1 X8.036F5000S0
G1 X2.402F3000S1000
G0 X1.25
G0 X-0.034Y0.1
G0 X-1.25
G1 X-2.411
G1 X-7.935F5000S0
G1 X-1.471F3000S1000
G1 X-0.674S0
G1 X-2.242S1000
G1 X-6.494F5000S0
G1 X-2.489F3000S1000
G1 X-1.078F5000S0
G1 X-1.223F3000S1000
G0 X-1.25
G0 X0.029Y0.1
G0 X1.25
G1 X1.219
G1 X1.05F5000S0
G1 X2.488F3000S1000
G1 X6.489F5000S0
G1 X2.225F3000S1000
G1 X0.739S0
G1 X1.491S1000
G1 X7.834F5000S0
G1 X2.418F3000S1000
G0 X1.25
G0 X-0.03Y0.1
G0 X-1.25
G1 X-2.421
G1 X-7.75F5000S0
G1 X-1.51F3000S1000
G1 X-0.798S0
G1 X-2.207S1000
G1 X-6.483F5000S0
G1 X-2.487F3000S1000
G1 X-1.022F5000S0
G1 X-1.216F3000S1000
G0 X-1.25
G0 X0.029Y0.1
G0 X1.25
G1 X1.212
G1 X0.994S0
G1 X2.487S1000
G1 X6.477F5000S0
G1 X2.195F3000S1000
G1 X0.851S0
G1 X1.522S1000
G1 X7.675F5000S0
G1 X2.431F3000S1000
G0 X1.25
G0 X-0.021Y0.1
G0 X-1.25
G1 X-2.44
G1 X-7.6F5000S0
G1 X-1.536F3000S1000
G1 X-0.901S0
G1 X-2.185S1000
G1 X-6.471F5000S0
G1 X-2.487F3000S1000
G1 X-0.966S0
G1 X-1.209S1000
G0 X-1.25
G0 X0.029Y0.1
G0 X1.25
G1 X1.206
G1 X0.937S0
G1 X2.486S1000
G1 X6.466F5000S0
G1 X2.176F3000S1000
G1 X0.951S0
G1 X1.549S1000
G1 X7.525F5000S0
G1 X2.449F3000S1000
G0 X1.25
G0 X-0.02Y0.1
G0 X-1.25
G1 X-2.451
G1 X-7.459F5000S0
G1 X-1.568F3000S1000
G1 X-0.995S0
G1 X-2.166S1000
G1 X-6.46F5000S0
G1 X-2.485F3000S1000
G1 X-0.91S0
G1 X-1.202S1000
G0 X-1.25
G0 X0.024Y0.1
G0 X1.25
G1 X1.204
G1 X0.881S0
G1 X2.485S1000
G1 X6.454F5000S0
G1 X2.156F3000S1000
G1 X1.035F5000S0
G1 X1.586F3000S1000
G1 X7.401F5000S0
G1 X2.456F3000S1000
G1 X2.26F5000S0
G1 X0.659F3000S1000
G0 X1.25
G0 X0.268Y0.1
G0 X-1.25
G1 X-1.2
G1 X-1.994F5000S0
G1 X-2.468F3000S1000
G1 X-7.349F5000S0
G1 X-1.599F3000S1000
G1 X-1.074F5000S0
G1 X-2.14F3000S1000
G1 X-6.454F5000S0
G1 X-2.485F3000S1000
G1 X-0.853S0
G1 X-1.205S1000
G0 X-1.25
G0 X0.024Y0.1
G0 X1.25
G1 X1.207
G1 X0.824S0
G1 X2.485S1000
G1 X6.456F5000S0
G1 X2.122F3000S1000
G1 X1.114F5000S0
G1 X1.61F3000S1000
G1 X7.298F5000S0
G1 X2.479F3000S1000
G1 X1.835F5000S0
G1 X1.537F3000S1000
G0 X1.25
G0 X0.134Y0.1
G0 X-1.25
G1 X-1.798
G1 X-1.716F5000S0
G1 X-2.484F3000S1000
G1 X-7.253F5000S0
G1 X-1.621F3000S1000
G1 X-1.151F5000S0
G1 X-2.108F3000S1000
G1 X-6.457F5000S0
G1 X-2.485F3000S1000
G1 X-0.797S0
G1 X-1.207S1000
G0 X-1.25
G0 X0.025Y0.1
G0 X1.25
G1 X1.207
G1 X0.77S0
G1 X2.485S1000
G1 X6.458F5000S0
G1 X2.096F3000S1000
G1 X1.179F5000S0
G1 X1.638F3000S1000
G1 X7.213F5000S0
G1 X2.484F3000S1000
G1 X1.701F5000S0
G1 X1.911F3000S1000
G0 X1.25
G0 X0.089Y0.1
G0 X-1.25
G1 X-1.965
G1 X-1.74F5000S0
G1 X-2.489F3000S1000
G1 X-7.173F5000S0
G1 X-1.655F3000S1000
G1 X-1.207F5000S0
G1 X-2.084F3000S1000
G1 X-6.457F5000S0
G1 X-2.487F3000S1000
G1 X-0.742S0
G1 X-1.208S1000
G0 X-1.25
G0 X0.024Y0.1
G0 X1.25
G1 X1.209
G1 X0.714S0
G1 X2.489S1000
G1 X6.457F5000S0
G1 X2.071F3000S1000
G1 X1.234F5000S0
G1 X1.662F3000S1000
G1 X7.145F5000S0
G1 X2.494F3000S1000
G1 X1.779F5000S0
G1 X2.001F3000S1000
G0 X1.25
G0 X0.07Y0.1
G0 X-1.25
G1 X-2.036
G1 X-1.816F5000S0
G1 X-2.496F3000S1000
G1 X-7.12F5000S0
G1 X-1.673F3000S1000
G1 X-1.252F5000S0
G1 X-2.064F3000S1000
G1 X-6.457F5000S0
G1 X-2.491F3000S1000
G1 X-0.687S0
G1 X-1.209S1000
G0 X-1.25
G0 X0.024Y0.1
G0 X1.25
G1 X1.21
G1 X0.66S0
G1 X2.492S1000
G1 X6.456F5000S0
G1 X2.062F3000S1000
G1 X1.257F5000S0
G1 X1.693F3000S1000
G1 X7.102F5000S0
G1 X2.49F3000S1000
G1 X1.855F5000S0
G1 X2.059F3000S1000
G0 X1.25
G0 X0.055Y0.1
G0 X-1.25
G1 X-2.079
G1 X-1.893F5000S0
G1 X-2.485F3000S1000
G1 X-7.084F5000S0
G1 X-1.712F3000S1000
G1 X-1.263F5000S0
G1 X-2.049F3000S1000
G1 X-6.465F5000S0
G1 X-2.494F3000S1000
G1 X-0.632S0
G1 X-1.21S1000
G0 X-1.25
G0 X0.024Y0.1
G0 X1.25
G1 X1.21
G1 X0.605S0
G1 X2.496S1000
G1 X6.474F5000S0
G1 X2.036F3000S1000
G1 X1.269F5000S0
G1 X1.732F3000S1000
G1 X7.066F5000S0
G1 X2.487F3000S1000
G1 X1.91F5000S0
G1 X2.107F3000S1000
G0 X1.25
G0 X0.041Y0.1
G0 X-1.25
G1 X-2.128
G1 X-1.924F5000S0
G1 X-2.49F3000S1000
G1 X-7.057F5000S0
G1 X-1.752F3000S1000
G1 X-1.259F5000S0
G1 X-2.029F3000S1000
G1 X-6.484F5000S0
G1 X-2.498F3000S1000
G1 X-0.577S0
G1 X-1.211S1000
G0 X-1.25
G0 X0.024Y0.1
G0 X1.25
G1 X1.212
G1 X0.549S0
G1 X2.499S1000
G1 X6.495F5000S0
G1 X2.024F3000S1000
G1 X1.244F5000S0
G1 X1.773F3000S1000
G1 X7.061F5000S0
G1 X2.481F3000S1000
G1 X1.939F5000S0
G1 X2.148F3000S1000
G0 X1.25
G0 X0.031Y0.1
G0 X-1.25
G1 X-2.158
G1 X-1.954F5000S0
G1 X-2.474F3000S1000
G1 X-7.065F5000S0
G1 X-1.793F3000S1000
G1 X-1.229F5000S0
G1 X-2.02F3000S1000
G1 X-6.504F5000S0
G1 X-2.5F3000S1000
G1 X-0.522S0
G1 X-1.213S1000
G0 X-1.25
G0 X0.024Y0.1
G0 X1.25
G1 X1.213
G1 X0.495S0
G1 X2.502S1000
G1 X6.523F5000S0
G1 X2.006F3000S1000
G1 X1.209F5000S0
G1 X1.819F3000S1000
G1 X7.069F5000S0
G1 X2.468F3000S1000
G1 X1.966F5000S0
G1 X2.166F3000S1000
G0 X1.25
G0 X0.027Y0.1
G0 X-1.25
G1 X-2.175
G1 X-1.97F5000S0
G1 X-2.469F3000S1000
G1 X-7.073F5000S0
G1 X-1.852F3000S1000
G1 X-1.174F5000S0
G1 X-1.993F3000S1000
G1 X-6.548F5000S0
G1 X-2.504F3000S1000
G1 X-0.467S0
G1 X-1.216S1000
G0 X-1.25
G0 X0.019Y0.1
G0 X1.25
G1 X1.222
G1 X0.439S0
G1 X2.506S1000
G1 X6.573F5000S0
G1 X1.982F3000S1000
G1 X1.138F5000S0
G1 X1.884F3000S1000
G1 X7.086F5000S0
G1 X2.461F3000S1000
G1 X1.962F5000S0
G1 X2.185F3000S1000
G0 X1.25
G0 X0.016Y0.1
G0 X-1.25
G1 X-2.195
G1 X-1.954F5000S0
G1 X-2.453F3000S1000
G1 X-7.108F5000S0
G1 X-1.908F3000S1000
G1 X-1.101F5000S0
G1 X-1.97F3000S1000
G1 X-6.599F5000S0
G1 X-2.507F3000S1000
G1 X-0.412S0
G1 X-1.227S1000
G0 X-1.25
G0 X0.019Y0.1
G0 X1.25
G1 X1.232
G1 X0.385S0
G1 X2.509S1000
G1 X6.624F5000S0
G1 X1.96F3000S1000
G1 X1.042F5000S0
G1 X1.954F3000S1000
G1 X7.13F5000S0
G1 X2.444F3000S1000
G1 X1.945F5000S0
G1 X2.201F3000S1000
G0 X1.25
G0 Y0.1
G0 X-1.246
G1 X-2.199
G1 X-1.931F5000S0
G1 X-2.441F3000S1000
G1 X-7.161F5000S0
G1 X-1.991F3000S1000
G1 X-0.974S0
G1 X-1.952S1000
G1 X-6.656F5000S0
G1 X-2.511F3000S1000
G1 X-0.357S0
G1 X-1.237S1000
G0 X-1.25
G0 X0.02Y0.1
G0 X1.25
G1 X1.242
G1 X0.329S0
G1 X2.513S1000
G1 X6.698F5000S0
G1 X1.948F3000S1000
G1 X0.861S0
G1 X2.056S1000
G1 X7.199F5000S0
G1 X2.436F3000S1000
G1 X1.915F5000S0
G1 X2.198F3000S1000
G0 X1.25
G0 Y0.1
G0 X-1.254
G1 X-2.192
G1 X-1.894F5000S0
G1 X-2.423F3000S1000
G1 X-7.25F5000S0
G1 X-2.125F3000S1000
G1 X-0.721S0
G1 X-1.963S1000
G1 X-6.738F5000S0
G1 X-2.517F3000S1000
G1 X-0.302S0
G1 X-1.247S1000
G0 X-1.25
G0 X0.02Y0.1
G0 X1.25
G1 X1.252
G1 X0.275S0
G1 X2.52S1000
G1 X6.779F5000S0
G1 X2.007F3000S1000
G1 X0.493S0
G1 X2.244S1000
G1 X7.309F5000S0
G1 X2.409F3000S1000
G1 X1.863F5000S0
G1 X2.195F3000S1000
G0 X1.25
G0 X-0.007Y0.1
G0 X-1.25
G1 X-2.196
G1 X-1.832F5000S0
G1 X-2.396F3000S1000
G1 X-7.368F5000S0
G1 X-2.454F3000S1000
G1 X-0.102S0
G1 X-2.124S1000
G1 X-6.819F5000S0
G1 X-2.524F3000S1000
G1 X-0.247S0
G1 X-1.257S1000
G0 X-1.25
G0 X0.019Y0.1
G0 X1.25
G1 X1.263
G1 X0.219S0
G1 X2.528S1000
G1 X6.868F5000S0
G1 X4.595F3000S1000
G1 X7.439F5000S0
G1 X2.39F3000S1000
G1 X1.794F5000S0
G1 X2.186F3000S1000
G0 X1.25
G0 X-0.019Y0.1
G0 X-1.25
G1 X-2.176
G1 X-1.755F5000S0
G1 X-2.37F3000S1000
G1 X-7.523F5000S0
G1 X-4.501F3000S1000
G1 X-6.927F5000S0
G1 X-2.532F3000S1000
G1 X-0.192S0
G1 X-1.267S1000
G0 X-1.25
G0 X0.019Y0.1
G0 X1.25
G1 X1.273
G1 X0.165S0
G1 X2.535S1000
G1 X6.986F5000S0
G1 X4.395F3000S1000
G1 X7.62F5000S0
G1 X2.356F3000S1000
G1 X1.71F5000S0
G1 X2.165F3000S1000
G0 X1.25
G0 X-0.019Y0.1
G0 X-1.25
G1 X-2.159
G1 X-1.655F5000S0
G1 X-2.348F3000S1000
G1 X-7.717F5000S0
G1 X-4.287F3000S1000
G1 X-7.046F5000S0
G1 X-2.539F3000S1000
G1 X-0.137S0
G1 X-1.278S1000
G0 X-1.25
G0 X0.02Y0.1
G0 X1.25
G1 X1.286
G1 X0.106S0
G1 X2.543S1000
G1 X7.105F5000S0
G1 X4.169F3000S1000
G1 X7.826F5000S0
G1 X2.342F3000S1000
G1 X1.589F5000S0
G1 X2.151F3000S1000
G0 X1.25
G0 X-0.038Y0.1
G0 X-1.25
G1 X-2.138
G1 X-1.51F5000S0
G1 X-2.332F3000S1000
G1 X-7.953F5000S0
G1 X-4.023F3000S1000
G1 X-7.187F5000S0
G1 X-2.568F3000S1000
G1 X-1.349
G0 X-1.25
G0 X0.02Y0.1
G0 X1.25
G1 X3.898
G1 X7.271F5000S0
G1 X3.864F3000S1000
G1 X8.094F5000S0
G1 X2.32F3000S1000
G1 X1.414F5000S0
G1 X2.142F3000S1000
G0 X1.25
G0 X-0.038Y0.1
G0 X-1.25
G1 X-2.15
G1 X-1.299F5000S0
G1 X-2.323F3000S1000
G1 X-8.239F5000S0
G1 X-3.667F3000S1000
G1 X-7.389F5000S0
G1 X-3.881F3000S1000
G0 X-1.25
G0 X0.018Y0.1
G0 X1.25
G1 X3.864
G1 X7.525F5000S0
G1 X3.434F3000S1000
G1 X8.403F5000S0
G1 X2.324F3000S1000
G1 X1.166F5000S0
G1 X2.166F3000S1000
G0 X1.25
G0 X-0.059Y0.1
G0 X-1.25
G1 X-2.183
G1 X-0.989S0
G1 X-2.339S1000
G1 X-8.596F5000S0
G1 X-1.768F3000S1000
G1 X-0.148S0
G1 X-1.233S1000
G1 X-7.702F5000S0
G1 X-3.847F3000S1000
G0 X-1.25
G0 X0.017Y0.1
G0 X1.25
G1 X3.831
G1 X8.01F5000S0
G1 X0.657F3000S1000
G1 X0.525S0
G1 X1.508S1000
G1 X8.831F5000S0
G1 X2.361F3000S1000
G1 X0.787S0
G1 X2.22S1000
G0 X1.25
G0 X-0.059Y0.1
G0 X-1.25
G1 X-2.409
G1 X-0.302S0
G1 X-2.512S1000
G1 X-9.124F5000S0
G1 X-1.093F3000S1000
G1 X-9.399F5000S0
G1 X-3.814F3000S1000
G0 X-1.25
G0 X0.018Y0.1
G0 X1.25
G1 X3.797
G1 X9.984F5000S0
G1 X0.063F3000S1000
G1 X9.667F5000S0
G1 X5.046F3000S1000
G0 X1.25
G0 X-0.085Y0.1
G0 X-1.25
G1 X-4.852
G1 X-19.83F5000S0
G1 X-3.772F3000S1000
G0 X-1.25
G0 X0.017Y0.1
G0 X1.25
G1 X3.733
G1 X19.961F5000S0
G1 X4.659F3000S1000
G0 X1.25
G0 X-0.101Y0.1
G0 X-1.25
G1 X-4.434
G1 X-20.119F5000S0
G1 X-3.68F3000S1000
G0 X-1.25
G0 X0.018Y0.1
G0 X1.25
G1 X3.609
G1 X20.313F5000S0
G1 X4.176F3000S1000
G0 X1.25
G0 X-0.118Y0.1
G0 X-1.25
G1 X-3.918
G1 X-20.522F5000S0
G1 X-3.391F3000S1000
G0 X-1.25
G0 X0.205Y0.1
G0 X1.25
G1 X3.089
G1 X20.794F5000S0
G1 X3.587F3000S1000
G0 X1.25
G0 X-0.169Y0.1
G0 X-1.25
G1 X-3.235
G1 X-21.128F5000S0
G1 X-2.683F3000S1000
G0 X-1.25
G0 X0.293Y0.1
G0 X1.25
G1 X2.133
G1 X21.644F5000S0
G1 X2.755F3000S1000
G0 X1.25
G0 X-0.264Y0.1
G0 X-1.25
G1 X-2.175
G1 X-22.321F5000S0
G1 X-1.307F3000S1000
G0 X-1.25
G0 X24.161Y0.1
G0 X1.25
G1 X1.025
G0 X1.25
G0 X-92.743Y101.5
G0 X-1.25
G1 X-1.547
G0 X-1.25
G0 X-0.324Y0.1
G0 X1.25
G1 X2.288
G0 X1.25
G0 X0.298Y0.1
G0 X-1.25
G1 X-2.826
G1 X-21.953F5000S0
G1 X-1.533F3000S1000
G0 X-1.25
G0 X-0.437Y0.1
G0 X1.25
G1 X2.401
G1 X21.379F5000S0
G1 X3.193F3000S1000
G0 X1.25
G0 X0.21Y0.1
G0 X-1.25
G1 X-3.499
G1 X-20.955F5000S0
G1 X-2.986F3000S1000
G0 X-1.25
G0 X-0.197Y0.1
G0 X1.25
G1 X3.372
G1 X20.7F5000S0
G1 X3.622F3000S1000
G0 X1.25
G0 X0.018Y0.1
G0 X-1.25
G1 X-3.691
G1 X-20.462F5000S0
G1 X-3.725F3000S1000
G0 X-1.25
G0 X-0.145Y0.1
G0 X1.25
G1 X4.021
G1 X20.276F5000S0
G1 X3.744F3000S1000
G0 X1.25
G0 X0.018Y0.1
G0 X-1.25
G1 X-3.782
G1 X-20.114F5000S0
G1 X-4.28F3000S1000
G0 X-1.25
G0 X-0.116Y0.1
G0 X1.25
G1 X4.533
G1 X19.97F5000S0
G1 X3.806F3000S1000
G0 X1.25
G0 X0.018Y0.1
G0 X-1.25
G1 X-3.823
G1 X-19.86F5000S0
G1 X-4.74F3000S1000
G0 X-1.25
G0 X-0.084Y0.1
G0 X1.25
G1 X4.934
G1 X9.318F5000S0
G1 X1.009F3000S1000
G1 X9.424F5000S0
G1 X3.84F3000S1000
G0 X1.25
G0 X0.018Y0.1
G0 X-1.25
G1 X-3.857
G1 X-7.963F5000S0
G1 X-0.708F3000S1000
G1 X-0.532S0
G1 X-1.457S1000
G1 X-8.984F5000S0
G1 X-5.125F3000S1000
G0 X-1.25
G0 X-0.076Y0.1
G0 X1.25
G1 X2.312
G1 X0.531S0
G1 X2.445S1000
G1 X8.743F5000S0
G1 X1.727F3000S1000
G1 X0.154S0
G1 X1.26S1000
G1 X7.674F5000S0
G1 X3.873F3000S1000
G0 X1.25
G0 X0.018Y0.1
G0 X-1.25
G1 X-3.89
G1 X-7.499F5000S0
G1 X-3.435F3000S1000
G1 X-8.539F5000S0
G1 X-2.364F3000S1000
G1 X-0.876S0
G1 X-2.192S1000
G0 X-1.25
G0 X-0.059Y0.1
G0 X1.25
G1 X2.157
G1 X1.074F5000S0
G1 X2.347F3000S1000
G1 X8.354F5000S0
G1 X3.664F3000S1000
G1 X7.369F5000S0
G1 X3.908F3000S1000
G0 X1.25
G0 X0.019Y0.1
G0 X-1.25
G1 X-1.316
G1 X-0.059S0
G1 X-2.551S1000
G1 X-7.258F5000S0
G1 X-3.857F3000S1000
G1 X-8.2F5000S0
G1 X-2.342F3000S1000
G1 X-1.217F5000S0
G1 X-2.15F3000S1000
G0 X-1.25
G0 X-0.046Y0.1
G0 X1.25
G1 X2.134
G1 X1.348F5000S0
G1 X2.34F3000S1000
G1 X8.055F5000S0
G1 X4.022F3000S1000
G1 X7.172F5000S0
G1 X2.541F3000S1000
G1 X0.118S0
G1 X1.286S1000
G0 X1.25
G0 X0.02Y0.1
G0 X-1.25
G1 X-1.279
G1 X-0.148S0
G1 X-2.537S1000
G1 X-7.095F5000S0
G1 X-4.162F3000S1000
G1 X-7.925F5000S0
G1 X-2.345F3000S1000
G1 X-1.452F5000S0
G1 X-2.131F3000S1000
G0 X-1.25
G0 X-0.037Y0.1
G0 X1.25
G1 X2.128
G1 X1.547F5000S0
G1 X2.357F3000S1000
G1 X7.796F5000S0
G1 X4.285F3000S1000
G1 X7.035F5000S0
G1 X2.534F3000S1000
G1 X0.175S0
G1 X1.273S1000
G0 X1.25
G0 X0.02Y0.1
G0 X-1.25
G1 X-1.269
G1 X-0.202S0
G1 X-2.53S1000
G1 X-6.975F5000S0
G1 X-4.393F3000S1000
G1 X-7.697F5000S0
G1 X-2.357F3000S1000
G1 X-1.619F5000S0
G1 X-2.146F3000S1000
G0 X-1.25
G0 X-0.028Y0.1
G0 X1.25
G1 X2.154
G1 X1.681F5000S0
G1 X2.366F3000S1000
G1 X7.598F5000S0
G1 X4.502F3000S1000
G1 X6.914F5000S0
G1 X2.527F3000S1000
G1 X0.23S0
G1 X1.264S1000
G0 X1.25
G0 X0.019Y0.1
G0 X-1.25
G1 X-1.258
G1 X-0.258S0
G1 X-2.523S1000
G1 X-6.855F5000S0
G1 X-4.598F3000S1000
G1 X-7.511F5000S0
G1 X-2.375F3000S1000
G1 X-1.733F5000S0
G1 X-2.163F3000S1000
G0 X-1.25
G0 X-0.019Y0.1
G0 X1.25
G1 X2.173
G1 X1.773F5000S0
G1 X2.395F3000S1000
G1 X7.426F5000S0
G1 X2.451F3000S1000
G1 X0.088S0
G1 X2.139S1000
G1 X6.81F5000S0
G1 X2.52F3000S1000
G1 X0.285S0
G1 X1.253S1000
G0 X1.25
G0 X0.02Y0.1
G0 X-1.25
G1 X-1.249
G1 X-0.312S0
G1 X-2.516S1000
G1 X-6.769F5000S0
G1 X-2.017F3000S1000
G1 X-0.485S0
G1 X-2.246S1000
G1 X-7.36F5000S0
G1 X-2.403F3000S1000
G1 X-1.811F5000S0
G1 X-2.184F3000S1000
G0 X-1.25
G0 X-0.018Y0.1
G0 X1.25
G1 X2.194
G1 X1.846F5000S0
G1 X2.413F3000S1000
G1 X7.301F5000S0
G1 X2.127F3000S1000
G1 X0.712S0
G1 X1.972S1000
G1 X6.729F5000S0
G1 X2.512F3000S1000
G1 X0.34S0
G1 X1.243S1000
G0 X1.25
G0 X0.02Y0.1
G0 X-1.25
G1 X-1.238
G1 X-0.368S0
G1 X-2.509S1000
G1 X-6.688F5000S0
G1 X-1.957F3000S1000
G1 X-0.854S0
G1 X-2.06S1000
G1 X-7.246F5000S0
G1 X-2.427F3000S1000
G1 X-1.877F5000S0
G1 X-2.191F3000S1000
G0 X-1.25
G0 X-0.007Y0.1
G0 X1.25
G1 X2.19
G1 X1.908F5000S0
G1 X2.44F3000S1000
G1 X7.199F5000S0
G1 X1.992F3000S1000
G1 X0.969S0
G1 X1.963S1000
G1 X6.645F5000S0
G1 X2.507F3000S1000
G1 X0.396S0
G1 X1.233S1000
G0 X1.25
G0 X0.019Y0.1
G0 X-1.25
G1 X-1.227
G1 X-0.423S0
G1 X-2.507S1000
G1 X-6.617F5000S0
G1 X-1.965F3000S1000
G1 X-1.038F5000S0
G1 X-1.958F3000S1000
G1 X-7.158F5000S0
G1 X-2.447F3000S1000
G1 X-1.925F5000S0
G1 X-2.199F3000S1000
G0 X-1.25
G0 Y0.1
G0 X1.254
G1 X2.201
G1 X1.941F5000S0
G1 X2.448F3000S1000
G1 X7.135F5000S0
G1 X1.913F3000S1000
G1 X1.096F5000S0
G1 X1.977F3000S1000
G1 X6.591F5000S0
G1 X2.505F3000S1000
G1 X0.45S0
G1 X1.223S1000
G0 X1.25
G0 X0.02Y0.1
G0 X-1.25
G1 X-1.218
G1 X-0.478S0
G1 X-2.503S1000
G1 X-6.566F5000S0
G1 X-1.988F3000S1000
G1 X-1.135F5000S0
G1 X-1.887F3000S1000
G1 X-7.112F5000S0
G1 X-2.455F3000S1000
G1 X-1.952F5000S0
G1 X-2.201F3000S1000
G0 X-1.25
G0 X0.011Y0.1
G0 X1.25
G1 X2.196
G1 X1.96F5000S0
G1 X2.463F3000S1000
G1 X7.096F5000S0
G1 X1.858F3000S1000
G1 X1.172F5000S0
G1 X1.999F3000S1000
G1 X6.54F5000S0
G1 X2.501F3000S1000
G1 X0.506S0
G1 X1.216S1000
G0 X1.25
G0 X0.025Y0.1
G0 X-1.25
G1 X-1.216
G1 X-0.533S0
G1 X-2.5S1000
G1 X-6.515F5000S0
G1 X-2.013F3000S1000
G1 X-1.206F5000S0
G1 X-1.825F3000S1000
G1 X-7.082F5000S0
G1 X-2.472F3000S1000
G1 X-1.968F5000S0
G1 X-2.186F3000S1000
G0 X-1.25
G0 X0.016Y0.1
G0 X1.25
G1 X2.178
G1 X1.973F5000S0
G1 X2.473F3000S1000
G1 X7.078F5000S0
G1 X1.798F3000S1000
G1 X1.227F5000S0
G1 X2.022F3000S1000
G1 X6.501F5000S0
G1 X2.498F3000S1000
G1 X0.561S0
G1 X1.215S1000
G0 X1.25
G0 X0.024Y0.1
G0 X-1.25
G1 X-1.215
G1 X-0.588S0
G1 X-2.496S1000
G1 X-6.491F5000S0
G1 X-2.027F3000S1000
G1 X-1.242F5000S0
G1 X-1.778F3000S1000
G1 X-7.073F5000S0
G1 X-2.474F3000S1000
G1 X-1.966F5000S0
G1 X-2.171F3000S1000
G0 X-1.25
G0 X0.028Y0.1
G0 X1.25
G1 X2.163
G1 X1.951F5000S0
G1 X2.482F3000S1000
G1 X7.07F5000S0
G1 X1.757F3000S1000
G1 X1.258F5000S0
G1 X2.031F3000S1000
G1 X6.48F5000S0
G1 X2.495F3000S1000
G1 X0.616S0
G1 X1.214S1000
G0 X1.25
G0 X0.025Y0.1
G0 X-1.25
G1 X-1.214
G1 X-0.644S0
G1 X-2.493S1000
G1 X-6.471F5000S0
G1 X-2.038F3000S1000
G1 X-1.269F5000S0
G1 X-1.738F3000S1000
G1 X-7.066F5000S0
G1 X-2.489F3000S1000
G1 X-1.936F5000S0
G1 X-2.152F3000S1000
G0 X-1.25
G0 X0.04Y0.1
G0 X1.25
G1 X2.132
G1 X1.921F5000S0
G1 X2.49F3000S1000
G1 X7.08F5000S0
G1 X1.719F3000S1000
G1 X1.263F5000S0
G1 X2.052F3000S1000
G1 X6.461F5000S0
G1 X2.492F3000S1000
G1 X0.671S0
G1 X1.213S1000
G0 X1.25
G0 X0.024Y0.1
G0 X-1.25
G1 X-1.212
G1 X-0.699S0
G1 X-2.49S1000
G1 X-6.455F5000S0
G1 X-2.062F3000S1000
G1 X-1.257F5000S0
G1 X-1.699F3000S1000
G1 X-7.098F5000S0
G1 X-2.487F3000S1000
G1 X-1.907F5000S0
G1 X-2.111F3000S1000
G0 X-1.25
G0 X0.052Y0.1
G0 X1.25
G1 X2.086
G1 X1.881F5000S0
G1 X2.488F3000S1000
G1 X7.117F5000S0
G1 X1.679F3000S1000
G1 X1.252F5000S0
G1 X2.064F3000S1000
G1 X6.456F5000S0
G1 X2.488F3000S1000
G1 X0.726S0
G1 X1.212S1000
G0 X1.25
G0 X0.025Y0.1
G0 X-1.25
G1 X-1.212
G1 X-0.754S0
G1 X-2.486S1000
G1 X-6.456F5000S0
G1 X-2.071F3000S1000
G1 X-1.235F5000S0
G1 X-1.668F3000S1000
G1 X-7.134F5000S0
G1 X-2.494F3000S1000
G1 X-1.843F5000S0
G1 X-2.067F3000S1000
G0 X-1.25
G0 X0.061Y0.1
G0 X1.25
G1 X2.042
G1 X1.804F5000S0
G1 X2.494F3000S1000
G1 X7.158F5000S0
G1 X1.66F3000S1000
G1 X1.208F5000S0
G1 X2.083F3000S1000
G1 X6.457F5000S0
G1 X2.485F3000S1000
G1 X0.781S0
G1 X1.211S1000
G0 X1.25
G0 X0.024Y0.1
G0 X-1.25
G1 X-1.21
G1 X-0.809S0
G1 X-2.483S1000
G1 X-6.457F5000S0
G1 X-2.096F3000S1000
G1 X-1.181F5000S0
G1 X-1.646F3000S1000
G1 X-7.193F5000S0
G1 X-2.489F3000S1000
G1 X-1.765F5000S0
G1 X-2.007F3000S1000
G0 X-1.25
G0 X0.074Y0.1
G0 X1.25
G1 X1.968
G1 X1.728F5000S0
G1 X2.483F3000S1000
G1 X7.233F5000S0
G1 X1.629F3000S1000
G1 X1.153F5000S0
G1 X2.108F3000S1000
G1 X6.455F5000S0
G1 X2.483F3000S1000
G1 X0.837S0
G1 X1.209S1000
G0 X1.25
G0 X0.025Y0.1
G0 X-1.25
G1 X-1.208
G1 X-0.866S0
G1 X-2.484S1000
G1 X-6.453F5000S0
G1 X-2.122F3000S1000
G1 X-1.116F5000S0
G1 X-1.618F3000S1000
G1 X-7.273F5000S0
G1 X-2.482F3000S1000
G1 X-1.685F5000S0
G1 X-1.915F3000S1000
G0 X-1.25
G0 X0.096Y0.1
G0 X1.25
G1 X1.755
G1 X1.741F5000S0
G1 X2.479F3000S1000
G1 X7.317F5000S0
G1 X1.606F3000S1000
G1 X1.076F5000S0
G1 X2.14F3000S1000
G1 X6.451F5000S0
G1 X2.485F3000S1000
G1 X0.893S0
G1 X1.207S1000
G0 X1.25
G0 X0.026Y0.1
G0 X-1.25
G1 X-1.207
G1 X-0.922S0
G1 X-2.485S1000
G1 X-6.453F5000S0
G1 X-2.154F3000S1000
G1 X-1.037F5000S0
G1 X-1.594F3000S1000
G1 X-7.368F5000S0
G1 X-2.468F3000S1000
G1 X-1.873F5000S0
G1 X-1.479F3000S1000
G0 X-1.25
G0 X0.183Y0.1
G0 X1.25
G1 X1.111
G1 X2.051F5000S0
G1 X2.456F3000S1000
G1 X7.423F5000S0
G1 X1.579F3000S1000
G1 X0.997S0
G1 X2.164S1000
G1 X6.459F5000S0
G1 X2.485F3000S1000
G1 X0.95S0
G1 X1.211S1000
G0 X1.25
G0 X0.029Y0.1
G0 X-1.25
G1 X-1.214
G1 X-0.979S0
G1 X-2.486S1000
G1 X-6.464F5000S0
G1 X-2.173F3000S1000
G1 X-0.955S0
G1 X-1.558S1000
G1 X-7.487F5000S0
G1 X-2.445F3000S1000
G1 X-2.35F5000S0
G1 X-0.502F3000S1000
G0 X-1.25
G0 X2.832Y0.1
G0 X1.25
G1 X2.445
G1 X7.551F5000S0
G1 X1.546F3000S1000
G1 X0.904S0
G1 X2.183S1000
G1 X6.47F5000S0
G1 X2.486F3000S1000
G1 X1.007F5000S0
G1 X1.218F3000S1000
G0 X1.25
G0 X0.029Y0.1
G0 X-1.25
G1 X-1.221
G1 X-1.035F5000S0
G1 X-2.487F3000S1000
G1 X-6.476F5000S0
G1 X-2.193F3000S1000
G1 X-0.853S0
G1 X-1.533S1000
G1 X-7.626F5000S0
G1 X-2.436F3000S1000
G0 X-1.25
G0 X-0.021Y0.1
G0 X1.25
G1 X2.427
G1 X7.701F5000S0
G1 X1.52F3000S1000
G1 X0.8S0
G1 X2.205S1000
G1 X6.482F5000S0
G1 X2.487F3000S1000
G1 X1.063F5000S0
G1 X1.225F3000S1000
G0 X1.25
G0 X0.029Y0.1
G0 X-1.25
G1 X-1.228
G1 X-1.092F5000S0
G1 X-2.487F3000S1000
G1 X-6.488F5000S0
G1 X-2.222F3000S1000
G1 X-0.742S0
G1 X-1.504S1000
G1 X-7.779F5000S0
G1 X-2.417F3000S1000
G0 X-1.25
G0 X-0.024Y0.1
G0 X1.25
G1 X2.41
G1 X7.869F5000S0
G1 X1.483F3000S1000
G1 X0.677S0
G1 X2.24S1000
G1 X6.493F5000S0
G1 X2.488F3000S1000
G1 X1.12F5000S0
G1 X1.232F3000S1000
G0 X1.25
G0 X0.029Y0.1
G0 X-1.25
G1 X-1.235
G1 X-1.148F5000S0
G1 X-2.489F3000S1000
G1 X-6.503F5000S0
G1 X-2.253F3000S1000
G1 X-0.607S0
G1 X-1.468S1000
G1 X-7.97F5000S0
G1 X-2.402F3000S1000
G0 X-1.25
G0 X-0.035Y0.1
G0 X1.25
G1 X2.394
G1 X8.071F5000S0
G1 X1.454F3000S1000
G1 X0.537S0
G1 X2.262S1000
G1 X6.517F5000S0
G1 X2.489F3000S1000
G1 X1.176F5000S0
G1 X1.239F3000S1000
G0 X1.25
G0 X0.029Y0.1
G0 X-1.25
G1 X-1.242
G1 X-1.205F5000S0
G1 X-2.489F3000S1000
G1 X-6.531F5000S0
G1 X-2.271F3000S1000
G1 X-0.467S0
G1 X-1.439S1000
G1 X-8.172F5000S0
G1 X-2.386F3000S1000
G0 X-1.25
G0 X-0.034Y0.1
G0 X1.25
G1 X2.376
G1 X8.282F5000S0
G1 X1.417F3000S1000
G1 X0.397S0
G1 X2.281S1000
G1 X6.544F5000S0
G1 X2.489F3000S1000
G1 X1.233F5000S0
G1 X1.246F3000S1000
G0 X1.25
G0 X0.029Y0.1
G0 X-1.25
G1 X-1.249
G1 X-1.262F5000S0
G1 X-2.49F3000S1000
G1 X-6.557F5000S0
G1 X-2.292F3000S1000
G1 X-0.313S0
G1 X-1.399S1000
G1 X-4.001F5000S0
G1 X-0.022F3000S1000
G1 X-4.388F5000S0
G1 X-2.365F3000S1000
G0 X-1.25
G0 X-0.049Y0.1
G0 X1.25
G1 X2.359
G1 X4.286F5000S0
G1 X0.291F3000S1000
G1 X3.964F5000S0
G1 X1.382F3000S1000
G1 X0.224S0
G1 X2.306S1000
G1 X6.571F5000S0
G1 X2.491F3000S1000
G1 X1.289F5000S0
G1 X1.253F3000S1000
G0 X1.25
G0 X0.029Y0.1
G0 X-1.25
G1 X-1.256
G1 X-1.318F5000S0
G1 X-2.493F3000S1000
G1 X-6.583F5000S0
G1 X-2.32F3000S1000
G1 X-0.136S0
G1 X-1.365S1000
G1 X-3.885F5000S0
G1 X-0.544F3000S1000
G1 X-4.242F5000S0
G1 X-2.353F3000S1000
G0 X-1.25
G0 X-0.049Y0.1
G0 X1.25
G1 X2.341
G1 X4.236F5000S0
G1 X0.809F3000S1000
G1 X3.763F5000S0
G1 X1.347F3000S1000
G1 X0.047S0
G1 X2.335S1000
G1 X6.593F5000S0
G1 X2.496F3000S1000
G1 X1.346F5000S0
G1 X1.261F3000S1000
G0 X1.25
G0 X0.034Y0.1
G0 X-1.25
G1 X-1.269
G1 X-1.375F5000S0
G1 X-2.498F3000S1000
G1 X-6.611F5000S0
G1 X-3.613F3000S1000
G1 X-3.587F5000S0
G1 X-1.117F3000S1000
G1 X-4.267F5000S0
G1 X-2.325F3000S1000
G0 X-1.25
G0 X-1.847Y0.1
G0 X1.25
G1 X1.015
G1 X0.76S0
G1 X2.327S1000
G1 X4.309F5000S0
G1 X1.687F3000S1000
G1 X3.138F5000S0
G1 X3.496F3000S1000
G1 X6.63F5000S0
G1 X2.5F3000S1000
G1 X1.403F5000S0
G1 X1.278F3000S1000
G0 X1.25
G0 X0.034Y0.1
G0 X-1.25
G1 X-1.286
G1 X-1.433F5000S0
G1 X-2.502F3000S1000
G1 X-6.649F5000S0
G1 X-3.378F3000S1000
G1 X-2.106F5000S0
G1 X-2.84F3000S1000
G1 X-4.351F5000S0
G1 X-2.329F3000S1000
G1 X-2.088
G0 X-1.25
G0 X-0.166Y0.1
G0 X1.25
G1 X4.492
G1 X4.414F5000S0
G1 X4.005F3000S1000
G1 X1.062F5000S0
G1 X3.261F3000S1000
G1 X6.668F5000S0
G1 X2.504F3000S1000
G1 X1.461F5000S0
G1 X1.294F3000S1000
G0 X1.25
G0 X0.034Y0.1
G0 X-1.25
G1 X-1.302
G1 X-1.49F5000S0
G1 X-2.506F3000S1000
G1 X-6.688F5000S0
G1 X-3.12F3000S1000
G1 X-1.022F5000S0
G1 X-4.165F3000S1000
G1 X-4.504F5000S0
G1 X-4.519F3000S1000
G0 X-1.25
G0 X-0.102Y0.1
G0 X1.25
G1 X4.527
G1 X4.595F5000S0
G1 X4.286F3000S1000
G1 X1.02F5000S0
G1 X2.979F3000S1000
G1 X6.708F5000S0
G1 X2.508F3000S1000
G1 X1.518F5000S0
G1 X1.311F3000S1000
G0 X1.25
G0 X0.034Y0.1
G0 X-1.25
G1 X-1.318
G1 X-1.548F5000S0
G1 X-2.511F3000S1000
G1 X-6.726F5000S0
G1 X-2.839F3000S1000
G1 X-1.059F5000S0
G1 X-4.367F3000S1000
G1 X-4.7F5000S0
G1 X-4.462F3000S1000
G0 X-1.25
G0 X-0.022Y0.1
G0 X1.25
G1 X4.364
G1 X4.823F5000S0
G1 X4.434F3000S1000
G1 X1.112F5000S0
G1 X2.691F3000S1000
G1 X6.746F5000S0
G1 X2.512F3000S1000
G1 X1.58F5000S0
G1 X1.323F3000S1000
G0 X1.25
G0 X0.034Y0.1
G0 X-1.25
G1 X-1.33
G1 X-1.611F5000S0
G1 X-2.513F3000S1000
G1 X-6.611F5000S0
G1 X-2.685F3000S1000
G1 X-1.207F5000S0
G1 X-4.455F3000S1000
G1 X-4.964F5000S0
G1 X-4.249F3000S1000
G0 X-1.25
G0 X0.02Y0.1
G0 X1.25
G1 X4.3
G1 X4.914F5000S0
G1 X4.475F3000S1000
G1 X1.23F5000S0
G1 X2.757F3000S1000
G1 X6.469F5000S0
G1 X2.515F3000S1000
G1 X1.642F5000S0
G1 X1.337F3000S1000
G0 X1.25
G0 X0.034Y0.1
G0 X-1.25
G1 X-1.344
G1 X-1.673F5000S0
G1 X-2.516F3000S1000
G1 X-6.328F5000S0
G1 X-2.935F3000S1000
G1 X-1.163F5000S0
G1 X-4.48F3000S1000
G1 X-4.78F5000S0
G1 X-4.409F3000S1000
G0 X-1.25
G0 X0.071Y0.1
G0 X1.25
G1 X4.466
G1 X4.689F5000S0
G1 X4.464F3000S1000
G1 X1.099F5000S0
G1 X3.09F3000S1000
G1 X6.211F5000S0
G1 X2.517F3000S1000
G1 X1.706F5000S0
G1 X1.348F3000S1000
G0 X1.25
G0 X0.034Y0.1
G0 X-1.25
G1 X-1.354
G1 X-1.738F5000S0
G1 X-2.518F3000S1000
G1 X-6.094F5000S0
G1 X-3.244F3000S1000
G1 X-1.037F5000S0
G1 X-4.437F3000S1000
G1 X-4.609F5000S0
G1 X-4.492F3000S1000
G0 X-1.25
G0 X0.127Y0.1
G0 X1.25
G1 X4.492
G1 X4.53F5000S0
G1 X4.397F3000S1000
G1 X0.987S0
G1 X3.398S1000
G1 X5.976F5000S0
G1 X2.52F3000S1000
G1 X1.77F5000S0
G1 X1.36F3000S1000
G0 X1.25
G0 X1.299Y0.1
G0 X-1.25
G1 X-7.555
G1 X-5.27F5000S0
G1 X-3.541F3000S1000
G1 X-0.949S0
G1 X-4.341S1000
G1 X-4.454F5000S0
G1 X-4.46F3000S1000
G0 X-1.25
G0 X0.243Y0.1
G0 X1.25
G1 X1.917
G1 X2.397
G1 X4.426F5000S0
G1 X4.267F3000S1000
G1 X0.912S0
G1 X3.675S1000
G1 X5.114F5000S0
G1 X7.887F3000S1000
G0 X1.25
G0 X0.168Y0.1
G0 X-1.25
G1 X-8.109
G1 X-4.968F5000S0
G1 X-3.815F3000S1000
G1 X-0.875S0
G1 X-4.186S1000
G1 X-4.401F5000S0
G1 X-2.377F3000S1000
G1 X-0.956S0
G1 X-0.328S1000
G0 X-1.25
G0 X1.39Y0.1
G0 X1.25
G1 X2.366
G1 X4.397F5000S0
G1 X4.064F3000S1000
G1 X0.856S0
G1 X3.958S1000
G1 X4.837F5000S0
G1 X8.268F3000S1000
G0 X1.25
G0 X0.086Y0.1
G0 X-1.25
G1 X-8.383
G1 X-4.731F5000S0
G1 X-4.085F3000S1000
G1 X-0.837S0
G1 X-3.922S1000
G1 X-4.413F5000S0
G1 X-2.381F3000S1000
G0 X-1.25
G0 X0.076Y0.1
G0 X1.25
G1 X2.393
G1 X4.464F5000S0
G1 X3.75F3000S1000
G1 X0.82S0
G1 X4.211S1000
G1 X4.641F5000S0
G1 X8.463F3000S1000
G0 X1.25
G0 X0.044Y0.1
G0 X-1.25
G1 X-8.517
G1 X-4.555F5000S0
G1 X-1.72F3000S1000
G1 X-0.043S0
G1 X-2.574S1000
G1 X-0.831S0
G1 X-0.5S1000
G1 X-0.451S0
G1 X-2.557S1000
G1 X-4.574F5000S0
G1 X-2.389F3000S1000
G0 X-1.25
G0 X0.062Y0.1
G0 X1.25
G1 X2.399
G1 X4.83F5000S0
G1 X0.922F3000S1000
G1 X0.191S0
G1 X1.141S1000
G1 X0.696S0
G1 X0.169S1000
G1 X0.842S0
G1 X2.584S1000
G1 X0.12S0
G1 X1.76S1000
G1 X4.485F5000S0
G1 X8.541F3000S1000
G0 X1.25
G0 X0.023Y0.1
G0 X-1.25
G1 X-8.556
G1 X-4.43F5000S0
G1 X-1.785F3000S1000
G1 X-0.199S0
G1 X-2.594S1000
G1 X-1.631F5000S0
G1 X-1.138F3000S1000
G1 X-5.9F5000S0
G1 X-2.411F3000S1000
G0 X-1.25
G0 X0.06Y0.1
G0 X1.25
G1 X2.422
G1 X5.856F5000S0
G1 X1.136F3000S1000
G1 X1.548F5000S0
G1 X2.612F3000S1000
G1 X0.277S0
G1 X1.809S1000
G1 X4.388F5000S0
G1 X8.541F3000S1000
G0 X1.25
G0 Y0.1
G0 X-1.253
G1 X-8.517
G1 X-4.347F5000S0
G1 X-1.834F3000S1000
G1 X-0.354S0
G1 X-2.63S1000
G1 X-1.463F5000S0
G1 X-1.136F3000S1000
G1 X-5.814F5000S0
G1 X-2.441F3000S1000
G0 X-1.25
G0 X0.046Y0.1
G0 X1.25
G1 X2.447
G1 X5.789F5000S0
G1 X1.143F3000S1000
G1 X1.371F5000S0
G1 X2.647F3000S1000
G1 X0.421S0
G1 X1.87S1000
G1 X4.333F5000S0
G1 X8.455F3000S1000
G0 X1.25
G0 X-0.029Y0.1
G0 X-1.25
G1 X-8.371
G1 X-1.644F5000S0
G1 X-0.435F3000S1000
G1 X-2.255F5000S0
G1 X-1.898F3000S1000
G1 X-0.487S0
G1 X-2.665S1000
G1 X-1.278F5000S0
G1 X-1.147F3000S1000
G1 X-5.768F5000S0
G1 X-2.454F3000S1000
G0 X-1.25
G0 X0.042Y0.1
G0 X1.25
G1 X2.463
G1 X5.751F5000S0
G1 X1.147F3000S1000
G1 X1.186F5000S0
G1 X2.683F3000S1000
G1 X0.552S0
G1 X1.923S1000
G1 X2.02F5000S0
G1 X0.682F3000S1000
G1 X1.678F5000S0
G1 X8.239F3000S1000
G0 X1.25
G0 X-0.058Y0.1
G0 X-1.25
G1 X-8.048
G1 X-1.792F5000S0
G1 X-0.797F3000S1000
G1 X-1.875F5000S0
G1 X-1.946F3000S1000
G1 X-0.618S0
G1 X-2.701S1000
G1 X-1.09F5000S0
G1 X-1.151F3000S1000
G1 X-5.733F5000S0
G1 X-2.482F3000S1000
G0 X-1.25
G0 X-6.094Y0.1
G0 X1.25
G1 X0.506
G1 X5.621F5000S0
G1 X2.501F3000S1000
G1 X5.714F5000S0
G1 X1.159F3000S1000
G1 X0.984S0
G1 X2.725S1000
G1 X0.681S0
G1 X1.974S1000
G1 X1.771F5000S0
G1 X0.871F3000S1000
G1 X2.068F5000S0
G1 X2.549F3000S1000
G1 X2.341F5000S0
G1 X2.786F3000S1000
G0 X1.25
G0 X-1.187Y0.1
G0 X-1.25
G1 X-1.566
G1 X-2.384F5000S0
G1 X-2.553F3000S1000
G1 X-2.035F5000S0
G1 X-0.919F3000S1000
G1 X-1.694F5000S0
G1 X-2.007F3000S1000
G1 X-0.743S0
G1 X-2.745S1000
G1 X-0.877S0
G1 X-1.165S1000
G1 X-5.704F5000S0
G1 X-2.511F3000S1000
G1 X-5.628F5000S0
G1 X-0.696F3000S1000
G0 X-1.25
G0 X-0.088Y0.1
G0 X1.25
G1 X0.804
G1 X5.631F5000S0
G1 X2.523F3000S1000
G1 X5.709F5000S0
G1 X1.167F3000S1000
G1 X0.768S0
G1 X2.762S1000
G1 X0.807S0
G1 X2.031S1000
G1 X1.658F5000S0
G1 X0.936F3000S1000
G1 X2.003F5000S0
G1 X2.556F3000S1000
G1 X2.427F5000S0
G1 X1.583F3000S1000
G0 X1.25
G0 X0.05Y0.1
G0 X-1.25
G1 X-1.599
G1 X-2.471F5000S0
G1 X-2.56F3000S1000
G1 X-1.969F5000S0
G1 X-0.926F3000S1000
G1 X-1.649F5000S0
G1 X-2.055F3000S1000
G1 X-0.873S0
G1 X-2.777S1000
G1 X-0.655S0
G1 X-1.173S1000
G1 X-5.715F5000S0
G1 X-2.536F3000S1000
G1 X-5.633F5000S0
G1 X-0.88F3000S1000
G0 X-1.25
G0 X-0.025Y0.1
G0 X1.25
G1 X0.925
G1 X5.635F5000S0
G1 X2.55F3000S1000
G1 X5.72F5000S0
G1 X1.179F3000S1000
G1 X0.541S0
G1 X2.794S1000
G1 X0.938S0
G1 X2.078S1000
G1 X1.64F5000S0
G1 X0.919F3000S1000
G1 X1.934F5000S0
G1 X2.563F3000S1000
G1 X2.514F5000S0
G1 X1.616F3000S1000
G0 X1.25
G0 X0.053Y0.1
G0 X-1.25
G1 X-1.635
G1 X-2.558F5000S0
G1 X-2.566F3000S1000
G1 X-1.899F5000S0
G1 X-0.911F3000S1000
G1 X-1.631F5000S0
G1 X-2.109F3000S1000
G1 X-0.997S0
G1 X-2.809S1000
G1 X-0.428S0
G1 X-1.186S1000
G1 X-5.725F5000S0
G1 X-2.567F3000S1000
G1 X-5.633F5000S0
G1 X-0.938F3000S1000
G0 X-1.25
G0 X0.03Y0.1
G0 X1.25
G1 X0.934
G1 X5.618F5000S0
G1 X2.591F3000S1000
G1 X5.733F5000S0
G1 X1.196F3000S1000
G1 X0.301S0
G1 X2.832S1000
G1 X1.052F5000S0
G1 X2.138F3000S1000
G1 X1.628F5000S0
G1 X0.903F3000S1000
G1 X1.862F5000S0
G1 X2.569F3000S1000
G1 X2.603F5000S0
G1 X1.654F3000S1000
G0 X1.25
G0 X0.052Y0.1
G0 X-1.25
G1 X-1.672
G1 X-2.649F5000S0
G1 X-2.574F3000S1000
G1 X-1.824F5000S0
G1 X-0.895F3000S1000
G1 X-1.629F5000S0
G1 X-2.162F3000S1000
G1 X-1.106F5000S0
G1 X-2.858F3000S1000
G1 X-0.172S0
G1 X-1.2S1000
G1 X-5.754F5000S0
G1 X-2.608F3000S1000
G1 X-5.603F5000S0
G1 X-0.929F3000S1000
G0 X-1.25
G0 X0.03Y0.1
G0 X1.25
G1 X0.925
G1 X5.588F5000S0
G1 X2.617F3000S1000
G1 X5.782F5000S0
G1 X1.206F3000S1000
G1 X0.042S0
G1 X2.883S1000
G1 X1.162F5000S0
G1 X2.185F3000S1000
G1 X1.631F5000S0
G1 X0.89F3000S1000
G1 X1.782F5000S0
G1 X2.579F3000S1000
G1 X2.694F5000S0
G1 X1.691F3000S1000
G0 X1.25
G0 X0.055Y0.1
G0 X-1.25
G1 X-1.708
G1 X-2.744F5000S0
G1 X-2.584F3000S1000
G1 X-1.736F5000S0
G1 X-0.885F3000S1000
G1 X-1.637F5000S0
G1 X-2.209F3000S1000
G1 X-1.216F5000S0
G1 X-4.033F3000S1000
G1 X-5.81F5000S0
G1 X-2.634F3000S1000
G1 X-5.562F5000S0
G1 X-0.924F3000S1000
G0 X-1.25
G0 X0.03Y0.1
G0 X1.25
G1 X0.928
G1 X5.529F5000S0
G1 X2.653F3000S1000
G1 X5.838F5000S0
G1 X3.932F3000S1000
G1 X1.266F5000S0
G1 X2.239F3000S1000
G1 X1.644F5000S0
G1 X0.881F3000S1000
G1 X1.689F5000S0
G1 X2.588F3000S1000
G1 X2.796F5000S0
G1 X1.733F3000S1000
G0 X1.25
G0 X0.065Y0.1
G0 X-1.25
G1 X-1.758
G1 X-2.848F5000S0
G1 X-2.593F3000S1000
G1 X-1.642F5000S0
G1 X-0.877F3000S1000
G1 X-1.655F5000S0
G1 X-2.266F3000S1000
G1 X-1.324F5000S0
G1 X-3.816F3000S1000
G1 X-5.872F5000S0
G1 X-2.673F3000S1000
G1 X-5.495F5000S0
G1 X-0.931F3000S1000
G0 X-1.25
G0 X0.03Y0.1
G0 X1.25
G1 X0.935
G1 X5.461F5000S0
G1 X2.693F3000S1000
G1 X5.908F5000S0
G1 X3.698F3000S1000
G1 X1.383F5000S0
G1 X2.289F3000S1000
G1 X1.669F5000S0
G1 X0.872F3000S1000
G1 X1.596F5000S0
G1 X2.593F3000S1000
G1 X2.904F5000S0
G1 X1.783F3000S1000
G0 X1.25
G0 X0.064Y0.1
G0 X-1.25
G1 X-1.808
G1 X-2.961F5000S0
G1 X-2.592F3000S1000
G1 X-1.544F5000S0
G1 X-0.873F3000S1000
G1 X-1.684F5000S0
G1 X-2.312F3000S1000
G1 X-1.44F5000S0
G1 X-3.582F3000S1000
G1 X-5.946F5000S0
G1 X-2.72F3000S1000
G1 X-5.41F5000S0
G1 X-0.943F3000S1000
G0 X-1.25
G0 X0.04Y0.1
G0 X1.25
G1 X0.946
G1 X5.356F5000S0
G1 X2.737F3000S1000
G1 X5.996F5000S0
G1 X3.464F3000S1000
G1 X1.485F5000S0
G1 X2.343F3000S1000
G1 X1.704F5000S0
G1 X0.877F3000S1000
G1 X1.488F5000S0
G1 X2.591F3000S1000
G1 X3.02F5000S0
G1 X1.836F3000S1000
G0 X1.25
G0 X0.078Y0.1
G0 X-1.25
G1 X-1.875
G1 X-3.078F5000S0
G1 X-2.592F3000S1000
G1 X-1.43F5000S0
G1 X-0.877F3000S1000
G1 X-1.732F5000S0
G1 X-2.37F3000S1000
G1 X-1.53F5000S0
G1 X-3.347F3000S1000
G1 X-6.045F5000S0
G1 X-2.753F3000S1000
G1 X-5.303F5000S0
G1 X-0.949F3000S1000
G0 X-1.25
G0 X0.04Y0.1
G0 X1.25
G1 X0.955
G1 X5.244F5000S0
G1 X2.771F3000S1000
G1 X6.096F5000S0
G1 X3.229F3000S1000
G1 X1.575F5000S0
G1 X2.396F3000S1000
G1 X1.761F5000S0
G1 X0.877F3000S1000
G1 X1.365F5000S0
G1 X2.6F3000S1000
G1 X3.136F5000S0
G1 X1.914F3000S1000
G0 X1.25
G0 X0.077Y0.1
G0 X-1.25
G1 X-1.949
G1 X-3.197F5000S0
G1 X-2.609F3000S1000
G1 X-1.299F5000S0
G1 X-0.876F3000S1000
G1 X-1.794F5000S0
G1 X-2.42F3000S1000
G1 X-1.619F5000S0
G1 X-3.233F3000S1000
G1 X-6.024F5000S0
G1 X-2.795F3000S1000
G1 X-5.174F5000S0
G1 X-0.967F3000S1000
G0 X-1.25
G0 X0.039Y0.1
G0 X1.25
G1 X0.98
G1 X5.104F5000S0
G1 X2.819F3000S1000
G1 X5.889F5000S0
G1 X3.3F3000S1000
G1 X1.65F5000S0
G1 X2.451F3000S1000
G1 X1.832F5000S0
G1 X0.885F3000S1000
G1 X1.225F5000S0
G1 X2.614F3000S1000
G1 X3.265F5000S0
G1 X1.981F3000S1000
G0 X1.25
G0 X0.088Y0.1
G0 X-1.25
G1 X-2.024
G1 X-3.335F5000S0
G1 X-2.627F3000S1000
G1 X-1.141F5000S0
G1 X-0.892F3000S1000
G1 X-1.871F5000S0
G1 X-2.482F3000S1000
G1 X-1.682F5000S0
G1 X-3.392F3000S1000
G1 X-5.728F5000S0
G1 X-2.849F3000S1000
G1 X-5.027F5000S0
G1 X-0.993F3000S1000
G0 X-1.25
G0 X0.04Y0.1
G0 X1.25
G1 X1.014
G1 X4.936F5000S0
G1 X2.873F3000S1000
G1 X3.694F5000S0
G1 X0.104F3000S1000
G1 X1.764F5000S0
G1 X3.49F3000S1000
G1 X1.725F5000S0
G1 X2.51F3000S1000
G1 X1.912F5000S0
G1 X0.9F3000S1000
G1 X1.057F5000S0
G1 X2.639F3000S1000
G1 X3.407F5000S0
G1 X2.071F3000S1000
G0 X1.25
G0 X0.094Y0.1
G0 X-1.25
G1 X-2.12
G1 X-3.478F5000S0
G1 X-2.651F3000S1000
G1 X-0.972S0
G1 X-0.905S1000
G1 X-1.964F5000S0
G1 X-2.536F3000S1000
G1 X-1.763F5000S0
G1 X-3.615F3000S1000
G1 X-1.449F5000S0
G1 X-0.377F3000S1000
G1 X-3.545F5000S0
G1 X-2.894F3000S1000
G1 X-4.845F5000S0
G1 X-1.032F3000S1000
G0 X-1.25
G0 X0.05Y0.1
G0 X1.25
G1 X1.043
G1 X4.743F5000S0
G1 X2.927F3000S1000
G1 X3.456F5000S0
G1 X0.703F3000S1000
G1 X0.966S0
G1 X3.794S1000
G1 X1.792F5000S0
G1 X2.573F3000S1000
G1 X2.016F5000S0
G1 X0.912F3000S1000
G1 X0.875S0
G1 X2.672S1000
G1 X3.55F5000S0
G1 X2.167F3000S1000
G0 X1.25
G0 X0.104Y0.1
G0 X-1.25
G1 X-2.226
G1 X-3.62F5000S0
G1 X-2.697F3000S1000
G1 X-0.766S0
G1 X-0.928S1000
G1 X-2.071F5000S0
G1 X-2.607F3000S1000
G1 X-1.82F5000S0
G1 X-5.463F3000S1000
G1 X-3.391F5000S0
G1 X-2.959F3000S1000
G1 X-4.63F5000S0
G1 X-1.065F3000S1000
G0 X-1.25
G0 X0.05Y0.1
G0 X1.25
G1 X1.088
G1 X4.51F5000S0
G1 X2.998F3000S1000
G1 X3.345F5000S0
G1 X5.443F3000S1000
G1 X1.847F5000S0
G1 X2.635F3000S1000
G1 X2.133F5000S0
G1 X0.965F3000S1000
G1 X0.636S0
G1 X2.719S1000
G1 X3.694F5000S0
G1 X2.301F3000S1000
G1 X1.884F5000S0
G1 X0.173F3000S1000
G0 X1.25
G0 X0.169Y0.1
G0 X-1.25
G1 X-0.433
G1 X-1.67F5000S0
G1 X-2.376F3000S1000
G1 X-3.775F5000S0
G1 X-2.754F3000S1000
G1 X-0.451S0
G1 X-1.039S1000
G1 X-2.195F5000S0
G1 X-2.677F3000S1000
G1 X-1.861F5000S0
G1 X-5.422F3000S1000
G1 X-3.3F5000S0
G1 X-3.044F3000S1000
G1 X-4.383F5000S0
G1 X-1.11F3000S1000
G0 X-1.25
G0 X0.05Y0.1
G0 X1.25
G1 X1.144
G1 X4.245F5000S0
G1 X3.085F3000S1000
G1 X3.278F5000S0
G1 X5.383F3000S1000
G1 X1.867F5000S0
G1 X2.724F3000S1000
G1 X2.259F5000S0
G1 X4.169F3000S1000
G1 X3.858F5000S0
G1 X2.521F3000S1000
G1 X1.341F5000S0
G1 X0.691F3000S1000
G0 X1.25
G0 X0.101Y0.1
G0 X-1.25
G1 X-0.985
G1 X-0.887S0
G1 X-2.73S1000
G1 X-3.943F5000S0
G1 X-4.089F3000S1000
G1 X-2.335F5000S0
G1 X-2.779F3000S1000
G1 X-1.858F5000S0
G1 X-5.338F3000S1000
G1 X-3.275F5000S0
G1 X-3.127F3000S1000
G1 X-4.092F5000S0
G1 X-1.178F3000S1000
G0 X-1.25
G0 X0.05Y0.1
G0 X1.25
G1 X1.214
G1 X3.936F5000S0
G1 X3.17F3000S1000
G1 X3.272F5000S0
G1 X5.428F3000S1000
G1 X1.687F5000S0
G1 X2.861F3000S1000
G1 X2.414F5000S0
G1 X4.006F3000S1000
G1 X4.028F5000S0
G1 X4.634F3000S1000
G0 X1.25
G0 X0.065Y0.1
G0 X-1.25
G1 X-4.647
G1 X-4.113F5000S0
G1 X-3.923F3000S1000
G1 X-2.496F5000S0
G1 X-2.976F3000S1000
G1 X-1.362F5000S0
G1 X-5.617F3000S1000
G1 X-3.288F5000S0
G1 X-3.225F3000S1000
G1 X-3.756F5000S0
G1 X-1.254F3000S1000
G0 X-1.25
G0 X0.061Y0.1
G0 X1.25
G1 X1.291
G1 X3.572F5000S0
G1 X3.284F3000S1000
G1 X3.306F5000S0
G1 X5.91F3000S1000
G1 X0.863S0
G1 X3.152S1000
G1 X2.584F5000S0
G1 X3.84F3000S1000
G1 X4.199F5000S0
G1 X4.649F3000S1000
G0 X1.25
G0 X0.047Y0.1
G0 X-1.25
G1 X-4.644
G1 X-4.293F5000S0
G1 X-3.737F3000S1000
G1 X-2.684F5000S0
G1 X-9.895F3000S1000
G1 X-3.327F5000S0
G1 X-3.354F3000S1000
G1 X-3.355F5000S0
G1 X-1.346F3000S1000
G0 X-1.25
G0 X0.061Y0.1
G0 X1.25
G1 X1.422
G1 X3.111F5000S0
G1 X3.417F3000S1000
G1 X3.38F5000S0
G1 X9.842F3000S1000
G1 X2.796F5000S0
G1 X3.627F3000S1000
G1 X4.387F5000S0
G1 X4.624F3000S1000
G0 X1.25
G0 X0.03Y0.1
G0 X-1.25
G1 X-4.598
G1 X-4.485F5000S0
G1 X-3.516F3000S1000
G1 X-2.915F5000S0
G1 X-9.78F3000S1000
G1 X-3.435F5000S0
G1 X-3.502F3000S1000
G1 X-2.844F5000S0
G1 X-1.5F3000S1000
G0 X-1.25
G0 X0.061Y0.1
G0 X1.25
G1 X1.632
G1 X2.506F5000S0
G1 X3.603F3000S1000
G1 X3.49F5000S0
G1 X9.718F3000S1000
G1 X3.034F5000S0
G1 X3.388F3000S1000
G1 X4.605F5000S0
G1 X4.553F3000S1000
G0 X1.25
G0 X0.014Y0.1
G0 X-1.25
G1 X-4.507
G1 X-4.726F5000S0
G1 X-3.24F3000S1000
G1 X-3.182F5000S0
G1 X-9.633F3000S1000
G1 X-3.557F5000S0
G1 X-3.792F3000S1000
G1 X-2.066F5000S0
G1 X-1.778F3000S1000
G0 X-1.25
G0 X0.066Y0.1
G0 X1.25
G1 X2.004
G1 X1.473F5000S0
G1 X4.04F3000S1000
G1 X3.635F5000S0
G1 X4.459F3000S1000
G1 X0.115S0
G1 X4.965S1000
G1 X3.342F5000S0
G1 X3.087F3000S1000
G1 X4.847F5000S0
G1 X4.457F3000S1000
G0 X1.25
G0 X0.009Y0.1
G0 X-1.25
G1 X-4.404
G1 X-4.992F5000S0
G1 X-2.913F3000S1000
G1 X-3.501F5000S0
G1 X-4.793F3000S1000
G1 X-0.34S0
G1 X-4.311S1000
G1 X-3.724F5000S0
G1 X-4.573F3000S1000
G1 X-0.129S0
G1 X-2.678S1000
G0 X-1.25
G0 X0.075Y0.1
G0 X1.25
G1 X7.243
G1 X3.831F5000S0
G1 X4.145F3000S1000
G1 X0.566S0
G1 X4.6S1000
G1 X3.694F5000S0
G1 X2.723F3000S1000
G1 X5.152F5000S0
G1 X4.324F3000S1000
G0 X1.25
G0 X-0.005Y0.1
G0 X-1.25
G1 X-4.243
G1 X-5.32F5000S0
G1 X-2.511F3000S1000
G1 X-3.902F5000S0
G1 X-4.392F3000S1000
G1 X-0.807S0
G1 X-3.979S1000
G1 X-3.938F5000S0
G1 X-7.106F3000S1000
G0 X-1.25
G0 X0.081Y0.1
G0 X1.25
G1 X6.959
G1 X4.062F5000S0
G1 X3.775F3000S1000
G1 X1.085F5000S0
G1 X4.156F3000S1000
G1 X4.126F5000S0
G1 X2.276F3000S1000
G1 X5.511F5000S0
G1 X4.151F3000S1000
G0 X1.25
G0 X-0.019Y0.1
G0 X-1.25
G1 X-4.057
G1 X-5.702F5000S0
G1 X-2.016F3000S1000
G1 X-4.382F5000S0
G1 X-3.911F3000S1000
G1 X-1.376F5000S0
G1 X-3.549F3000S1000
G1 X-4.214F5000S0
G1 X-6.78F3000S1000
G0 X-1.25
G0 X0.095Y0.1
G0 X1.25
G1 X6.601
G1 X4.373F5000S0
G1 X3.316F3000S1000
G1 X1.705F5000S0
G1 X3.609F3000S1000
G1 X4.682F5000S0
G1 X1.663F3000S1000
G1 X5.98F5000S0
G1 X3.935F3000S1000
G0 X1.25
G0 X-0.034Y0.1
G0 X-1.25
G1 X-3.806
G1 X-6.323F5000S0
G1 X-1.177F3000S1000
G1 X-5.063F5000S0
G1 X-3.295F3000S1000
G1 X-2.061F5000S0
G1 X-3.034F3000S1000
G1 X-4.554F5000S0
G1 X-6.422F3000S1000
G0 X-1.25
G0 X0.111Y0.1
G0 X1.25
G1 X6.219
G1 X4.754F5000S0
G1 X2.712F3000S1000
G1 X2.495F5000S0
G1 X2.894F3000S1000
G1 X12.838F5000S0
G1 X3.67F3000S1000
G0 X1.25
G0 X-0.05Y0.1
G0 X-1.25
G1 X-3.521
G1 X-13.152F5000S0
G1 X-2.435F3000S1000
G1 X-2.952F5000S0
G1 X-2.361F3000S1000
G1 X-5.004F5000S0
G1 X-5.987F3000S1000
G0 X-1.25
G0 X0.119Y0.1
G0 X1.25
G1 X5.756
G1 X5.296F5000S0
G1 X1.874F3000S1000
G1 X3.587F5000S0
G1 X1.811F3000S1000
G1 X13.565F5000S0
G1 X3.345F3000S1000
G0 X1.25
G0 X-0.068Y0.1
G0 X-1.25
G1 X-3.16
G1 X-14.41F5000S0
G1 X-0.388F3000S1000
G1 X-4.632F5000S0
G1 X-1.259F3000S1000
G1 X-5.672F5000S0
G1 X-5.511F3000S1000
G0 X-1.25
G0 X0.152Y0.1
G0 X1.25
G1 X5.212
G1 X26.625F5000S0
G1 X2.959F3000S1000
G0 X1.25
G0 X-0.091Y0.1
G0 X-1.25
G1 X-2.709
G1 X-26.934F5000S0
G1 X-4.91F3000S1000
G0 X-1.25
G0 X0.183Y0.1
G0 X1.25
G1 X4.572
G1 X27.255F5000S0
G1 X2.424F3000S1000
G0 X1.25
G0 X-0.159Y0.1
G0 X-1.25
G1 X-2.04
G1 X-27.692F5000S0
G1 X-4.162F3000S1000
G0 X-1.25
G0 X0.229Y0.1
G0 X1.25
G1 X3.721
G1 X28.193F5000S0
G1 X1.532F3000S1000
G0 X1.25
G0 X-0.383Y0.1
G0 X-1.25
G1 X-0.661
G1 X-28.995F5000S0
G1 X-3.138F3000S1000
G0 X-1.25
G0 X0.366Y0.1
G0 X1.25
G1 X2.38
G0 X1.25
G0 X-0.655Y0.1
G0 X-1.25
G1 X-1.131
G0 X-1.25
G90
; Scan @ 3000 mm/min, 100% power
M8
G0 X758.557Y187.268
; Layer 4400 mm/min
G91
G0 X1.25
G1 X1.034
G0 X1.25
G0 X0.241Y0.1
G0 X-1.25
G1 X-1.517
G0 X-1.25
G0 X-0.156Y0.1
G0 X1.25
G1 X1.841
G0 X1.25
G0 X0.134Y0.1
G0 X-1.25
G1 X-2.092
G0 X-1.25
G0 X-0.095Y0.1
G0 X1.25
G1 X2.296
G0 X1.25
G0 X0.087Y0.1
G0 X-1.25
G1 X-2.464
G0 X-1.25
G0 X-0.065Y0.1
G0 X1.25
G1 X2.609
G0 X1.25
G0 X0.052Y0.1
G0 X-1.25
G1 X-2.713
G0 X-1.25
G0 X-0.041Y0.1
G0 X1.25
G1 X2.806
G0 X1.25
G0 X0.039Y0.1
G0 X-1.25
G1 X-2.736
G0 X-1.25
G0 X0.09Y0.1
G0 X1.25
G1 X2.68
G0 X1.25
G0 X0.03Y0.1
G0 X-1.25
G1 X-2.64
G0 X-1.25
G0 X0.051Y0.1
G0 X1.25
G1 X2.607
G0 X1.25
G0 X0.019Y0.1
G0 X-1.25
G1 X-2.584
G0 X-1.25
G0 X0.026Y0.1
G0 X1.25
G1 X2.565
G0 X1.25
G0 Y0.1
G0 X-1.246
G1 X-2.551
G0 X-1.25
G0 X0.008Y0.1
G0 X1.25
G1 X2.545
G0 X1.25
G0 X-0.006Y0.1
G0 X-1.25
G1 X-2.544
G0 X-1.25
G0 X-0.005Y0.1
G0 X1.25
G1 X2.544
G0 X1.25
G0 X-0.006Y0.1
G0 X-1.25
G1 X-2.544
G0 X-1.25
G0 X-0.021Y0.1
G0 X1.25
G1 X2.554
G0 X1.25
G0 X-0.018Y0.1
G0 X-1.25
G1 X-2.563
G0 X-1.25
G0 X-0.028Y0.1
G0 X1.25
G1 X2.574
G0 X1.25
G0 X-0.018Y0.1
G0 X-1.25
G1 X-2.587
G0 X-1.25
G0 X-0.052Y0.1
G0 X1.25
G1 X2.609
G0 X1.25
G0 X-0.032Y0.1
G0 X-1.25
G1 X-2.63
G0 X-1.25
G0 X-0.052Y0.1
G0 X1.25
G1 X2.651
G0 X1.25
G0 X-0.038Y0.1
G0 X-1.25
G1 X-2.693
G0 X-1.25
G0 X-0.083Y0.1
G0 X1.25
G1 X2.73
G0 X1.25
G0 X-0.046Y0.1
G0 X-1.25
G1 X-2.768
G0 X-1.25
G0 X-3.068Y0.1
G0 X1.25
G1 X0.46
G1 X2.499F5000S0
G1 X2.827F3000S1000
G0 X1.25
G0 X-0.062Y0.1
G0 X-1.25
G1 X-2.873
G1 X-2.164F5000S0
G1 X-0.924F3000S1000
G0 X-1.25
G0 X-0.134Y0.1
G0 X1.25
G1 X1.19
G1 X1.923F5000S0
G1 X2.92F3000S1000
G0 X1.25
G0 X-0.068Y0.1
G0 X-1.25
G1 X-2.961
G1 X-1.742F5000S0
G1 X-1.36F3000S1000
G0 X-1.25
G0 X-0.061Y0.1
G0 X1.25
G1 X1.413
G1 X1.62F5000S0
G1 X3.004F3000S1000
G0 X1.25
G0 X-0.087Y0.1
G0 X-1.25
G1 X-3.046
G1 X-1.5F5000S0
G1 X-1.465F3000S1000
G0 X-1.25
G0 X-0.044Y0.1
G0 X1.25
G1 X1.501
G1 X1.378F5000S0
G1 X3.089F3000S1000
G0 X1.25
G0 X-0.093Y0.1
G0 X-1.25
G1 X-3.138
G1 X-1.244F5000S0
G1 X-1.532F3000S1000
G0 X-1.25
G0 X-0.032Y0.1
G0 X1.25
G1 X1.557
G1 X1.094F5000S0
G1 X3.187F3000S1000
G0 X1.25
G0 X-0.107Y0.1
G0 X-1.25
G1 X-3.237
G1 X-0.944S0
G1 X-1.57S1000
G0 X-1.25
G0 X-0.02Y0.1
G0 X1.25
G1 X1.582
G1 X0.786S0
G1 X3.295S1000
G0 X1.25
G0 X-0.128Y0.1
G0 X-1.25
G1 X-3.36
G1 X-0.598S0
G1 X-1.582S1000
G0 X-1.25
G0 Y0.1
G0 X1.248
G1 X1.579
G1 X0.411S0
G1 X3.419S1000
G0 X1.25
G0 X-0.134Y0.1
G0 X-1.25
G1 X-3.483
G1 X-0.219S0
G1 X-1.575S1000
G0 X-1.25
G0 Y0.1
G0 X1.25
G1 X1.57
G1 X0.021S0
G1 X3.529S1000
G0 X1.25
G0 X-0.168Y0.1
G0 X-1.25
G1 X-4.952
G0 X-1.25
G0 Y0.1
G0 X1.25
G1 X4.783
G0 X1.25
G0 X-0.194Y0.1
G0 X-1.25
G1 X-4.589
G0 X-1.25
G0 Y0.1
G0 X1.25
G1 X4.395
G0 X1.25
G0 X-0.194Y0.1
G0 X-1.25
G1 X-4.201
G0 X-1.25
G0 Y0.1
G0 X1.25
G1 X4.007
G0 X1.25
G0 X-0.22Y0.1
G0 X-1.25
G1 X-3.905
G0 X-1.25
G0 X-0.297Y0.1
G0 X1.25
G1 X3.981
G0 X1.25
G0 X-0.222Y0.1
G0 X-1.25
G1 X-4.057
G0 X-1.25
G0 X-0.297Y0.1
G0 X1.25
G1 X4.124
G0 X1.25
G0 X-0.256Y0.1
G0 X-1.25
G1 X-4.165
G0 X-1.25
G0 X-0.315Y0.1
G0 X1.25
G1 X4.225
G0 X1.25
G0 X-0.257Y0.1
G0 X-1.25
G1 X-4.314
G0 X-1.25
G0 X-0.347Y0.1
G0 X1.25
G1 X4.361
G0 X1.25
G0 X-0.3Y0.1
G0 X-1.25
G1 X-4.408
G0 X-1.25
G0 X-0.346Y0.1
G0 X1.25
G1 X4.514
G0 X1.25
G0 Y0.1
G0 X-1.252
G1 X-4.922
G0 X-1.25
G0 X-0.414Y0.1
G0 X1.25
G1 X5.334
G0 X1.25
G0 Y0.1
G0 X-1.252
G1 X-5.745
G0 X-1.25
G0 X-0.435Y0.1
G0 X1.25
G1 X6.178
G0 X1.25
G0 Y0.1
G0 X-1.252
G1 X-1.513
G1 X-0.27S0
G1 X-4.903S1000
G0 X-1.25
G0 X-0.51Y0.1
G0 X1.25
G1 X5.048
G1 X0.633S0
G1 X1.513S1000
G0 X1.25
G0 Y0.1
G0 X-1.252
G1 X-1.513
G1 X-1.01F5000S0
G1 X-5.188F3000S1000
G0 X-1.25
G0 X-0.565Y0.1
G0 X1.25
G1 X5.36
G1 X1.401F5000S0
G1 X1.513F3000S1000
G0 X1.25
G0 Y0.1
G0 X-1.252
G1 X-1.512
G1 X-1.793F5000S0
G1 X-5.363F3000S1000
G0 X-1.25
G0 X-0.049Y0.1
G0 X1.25
G1 X5.019
G1 X2.184F5000S0
G1 X1.511F3000S1000
G0 X1.25
G0 Y0.1
G0 X-1.252
G1 X-1.51
G1 X-2.576F5000S0
G1 X-4.675F3000S1000
G0 X-1.25
G0 X-0.049Y0.1
G0 X1.25
G1 X4.331
G1 X2.968F5000S0
G1 X1.509F3000S1000
G0 X1.25
G0 Y0.1
G0 X-1.252
G1 X-1.507
G1 X-3.363F5000S0
G1 X-3.984F3000S1000
G0 X-1.25
G0 X-0.035Y0.1
G0 X1.25
G1 X3.615
G1 X3.767F5000S0
G1 X1.505F3000S1000
G0 X1.25
G0 Y0.1
G0 X-1.252
G1 X-1.504
G1 X-4.171F5000S0
G1 X-3.245F3000S1000
G0 X-1.25
G0 X-0.034Y0.1
G0 X1.25
G1 X2.875
G1 X4.575F5000S0
G1 X1.502F3000S1000
G0 X1.25
G0 Y0.1
G0 X-1.252
G1 X-1.5
G1 X-4.98F5000S0
G1 X-2.505F3000S1000
G0 X-1.25
G0 X-0.028Y0.1
G0 X1.25
G1 X2.129
G1 X5.383F5000S0
G1 X1.499F3000S1000
G0 X1.25
G0 Y0.1
G0 X-1.252
G1 X-1.497
G1 X-5.788F5000S0
G1 X-1.746F3000S1000
G0 X-1.25
G0 X-0.022Y0.1
G0 X1.25
G1 X1.557
G1 X5.999F5000S0
G1 X1.495F3000S1000
G0 X1.25
G0 Y0.1
G0 X-1.252
G1 X-1.494
G1 X-3.687F5000S0
G1 X-3.89F3000S1000
G0 X-1.25
G0 X-0.022Y0.1
G0 X1.25
G1 X7.23
G1 X0.369S0
G1 X1.492S1000
G0 X1.25
G0 Y0.1
G0 X-1.252
G1 X-9.1
G0 X-1.25
G0 X-0.01Y0.1
G0 X1.25
G1 X9.948
G0 X1.25
G0 X0.646Y0.1
G0 X-1.25
G1 X-10.604
G0 X-1.25
G0 X-0.009Y0.1
G0 X1.25
G1 X11.083
G0 X1.25
G0 X0.388Y0.1
G0 X-1.25
G1 X-11.481
G0 X-1.25
G0 Y0.1
G0 X1.246
G1 X11.803
G0 X1.25
G0 X0.304Y0.1
G0 X-1.25
G1 X-12.11
G0 X-1.25
G0 Y0.1
G0 X1.246
G1 X12.362
G0 X1.25
G0 X0.202Y0.1
G0 X-1.25
G1 X-12.564
G0 X-1.25
G0 X0.01Y0.1
G0 X1.25
G1 X12.716
G0 X1.25
G0 X0.133Y0.1
G0 X-1.25
G1 X-12.839
G0 X-1.25
G0 X0.01Y0.1
G0 X1.25
G1 X12.946
G0 X1.25
G0 X0.105Y0.1
G0 X-1.25
G1 X-13.033
G0 X-1.25
G0 X0.024Y0.1
G0 X1.25
G1 X13.094
G0 X1.25
G0 X0.086Y0.1
G0 X-1.25
G1 X-13.157
G0 X-1.25
G0 X0.024Y0.1
G0 X1.25
G1 X13.196
G0 X1.25
G0 X0.051Y0.1
G0 X-1.25
G1 X-13.209
G0 X-1.25
G0 X0.039Y0.1
G0 X1.25
G1 X13.218
G0 X1.25
G0 X0.034Y0.1
G0 X-1.25
G1 X-13.213
G0 X-1.25
G0 X0.051Y0.1
G0 X1.25
G1 X13.195
G0 X1.25
G0 X0.026Y0.1
G0 X-1.25
G1 X-13.156
G0 X-1.25
G0 X0.102Y0.1
G0 X1.25
G1 X13.072
G0 X1.25
G0 X0.018Y0.1
G0 X-1.25
G1 X-12.941
G0 X-1.25
G0 X3.911Y0.1
G0 X1.25
G1 X9.036
G0 X1.25
G0 Y0.1
G0 X-1.247
G1 X-6.586
G0 X-1.25
G0 X0.662Y0.1
G0 X1.25
G1 X5.926
G0 X1.25
G0 X-0.011Y0.1
G0 X-1.25
G1 X-4.109
G1 X-0.29S0
G1 X-1.516S1000
G0 X-1.25
G0 Y0.1
G0 X1.25
G1 X1.502
G1 X0.95S0
G1 X3.451S1000
G0 X1.25
G0 X-0.016Y0.1
G0 X-1.25
G1 X-2.864
G1 X-1.566F5000S0
G1 X-1.457F3000S1000
G0 X-1.25
G0 Y0.1
G0 X1.25
G1 X1.405
G1 X1.965F5000S0
G1 X2.49F3000S1000
G0 X1.25
G0 X-0.027Y0.1
G0 X-1.25
G1 X-2.203
G1 X-2.313F5000S0
G1 X-1.317F3000S1000
G0 X-1.25
G0 X0.121Y0.1
G0 X1.25
G1 X1.081
G1 X2.632F5000S0
G1 X1.962F3000S1000
G0 X1.25
G0 X-0.044Y0.1
G0 X-1.25
G1 X-1.746
G1 X-3.027F5000S0
G1 X-0.639F3000S1000
G0 X-1.25
G0 X3.746Y0.1
G0 X1.25
G1 X1.621
G0 X1.25
G0 X-0.063Y0.1
G0 X-1.25
G1 X-1.529
G0 X-1.25
G0 X-0.006Y0.1
G0 X1.25
G1 X1.473
G0 X1.25
G0 X-0.078Y0.1
G0 X-1.25
G1 X-1.447
G0 X-1.25
G0 X-0.071Y0.1
G0 X1.25
G1 X1.434
G0 X1.25
G0 X-0.085Y0.1
G0 X-1.25
G1 X-1.443
G0 X-1.25
G0 X-0.14Y0.1
G0 X1.25
G1 X1.493
G0 X1.25
G0 X-0.111Y0.1
G0 X-1.25
G1 X-1.586
G0 X-1.25
G0 X-0.217Y0.1
G0 X1.25
G1 X1.692
G0 X1.25
G0 X-0.116Y0.1
G0 X-1.25
G1 X-1.812
G0 X-1.25
G0 X-0.266Y0.1
G0 X1.25
G1 X1.93
G0 X1.25
G0 X-0.147Y0.1
G0 X-1.25
G1 X-2.098
G0 X-1.25
G0 X-0.375Y0.1
G0 X1.25
G1 X2.294
G0 X1.25
G0 X-0.202Y0.1
G0 X-1.25
G1 X-2.565
G0 X-1.25
G0 X-0.451Y0.1
G0 X1.25
G1 X2.797
G0 X1.25
G0 X-0.234Y0.1
G0 X-1.25
G1 X-2.598
G0 X-1.25
G0 X-0.016Y0.1
G0 X1.25
G1 X2.38
G0 X1.25
G0 X-0.26Y0.1
G0 X-1.25
G1 X-2.123
G0 X-1.25
G0 X0.015Y0.1
G0 X1.25
G1 X1.847
G0 X1.25
G0 X-0.282Y0.1
G0 X-1.25
G1 X-1.528
G0 X-1.25
G0 X0.051Y0.1
G0 X1.25
G1 X1.182
G0 X1.25
G0 X-0.316Y0.1
G0 X-1.25
G1 X-0.786
G0 X-1.25
G0 X0.148Y0.1
G0 X1.25
G1 X0.299
G0 X1.25
G0 X2.201Y1.4
G0 X-1.25
G1 X-1.396
G0 X-1.25
G0 X-0.383Y0.1
G0 X1.25
G1 X2.143
G0 X1.25
G0 X0.254Y0.1
G0 X-1.25
G1 X-2.709
G0 X-1.25
G0 X-0.261Y0.1
G0 X1.25
G1 X3.172
G0 X1.25
G0 X0.172Y0.1
G0 X-1.25
G1 X-3.566
G0 X-1.25
G0 X-0.202Y0.1
G0 X1.25
G1 X3.913
G0 X1.25
G0 X0.122Y0.1
G0 X-1.25
G1 X-4.219
G0 X-1.25
G0 X-0.162Y0.1
G0 X1.25
G1 X4.494
G0 X1.25
G0 X0.096Y0.1
G0 X-1.25
G1 X-4.752
G0 X-1.25
G0 X-0.139Y0.1
G0 X1.25
G1 X4.979
G0 X1.25
G0 X0.082Y0.1
G0 X-1.25
G1 X-5.193
G0 X-1.25
G0 X-0.133Y0.1
G0 X1.25
G1 X5.394
G0 X1.25
G0 X0.069Y0.1
G0 X-1.25
G1 X-5.578
G0 X-1.25
G0 X-0.109Y0.1
G0 X1.25
G1 X5.742
G0 X1.25
G0 X0.052Y0.1
G0 X-1.25
G1 X-5.904
G0 X-1.25
G0 X-0.102Y0.1
G0 X1.25
G1 X6.057
G0 X1.25
G0 X0.037Y0.1
G0 X-1.25
G1 X-6.185
G0 X-1.25
G0 X-0.091Y0.1
G0 X1.25
G1 X6.314
G0 X1.25
G0 X0.035Y0.1
G0 X-1.25
G1 X-6.44
G0 X-1.25
G0 X-4.058Y0.1
G0 X1.25
G1 X1.888
G1 X2.089F5000S0
G1 X6.545F3000S1000
G0 X1.25
G0 X0.024Y0.1
G0 X-1.25
G1 X-6.643
G1 X-1.291F5000S0
G1 X-3.022F3000S1000
G0 X-1.25
G0 X-0.268Y0.1
G0 X1.25
G1 X3.803
G1 X0.703S0
G1 X6.739S1000
G0 X1.25
G0 X0.012Y0.1
G0 X-1.25
G1 X-6.826
G1 X-0.223S0
G1 X-4.45S1000
G0 X-1.25
G0 X-0.179Y0.1
G0 X1.25
G1 X7.328
G1 X1.124F5000S0
G1 X3.237F3000S1000
G0 X1.25
G0 X0.011Y0.1
G0 X-1.25
G1 X-2.814
G1 X-2.097F5000S0
G1 X-6.955F3000S1000
G0 X-1.25
G0 X-0.163Y0.1
G0 X1.25
G1 X6.763
G1 X2.731F5000S0
G1 X2.539F3000S1000
G0 X1.25
G0 Y0.1
G0 X-1.246
G1 X-2.328
G1 X-3.213F5000S0
G1 X-6.613F3000S1000
G0 X-1.25
G0 X-0.103Y0.1
G0 X1.25
G1 X6.744
G1 X3.349F5000S0
G1 X2.168F3000S1000
G0 X1.25
G0 Y0.1
G0 X-1.245
G1 X-2.035
G1 X-3.24F5000S0
G1 X-7.075F3000S1000
G0 X-1.25
G0 X-0.071Y0.1
G0 X1.25
G1 X7.393
G1 X3.083F5000S0
G1 X1.94F3000S1000
G0 X1.25
G0 X-0.007Y0.1
G0 X-1.25
G1 X-1.847
G1 X-2.921F5000S0
G1 X-7.699F3000S1000
G0 X-1.25
G0 X-0.052Y0.1
G0 X1.25
G1 X7.968
G1 X2.758F5000S0
G1 X1.785F3000S1000
G0 X1.25
G0 X-0.008Y0.1
G0 X-1.25
G1 X-1.724
G1 X-2.615F5000S0
G1 X-8.202F3000S1000
G0 X-1.25
G0 X-0.038Y0.1
G0 X1.25
G1 X8.437
G1 X2.454F5000S0
G1 X1.675F3000S1000
G0 X1.25
G0 X-0.019Y0.1
G0 X-1.25
G1 X-1.631
G1 X-2.283F5000S0
G1 X-8.653F3000S1000
G0 X-1.25
G0 X-0.02Y0.1
G0 X1.25
G1 X8.87
G1 X2.112F5000S0
G1 X1.586F3000S1000
G0 X1.25
G0 X-0.02Y0.1
G0 X-1.25
G1 X-1.564
G1 X-1.946F5000S0
G1 X-9.049F3000S1000
G0 X-1.25
G0 Y0.1
G0 X1.247
G1 X9.212
G1 X1.786F5000S0
G1 X1.541F3000S1000
G0 X1.25
G0 X-0.031Y0.1
G0 X-1.25
G1 X-1.511
G1 X-1.624F5000S0
G1 X-9.375F3000S1000
G0 X-1.25
G0 X0.014Y0.1
G0 X1.25
G1 X2.233
G1 X0.301S0
G1 X6.987S1000
G1 X1.452F5000S0
G1 X1.491F3000S1000
G0 X1.25
G0 X-0.032Y0.1
G0 X-1.25
G1 X-1.477
G1 X-1.273F5000S0
G1 X-6.319F3000S1000
G1 X-1.902F5000S0
G1 X-1.448F3000S1000
G0 X-1.25
G0 X0.024Y0.1
G0 X1.25
G1 X1.256
G1 X2.6F5000S0
G1 X5.944F3000S1000
G1 X1.1F5000S0
G1 X1.461F3000S1000
G0 X1.25
G0 X-0.045Y0.1
G0 X-1.25
G1 X-1.444
G1 X-0.938S0
G1 X-5.698S1000
G1 X-3.082F5000S0
G1 X-1.123F3000S1000
G0 X-1.25
G0 X0.038Y0.1
G0 X1.25
G1 X1.023
G1 X3.515F5000S0
G1 X5.46F3000S1000
G1 X0.769S0
G1 X1.435S1000
G0 X1.25
G0 X-0.045Y0.1
G0 X-1.25
G1 X-1.426
G1 X-0.6S0
G1 X-5.272S1000
G1 X-3.85F5000S0
G1 X-0.932F3000S1000
G0 X-1.25
G0 X-0.09Y0.1
G0 X1.25
G1 X1.057
G1 X3.651F5000S0
G1 X5.57F3000S1000
G1 X0.417S0
G1 X1.425S1000
G0 X1.25
G0 X-0.06Y0.1
G0 X-1.25
G1 X-1.422
G1 X-0.227S0
G1 X-5.877S1000
G1 X-3.442F5000S0
G1 X-1.173F3000S1000
G0 X-1.25
G0 X-0.049Y0.1
G0 X1.25
G1 X1.291
G1 X3.174F5000S0
G1 X6.209F3000S1000
G1 X0.037S0
G1 X1.42S1000
G0 X1.25
G0 X-0.06Y0.1
G0 X-1.25
G1 X-5.969
G1 X-0.25S0
G1 X-1.614S1000
G1 X-2.875F5000S0
G1 X-1.408F3000S1000
G0 X-1.25
G0 X-0.031Y0.1
G0 X1.25
G1 X1.559
G1 X2.492F5000S0
G1 X1.803F3000S1000
G1 X0.558S0
G1 X5.664S1000
G0 X1.25
G0 X-0.077Y0.1
G0 X-1.25
G1 X-5.353
G1 X-0.87S0
G1 X-2.039S1000
G1 X-2.004F5000S0
G1 X-1.763F3000S1000
G0 X-1.25
G0 X-0.016Y0.1
G0 X1.25
G1 X2.108
G1 X1.212F5000S0
G1 X2.415F3000S1000
G1 X1.158F5000S0
G1 X5.076F3000S1000
G0 X1.25
G0 X-0.083Y0.1
G0 X-1.25
G1 X-4.794
G1 X-1.444F5000S0
G1 X-5.664F3000S1000
G0 X-1.25
G0 Y0.1
G0 X1.248
G1 X5.579
G1 X1.73F5000S0
G1 X4.498F3000S1000
G0 X1.25
G0 X-0.097Y0.1
G0 X-1.25
G1 X-4.222
G1 X-1.997F5000S0
G1 X-5.492F3000S1000
G0 X-1.25
G0 X0.009Y0.1
G0 X1.25
G1 X5.376
G1 X2.276F5000S0
G1 X3.989F3000S1000
G0 X1.25
G0 X0.081Y0.1
G0 X-1.25
G1 X-3.899
G1 X-2.556F5000S0
G1 X-5.252F3000S1000
G0 X-1.25
G0 X0.021Y0.1
G0 X1.25
G1 X5.123
G1 X2.834F5000S0
G1 X3.811F3000S1000
G0 X1.25
G0 X0.081Y0.1
G0 X-1.25
G1 X-3.743
G1 X-3.096F5000S0
G1 X-4.98F3000S1000
G0 X-1.25
G0 X0.035Y0.1
G0 X1.25
G1 X4.809
G1 X1.463F5000S0
G1 X0.237F3000S1000
G1 X1.681F5000S0
G1 X3.676F3000S1000
G0 X1.25
G0 X0.07Y0.1
G0 X-1.25
G1 X-3.597
G1 X-1.39F5000S0
G1 X-1.062F3000S1000
G1 X-1.213F5000S0
G1 X-4.627F3000S1000
G0 X-1.25
G0 X0.053Y0.1
G0 X1.25
G1 X4.438
G1 X1.153F5000S0
G1 X1.426F3000S1000
G1 X1.371F5000S0
G1 X3.51F3000S1000
G0 X1.25
G0 X0.062Y0.1
G0 X-1.25
G1 X-3.441
G1 X-1.39F5000S0
G1 X-1.669F3000S1000
G1 X-1.188F5000S0
G1 X-4.206F3000S1000
G0 X-1.25
G0 X0.081Y0.1
G0 X1.25
G1 X3.953
G1 X1.275F5000S0
G1 X1.689F3000S1000
G1 X1.586F5000S0
G1 X3.372F3000S1000
G0 X1.25
G0 X0.062Y0.1
G0 X-1.25
G1 X-3.507
G1 X-1.56F5000S0
G1 X-1.719F3000S1000
G1 X-1.374F5000S0
G1 X-3.676F3000S1000
G0 X-1.25
G0 X0.119Y0.1
G0 X1.25
G1 X3.334
G1 X1.549F5000S0
G1 X1.73F3000S1000
G1 X1.409F5000S0
G1 X3.749F3000S1000
G0 X1.25
G0 X0.046Y0.1
G0 X-1.25
G1 X-4.006
G1 X-1.224F5000S0
G1 X-1.746F3000S1000
G1 X-1.731F5000S0
G1 X-2.975F3000S1000
G0 X-1.25
G0 X0.161Y0.1
G0 X1.25
G1 X2.519
G1 X1.998F5000S0
G1 X1.751F3000S1000
G1 X1.021F5000S0
G1 X4.277F3000S1000
G0 X1.25
G0 X0.046Y0.1
G0 X-1.25
G1 X-4.572
G1 X-0.785S0
G1 X-1.748S1000
G1 X-2.318F5000S0
G1 X-1.979F3000S1000
G0 X-1.25
G0 X0.323Y0.1
G0 X1.25
G1 X1.172
G1 X2.794F5000S0
G1 X1.747F3000S1000
G1 X0.502S0
G1 X4.91S1000
G0 X1.25
G0 X0.044Y0.1
G0 X-1.25
G1 X-5.326
G1 X-0.132S0
G1 X-1.745S1000
G0 X-1.25
G0 Y0.1
G0 X1.249
G1 X7.235
G0 X1.25
G0 X0.03Y0.1
G0 X-1.25
G1 X-2.87
G1 X-0.224S0
G1 X-4.171S1000
G0 X-1.25
G0 Y0.1
G0 X1.249
G1 X3.99
G1 X0.482S0
G1 X2.825S1000
G0 X1.25
G0 X0.031Y0.1
G0 X-1.25
G1 X-2.789
G1 X-0.731S0
G1 X-3.808S1000
G0 X-1.25
G0 X-0.005Y0.1
G0 X1.25
G1 X3.62
G1 X0.987S0
G1 X2.757S1000
G0 X1.25
G0 X0.025Y0.1
G0 X-1.25
G1 X-2.723
G1 X-1.255F5000S0
G1 X-3.417F3000S1000
G0 X-1.25
G0 Y0.1
G0 X1.245
G1 X3.202
G1 X1.526F5000S0
G1 X2.686F3000S1000
G0 X1.25
G0 X0.014Y0.1
G0 X-1.25
G1 X-2.649
G1 X-1.823F5000S0
G1 X-2.961F3000S1000
G0 X-1.25
G0 X-0.006Y0.1
G0 X1.25
G1 X2.698
G1 X2.134F5000S0
G1 X2.622F3000S1000
G0 X1.25
G0 X0.014Y0.1
G0 X-1.25
G1 X-2.596
G1 X-2.47F5000S0
G1 X-2.41F3000S1000
G0 X-1.25
G0 X-0.011Y0.1
G0 X1.25
G1 X2.062
G1 X2.865F5000S0
G1 X2.563F3000S1000
G0 X1.25
G0 Y0.1
G0 X-1.25
G1 X-2.537
G1 X-3.043F5000S0
G1 X-1.92F3000S1000
G0 X-1.25
G0 X-0.01Y0.1
G0 X1.25
G1 X1.943
G1 X3.055F5000S0
G1 X2.512F3000S1000
G0 X1.25
G0 Y0.1
G0 X-1.25
G1 X-2.492
G1 X-3.062F5000S0
G1 X-1.966F3000S1000
G0 X-1.25
G0 X-0.013Y0.1
G0 X1.25
G1 X1.985
G1 X3.059F5000S0
G1 X2.488F3000S1000
G0 X1.25
G0 X-0.012Y0.1
G0 X-1.25
G1 X-2.473
G1 X-3.057F5000S0
G1 X-2.005F3000S1000
G0 X-1.25
G0 X-0.016Y0.1
G0 X1.25
G1 X2.026
G1 X3.054F5000S0
G1 X2.459F3000S1000
G0 X1.25
G0 X-0.017Y0.1
G0 X-1.25
G1 X-2.461
G1 X-3.038F5000S0
G1 X-2.038F3000S1000
G0 X-1.25
G0 X-0.015Y0.1
G0 X1.25
G1 X2.051
G1 X3.02F5000S0
G1 X2.451F3000S1000
G0 X1.25
G0 X-0.03Y0.1
G0 X-1.25
G1 X-2.44
G1 X-3.006F5000S0
G1 X-2.063F3000S1000
G0 X-1.25
G0 X-0.021Y0.1
G0 X1.25
G1 X2.074
G1 X2.974F5000S0
G1 X2.44F3000S1000
G0 X1.25
G0 X-0.05Y0.1
G0 X-1.25
G1 X-2.433
G1 X-2.941F5000S0
G1 X-2.085F3000S1000
G0 X-1.25
G0 X-0.031Y0.1
G0 X1.25
G1 X2.094
G1 X2.917F5000S0
G1 X2.427F3000S1000
G0 X1.25
G0 X-0.074Y0.1
G0 X-1.25
G1 X-2.441
G1 X-2.858F5000S0
G1 X-2.1F3000S1000
G0 X-1.25
G0 X-0.038Y0.1
G0 X1.25
G1 X2.109
G1 X2.858F5000S0
G1 X2.396F3000S1000
G0 X1.25
G0 X-0.1Y0.1
G0 X-1.25
G1 X-2.239
G1 X-2.958F5000S0
G1 X-2.115F3000S1000
G0 X-1.25
G0 X-0.05Y0.1
G0 X1.25
G1 X2.108
G1 X3.09F5000S0
G1 X2.06F3000S1000
G0 X1.25
G0 X-0.145Y0.1
G0 X-1.25
G1 X-1.813
G1 X-3.248F5000S0
G1 X-2.116F3000S1000
G0 X-1.25
G0 X-0.066Y0.1
G0 X1.25
G1 X2.101
G1 X3.496F5000S0
G1 X1.47F3000S1000
G0 X1.25
G0 X-0.262Y0.1
G0 X-1.25
G1 X-0.978
G1 X-3.817F5000S0
G1 X-2.101F3000S1000
G0 X-1.25
G0 X0.031Y0.1
G0 X1.25
G1 X1.961
G0 X1.25
G0 X-0.146Y0.1
G0 X-1.25
G1 X-1.743
G0 X-1.25
G0 X0.104Y0.1
G0 X1.25
G1 X1.462
G0 X1.25
G0 X-0.213Y0.1
G0 X-1.25
G1 X-1.033
G0 X-1.25
G0 X3.839Y2.9
G0 X1.25
G1 X1.701
G0 X1.25
G0 X0.369Y0.1
G0 X-1.25
G1 X-2.509
G0 X-1.25
G0 X-0.285Y0.1
G0 X1.25
G1 X3.023
G0 X1.25
G0 X0.228Y0.1
G0 X-1.25
G1 X-3.521
G0 X-1.25
G0 X-0.193Y0.1
G0 X1.25
G1 X3.877
G0 X1.25
G0 X0.16Y0.1
G0 X-1.25
G1 X-4.231
G0 X-1.25
G0 X-0.182Y0.1
G0 X1.25
G1 X4.562
G0 X1.25
G0 X0.118Y0.1
G0 X-1.25
G1 X-4.821
G1 X-3.868F5000S0
G1 X-1.188F3000S1000
G0 X-1.25
G0 X-0.501Y0.1
G0 X1.25
G1 X2.147
G1 X3.268F5000S0
G1 X5.081F3000S1000
G0 X1.25
G0 X0.118Y0.1
G0 X-1.25
G1 X-5.34
G1 X-2.808F5000S0
G1 X-2.783F3000S1000
G0 X-1.25
G0 X-0.262Y0.1
G0 X1.25
G1 X3.281
G1 X2.45F5000S0
G1 X5.55F3000S1000
G0 X1.25
G0 X0.088Y0.1
G0 X-1.25
G1 X-5.745
G1 X-2.134F5000S0
G1 X-3.688F3000S1000
G0 X-1.25
G0 X-0.192Y0.1
G0 X1.25
G1 X4.06
G1 X1.848F5000S0
G1 X5.939F3000S1000
G0 X1.25
G0 X0.084Y0.1
G0 X-1.25
G1 X-6.129
G1 X-1.578F5000S0
G1 X-4.374F3000S1000
G0 X-1.25
G0 X-0.15Y0.1
G0 X1.25
G1 X4.665
G1 X1.334F5000S0
G1 X6.297F3000S1000
G0 X1.25
G0 X0.065Y0.1
G0 X-1.25
G1 X-6.442
G1 X-1.112F5000S0
G1 X-4.938F3000S1000
G0 X-1.25
G0 X-0.117Y0.1
G0 X1.25
G1 X5.163
G1 X0.924S0
G1 X6.587S1000
G0 X1.25
G0 X0.066Y0.1
G0 X-1.25
G1 X-6.732
G1 X-0.74S0
G1 X-5.384S1000
G0 X-1.25
G0 X-0.102Y0.1
G0 X1.25
G1 X5.591
G1 X0.555S0
G1 X6.859S1000
G0 X1.25
G0 X0.046Y0.1
G0 X-1.25
G1 X-6.985
G1 X-0.389S0
G1 X-5.769S1000
G0 X-1.25
G0 X-0.091Y0.1
G0 X1.25
G1 X5.942
G1 X0.241S0
G1 X7.097S1000
G0 X1.25
G0 X0.046Y0.1
G0 X-1.25
G1 X-7.209
G1 X-0.093S0
G1 X-6.111S1000
G0 X-1.25
G0 X-0.072Y0.1
G0 X1.25
G1 X13.526
G0 X1.25
G0 X0.029Y0.1
G0 X-1.25
G1 X-13.627
G0 X-1.25
G0 X-0.071Y0.1
G0 X1.25
G1 X13.727
G0 X1.25
G0 X0.029Y0.1
G0 X-1.25
G1 X-13.819
G0 X-1.25
G0 X-0.055Y0.1
G0 X1.25
G1 X13.903
G0 X1.25
G0 X0.026Y0.1
G0 X-1.25
G1 X-3.763
G1 X-1.162F5000S0
G1 X-9.059F3000S1000
G0 X-1.25
G0 X-0.054Y0.1
G0 X1.25
G1 X8.697
G1 X2.008F5000S0
G1 X3.352F3000S1000
G0 X1.25
G0 X0.018Y0.1
G0 X-1.25
G1 X-3.11
G1 X-2.56F5000S0
G1 X-8.451F3000S1000
G0 X-1.25
G0 X-0.031Y0.1
G0 X1.25
G1 X8.262
G1 X2.977F5000S0
G1 X2.932F3000S1000
G0 X1.25
G0 X0.018Y0.1
G0 X-1.25
G1 X-2.786
G1 X-3.331F5000S0
G1 X-8.104F3000S1000
G0 X-1.25
G0 X-0.032Y0.1
G0 X1.25
G1 X2.861
G1 X1.675F5000S0
G1 X3.431F3000S1000
G1 X3.644F5000S0
G1 X2.655F3000S1000
G0 X1.25
G0 X0.011Y0.1
G0 X-1.25
G1 X-2.549
G1 X-3.906F5000S0
G1 X-2.819F3000S1000
G1 X-2.678F5000S0
G1 X-2.356F3000S1000
G0 X-1.25
G0 X-0.032Y0.1
G0 X1.25
G1 X2.012
G1 X3.343F5000S0
G1 X2.396F3000S1000
G1 X4.153F5000S0
G1 X2.447F3000S1000
G0 X1.25
G0 X0.01Y0.1
G0 X-1.25
G1 X-2.365
G1 X-4.361F5000S0
G1 X-2.033F3000S1000
G1 X-3.841F5000S0
G1 X-1.779F3000S1000
G0 X-1.25
G0 X-0.018Y0.1
G0 X1.25
G1 X1.609
G1 X4.23F5000S0
G1 X1.737F3000S1000
G1 X4.547F5000S0
G1 X2.284F3000S1000
G0 X1.25
G0 Y0.1
G0 X-1.247
G1 X-2.213
G1 X-4.7F5000S0
G1 X-1.478F3000S1000
G1 X-4.568F5000S0
G1 X-1.468F3000S1000
G0 X-1.25
G0 X-0.018Y0.1
G0 X1.25
G1 X1.353
G1 X4.839F5000S0
G1 X1.356F3000S1000
G1 X4.758F5000S0
G1 X2.143F3000S1000
G0 X1.25
G0 Y0.1
G0 X-1.247
G1 X-2.099
G1 X-4.789F5000S0
G1 X-1.348F3000S1000
G1 X-4.959F5000S0
G1 X-1.274F3000S1000
G0 X-1.25
G0 X-0.012Y0.1
G0 X1.25
G1 X1.204
G1 X5.022F5000S0
G1 X1.38F3000S1000
G1 X4.818F5000S0
G1 X2.06F3000S1000
G0 X1.25
G0 Y0.1
G0 X-1.251
G1 X-2.018
G1 X-4.847F5000S0
G1 X-1.411F3000S1000
G1 X-5.045F5000S0
G1 X-1.167F3000S1000
G0 X-1.25
G0 Y0.1
G0 X1.246
G1 X1.129
G1 X5.068F5000S0
G1 X1.441F3000S1000
G1 X4.878F5000S0
G1 X1.972F3000S1000
G0 X1.25
G0 Y0.1
G0 X-1.255
G1 X-1.942
G1 X-4.891F5000S0
G1 X-1.466F3000S1000
G1 X-5.066F5000S0
G1 X-1.122F3000S1000
G0 X-1.25
G0 Y0.1
G0 X1.246
G1 X1.122
G1 X5.058F5000S0
G1 X1.482F3000S1000
G1 X4.913F5000S0
G1 X1.912F3000S1000
G0 X1.25
G0 Y0.1
G0 X-1.255
G1 X-1.882
G1 X-4.935F5000S0
G1 X-1.497F3000S1000
G1 X-5.044F5000S0
G1 X-1.128F3000S1000
G0 X-1.25
G0 X0.006Y0.1
G0 X1.25
G1 X1.157
G1 X4.998F5000S0
G1 X1.512F3000S1000
G1 X4.956F5000S0
G1 X1.845F3000S1000
G0 X1.25
G0 X-0.014Y0.1
G0 X-1.25
G1 X-1.822
G1 X-4.963F5000S0
G1 X-1.521F3000S1000
G1 X-4.957F5000S0
G1 X-1.182F3000S1000
G0 X-1.25
G0 X0.009Y0.1
G0 X1.25
G1 X1.247
G1 X4.878F5000S0
G1 X1.521F3000S1000
G1 X4.978F5000S0
G1 X1.798F3000S1000
G0 X1.25
G0 X-0.014Y0.1
G0 X-1.25
G1 X-1.774
G1 X-4.993F5000S0
G1 X-1.52F3000S1000
G1 X-1.788F5000S0
G1 X-0.238F3000S1000
G1 X-2.741F5000S0
G1 X-1.345F3000S1000
G0 X-1.25
G0 X0.009Y0.1
G0 X1.25
G1 X1.491
G1 X2.305F5000S0
G1 X0.59F3000S1000
G1 X1.712F5000S0
G1 X1.52F3000S1000
G1 X5.008F5000S0
G1 X1.75F3000S1000
G0 X1.25
G0 X-0.023Y0.1
G0 X-1.25
G1 X-1.731
G1 X-5.013F5000S0
G1 X-1.511F3000S1000
G1 X-1.642F5000S0
G1 X-1.07F3000S1000
G1 X-1.656F5000S0
G1 X-1.72F3000S1000
G0 X-1.25
G0 X0.019Y0.1
G0 X1.25
G1 X4.474
G1 X1.597F5000S0
G1 X1.496F3000S1000
G1 X5.021F5000S0
G1 X1.71F3000S1000
G0 X1.25
G0 X-0.025Y0.1
G0 X-1.25
G1 X-1.69
G1 X-5.03F5000S0
G1 X-1.479F3000S1000
G1 X-1.554F5000S0
G1 X-4.501F3000S1000
G0 X-1.25
G0 X0.019Y0.1
G0 X1.25
G1 X4.513
G1 X1.526F5000S0
G1 X1.463F3000S1000
G1 X5.038F5000S0
G1 X1.669F3000S1000
G0 X1.25
G0 X-0.026Y0.1
G0 X-1.25
G1 X-1.662
G1 X-5.042F5000S0
G1 X-1.433F3000S1000
G1 X-1.508F5000S0
G1 X-4.519F3000S1000
G0 X-1.25
G0 X0.032Y0.1
G0 X1.25
G1 X4.506
G1 X1.501F5000S0
G1 X1.393F3000S1000
G1 X5.051F5000S0
G1 X1.644F3000S1000
G0 X1.25
G0 X-0.038Y0.1
G0 X-1.25
G1 X-1.626
G1 X-5.064F5000S0
G1 X-1.346F3000S1000
G1 X-1.508F5000S0
G1 X-4.475F3000S1000
G0 X-1.25
G0 X0.038Y0.1
G0 X1.25
G1 X4.444
G1 X1.535F5000S0
G1 X1.265F3000S1000
G1 X5.091F5000S0
G1 X1.608F3000S1000
G0 X1.25
G0 X-0.038Y0.1
G0 X-1.25
G1 X-1.604
G1 X-5.106F5000S0
G1 X-1.182F3000S1000
G1 X-1.58F5000S0
G1 X-4.396F3000S1000
G0 X-1.25
G0 X0.051Y0.1
G0 X1.25
G1 X4.335
G1 X1.645F5000S0
G1 X1.057F3000S1000
G1 X5.14F5000S0
G1 X1.599F3000S1000
G0 X1.25
G0 X-0.052Y0.1
G0 X-1.25
G1 X-1.582
G1 X-5.177F5000S0
G1 X-0.926F3000S1000
G1 X-1.726F5000S0
G1 X-4.254F3000S1000
G0 X-1.25
G0 X0.059Y0.1
G0 X1.25
G1 X4.166
G1 X1.84F5000S0
G1 X0.742F3000S1000
G1 X5.238F5000S0
G1 X1.568F3000S1000
G0 X1.25
G0 X-0.052Y0.1
G0 X-1.25
G1 X-1.569
G1 X-5.307F5000S0
G1 X-0.527F3000S1000
G1 X-1.969F5000S0
G1 X-4.071F3000S1000
G0 X-1.25
G0 X0.082Y0.1
G0 X1.25
G1 X3.94
G1 X7.798F5000S0
G1 X1.572F3000S1000
G0 X1.25
G0 X-0.063Y0.1
G0 X-1.25
G1 X-1.562
G1 X-7.799F5000S0
G1 X-3.801F3000S1000
G0 X-1.25
G0 X0.084Y0.1
G0 X1.25
G1 X3.643
G1 X7.809F5000S0
G1 X1.559F3000S1000
G0 X1.25
G0 X-0.067Y0.1
G0 X-1.25
G1 X-1.566
G1 X-7.816F5000S0
G1 X-3.455F3000S1000
G0 X-1.25
G0 X0.118Y0.1
G0 X1.25
G1 X3.224
G1 X7.855F5000S0
G1 X1.573F3000S1000
G0 X1.25
G0 X-0.077Y0.1
G0 X-1.25
G1 X-1.575
G1 X-7.898F5000S0
G1 X-2.983F3000S1000
G0 X-1.25
G0 X0.164Y0.1
G0 X1.25
G1 X2.676
G1 X7.938F5000S0
G1 X1.593F3000S1000
G0 X1.25
G0 X-0.085Y0.1
G0 X-1.25
G1 X-1.612
G1 X-8.008F5000S0
G1 X-2.332F3000S1000
G0 X-1.25
G0 X0.236Y0.1
G0 X1.25
G1 X1.883
G1 X8.109F5000S0
G1 X1.639F3000S1000
G0 X1.25
G0 X-0.1Y0.1
G0 X-1.25
G1 X-1.659
G1 X-8.284F5000S0
G1 X-1.28F3000S1000
G0 X-1.25
G0 X9.441Y0.1
G0 X1.25
G1 X1.675
G0 X1.25
G0 X-0.106Y0.1
G0 X-1.25
G1 X-1.709
G0 X-1.25
G0 X-0.139Y0.1
G0 X1.25
G1 X1.734
G0 X1.25
G0 X-0.134Y0.1
G0 X-1.25
G1 X-1.764
G0 X-1.25
G0 X-0.166Y0.1
G0 X1.25
G1 X1.796
G0 X1.25
G0 X-0.141Y0.1
G0 X-1.25
G1 X-1.849
G0 X-1.25
G0 X-0.209Y0.1
G0 X1.25
G1 X1.894
G0 X1.25
G0 X-0.165Y0.1
G0 X-1.25
G1 X-1.965
G0 X-1.25
G0 X-0.288Y0.1
G0 X1.25
G1 X2.089
G0 X1.25
G0 X-0.164Y0.1
G0 X-1.25
G1 X-2.282
G0 X-1.25
G0 X-0.473Y0.1
G0 X1.25
G1 X2.564
G0 X1.25
G0 X-0.201Y0.1
G0 X-1.25
G1 X-2.514
G0 X-1.25
G0 X-0.025Y0.1
G0 X1.25
G1 X2.338
G0 X1.25
G0 X-0.201Y0.1
G0 X-1.25
G1 X-2.144
G0 X-1.25
G0 X0.009Y0.1
G0 X1.25
G1 X1.89
G0 X1.25
G0 X-0.252Y0.1
G0 X-1.25
G1 X-1.612
G0 X-1.25
G0 X0.044Y0.1
G0 X1.25
G1 X1.315
G0 X1.25
G0 X-0.307Y0.1
G0 X-1.25
G1 X-0.938
G0 X-1.25
G0 X0.118Y0.1
G0 X1.25
G1 X0.488
G0 X1.25
G0 X9.967Y103.3
G0 X-1.25
G1 X-1.034
G0 X-1.25
G0 X-0.242Y0.1
G0 X1.25
G1 X1.517
G0 X1.25
G0 X0.168Y0.1
G0 X-1.25
G1 X-1.841
G0 X-1.25
G0 X-0.117Y0.1
G0 X1.25
G1 X2.092
G0 X1.25
G0 X0.109Y0.1
G0 X-1.25
G1 X-2.296
G0 X-1.25
G0 X-0.081Y0.1
G0 X1.25
G1 X2.464
G0 X1.25
G0 X0.08Y0.1
G0 X-1.25
G1 X-2.609
G0 X-1.25
G0 X-0.052Y0.1
G0 X1.25
G1 X2.713
G0 X1.25
G0 X0.052Y0.1
G0 X-1.25
G1 X-2.806
G0 X-1.25
G0 X0.109Y0.1
G0 X1.25
G1 X2.736
G0 X1.25
G0 X0.034Y0.1
G0 X-1.25
G1 X-2.68
G0 X-1.25
G0 X0.07Y0.1
G0 X1.25
G1 X2.64
G0 X1.25
G0 X0.018Y0.1
G0 X-1.25
G1 X-2.607
G0 X-1.25
G0 X0.042Y0.1
G0 X1.25
G1 X2.584
G0 X1.25
G0 X0.007Y0.1
G0 X-1.25
G1 X-2.565
G0 X-1.25
G0 X0.018Y0.1
G0 X1.25
G1 X2.551
G0 X1.25
G0 Y0.1
G0 X-1.248
G1 X-2.545
G0 X-1.25
G0 X-0.005Y0.1
G0 X1.25
G1 X2.544
G0 X1.25
G0 X-0.005Y0.1
G0 X-1.25
G1 X-2.544
G0 X-1.25
G0 X-0.006Y0.1
G0 X1.25
G1 X2.544
G0 X1.25
G0 X-0.011Y0.1
G0 X-1.25
G1 X-2.554
G0 X-1.25
G0 X-0.027Y0.1
G0 X1.25
G1 X2.563
G0 X1.25
G0 X-0.017Y0.1
G0 X-1.25
G1 X-2.574
G0 X-1.25
G0 X-0.031Y0.1
G0 X1.25
G1 X2.587
G0 X1.25
G0 X-0.03Y0.1
G0 X-1.25
G1 X-2.609
G0 X-1.25
G0 X-0.053Y0.1
G0 X1.25
G1 X2.63
G0 X1.25
G0 X-0.031Y0.1
G0 X-1.25
G1 X-2.651
G0 X-1.25
G0 X-0.08Y0.1
G0 X1.25
G1 X2.693
G0 X1.25
G0 X-0.046Y0.1
G0 X-1.25
G1 X-2.73
G0 X-1.25
G0 X-0.084Y0.1
G0 X1.25
G1 X2.768
G0 X1.25
G0 X-0.05Y0.1
G0 X-1.25
G1 X-2.827
G1 X-2.499F5000S0
G1 X-0.46F3000S1000
G0 X-1.25
G0 X-0.237Y0.1
G0 X1.25
G1 X0.924
G1 X2.164F5000S0
G1 X2.873F3000S1000
G0 X1.25
G0 X-0.062Y0.1
G0 X-1.25
G1 X-2.92
G1 X-1.923F5000S0
G1 X-1.19F3000S1000
G0 X-1.25
G0 X-0.098Y0.1
G0 X1.25
G1 X1.36
G1 X1.742F5000S0
G1 X2.961F3000S1000
G0 X1.25
G0 X-0.087Y0.1
G0 X-1.25
G1 X-3.004
G1 X-1.62F5000S0
G1 X-1.413F3000S1000
G0 X-1.25
G0 X-0.061Y0.1
G0 X1.25
G1 X1.465
G1 X1.5F5000S0
G1 X3.046F3000S1000
G0 X1.25
G0 X-0.087Y0.1
G0 X-1.25
G1 X-3.089
G1 X-1.378F5000S0
G1 X-1.501F3000S1000
G0 X-1.25
G0 X-0.039Y0.1
G0 X1.25
G1 X1.532
G1 X1.244F5000S0
G1 X3.138F3000S1000
G0 X1.25
G0 X-0.108Y0.1
G0 X-1.25
G1 X-3.187
G1 X-1.094F5000S0
G1 X-1.557F3000S1000
G0 X-1.25
G0 X-0.02Y0.1
G0 X1.25
G1 X1.57
G1 X0.944S0
G1 X3.237S1000
G0 X1.25
G0 X-0.108Y0.1
G0 X-1.25
G1 X-3.295
G1 X-0.786S0
G1 X-1.582S1000
G0 X-1.25
G0 X-0.005Y0.1
G0 X1.25
G1 X1.582
G1 X0.598S0
G1 X3.36S1000
G0 X1.25
G0 X-0.133Y0.1
G0 X-1.25
G1 X-3.419
G1 X-0.411S0
G1 X-1.579S1000
G0 X-1.25
G0 Y0.1
G0 X1.248
G1 X1.575
G1 X0.219S0
G1 X3.483S1000
G0 X1.25
G0 X-0.157Y0.1
G0 X-1.25
G1 X-3.529
G1 X-0.021S0
G1 X-1.57S1000
G0 X-1.25
G0 Y0.1
G0 X1.25
G1 X4.952
G0 X1.25
G0 X-0.169Y0.1
G0 X-1.25
G1 X-4.783
G0 X-1.25
G0 Y0.1
G0 X1.25
G1 X4.589
G0 X1.25
G0 X-0.194Y0.1
G0 X-1.25
G1 X-4.395
G0 X-1.25
G0 Y0.1
G0 X1.25
G1 X4.201
G0 X1.25
G0 X-0.194Y0.1
G0 X-1.25
G1 X-4.007
G0 X-1.25
G0 X-0.118Y0.1
G0 X1.25
G1 X3.905
G0 X1.25
G0 X-0.221Y0.1
G0 X-1.25
G1 X-3.981
G0 X-1.25
G0 X-0.298Y0.1
G0 X1.25
G1 X4.057
G0 X1.25
G0 X-0.23Y0.1
G0 X-1.25
G1 X-4.124
G0 X-1.25
G0 X-0.297Y0.1
G0 X1.25
G1 X4.165
G0 X1.25
G0 X-0.255Y0.1
G0 X-1.25
G1 X-4.225
G0 X-1.25
G0 X-0.346Y0.1
G0 X1.25
G1 X4.314
G0 X1.25
G0 X-0.3Y0.1
G0 X-1.25
G1 X-4.361
G0 X-1.25
G0 X-0.347Y0.1
G0 X1.25
G1 X4.408
G0 X1.25
G0 X-0.24Y0.1
G0 X-1.25
G1 X-4.514
G0 X-1.25
G0 X-0.41Y0.1
G0 X1.25
G1 X4.922
G0 X1.25
G0 Y0.1
G0 X-1.252
G1 X-5.334
G0 X-1.25
G0 X-0.414Y0.1
G0 X1.25
G1 X5.746
G0 X1.25
G0 Y0.1
G0 X-1.252
G1 X-6.178
G0 X-1.25
G0 X-0.51Y0.1
G0 X1.25
G1 X4.903
G1 X0.27S0
G1 X1.513S1000
G0 X1.25
G0 Y0.1
G0 X-1.252
G1 X-1.513
G1 X-0.633S0
G1 X-5.048S1000
G0 X-1.25
G0 X-0.519Y0.1
G0 X1.25
G1 X5.188
G1 X1.01F5000S0
G1 X1.513F3000S1000
G0 X1.25
G0 Y0.1
G0 X-1.252
G1 X-1.513
G1 X-1.401F5000S0
G1 X-5.36F3000S1000
G0 X-1.25
G0 X-0.396Y0.1
G0 X1.25
G1 X5.363
G1 X1.793F5000S0
G1 X1.512F3000S1000
G0 X1.25
G0 Y0.1
G0 X-1.253
G1 X-1.511
G1 X-2.184F5000S0
G1 X-5.019F3000S1000
G0 X-1.25
G0 X-0.049Y0.1
G0 X1.25
G1 X4.675
G1 X2.576F5000S0
G1 X1.51F3000S1000
G0 X1.25
G0 Y0.1
G0 X-1.252
G1 X-1.509
G1 X-2.968F5000S0
G1 X-4.331F3000S1000
G0 X-1.25
G0 X-0.048Y0.1
G0 X1.25
G1 X3.984
G1 X3.363F5000S0
G1 X1.507F3000S1000
G0 X1.25
G0 Y0.1
G0 X-1.252
G1 X-1.505
G1 X-3.767F5000S0
G1 X-3.615F3000S1000
G0 X-1.25
G0 X-0.035Y0.1
G0 X1.25
G1 X3.245
G1 X4.171F5000S0
G1 X1.504F3000S1000
G0 X1.25
G0 Y0.1
G0 X-1.252
G1 X-1.502
G1 X-4.575F5000S0
G1 X-2.875F3000S1000
G0 X-1.25
G0 X-0.035Y0.1
G0 X1.25
G1 X2.505
G1 X4.98F5000S0
G1 X1.5F3000S1000
G0 X1.25
G0 Y0.1
G0 X-1.252
G1 X-1.499
G1 X-5.383F5000S0
G1 X-2.129F3000S1000
G0 X-1.25
G0 X-0.022Y0.1
G0 X1.25
G1 X1.746
G1 X5.788F5000S0
G1 X1.497F3000S1000
G0 X1.25
G0 Y0.1
G0 X-1.252
G1 X-1.495
G1 X-5.999F5000S0
G1 X-1.557F3000S1000
G0 X-1.25
G0 X-0.022Y0.1
G0 X1.25
G1 X3.89
G1 X3.687F5000S0
G1 X1.494F3000S1000
G0 X1.25
G0 Y0.1
G0 X-1.252
G1 X-1.492
G1 X-0.368S0
G1 X-7.231S1000
G0 X-1.25
G0 X-0.011Y0.1
G0 X1.25
G1 X9.1
G0 X1.25
G0 X0.838Y0.1
G0 X-1.25
G1 X-9.948
G0 X-1.25
G0 X-0.01Y0.1
G0 X1.25
G1 X10.604
G0 X1.25
G0 X0.47Y0.1
G0 X-1.25
G1 X-11.083
G0 X-1.25
G0 X-0.01Y0.1
G0 X1.25
G1 X11.482
G0 X1.25
G0 X0.317Y0.1
G0 X-1.25
G1 X-11.803
G0 X-1.25
G0 Y0.1
G0 X1.247
G1 X12.11
G0 X1.25
G0 X0.249Y0.1
G0 X-1.25
G1 X-12.363
G0 X-1.25
G0 Y0.1
G0 X1.25
G1 X12.564
G0 X1.25
G0 X0.162Y0.1
G0 X-1.25
G1 X-12.716
G0 X-1.25
G0 X0.01Y0.1
G0 X1.25
G1 X12.839
G0 X1.25
G0 X0.117Y0.1
G0 X-1.25
G1 X-12.946
G0 X-1.25
G0 X0.018Y0.1
G0 X1.25
G1 X13.033
G0 X1.25
G0 X0.085Y0.1
G0 X-1.25
G1 X-13.094
G0 X-1.25
G0 X0.023Y0.1
G0 X1.25
G1 X13.157
G0 X1.25
G0 X0.062Y0.1
G0 X-1.25
G1 X-13.195
G0 X-1.25
G0 X0.038Y0.1
G0 X1.25
G1 X13.209
G0 X1.25
G0 X0.048Y0.1
G0 X-1.25
G1 X-13.218
G0 X-1.25
G0 X0.039Y0.1
G0 X1.25
G1 X13.213
G0 X1.25
G0 X0.033Y0.1
G0 X-1.25
G1 X-13.195
G0 X-1.25
G0 X0.065Y0.1
G0 X1.25
G1 X13.156
G0 X1.25
G0 X0.018Y0.1
G0 X-1.25
G1 X-13.072
G0 X-1.25
G0 X0.149Y0.1
G0 X1.25
G1 X12.941
G0 X1.25
G0 X0.006Y0.1
G0 X-1.25
G1 X-9.037
G0 X-1.25
G0 X2.454Y0.1
G0 X1.25
G1 X6.586
G0 X1.25
G0 Y0.1
G0 X-1.248
G1 X-5.926
G0 X-1.25
G0 Y0.1
G0 X1.25
G1 X1.516
G1 X0.29S0
G1 X4.109S1000
G0 X1.25
G0 X-0.012Y0.1
G0 X-1.25
G1 X-3.451
G1 X-0.95S0
G1 X-1.502S1000
G0 X-1.25
G0 Y0.1
G0 X1.25
G1 X1.457
G1 X1.566F5000S0
G1 X2.864F3000S1000
G0 X1.25
G0 X-0.027Y0.1
G0 X-1.25
G1 X-2.49
G1 X-1.965F5000S0
G1 X-1.405F3000S1000
G0 X-1.25
G0 Y0.1
G0 X1.25
G1 X1.317
G1 X2.313F5000S0
G1 X2.203F3000S1000
G0 X1.25
G0 X-0.037Y0.1
G0 X-1.25
G1 X-1.962
G1 X-2.632F5000S0
G1 X-1.081F3000S1000
G0 X-1.25
G0 X0.22Y0.1
G0 X1.25
G1 X0.638
G1 X3.027F5000S0
G1 X1.746F3000S1000
G0 X1.25
G0 X-0.045Y0.1
G0 X-1.25
G1 X-1.621
G0 X-1.25
G0 X0.029Y0.1
G0 X1.25
G1 X1.529
G0 X1.25
G0 X-0.062Y0.1
G0 X-1.25
G1 X-1.473
G0 X-1.25
G0 X-0.052Y0.1
G0 X1.25
G1 X1.447
G0 X1.25
G0 X-0.084Y0.1
G0 X-1.25
G1 X-1.434
G0 X-1.25
G0 X-0.094Y0.1
G0 X1.25
G1 X1.443
G0 X1.25
G0 X-0.09Y0.1
G0 X-1.25
G1 X-1.493
G0 X-1.25
G0 X-0.204Y0.1
G0 X1.25
G1 X1.586
G0 X1.25
G0 X-0.111Y0.1
G0 X-1.25
G1 X-1.692
G0 X-1.25
G0 X-0.236Y0.1
G0 X1.25
G1 X1.812
G0 X1.25
G0 X-0.148Y0.1
G0 X-1.25
G1 X-1.93
G0 X-1.25
G0 X-0.315Y0.1
G0 X1.25
G1 X2.098
G0 X1.25
G0 X-0.179Y0.1
G0 X-1.25
G1 X-2.294
G0 X-1.25
G0 X-0.473Y0.1
G0 X1.25
G1 X2.565
G0 X1.25
G0 X-0.219Y0.1
G0 X-1.25
G1 X-2.797
G0 X-1.25
G0 X-0.035Y0.1
G0 X1.25
G1 X2.598
G0 X1.25
G0 X-0.234Y0.1
G0 X-1.25
G1 X-2.38
G0 X-1.25
G0 Y0.1
G0 X1.247
G1 X2.123
G0 X1.25
G0 X-0.261Y0.1
G0 X-1.25
G1 X-1.847
G0 X-1.25
G0 X0.037Y0.1
G0 X1.25
G1 X1.528
G0 X1.25
G0 X-0.295Y0.1
G0 X-1.25
G1 X-1.182
G0 X-1.25
G0 X0.08Y0.1
G0 X1.25
G1 X0.786
G0 X1.25
G0 X-0.339Y0.1
G0 X-1.25
G1 X-0.299
G0 X-1.25
G0 X1.104Y1.4
G0 X1.25
G1 X1.396
G0 X1.25
G0 X0.364Y0.1
G0 X-1.25
G1 X-2.143
G0 X-1.25
G0 X-0.312Y0.1
G0 X1.25
G1 X2.709
G0 X1.25
G0 X0.202Y0.1
G0 X-1.25
G1 X-3.172
G0 X-1.25
G0 X-0.222Y0.1
G0 X1.25
G1 X3.566
G0 X1.25
G0 X0.145Y0.1
G0 X-1.25
G1 X-3.913
G0 X-1.25
G0 X-0.184Y0.1
G0 X1.25
G1 X4.219
G0 X1.25
G0 X0.113Y0.1
G0 X-1.25
G1 X-4.494
G0 X-1.25
G0 X-0.162Y0.1
G0 X1.25
G1 X4.752
G0 X1.25
G0 X0.088Y0.1
G0 X-1.25
G1 X-4.979
G0 X-1.25
G0 X-0.132Y0.1
G0 X1.25
G1 X5.193
G0 X1.25
G0 X0.068Y0.1
G0 X-1.25
G1 X-5.394
G0 X-1.25
G0 X-0.115Y0.1
G0 X1.25
G1 X5.578
G0 X1.25
G0 X0.055Y0.1
G0 X-1.25
G1 X-5.742
G0 X-1.25
G0 X-0.11Y0.1
G0 X1.25
G1 X5.904
G0 X1.25
G0 X0.051Y0.1
G0 X-1.25
G1 X-6.057
G0 X-1.25
G0 X-0.091Y0.1
G0 X1.25
G1 X6.185
G0 X1.25
G0 X0.038Y0.1
G0 X-1.25
G1 X-6.314
G0 X-1.25
G0 X-0.091Y0.1
G0 X1.25
G1 X6.44
G0 X1.25
G0 X0.024Y0.1
G0 X-1.25
G1 X-6.545
G1 X-2.089F5000S0
G1 X-1.888F3000S1000
G0 X-1.25
G0 X-0.41Y0.1
G0 X1.25
G1 X3.022
G1 X1.291F5000S0
G1 X6.643F3000S1000
G0 X1.25
G0 X0.021Y0.1
G0 X-1.25
G1 X-6.739
G1 X-0.703S0
G1 X-3.803S1000
G0 X-1.25
G0 X-0.242Y0.1
G0 X1.25
G1 X4.45
G1 X0.223S0
G1 X6.826S1000
G0 X1.25
G0 X0.011Y0.1
G0 X-1.25
G1 X-3.237
G1 X-1.124F5000S0
G1 X-7.328F3000S1000
G0 X-1.25
G0 X-0.166Y0.1
G0 X1.25
G1 X6.955
G1 X2.097F5000S0
G1 X2.814F3000S1000
G0 X1.25
G0 Y0.1
G0 X-1.246
G1 X-2.539
G1 X-2.731F5000S0
G1 X-6.763F3000S1000
G0 X-1.25
G0 X-0.117Y0.1
G0 X1.25
G1 X6.613
G1 X3.213F5000S0
G1 X2.328F3000S1000
G0 X1.25
G0 Y0.1
G0 X-1.246
G1 X-2.168
G1 X-3.349F5000S0
G1 X-6.744F3000S1000
G0 X-1.25
G0 X-0.084Y0.1
G0 X1.25
G1 X7.075
G1 X3.24F5000S0
G1 X2.035F3000S1000
G0 X1.25
G0 Y0.1
G0 X-1.255
G1 X-1.94
G1 X-3.083F5000S0
G1 X-7.393F3000S1000
G0 X-1.25
G0 X-0.058Y0.1
G0 X1.25
G1 X7.699
G1 X2.921F5000S0
G1 X1.847F3000S1000
G0 X1.25
G0 X-0.008Y0.1
G0 X-1.25
G1 X-1.785
G1 X-2.758F5000S0
G1 X-7.968F3000S1000
G0 X-1.25
G0 X-0.038Y0.1
G0 X1.25
G1 X8.202
G1 X2.615F5000S0
G1 X1.724F3000S1000
G0 X1.25
G0 X-0.013Y0.1
G0 X-1.25
G1 X-1.675
G1 X-2.454F5000S0
G1 X-8.437F3000S1000
G0 X-1.25
G0 X-0.02Y0.1
G0 X1.25
G1 X8.653
G1 X2.283F5000S0
G1 X1.631F3000S1000
G0 X1.25
G0 X-0.019Y0.1
G0 X-1.25
G1 X-1.586
G1 X-2.112F5000S0
G1 X-8.87F3000S1000
G0 X-1.25
G0 X-0.011Y0.1
G0 X1.25
G1 X9.049
G1 X1.946F5000S0
G1 X1.564F3000S1000
G0 X1.25
G0 X-0.023Y0.1
G0 X-1.25
G1 X-1.541
G1 X-1.786F5000S0
G1 X-9.212F3000S1000
G0 X-1.25
G0 Y0.1
G0 X1.248
G1 X9.375
G1 X1.624F5000S0
G1 X1.511F3000S1000
G0 X1.25
G0 X-0.032Y0.1
G0 X-1.25
G1 X-1.491
G1 X-1.452F5000S0
G1 X-6.987F3000S1000
G1 X-0.301S0
G1 X-2.233S1000
G0 X-1.25
G0 X0.013Y0.1
G0 X1.25
G1 X1.448
G1 X1.902F5000S0
G1 X6.319F3000S1000
G1 X1.273F5000S0
G1 X1.477F3000S1000
G0 X1.25
G0 X-0.034Y0.1
G0 X-1.25
G1 X-1.461
G1 X-1.1F5000S0
G1 X-5.944F3000S1000
G1 X-2.6F5000S0
G1 X-1.256F3000S1000
G0 X-1.25
G0 X0.031Y0.1
G0 X1.25
G1 X1.123
G1 X3.082F5000S0
G1 X5.698F3000S1000
G1 X0.938S0
G1 X1.444S1000
G0 X1.25
G0 X-0.045Y0.1
G0 X-1.25
G1 X-1.435
G1 X-0.769S0
G1 X-5.46S1000
G1 X-3.515F5000S0
G1 X-1.023F3000S1000
G0 X-1.25
G0 X0.077Y0.1
G0 X1.25
G1 X0.932
G1 X3.85F5000S0
G1 X5.272F3000S1000
G1 X0.6S0
G1 X1.426S1000
G0 X1.25
G0 X-0.05Y0.1
G0 X-1.25
G1 X-1.425
G1 X-0.417S0
G1 X-5.57S1000
G1 X-3.651F5000S0
G1 X-1.057F3000S1000
G0 X-1.25
G0 X-0.081Y0.1
G0 X1.25
G1 X1.173
G1 X3.442F5000S0
G1 X5.877F3000S1000
G1 X0.227S0
G1 X1.422S1000
G0 X1.25
G0 X-0.059Y0.1
G0 X-1.25
G1 X-1.42
G1 X-0.037S0
G1 X-6.209S1000
G1 X-3.174F5000S0
G1 X-1.291F3000S1000
G0 X-1.25
G0 X-0.045Y0.1
G0 X1.25
G1 X1.408
G1 X2.875F5000S0
G1 X1.614F3000S1000
G1 X0.25S0
G1 X5.969S1000
G0 X1.25
G0 X-0.071Y0.1
G0 X-1.25
G1 X-5.664
G1 X-0.558S0
G1 X-1.803S1000
G1 X-2.492F5000S0
G1 X-1.559F3000S1000
G0 X-1.25
G0 X-0.03Y0.1
G0 X1.25
G1 X1.763
G1 X2.004F5000S0
G1 X2.039F3000S1000
G1 X0.87S0
G1 X5.353S1000
G0 X1.25
G0 X-0.076Y0.1
G0 X-1.25
G1 X-5.076
G1 X-1.158F5000S0
G1 X-2.415F3000S1000
G1 X-1.212F5000S0
G1 X-2.108F3000S1000
G0 X-1.25
G0 X-0.016Y0.1
G0 X1.25
G1 X5.664
G1 X1.444F5000S0
G1 X4.794F3000S1000
G0 X1.25
G0 X-0.097Y0.1
G0 X-1.25
G1 X-4.498
G1 X-1.73F5000S0
G1 X-5.579F3000S1000
G0 X-1.25
G0 Y0.1
G0 X1.249
G1 X5.492
G1 X1.997F5000S0
G1 X4.222F3000S1000
G0 X1.25
G0 X-0.061Y0.1
G0 X-1.25
G1 X-3.989
G1 X-2.276F5000S0
G1 X-5.375F3000S1000
G0 X-1.25
G0 X0.014Y0.1
G0 X1.25
G1 X5.252
G1 X2.556F5000S0
G1 X3.899F3000S1000
G0 X1.25
G0 X0.082Y0.1
G0 X-1.25
G1 X-3.811
G1 X-2.834F5000S0
G1 X-5.123F3000S1000
G0 X-1.25
G0 X0.03Y0.1
G0 X1.25
G1 X4.98
G1 X3.096F5000S0
G1 X3.743F3000S1000
G0 X1.25
G0 X0.082Y0.1
G0 X-1.25
G1 X-3.676
G1 X-1.681F5000S0
G1 X-0.237F3000S1000
G1 X-1.463F5000S0
G1 X-4.809F3000S1000
G0 X-1.25
G0 X0.047Y0.1
G0 X1.25
G1 X4.627
G1 X1.213F5000S0
G1 X1.062F3000S1000
G1 X1.39F5000S0
G1 X3.597F3000S1000
G0 X1.25
G0 X0.062Y0.1
G0 X-1.25
G1 X-3.51
G1 X-1.371F5000S0
G1 X-1.426F3000S1000
G1 X-1.153F5000S0
G1 X-4.438F3000S1000
G0 X-1.25
G0 X0.066Y0.1
G0 X1.25
G1 X4.206
G1 X1.188F5000S0
G1 X1.669F3000S1000
G1 X1.39F5000S0
G1 X3.441F3000S1000
G0 X1.25
G0 X0.062Y0.1
G0 X-1.25
G1 X-3.372
G1 X-1.586F5000S0
G1 X-1.689F3000S1000
G1 X-1.275F5000S0
G1 X-3.953F3000S1000
G0 X-1.25
G0 X0.101Y0.1
G0 X1.25
G1 X3.676
G1 X1.374F5000S0
G1 X1.719F3000S1000
G1 X1.56F5000S0
G1 X3.507F3000S1000
G0 X1.25
G0 X0.054Y0.1
G0 X-1.25
G1 X-3.749
G1 X-1.409F5000S0
G1 X-1.73F3000S1000
G1 X-1.549F5000S0
G1 X-3.334F3000S1000
G0 X-1.25
G0 X0.135Y0.1
G0 X1.25
G1 X2.975
G1 X1.731F5000S0
G1 X1.746F3000S1000
G1 X1.224F5000S0
G1 X4.006F3000S1000
G0 X1.25
G0 X0.045Y0.1
G0 X-1.25
G1 X-4.277
G1 X-1.021F5000S0
G1 X-1.751F3000S1000
G1 X-1.998F5000S0
G1 X-2.519F3000S1000
G0 X-1.25
G0 X0.21Y0.1
G0 X1.25
G1 X1.979
G1 X2.318F5000S0
G1 X1.748F3000S1000
G1 X0.785S0
G1 X4.572S1000
G0 X1.25
G0 X0.046Y0.1
G0 X-1.25
G1 X-4.91
G1 X-0.502S0
G1 X-1.747S1000
G1 X-2.794F5000S0
G1 X-1.172F3000S1000
G0 X-1.25
G0 X3.966Y0.1
G0 X1.25
G1 X1.745
G1 X0.132S0
G1 X5.326S1000
G0 X1.25
G0 X0.031Y0.1
G0 X-1.25
G1 X-7.235
G0 X-1.25
G0 Y0.1
G0 X1.25
G1 X4.171
G1 X0.224S0
G1 X2.87S1000
G0 X1.25
G0 X0.031Y0.1
G0 X-1.25
G1 X-2.825
G1 X-0.482S0
G1 X-3.99S1000
G0 X-1.25
G0 Y0.1
G0 X1.25
G1 X3.808
G1 X0.731S0
G1 X2.789S1000
G0 X1.25
G0 X0.031Y0.1
G0 X-1.25
G1 X-2.757
G1 X-0.987S0
G1 X-3.62S1000
G0 X-1.25
G0 X-0.006Y0.1
G0 X1.25
G1 X3.417
G1 X1.255F5000S0
G1 X2.723F3000S1000
G0 X1.25
G0 X0.014Y0.1
G0 X-1.25
G1 X-2.686
G1 X-1.526F5000S0
G1 X-3.202F3000S1000
G0 X-1.25
G0 X-0.005Y0.1
G0 X1.25
G1 X2.961
G1 X1.823F5000S0
G1 X2.649F3000S1000
G0 X1.25
G0 X0.015Y0.1
G0 X-1.25
G1 X-2.622
G1 X-2.134F5000S0
G1 X-2.698F3000S1000
G0 X-1.25
G0 X-0.008Y0.1
G0 X1.25
G1 X2.41
G1 X2.47F5000S0
G1 X2.596F3000S1000
G0 X1.25
G0 Y0.1
G0 X-1.247
G1 X-2.563
G1 X-2.865F5000S0
G1 X-2.062F3000S1000
G0 X-1.25
G0 X-0.01Y0.1
G0 X1.25
G1 X1.92
G1 X3.043F5000S0
G1 X2.537F3000S1000
G0 X1.25
G0 Y0.1
G0 X-1.25
G1 X-2.512
G1 X-3.055F5000S0
G1 X-1.943F3000S1000
G0 X-1.25
G0 X-0.01Y0.1
G0 X1.25
G1 X1.966
G1 X3.062F5000S0
G1 X2.492F3000S1000
G0 X1.25
G0 Y0.1
G0 X-1.251
G1 X-2.488
G1 X-3.059F5000S0
G1 X-1.985F3000S1000
G0 X-1.25
G0 X-0.015Y0.1
G0 X1.25
G1 X2.005
G1 X3.057F5000S0
G1 X2.473F3000S1000
G0 X1.25
G0 X-0.012Y0.1
G0 X-1.25
G1 X-2.459
G1 X-3.054F5000S0
G1 X-2.026F3000S1000
G0 X-1.25
G0 X-0.015Y0.1
G0 X1.25
G1 X2.038
G1 X3.038F5000S0
G1 X2.461F3000S1000
G0 X1.25
G0 X-0.03Y0.1
G0 X-1.25
G1 X-2.451
G1 X-3.02F5000S0
G1 X-2.051F3000S1000
G0 X-1.25
G0 X-0.017Y0.1
G0 X1.25
G1 X2.063
G1 X3.006F5000S0
G1 X2.44F3000S1000
G0 X1.25
G0 X-0.042Y0.1
G0 X-1.25
G1 X-2.44
G1 X-2.974F5000S0
G1 X-2.074F3000S1000
G0 X-1.25
G0 X-0.021Y0.1
G0 X1.25
G1 X2.085
G1 X2.941F5000S0
G1 X2.433F3000S1000
G0 X1.25
G0 X-0.052Y0.1
G0 X-1.25
G1 X-2.428
G1 X-2.916F5000S0
G1 X-2.094F3000S1000
G0 X-1.25
G0 X-0.035Y0.1
G0 X1.25
G1 X2.1
G1 X2.858F5000S0
G1 X2.441F3000S1000
G0 X1.25
G0 X-0.074Y0.1
G0 X-1.25
G1 X-2.396
G1 X-2.858F5000S0
G1 X-2.109F3000S1000
G0 X-1.25
G0 X-0.049Y0.1
G0 X1.25
G1 X2.115
G1 X2.958F5000S0
G1 X2.239F3000S1000
G0 X1.25
G0 X-0.104Y0.1
G0 X-1.25
G1 X-2.06
G1 X-3.09F5000S0
G1 X-2.108F3000S1000
G0 X-1.25
G0 X-0.064Y0.1
G0 X1.25
G1 X2.116
G1 X3.248F5000S0
G1 X1.813F3000S1000
G0 X1.25
G0 X-0.176Y0.1
G0 X-1.25
G1 X-1.47
G1 X-3.496F5000S0
G1 X-2.101F3000S1000
G0 X-1.25
G0 X-0.091Y0.1
G0 X1.25
G1 X2.101
G1 X3.817F5000S0
G1 X0.978F3000S1000
G0 X1.25
G0 X-4.904Y0.1
G0 X-1.25
G1 X-1.961
G0 X-1.25
G0 X0.072Y0.1
G0 X1.25
G1 X1.743
G0 X1.25
G0 X-0.177Y0.1
G0 X-1.25
G1 X-1.462
G0 X-1.25
G0 X0.216Y0.1
G0 X1.25
G1 X1.033
G0 X1.25
G0 X4.507Y2.9
G0 X-1.25
G1 X-1.701
G0 X-1.25
G0 X-0.439Y0.1
G0 X1.25
G1 X2.509
G0 X1.25
G0 X0.229Y0.1
G0 X-1.25
G1 X-3.023
G0 X-1.25
G0 X-0.27Y0.1
G0 X1.25
G1 X3.521
G0 X1.25
G0 X0.163Y0.1
G0 X-1.25
G1 X-3.877
G0 X-1.25
G0 X-0.194Y0.1
G0 X1.25
G1 X4.231
G0 X1.25
G0 X0.149Y0.1
G0 X-1.25
G1 X-4.562
G0 X-1.25
G0 X-5.197Y0.1
G0 X1.25
G1 X1.188
G1 X3.868F5000S0
G1 X4.821F3000S1000
G0 X1.25
G0 X0.118Y0.1
G0 X-1.25
G1 X-5.081
G1 X-3.268F5000S0
G1 X-2.147F3000S1000
G0 X-1.25
G0 X-0.317Y0.1
G0 X1.25
G1 X2.783
G1 X2.808F5000S0
G1 X5.34F3000S1000
G0 X1.25
G0 X0.088Y0.1
G0 X-1.25
G1 X-5.55
G1 X-2.45F5000S0
G1 X-3.281F3000S1000
G0 X-1.25
G0 X-0.198Y0.1
G0 X1.25
G1 X3.688
G1 X2.134F5000S0
G1 X5.745F3000S1000
G0 X1.25
G0 X0.088Y0.1
G0 X-1.25
G1 X-5.939
G1 X-1.848F5000S0
G1 X-4.06F3000S1000
G0 X-1.25
G0 X-0.15Y0.1
G0 X1.25
G1 X4.374
G1 X1.578F5000S0
G1 X6.129F3000S1000
G0 X1.25
G0 X0.065Y0.1
G0 X-1.25
G1 X-6.297
G1 X-1.334F5000S0
G1 X-4.665F3000S1000
G0 X-1.25
G0 X-0.131Y0.1
G0 X1.25
G1 X4.938
G1 X1.112F5000S0
G1 X6.442F3000S1000
G0 X1.25
G0 X0.065Y0.1
G0 X-1.25
G1 X-6.587
G1 X-0.924S0
G1 X-5.163S1000
G0 X-1.25
G0 X-0.116Y0.1
G0 X1.25
G1 X5.384
G1 X0.74S0
G1 X6.732S1000
G0 X1.25
G0 X0.047Y0.1
G0 X-1.25
G1 X-6.859
G1 X-0.555S0
G1 X-5.591S1000
G0 X-1.25
G0 X-0.092Y0.1
G0 X1.25
G1 X5.769
G1 X0.389S0
G1 X6.985S1000
G0 X1.25
G0 X0.046Y0.1
G0 X-1.25
G1 X-7.097
G1 X-0.241S0
G1 X-5.942S1000
G0 X-1.25
G0 X-0.087Y0.1
G0 X1.25
G1 X6.111
G1 X0.093S0
G1 X7.209S1000
G0 X1.25
G0 X0.041Y0.1
G0 X-1.25
G1 X-13.526
G0 X-1.25
G0 X-0.072Y0.1
G0 X1.25
G1 X13.627
G0 X1.25
G0 X0.029Y0.1
G0 X-1.25
G1 X-13.727
G0 X-1.25
G0 X-0.063Y0.1
G0 X1.25
G1 X13.819
G0 X1.25
G0 X0.029Y0.1
G0 X-1.25
G1 X-13.903
G0 X-1.25
G0 X-0.055Y0.1
G0 X1.25
G1 X9.059
G1 X1.162F5000S0
G1 X3.763F3000S1000
G0 X1.25
G0 X0.019Y0.1
G0 X-1.25
G1 X-3.352
G1 X-2.008F5000S0
G1 X-8.697F3000S1000
G0 X-1.25
G0 X-0.046Y0.1
G0 X1.25
G1 X8.451
G1 X2.56F5000S0
G1 X3.11F3000S1000
G0 X1.25
G0 X0.019Y0.1
G0 X-1.25
G1 X-2.933
G1 X-2.976F5000S0
G1 X-8.262F3000S1000
G0 X-1.25
G0 X-0.032Y0.1
G0 X1.25
G1 X8.104
G1 X3.331F5000S0
G1 X2.786F3000S1000
G0 X1.25
G0 X0.013Y0.1
G0 X-1.25
G1 X-2.655
G1 X-3.644F5000S0
G1 X-3.431F3000S1000
G1 X-1.675F5000S0
G1 X-2.861F3000S1000
G0 X-1.25
G0 X-0.031Y0.1
G0 X1.25
G1 X2.356
G1 X2.678F5000S0
G1 X2.819F3000S1000
G1 X3.907F5000S0
G1 X2.548F3000S1000
G0 X1.25
G0 X0.011Y0.1
G0 X-1.25
G1 X-2.447
G1 X-4.153F5000S0
G1 X-2.396F3000S1000
G1 X-3.343F5000S0
G1 X-2.012F3000S1000
G0 X-1.25
G0 X-0.018Y0.1
G0 X1.25
G1 X1.779
G1 X3.841F5000S0
G1 X2.033F3000S1000
G1 X4.361F5000S0
G1 X2.365F3000S1000
G0 X1.25
G0 X0.01Y0.1
G0 X-1.25
G1 X-2.284
G1 X-4.547F5000S0
G1 X-1.737F3000S1000
G1 X-4.23F5000S0
G1 X-1.609F3000S1000
G0 X-1.25
G0 X-0.017Y0.1
G0 X1.25
