; LightBurn 1.3.01
; GRBL device profile, absolute coords
; Bounds: X251 Y359 to X786 Y782.2
G00 G17 G40 G21 G54
G90
M4
; Cut @ 2500.002 mm/min, 100% power
M8
G0 X712.035Y708.101
; Layer Linea 
G1 X711.991Y708.173S1000F2500
G1 X711.969Y708.258
G1 Y708.361
G1 X711.986Y708.486
G1 X712.022Y708.636
G1 X712.057Y708.719
G1 X712.113Y708.775
G1 X712.192Y708.801
G1 X712.296
G1 X712.429Y708.767
G1 X712.591Y708.706
G1 X712.787Y708.614
G1 X713.019Y708.492
G1 X713.494Y708.205
G1 X714.007Y707.846
G1 X714.545Y707.429
G1 X715.09Y706.968
G1 X715.628Y706.476
G1 X716.143Y705.967
G1 X716.618Y705.456
G1 X717.04Y704.955
G1 X717.595Y704.244
G1 X718.163Y703.505
G1 X718.551Y703.012
G1 X718.945Y702.544
G1 X719.345Y702.102
G1 X719.75Y701.687
G1 X720.157Y701.299
G1 X720.565Y700.941
G1 X720.974Y700.612
G1 X721.381Y700.313
G1 X721.786Y700.046
G1 X722.187Y699.812
G1 X722.582Y699.611
G1 X722.971Y699.444
G1 X723.351Y699.313
G1 X723.722Y699.218
G1 X724.083Y699.161
G1 X724.431Y699.141
G1 X724.578
G1 X724.695
G1 X724.785Y699.125
G1 X724.851Y699.109
G1 X724.924Y699.054
G1 X724.942Y698.96
G1 X724.92Y698.873
G1 X724.853Y698.803
G1 X724.741Y698.751
G1 X724.583Y698.716
G1 X724.379Y698.698
G1 X724.129
G1 X723.832Y698.715
G1 X723.487Y698.75
G1 X723.077Y698.807
G1 X722.688Y698.881
G1 X722.317Y698.978
G1 X721.958Y699.098
G1 X721.607Y699.247
G1 X721.26Y699.427
G1 X720.912Y699.643
G1 X720.56Y699.896
G1 X720.197Y700.192
G1 X719.82Y700.532
G1 X719.425Y700.922
G1 X719.007Y701.363
G1 X718.561Y701.86
G1 X718.083Y702.416
G1 X717.569Y703.034
G1 X717.014Y703.718
G1 X716.416Y704.43
G1 X715.788Y705.118
G1 X715.146Y705.769
G1 X714.508Y706.367
G1 X713.889Y706.896
G1 X713.307Y707.342
G1 X713.035Y707.53
G1 X712.779Y707.69
G1 X712.541Y707.823
G1 X712.199Y707.981
G1 X712.104Y708.038
G1 X712.035Y708.101
G0 X718.426Y709.898
G1 X718.353Y710.038
G1 X718.316Y710.174
G1 Y710.307
G1 X718.348Y710.439
G1 X718.418Y710.571
G1 X718.524Y710.703
G1 X718.666Y710.836
G1 X718.815Y710.972
G1 X718.905Y711.088
G1 X718.93Y711.192
G1 X718.883Y711.291
G1 X718.758Y711.394
G1 X718.547Y711.508
G1 X718.408Y711.571
G1 X718.246Y711.641
G1 X718.058Y711.716
G1 X717.846Y711.799
G1 X717.43Y711.974
G1 X717.073Y712.149
G1 X716.786Y712.321
G1 X716.58Y712.483
G1 X716.24Y712.808
G1 X716.769Y712.474
G1 X717.003Y712.335
G1 X717.25Y712.202
G1 X717.48Y712.09
G1 X717.663Y712.015
G1 X717.842Y711.962
G1 X717.99Y711.941
G1 X718.11Y711.953
G1 X718.205Y712
G1 X718.278Y712.086
G1 X718.33Y712.211
G1 X718.365Y712.378
G1 X718.402Y712.781
G1 X718.427Y712.938
G1 X718.456Y713.045
G1 X718.487Y713.084
G1 X718.547Y713.036
G1 X718.656Y712.907
G1 X718.799Y712.716
G1 X718.96Y712.483
G1 X719.219Y712.111
G1 X719.49Y711.762
G1 X719.647Y711.576
G1 X719.827Y711.371
G1 X720.038Y711.139
G1 X720.51Y710.631
G1 X720.106Y710.66
G1 X719.889
G1 X719.687Y710.634
G1 X719.503Y710.578
G1 X719.338Y710.495
G1 X719.193Y710.386
G1 X719.07Y710.251
G1 X718.97Y710.091
G1 X718.894Y709.908
G1 X718.76Y709.492
G1 X718.534Y709.755
G1 X718.426Y709.898
G0 X720.506Y705.769
G1 X720.552
G1 X720.618Y705.735
G1 X720.702Y705.683
G1 X720.803Y705.607
G1 X720.88Y705.516
G1 X720.971Y705.363
G1 X721.069Y705.171
G1 X721.164Y704.96
G1 X721.248Y704.751
G1 X721.31Y704.567
G1 X721.342Y704.427
G1 Y704.353
G1 X721.277
G1 X721.141Y704.389
G1 X720.947Y704.449
G1 X720.713Y704.528
G1 X720.2Y704.717
G1 X719.75Y704.906
G1 X719.317Y705.106
G1 X719.75Y705.052
G1 X719.925Y705.023
G1 X720.083Y704.986
G1 X720.205Y704.945
G1 X720.389Y704.841
G1 X720.539Y704.815
G1 X720.612Y704.834
G1 X720.666Y704.889
G1 X720.699Y704.971
G1 X720.713Y705.075
G1 X720.679Y705.318
G1 X720.562Y705.562
G1 X720.509Y705.647
G1 X720.483Y705.71
G1 Y705.751
G1 X720.506Y705.769
G0 X726.475Y705.163
G1 X726.39Y704.286
G1 X726.35Y703.806
G1 X726.307Y703.211
G1 X726.267Y702.577
G1 X726.234Y701.978
G1 X726.221Y701.663
G1 Y701.393
G1 Y701.17
G1 Y700.991
G1 Y700.858
G1 X726.234Y700.769
G1 X726.251Y700.725
G1 X726.271
G1 X726.295Y700.768
G1 X726.321Y700.855
G1 X726.351Y700.985
G1 X726.383Y701.157
G1 X726.417Y701.372
G1 X726.452Y701.628
G1 X726.489Y701.927
G1 X726.527Y702.266
G1 X726.646Y703.376
G1 X726.817Y704.937
G1 X727.053Y707.026
G1 X727.147Y707.813
G1 X727.184Y708.084
G1 Y708.132
G1 X727.17Y708.256
G1 X727.069Y708.419
G1 X726.987Y708.521
G1 X726.962Y708.562
G1 X726.996Y708.544
G1 X727.09Y708.472
G1 X727.185Y708.405
G1 X727.234
G1 X727.247Y708.464
G1 X727.234Y708.611
G1 X727.185Y708.796
G1 X727.103Y708.908
G1 X727.055Y708.932
G1 X727.006
G1 X726.958Y708.906
G1 X726.914Y708.853
G1 X726.901Y708.812
G1 X726.883Y708.727
G1 X726.862Y708.6
G1 X726.838Y708.435
G1 X726.781Y707.995
G1 X726.714Y707.428
G1 X726.639Y706.754
G1 X726.558Y705.993
G1 X726.475Y705.163
G0 X727.734Y705.302
G1 X727.799Y704.412
G1 X727.869Y703.367
G1 X727.94Y702.256
G1 X728.006Y701.169
G1 X728.061Y700.196
G1 X728.1Y699.426
G1 X728.112Y699.145
G1 X728.122Y698.822
G1 X728.137Y698.773
G1 X728.17Y698.798
G1 X728.229Y698.894
G1 X728.243Y698.943
G1 X728.255Y699.032
G1 Y699.16
G1 X728.271Y699.324
G1 Y699.521
G1 Y699.748
G1 Y700.284
G1 Y700.911
G1 X728.248Y701.608
G1 X728.224Y702.354
G1 X728.196Y703.129
G1 X728.162Y703.912
G1 X728.125Y704.682
G1 X728.086Y705.419
G1 X728.044Y706.101
G1 X728.001Y706.707
G1 X727.957Y707.218
G1 X727.936Y707.43
G1 X727.914Y707.611
G1 X727.893Y707.758
G1 X727.872Y707.867
G1 X727.837Y707.973
G1 X727.789Y708.044
G1 X727.734Y708.08
G1 X727.677
G1 X727.625Y708.057
G1 X727.58Y707.999
G1 X727.55Y707.912
G1 X727.539Y707.797
G1 Y707.707
G1 X727.55Y707.562
G1 X727.581Y707.135
G1 X727.626Y706.576
G1 X727.706Y705.66
G1 X727.734Y705.302
G0 X728.75Y705.108
G1 X728.967Y704.055
G1 X729.069Y703.563
G1 X729.253Y702.706
G1 X729.33Y702.363
G1 X729.416Y702
G1 X729.496Y701.699
G1 X729.567Y701.461
G1 X729.629Y701.291
G1 X729.68Y701.192
G1 X729.718Y701.169
G1 X729.742Y701.223
G1 Y701.36
G1 Y701.423
G1 Y701.518
G1 X729.721Y701.644
G1 X729.699Y701.801
G1 X729.636Y702.204
G1 X729.549Y702.72
G1 X729.377Y703.698
G1 X729.156Y704.903
G1 X728.484Y708.502
G1 X728.443Y708.702
G1 X728.404Y708.857
G1 X728.367Y708.973
G1 X728.289Y709.106
G1 X728.194Y709.141
G1 X728.118Y709.128
G1 X728.064Y709.089
G1 X728.03Y709.024
G1 X728.019Y708.934
G1 X728.03Y708.841
G1 X728.06Y708.653
G1 X728.108Y708.384
G1 X728.171Y708.043
G1 X728.335Y707.19
G1 X728.534Y706.182
G1 X728.75Y705.108
G0 X733.589Y704.685
G1 X733.649Y704.956
G1 X733.725Y705.169
G1 X733.821Y705.336
G1 X733.943Y705.468
G1 X734.049Y705.557
G1 X734.131Y705.616
G1 X734.189Y705.643
G1 X734.222
G1 X734.232Y705.606
G1 X734.218Y705.54
G1 X734.181Y705.443
G1 X734.12Y705.314
G1 X734.053Y705.16
G1 X734.024Y705.035
G1 Y704.924
G1 X734.078Y704.812
G1 X734.174Y704.68
G1 X734.252Y704.645
G1 X734.621Y704.828
G1 X734.95Y704.967
G1 X735.087Y705.016
G1 X735.199Y705.047
G1 X735.281Y705.061
G1 X735.329
G1 Y705.032
G1 X735.293Y704.993
G1 X735.223Y704.939
G1 X735.123Y704.872
G1 X734.849Y704.708
G1 X734.495Y704.519
G1 X734.132Y704.337
G1 X733.828Y704.194
G1 X733.708Y704.142
G1 X733.615Y704.105
G1 X733.554Y704.084
G1 X733.527
G1 Y704.143
G1 Y704.276
G1 X733.552Y704.463
G1 X733.589Y704.685
G0 X735.542Y709.736
G1 X735.491
G1 X735.439Y709.793
G1 X735.386Y709.877
G1 X735.244Y710.18
G1 X735.147Y710.333
G1 X735.037Y710.456
G1 X734.91Y710.553
G1 X734.764Y710.626
G1 X734.595Y710.675
G1 X734.4Y710.703
G1 X734.177
G1 X733.602
G1 X733.934Y711.153
G1 X734.269Y711.635
G1 X734.622Y712.2
G1 X734.786Y712.48
G1 X734.93Y712.742
G1 X735.048Y712.973
G1 X735.131Y713.159
G1 X735.185Y713.284
G1 X735.232Y713.366
G1 X735.274Y713.403
G1 X735.313
G1 X735.35Y713.339
G1 X735.388Y713.234
G1 X735.428Y713.079
G1 X735.471Y712.871
G1 X735.521Y712.674
G1 X735.585Y712.498
G1 X735.655Y712.362
G1 X735.722Y712.286
G1 X735.825Y712.259
G1 X735.969Y712.275
G1 X736.148Y712.329
G1 X736.35Y712.417
G1 X736.793Y712.677
G1 X737.226Y713.02
G1 X737.385Y713.159
G1 X737.515Y713.26
G1 X737.602Y713.313
G1 X737.635
G1 X737.6Y713.214
G1 X737.502Y713.089
G1 X737.351Y712.943
G1 X737.156Y712.781
G1 X736.674Y712.444
G1 X736.132Y712.137
G1 X735.862Y711.999
G1 X735.634Y711.875
G1 X735.445Y711.762
G1 X735.295Y711.661
G1 X735.18Y711.57
G1 X735.1Y711.488
G1 X735.054Y711.413
G1 X735.038Y711.345
G1 X735.065Y711.297
G1 X735.136Y711.234
G1 X735.241Y711.164
G1 X735.37Y711.096
G1 X735.525Y711.008
G1 X735.65Y710.908
G1 X735.746Y710.796
G1 X735.812Y710.672
G1 X735.847Y710.536
G1 Y710.39
G1 X735.827Y710.234
G1 X735.771Y710.067
G1 X735.708Y709.928
G1 X735.649Y709.827
G1 X735.595Y709.762
G1 X735.542Y709.736
G0 X729.75Y710.973
G1 X729.714Y711.013
G1 X729.618Y711.041
G1 X729.481Y711.058
G1 X729.322
G1 X729.159
G1 X729.011Y711.038
G1 X728.897Y711.008
G1 X728.836Y710.968
G1 X728.825Y710.925
G1 X728.838Y710.882
G1 X728.873Y710.843
G1 X728.927Y710.813
G1 X729.141Y710.789
G1 X729.414Y710.82
G1 X729.543Y710.851
G1 X729.65Y710.888
G1 X729.723Y710.929
G1 X729.75Y710.973
G0 X728.787Y710.434
G1 X728.697Y710.513
G1 X728.625Y710.56
G1 X728.57Y710.575
G1 X728.531Y710.559
G1 X728.508Y710.513
G1 Y710.436
G1 X728.531Y710.362
G1 X728.615Y710.242
G1 X728.734Y710.094
G1 X728.875Y709.935
G1 X729.021Y709.782
G1 X729.156Y709.651
G1 X729.265Y709.56
G1 X729.333Y709.526
G1 X729.368Y709.54
G1 X729.379Y709.581
G1 X729.367Y709.645
G1 X729.333Y709.728
G1 X729.21Y709.937
G1 X729.021Y710.182
G1 X728.895Y710.324
G1 X728.787Y710.434
G0 X727.336Y710.654
G1 X727.114Y711.07
G1 X727.026Y711.223
G1 X726.94Y711.347
G1 X726.851Y711.444
G1 X726.755Y711.518
G1 X726.646Y711.571
G1 X726.519Y711.606
G1 X726.37Y711.627
G1 X725.998Y711.646
G1 X725.855Y711.668
G1 X725.764Y711.705
G1 X725.723Y711.76
G1 Y711.836
G1 X725.791Y711.936
G1 X725.897Y712.063
G1 X726.051Y712.222
G1 X726.485Y712.647
G1 X726.423Y713.202
G1 X726.403Y713.417
G1 Y713.594
G1 Y713.713
G1 X726.421Y713.757
G1 X726.473Y713.742
G1 X726.569Y713.7
G1 X726.696Y713.639
G1 X726.998Y713.484
G1 X727.13Y713.427
G1 X727.247Y713.395
G1 X727.355
G1 X727.464
G1 X727.581Y713.447
G1 X727.716Y713.516
G1 X728.027Y713.702
G1 X728.156Y713.778
G1 X728.249Y713.83
G1 X728.292Y713.85
G1 Y713.819
G1 Y713.732
G1 Y713.603
G1 X728.261Y713.444
G1 X728.233Y713.273
G1 X728.203Y713.109
G1 X728.175Y712.971
G1 X728.153Y712.877
G1 X728.167Y712.779
G1 X728.248Y712.639
G1 X728.394Y712.462
G1 X728.599Y712.254
G1 X728.779Y712.081
G1 X728.902Y711.949
G1 X728.965Y711.85
G1 Y711.777
G1 X728.888Y711.723
G1 X728.741Y711.68
G1 X728.515Y711.641
G1 X728.205Y711.598
G1 X727.959Y711.554
G1 X727.8Y711.48
G1 X727.738Y711.42
G1 X727.68Y711.34
G1 X727.62Y711.233
G1 X727.551Y711.096
G1 X727.336Y710.654
G0 X727.671Y710.464
G1 X727.829Y710.752
G1 X728.164Y711.401
G1 X729.673Y711.665
G1 X728.588Y712.761
G1 X728.686Y713.187
G1 X728.734Y713.417
G1 X728.766Y713.623
G1 X728.783Y713.803
G1 Y713.954
G1 X728.771Y714.075
G1 X728.742Y714.164
G1 X728.698Y714.219
G1 X728.639Y714.238
G1 X728.536Y714.213
G1 X728.365Y714.147
G1 X728.15Y714.049
G1 X727.916Y713.93
G1 X727.342Y713.622
G1 X726.717Y713.93
G1 X726.486Y714.04
G1 X726.293Y714.125
G1 X726.135Y714.184
G1 X726.011Y714.219
G1 X725.919Y714.229
G1 X725.856Y714.215
G1 X725.821Y714.178
G1 Y714.117
G1 Y714.02
G1 X725.85Y713.843
G1 X725.891Y713.612
G1 X725.94Y713.352
G1 X726.065Y712.707
G1 X725.544Y712.213
G1 X725.346Y712.018
G1 X725.19Y711.851
G1 X725.093Y711.731
G1 X725.07Y711.674
G1 X725.135Y711.637
G1 X725.28Y711.6
G1 X725.395Y711.58
G1 X725.547Y711.556
G1 X725.741Y711.528
G1 X726.492Y711.426
G1 X726.795Y710.764
G1 X726.937Y710.473
G1 X727.064Y710.264
G1 X727.181Y710.138
G1 X727.294Y710.096
G1 X727.41Y710.136
G1 X727.533Y710.258
G1 X727.671Y710.464
G0 X726.278Y709.976
G1 X726.247Y709.999
G1 X726.198
G1 X726.135
G1 X725.974Y709.917
G1 X725.784Y709.783
G1 X725.631Y709.632
G1 X725.536Y709.486
G1 X725.514Y709.425
G1 Y709.377
G1 X725.53Y709.345
G1 X725.573Y709.334
G1 X725.629Y709.356
G1 X725.723Y709.417
G1 X725.839Y709.504
G1 X725.965Y709.606
G1 X726.086Y709.711
G1 X726.189Y709.809
G1 X726.261Y709.887
G1 X726.289Y709.935
G1 X726.278Y709.976
G0 X725.859Y710.708
G1 X725.962Y710.739
G1 X726Y710.776
G1 X725.962Y710.813
G1 X725.859Y710.844
G1 X725.706Y710.865
G1 X725.519
G1 X725.333
G1 X725.18Y710.844
G1 X725.076Y710.813
G1 X725.039Y710.776
G1 X725.076Y710.739
G1 X725.18Y710.708
G1 X725.333Y710.688
G1 X725.519
G1 X725.706
G1 X725.859Y710.708
G0 X724.907Y712.613
G1 X724.994Y712.644
G1 X725.097Y712.699
G1 X725.209Y712.776
G1 X725.323Y712.875
G1 X725.374Y712.968
G1 Y713.084
G1 X725.32Y713.254
G1 X725.266Y713.386
G1 X725.212Y713.481
G1 X725.16Y713.539
G1 X725.115Y713.56
G1 X725.08Y713.543
G1 X725.059Y713.489
G1 Y713.397
G1 X725.074Y713.267
G1 X725.093Y713.113
G1 X725.078Y712.993
G1 X725.021Y712.891
G1 X724.836Y712.711
G1 X724.8Y712.654
G1 Y712.618
G1 X724.841Y712.604
G1 X724.907
G0 X727.459Y714.341
G1 X727.739Y714.548
G1 X727.875Y714.659
G1 X727.967Y714.756
G1 X728.015Y714.833
G1 Y714.887
G1 X727.987Y714.911
G1 X727.915
G1 X727.806Y714.855
G1 X727.662Y714.765
G1 X727.571Y714.711
G1 X727.494Y714.684
G1 X727.435
G1 X727.395Y714.717
G1 X727.298Y714.814
G1 X727.149Y714.914
G1 X727.058Y714.955
G1 X727
G1 X726.97Y714.936
G1 Y714.873
G1 X726.981Y714.803
G1 X727.035Y714.716
G1 X727.114Y714.624
G1 X727.211Y714.536
G1 X727.459Y714.341
G0 X729.187Y713.324
G1 X729.149Y713.244
G1 X729.105Y713.125
G1 X729.081Y713.028
G1 Y712.95
G1 X729.094Y712.891
G1 X729.133Y712.849
G1 X729.195Y712.822
G1 X729.28Y712.809
G1 X729.389
G1 X729.517
G1 X729.576Y712.828
G1 Y712.843
G1 X729.491Y712.862
G1 X729.396Y712.896
G1 X729.325Y712.956
G1 X729.277Y713.044
G1 X729.251Y713.162
G1 X729.233Y713.287
G1 X729.213Y713.34
G1 X729.187Y713.324
G0 X729.959Y713.742
G1 X730.117Y713.575
G1 X730.234Y713.425
G1 X730.291Y713.31
G1 Y713.236
G1 Y713.109
G1 Y712.935
G1 X730.271Y712.723
G1 X730.218Y712.208
G1 X730.144Y711.618
G1 X730.08Y711.087
G1 X730.028Y710.528
G1 X729.99Y709.944
G1 X729.965Y709.335
G1 X729.953Y708.703
G1 Y708.047
G1 X729.968Y707.369
G1 X729.995Y706.67
G1 X730.087Y705.211
G1 X730.231Y703.679
G1 X730.425Y702.08
G1 X730.67Y700.421
G1 X730.761Y699.782
G1 X730.835Y699.122
G1 X730.864Y698.809
G1 X730.885Y698.52
G1 X730.899Y698.265
G1 Y698.053
G1 Y697.147
G1 X730.344Y697.084
G1 X730.057Y697.067
G1 X729.689
G1 X729.287Y697.087
G1 X728.899Y697.121
G1 X728.632Y697.149
G1 X728.403Y697.167
G1 X728.199
G1 X728.006
G1 X727.811Y697.153
G1 X727.601Y697.124
G1 X727.361Y697.08
G1 X727.08Y697.023
G1 X725.649Y696.72
G1 X725.537Y697.763
G1 X725.512Y698.065
G1 X725.492Y698.44
G1 X725.477Y698.891
G1 Y699.419
G1 X725.464Y700.028
G1 Y700.72
G1 Y701.497
G1 X725.496Y703.026
G1 Y703.644
G1 Y704.222
G1 Y704.761
G1 Y705.265
G1 Y705.737
G1 X725.482Y706.179
G1 X725.467Y706.596
G1 X725.422Y707.364
G1 X725.36Y708.065
G1 X725.279Y708.722
G1 X725.178Y709.362
G1 X725.112Y709.711
G1 X725.042Y710.036
G1 X724.976Y710.3
G1 X724.923Y710.468
G1 X724.85Y710.669
G1 X724.82Y710.82
G1 X724.797Y710.893
G1 X724.759Y711
G1 X724.709Y711.136
G1 X724.575Y711.482
G1 X724.311Y712.137
G1 X724.226Y712.354
G1 X724.154Y712.547
G1 X724.096Y712.718
G1 X724.021Y713.007
G1 X724.001Y713.243
G1 X724.038Y713.446
G1 X724.133Y713.639
G1 X724.286Y713.841
G1 X724.498Y714.076
G1 X724.986Y714.64
G1 X725.435Y715.221
G1 X725.877Y715.8
G1 X726.326Y716.319
G1 X726.526Y716.526
G1 X726.696Y716.684
G1 X726.826Y716.781
G1 X726.903Y716.805
G1 X726.947Y716.773
G1 X727.034Y716.694
G1 X727.158Y716.573
G1 X727.314Y716.416
G1 X727.498Y716.227
G1 X727.704Y716.013
G1 X727.927Y715.778
G1 X728.161Y715.527
G1 X728.646Y715.014
G1 X729.113Y714.538
G1 X729.322Y714.33
G1 X729.507Y714.151
G1 X729.661Y714.007
G1 X729.777Y713.906
G1 X729.959Y713.742
G0 X733.216Y715.824
G1 X733.259Y715.947
G1 X733.359Y716.107
G1 X733.414Y716.209
G1 X733.459Y716.349
G1 X733.489Y716.508
G1 X733.5Y716.668
G1 Y716.869
G1 X733.45Y716.997
G1 X733.363Y717.082
G1 X733.212Y717.152
G1 X733.1Y717.199
G1 X733.008Y717.246
G1 X732.946Y717.289
G1 X732.923Y717.322
G1 X732.974Y717.358
G1 X733.114Y717.412
G1 X733.32Y717.476
G1 X733.572Y717.542
G1 X734.156Y717.718
G1 X734.684Y717.933
G1 X734.904Y718.045
G1 X735.082Y718.152
G1 X735.207Y718.252
G1 X735.272Y718.34
G1 X735.289Y718.432
G1 X735.276Y718.53
G1 X735.233Y718.632
G1 X735.162Y718.735
G1 X734.944Y718.939
G1 X734.637Y719.123
G1 X734.477Y719.203
G1 X734.373Y719.261
G1 X734.327Y719.299
G1 X734.34Y719.317
G1 X734.414
G1 X734.552Y719.292
G1 X734.753Y719.249
G1 X735.022Y719.188
G1 X735.553Y719.029
G1 X736.091Y718.821
G1 X736.322Y718.715
G1 X736.506Y718.617
G1 X736.629Y718.535
G1 X736.673Y718.474
G1 X736.645Y718.439
G1 X736.567Y718.402
G1 X736.453Y718.366
G1 X736.313Y718.337
G1 X735.952Y718.247
G1 X735.58Y718.098
G1 X735.207Y717.897
G1 X734.839Y717.649
G1 X734.484Y717.359
G1 X734.15Y717.035
G1 X733.846Y716.682
G1 X733.58Y716.305
G1 X733.438Y716.089
G1 X733.322Y715.926
G1 X733.244Y715.832
G1 X733.216
G0 X736Y715.813
G1 X736.011Y715.894
G1 X736.043Y715.949
G1 X736.096Y715.968
G1 X736.164Y715.911
G1 X736.192Y715.772
G1 X736.211Y715.651
G1 X736.265Y715.532
G1 X736.347Y715.42
G1 X736.452Y715.318
G1 X736.713Y715.163
G1 X737.002Y715.103
G1 X737.18Y715.119
G1 X737.34Y715.175
G1 X737.5Y715.28
G1 X737.811Y715.564
G1 X737.919Y715.644
G1 X737.992Y715.676
G1 X738.019Y715.652
G1 X737.998Y715.54
G1 X737.937Y715.433
G1 X737.84Y715.332
G1 X737.712Y715.241
G1 X737.557Y715.163
G1 X737.38Y715.099
G1 X737.185Y715.053
G1 X736.975Y715.026
G1 X736.801Y715.015
G1 X736.663
G1 X736.555
G1 X736.469Y715.032
G1 X736.336Y715.106
G1 X736.208Y715.25
G1 X736.076Y715.476
G1 X736.008Y715.711
G1 Y715.813
G0 X736.358Y720.912
G1 X736.315
G1 X736.237Y721.011
G1 X736.135Y721.235
G1 X736.102Y721.523
G1 X736.136Y721.831
G1 X736.238Y722.118
G1 X736.392Y722.337
G1 X736.605Y722.564
G1 X736.712Y722.659
G1 X736.807Y722.731
G1 X736.881Y722.771
G1 X736.924
G1 X736.912Y722.713
G1 X736.861Y722.583
G1 X736.777Y722.398
G1 X736.669Y722.177
G1 X736.551Y721.916
G1 X736.461Y721.66
G1 X736.403Y721.422
G1 X736.382Y721.219
G1 Y721.097
G1 Y721.007
G1 X736.369Y720.946
G1 X736.358Y720.912
G0 X736.687Y720.777
G1 X736.721Y721.117
G1 X736.791Y721.47
G1 X736.895Y721.82
G1 X737.028Y722.148
G1 X737.186Y722.437
G1 X737.437Y722.764
G1 X737.489Y722.863
G1 X737.513Y722.956
G1 Y723.031
G1 X737.461Y723.094
G1 X737.388Y723.138
G1 X737.292Y723.165
G1 X737.179
G1 X736.925Y723.135
G1 X736.673Y723.024
G1 X736.531Y722.917
G1 X736.382Y722.775
G1 X736.234Y722.606
G1 X736.094Y722.421
G1 X735.968Y722.229
G1 X735.863Y722.039
G1 X735.786Y721.862
G1 X735.744Y721.707
G1 Y721.537
G1 X735.769Y721.335
G1 X735.829Y721.111
G1 X735.915Y720.876
G1 X736.023Y720.642
G1 X736.147Y720.419
G1 X736.283Y720.218
G1 X736.427Y720.051
G1 X736.536Y719.953
G1 X736.629Y719.889
G1 X736.703Y719.861
G1 X736.758
G1 X736.791Y719.904
G1 X736.802Y719.975
G1 X736.789Y720.077
G1 X736.751Y720.21
G1 X736.696Y720.469
G1 Y720.777
G0 X733.535Y722.408
G1 X733.306Y722.258
G1 X733.087Y722.166
G1 X732.932Y722.146
G1 X732.794Y722.187
G1 X732.718Y722.238
G1 X732.633Y722.313
G1 X732.531Y722.413
G1 X732.41Y722.543
G1 X732.237Y722.716
G1 X732.07Y722.857
G1 X731.926Y722.953
G1 X731.825Y722.988
G1 X731.737Y723
G1 X731.691Y723.049
G1 Y723.151
G1 X731.702Y723.32
G1 X731.716Y723.671
G1 X731.649Y724.009
G1 X731.511Y724.308
G1 X731.308Y724.544
G1 X731.217Y724.638
G1 X731.12Y724.772
G1 X731.02Y724.932
G1 X730.925Y725.107
G1 X730.841Y725.285
G1 X730.773Y725.454
G1 X730.728Y725.602
G1 X730.712Y725.718
G1 X730.735Y725.759
G1 X730.798Y725.771
G1 X730.891Y725.758
G1 X731.004Y725.722
G1 X731.249Y725.599
G1 X731.453Y725.434
G1 X731.536Y725.32
G1 X731.622Y725.163
G1 X731.707Y724.976
G1 X731.786Y724.771
G1 X731.856Y724.56
G1 X731.912Y724.357
G1 X731.948Y724.173
G1 X731.962Y724.022
G1 X731.977Y723.915
G1 X732.02Y723.758
G1 X732.083Y723.571
G1 X732.161Y723.377
G1 X732.268Y723.163
G1 X732.389Y722.984
G1 X732.524Y722.841
G1 X732.673Y722.734
G1 X732.835Y722.662
G1 X733.011Y722.627
G1 X733.2
G1 X733.401Y722.665
G1 X733.552Y722.7
G1 X733.675Y722.719
G1 X733.758
G1 X733.789Y722.702
G1 X733.769Y722.643
G1 X733.716Y722.571
G1 X733.635Y722.491
G1 X733.535Y722.408
G0 X735.495Y726.428
G1 X735.476Y726.457
G1 X735.45Y726.511
G1 X735.385Y726.69
G1 X735.306Y726.943
G1 X735.134Y727.581
G1 X734.985Y728.251
G1 X734.94Y728.496
G1 X734.908Y728.696
G1 X734.889Y728.865
G1 Y729.012
G1 X734.909Y729.295
G1 X734.987Y729.638
G1 X735.128Y730.073
G1 X735.304Y730.482
G1 X735.392Y730.647
G1 X735.471Y730.77
G1 X735.536Y730.839
G1 X735.581
G1 Y730.807
G1 Y730.738
G1 X735.557Y730.647
G1 X735.522Y730.543
G1 X735.464Y730.359
G1 X735.432Y730.174
G1 Y729.984
G1 Y729.788
G1 X735.483Y729.582
G1 X735.551Y729.365
G1 X735.646Y729.133
G1 X735.768Y728.885
G1 X736.112Y728.228
G1 X735.815Y728.547
G1 X735.685Y728.671
G1 X735.555Y728.766
G1 X735.439Y728.823
G1 X735.35Y728.835
G1 X735.266Y728.785
G1 X735.205Y728.677
G1 X735.167Y728.519
G1 X735.151Y728.319
G1 Y728.085
G1 X735.19Y727.826
G1 X735.244Y727.548
G1 X735.322Y727.26
G1 X735.398Y727
G1 X735.46Y726.762
G1 X735.5Y726.575
G1 X735.514Y726.463
G1 Y726.43
G1 X735.495
G0 X733.001Y727.632
G1 X732.801Y727.469
G1 X732.576Y727.345
G1 X732.337Y727.264
G1 X732.096Y727.227
G1 X731.863Y727.239
G1 X731.65Y727.301
G1 X731.467Y727.416
G1 X731.347Y727.523
G1 X731.305Y727.57
G1 X731.34
G1 X731.45Y727.512
G1 X731.719Y727.438
G1 X732.061Y727.414
G1 X732.402Y727.441
G1 X732.665Y727.518
G1 X732.89Y727.672
G1 X733.062Y727.872
G1 X733.176Y728.109
G1 X733.225Y728.372
G1 X733.242Y728.709
G1 X733.282Y728.389
G1 Y728.241
G1 X733.267Y728.092
G1 X733.226Y727.953
G1 X733.165Y727.832
G1 X733.001Y727.632
G0 X730.497Y731.353
G1 X730.455Y731.386
G1 X730.438Y731.478
G1 Y731.614
G1 X730.469Y731.781
G1 X730.569Y732.154
G1 X730.716Y732.488
G1 X730.822Y732.681
G1 X730.88Y732.825
G1 X730.89Y732.923
G1 X730.848Y732.976
G1 X730.753
G1 X730.601Y732.947
G1 X730.391Y732.868
G1 X730.12Y732.748
G1 X729.73Y732.599
G1 X729.371Y732.52
G1 X729.219Y732.508
G1 X729.091
G1 X728.996Y732.545
G1 X728.938Y732.595
G1 Y732.619
G1 X728.99Y732.653
G1 X729.068Y732.695
G1 X729.175Y732.743
G1 X729.461Y732.855
G1 X730.248Y733.12
G1 X730.606Y733.268
G1 X730.89Y733.415
G1 X731.096Y733.559
G1 X731.433Y733.85
G1 X730.567Y734.619
G1 X731.281Y734.38
G1 X731.638Y734.275
G1 X731.987Y734.199
G1 X732.332Y734.153
G1 X732.676Y734.137
G1 X733.356
G1 X732.823Y733.857
G1 X732.468Y733.649
G1 X732.114Y733.395
G1 X731.771Y733.107
G1 X731.452Y732.799
G1 X731.17Y732.483
G1 X730.935Y732.17
G1 X730.761Y731.875
G1 X730.659Y731.608
G1 X730.626Y731.509
G1 X730.585Y731.428
G1 X730.54Y731.373
G1 X730.497Y731.353
G0 X726.474Y731.476
G1 Y731.63
G1 Y731.784
G1 X726.453Y731.919
G1 X726.422Y732.021
G1 X726.385Y732.074
G1 X726.345
G1 X726.315Y732.012
G1 X726.295Y731.903
G1 Y731.749
G1 Y731.595
G1 X726.317Y731.46
G1 X726.347Y731.358
G1 X726.385Y731.305
G1 X726.424
G1 X726.454Y731.367
G1 X726.474Y731.476
G0 X726.481Y730.68
G1 X726.443Y730.65
G1 X726.413Y730.568
G1 X726.392Y730.448
G1 Y730.301
G1 Y730.149
G1 X726.413Y730.016
G1 X726.443Y729.916
G1 X726.481Y729.863
G1 X726.521
G1 X726.551Y729.938
G1 X726.57Y730.064
G1 Y730.241
G1 Y730.412
G1 X726.549Y730.551
G1 X726.518Y730.645
G1 X726.481Y730.68
G0 X725.031Y730.7
G1 X725.01Y730.839
G1 X724.98Y730.934
G1 X724.942Y730.968
G1 X724.905Y730.938
G1 X724.874Y730.857
G1 X724.854Y730.736
G1 Y730.589
G1 Y730.438
G1 X724.874Y730.304
G1 X724.905Y730.204
G1 X724.942Y730.151
G1 X724.982
G1 X725.012Y730.226
G1 X725.032Y730.353
G1 Y730.53
G1 Y730.7
G0 X724.894Y731.612
G1 X724.975Y731.671
G1 X725.021Y731.797
G1 Y731.972
G1 X724.997Y732.178
G1 X724.958Y732.301
G1 X724.916Y732.377
G1 X724.873Y732.41
G1 X724.834
G1 X724.801Y732.355
G1 X724.777Y732.271
G1 X724.765Y732.152
G1 Y732.002
G1 X724.788Y731.845
G1 X724.818Y731.719
G1 X724.855Y731.637
G1 X724.894Y731.612
G0 X724.846Y732.987
G1 X724.884Y733.017
G1 X724.914Y733.099
G1 X724.935Y733.219
G1 Y733.366
G1 Y733.518
G1 X724.914Y733.652
G1 X724.884Y733.752
G1 X724.846Y733.805
G1 X724.806
G1 X724.776Y733.729
G1 X724.757Y733.603
G1 Y733.426
G1 Y733.256
G1 X724.778Y733.116
G1 X724.809Y733.022
G1 X724.846Y732.987
G0 X726.213Y733.094
G1 X726.26Y732.9
G1 X726.322Y732.755
G1 X726.387Y732.699
G1 X726.432Y732.749
G1 Y732.867
G1 X726.407Y733.05
G1 X726.392Y733.252
G1 X726.357Y733.401
G1 X726.289Y733.464
G1 X726.253
G1 X726.223Y733.434
G1 X726.201Y733.38
G1 Y733.3
G1 X726.213Y733.094
G0 X726.289Y734.141
G1 X726.326Y734.172
G1 X726.356Y734.254
G1 X726.377Y734.377
G1 Y734.526
G1 Y734.675
G1 X726.356Y734.798
G1 X726.326Y734.88
G1 X726.289Y734.911
G1 X726.251Y734.88
G1 X726.221Y734.798
G1 X726.2Y734.675
G1 Y734.526
G1 Y734.377
G1 X726.221Y734.254
G1 X726.251Y734.172
G1 X726.289Y734.141
G0 X724.787Y734.46
G1 X724.818Y734.543
G1 X724.839Y734.665
G1 Y734.814
G1 Y734.964
G1 X724.818Y735.086
G1 X724.787Y735.169
G1 X724.75Y735.199
G1 X724.713Y735.169
G1 X724.682Y735.086
G1 X724.661Y734.964
G1 Y734.814
G1 Y734.665
G1 X724.682Y734.543
G1 X724.713Y734.46
G1 X724.75Y734.43
G1 X724.787Y734.46
G0 X724.716Y735.858
G1 X724.752Y735.879
G1 X724.787Y735.935
G1 X724.817Y736.019
G1 X724.838Y736.128
G1 Y736.257
G1 Y736.434
G1 X724.813Y736.553
G1 X724.769Y736.62
G1 X724.703Y736.641
G1 X724.642Y736.628
G1 X724.604Y736.588
G1 X724.59Y736.52
G1 Y736.425
G1 X724.63Y736.223
G1 X724.647Y736.04
G1 X724.66Y735.934
G1 X724.684Y735.875
G1 X724.716Y735.858
G0 X726.104Y735.819
G1 X726.124Y735.697
G1 X726.155Y735.614
G1 X726.192Y735.584
G1 X726.23Y735.614
G1 X726.26Y735.697
G1 X726.281Y735.819
G1 Y735.968
G1 Y736.118
G1 X726.26Y736.24
G1 X726.23Y736.323
G1 X726.192Y736.353
G1 X726.155Y736.323
G1 X726.124Y736.24
G1 X726.104Y736.118
G1 Y735.968
G1 Y735.819
G0 X726.204Y737.026
G1 X726.237Y737.056
G1 X726.264Y737.139
G1 X726.282Y737.261
G1 Y737.411
G1 Y737.588
G1 X726.255Y737.707
G1 X726.211Y737.774
G1 X726.144Y737.795
G1 X726.088Y737.782
G1 X726.043Y737.746
G1 X726.012Y737.692
G1 X726.001Y737.627
G1 X726.021Y737.416
G1 X726.069Y737.223
G1 X726.134Y737.081
G1 X726.204Y737.026
G0 X724.691Y737.345
G1 X724.722Y737.427
G1 X724.742Y737.55
G1 Y737.699
G1 Y737.848
G1 X724.722Y737.971
G1 X724.691Y738.053
G1 X724.654Y738.084
G1 X724.617Y738.053
G1 X724.586Y737.971
G1 X724.565Y737.848
G1 Y737.699
G1 Y737.55
G1 X724.586Y737.427
G1 X724.617Y737.345
G1 X724.654Y737.314
G1 X724.691Y737.345
G0 X724.634Y738.769
G1 X724.68Y738.784
G1 X724.727Y738.835
G1 X724.771Y738.919
G1 X724.807Y739.033
G1 X724.828Y739.173
G1 Y739.295
G1 Y739.394
G1 X724.803Y739.467
G1 X724.774Y739.513
G1 X724.739Y739.528
G1 X724.699Y739.511
G1 X724.657Y739.461
G1 X724.616Y739.374
G1 X724.575Y739.196
G1 X724.558Y738.981
G1 Y738.864
G1 X724.595Y738.795
G1 X724.634Y738.769
G0 X726Y738.789
G1 Y738.646
G1 X726.035Y738.546
G1 X726.08Y738.487
G1 X726.144Y738.468
G1 X726.209Y738.488
G1 X726.254Y738.547
G1 X726.28Y738.65
G1 Y738.799
G1 Y739.011
G1 X726.221Y739.152
G1 X726.149Y739.21
G1 X726.062Y739.171
G1 X726.038Y739.122
G1 X726.018Y739.033
G1 X726.005Y738.918
G1 Y738.789
G0 X726.144Y739.881
G1 X726.184Y739.906
G1 X726.221Y739.988
G1 X726.251Y740.114
G1 X726.27Y740.271
G1 Y740.421
G1 Y740.54
G1 X726.238Y740.624
G1 X726.204Y740.671
G1 X726.165
G1 X726.123Y740.646
G1 X726.081Y740.57
G1 X726.041Y740.447
G1 X726.009Y740.242
G1 Y740.066
G1 X726.064Y739.94
G1 X726.144Y739.881
G0 X726.182Y741.257
G1 X726.219Y741.288
G1 X726.254Y741.372
G1 X726.284Y741.496
G1 X726.306Y741.648
G1 Y741.89
G1 X726.293Y742.042
G1 X726.27Y742.083
G1 X726.24Y742.099
G1 X726.202
G1 X726.158Y742.055
G1 X726.128Y741.994
G1 X726.108Y741.891
G1 Y741.761
G1 Y741.621
G1 Y741.484
G1 X726.124Y741.368
G1 X726.149Y741.287
G1 X726.182Y741.257
G0 X724.884Y741.672
G1 X724.914Y741.754
G1 X724.935Y741.877
G1 Y742.026
G1 Y742.175
G1 X724.914Y742.298
G1 X724.884Y742.38
G1 X724.846Y742.411
G1 X724.809Y742.38
G1 X724.778Y742.298
G1 X724.758Y742.175
G1 Y742.026
G1 Y741.877
G1 X724.778Y741.754
G1 X724.809Y741.672
G1 X724.846Y741.641
G1 X724.884Y741.672
G0 X726.289Y742.699
G1 X726.326Y742.729
G1 X726.356Y742.812
G1 X726.377Y742.934
G1 Y743.084
G1 Y743.233
G1 X726.356Y743.355
G1 X726.326Y743.438
G1 X726.289Y743.468
G1 X726.251Y743.438
G1 X726.221Y743.355
G1 X726.2Y743.233
G1 Y743.084
G1 Y742.934
G1 X726.221Y742.812
G1 X726.251Y742.729
G1 X726.289Y742.699
G0 X726.289Y744.141
G1 X726.326Y744.172
G1 X726.356Y744.254
G1 X726.377Y744.377
G1 Y744.526
G1 Y744.675
G1 X726.356Y744.798
G1 X726.326Y744.88
G1 X726.289Y744.911
G1 X726.251Y744.88
G1 X726.221Y744.798
G1 X726.2Y744.675
G1 Y744.526
G1 Y744.377
G1 X726.221Y744.254
G1 X726.251Y744.172
G1 X726.289Y744.141
G0 X724.894Y744.462
G1 X724.92Y744.547
G1 X724.936Y744.668
G1 Y744.81
G1 Y744.955
G1 X724.918Y745.086
G1 X724.891Y745.188
G1 X724.853Y745.243
G1 X724.777Y745.26
G1 X724.722Y745.225
G1 X724.704Y745.155
G1 Y745.048
G1 Y744.918
G1 X724.729Y744.781
G1 X724.756Y744.648
G1 X724.787Y744.536
G1 X724.822Y744.459
G1 X724.857Y744.43
G1 X724.894Y744.462
G0 X724.676Y745.862
G1 X724.702Y745.886
G1 X724.721Y745.932
G1 X724.734Y746.084
G1 X724.709Y746.3
G1 X724.672Y746.451
G1 X724.628Y746.558
G1 X724.583Y746.622
G1 X724.541Y746.642
G1 X724.506Y746.619
G1 X724.483Y746.553
G1 Y746.444
G1 X724.493Y746.293
G1 X724.519Y746.153
G1 X724.548Y746.031
G1 X724.577Y745.94
G1 X724.602Y745.892
G1 X724.642Y745.864
G1 X724.676
G0 X726.142Y745.992
G1 X726.168Y745.859
G1 X726.193Y745.754
G1 X726.216Y745.675
G1 X726.239Y745.62
G1 X726.288Y745.577
G1 X726.348Y745.611
G1 X726.372Y745.67
G1 Y745.766
G1 Y745.887
G1 X726.341Y746.017
G1 X726.306Y746.143
G1 X726.266Y746.25
G1 X726.221Y746.325
G1 X726.177Y746.353
G1 X726.138Y746.329
G1 X726.119Y746.26
G1 Y746.147
G1 X726.142Y745.992
G0 X726.041Y746.99
G1 X726.071Y747.01
G1 X726.083Y747.066
G1 Y747.155
G1 X726.049Y747.273
G1 X725.998Y747.415
G1 X725.905Y747.589
G1 X725.812Y747.686
G1 X725.772Y747.702
G1 X725.74
G1 X725.719Y747.66
G1 Y747.598
G1 Y747.535
G1 X725.759Y747.436
G1 X725.809Y747.317
G1 X725.871Y747.189
G1 X725.939Y747.076
G1 X725.996Y747.011
G1 X726.041Y746.99
G0 X724.22Y747.242
G1 X724.233Y747.281
G1 X724.221Y747.346
G1 X724.181Y747.435
G1 X724.11Y747.545
G1 X723.987Y747.694
G1 X723.884Y747.778
G1 X723.814Y747.79
G1 X723.791Y747.723
G1 X723.806Y747.676
G1 X723.846Y747.602
G1 X723.905Y747.51
G1 X723.976Y747.412
G1 X724.06Y747.315
G1 X724.131Y747.256
G1 X724.185Y747.233
G1 X724.22
G0 X725.304Y748.214
G1 X725.353Y748.192
G1 X725.39
G1 X725.413Y748.23
G1 Y748.292
G1 X725.363Y748.452
G1 X725.233Y748.637
G1 X725.076Y748.789
G1 X724.942Y748.853
G1 X724.907Y748.832
G1 Y748.77
G1 X724.95Y748.672
G1 X725.024Y748.542
G1 X725.177Y748.332
G1 X725.304Y748.214
G0 X723.449Y748.385
G1 Y748.43
G1 X723.416Y748.512
G1 X723.356Y748.618
G1 X723.28Y748.735
G1 X723.197Y748.849
G1 X723.116Y748.948
G1 X723.045Y749.017
G1 X722.995Y749.044
G1 X722.944Y749.007
G1 X722.923Y748.918
G1 X722.943Y748.851
G1 X722.995Y748.764
G1 X723.071Y748.667
G1 X723.159Y748.571
G1 X723.251Y748.485
G1 X723.337Y748.418
G1 X723.406Y748.382
G1 X723.449
G0 X724.51Y749.386
G1 X724.554
G1 X724.572Y749.429
G1 X724.555Y749.519
G1 X724.511Y749.636
G1 X724.448Y749.765
G1 X724.373Y749.891
G1 X724.296Y749.999
G1 X724.223Y750.074
G1 X724.164Y750.103
G1 X724.103Y750.082
G1 X724.077Y750.031
G1 X724.141Y749.852
G1 X724.285Y749.624
G1 X724.367Y749.52
G1 X724.445Y749.437
G1 X724.51Y749.386
G0 X722.602Y749.598
G1 X722.614Y749.648
G1 X722.601Y749.735
G1 X722.562Y749.853
G1 X722.494Y750
G1 X722.382Y750.173
G1 X722.272Y750.279
G1 X722.225Y750.301
G1 X722.188
G1 X722.163Y750.275
G1 Y750.223
G1 Y750.169
G1 X722.215Y750.073
G1 X722.281Y749.951
G1 X722.361Y749.814
G1 X722.446Y749.691
G1 X722.516Y749.616
G1 X722.569Y749.586
G1 X722.602Y749.598
G0 X721.353Y749.312
G1 Y749.267
G1 Y749.186
G1 X721.326Y749.069
G1 X721.188Y748.671
G1 X720.979Y748.282
G1 X720.86Y748.112
G1 X720.74Y747.968
G1 X720.621Y747.859
G1 X720.511Y747.792
G1 X720.286Y747.674
G1 X720.13Y747.549
G1 X720.064Y747.389
G1 X720.096Y747.215
G1 X720.214Y747.057
G1 X720.404Y746.944
G1 X720.664Y746.849
G1 X720.415
G1 X720.266Y746.871
G1 X720.049Y746.957
G1 X719.788Y747.09
G1 X719.511Y747.255
G1 X718.855Y747.677
G1 X719.279Y747.746
G1 X719.608Y747.815
G1 X719.914Y747.913
G1 X720.195Y748.038
G1 X720.448Y748.188
G1 X720.673Y748.363
G1 X720.867Y748.561
G1 X721.028Y748.781
G1 X721.155Y749.021
G1 X721.214Y749.147
G1 X721.264Y749.24
G1 X721.304Y749.299
G1 X721.335Y749.323
G1 X721.353Y749.312
G0 X721.936Y750.876
G1 X722.014Y750.892
G1 Y750.943
G1 Y751.037
G1 X721.973Y751.158
G1 X721.924Y751.292
G1 X721.867Y751.422
G1 X721.809Y751.534
G1 X721.756Y751.612
G1 X721.714Y751.641
G1 X721.694Y751.617
G1 Y751.55
G1 Y751.452
G1 X721.711Y751.332
G1 X721.772Y751.113
G1 X721.852Y750.955
G1 X721.936Y750.876
G0 X723.5Y751.171
G1 X723.559Y750.982
G1 X723.689Y750.766
G1 X723.758Y750.678
G1 X723.819Y750.62
G1 X723.863Y750.604
G1 X723.881Y750.641
G1 X723.85Y750.836
G1 X723.769Y751.071
G1 X723.72Y751.18
G1 X723.671Y751.269
G1 X723.625Y751.33
G1 X723.587Y751.353
G1 X723.526Y751.299
G1 X723.5Y751.171
G0 X723.282Y751.931
G1 X723.352Y751.942
G1 X723.362Y751.988
G1 Y752.079
G1 X723.335Y752.202
G1 X723.301Y752.344
G1 X723.252Y752.491
G1 X723.2Y752.6
G1 X723.149Y752.669
G1 X723.104Y752.697
G1 X723.07Y752.683
G1 X723.05Y752.628
G1 Y752.529
G1 X723.07Y752.386
G1 X723.131Y752.17
G1 X723.205Y752.012
G1 X723.282Y751.931
G0 X721.628Y752.238
G1 X721.645Y752.29
G1 Y752.385
G1 X721.631Y752.506
G1 X721.607Y752.639
G1 X721.575Y752.769
G1 X721.539Y752.88
G1 X721.503Y752.958
G1 X721.468Y752.987
G1 X721.436Y752.961
G1 X721.409Y752.89
G1 X721.391Y752.785
G1 Y752.657
G1 X721.408Y752.453
G1 X721.466Y752.297
G1 X721.504Y752.246
G1 X721.545Y752.217
G1 X721.587
G1 X721.628Y752.238
G0 X719.586Y753.076
G1 X719.654Y753.21
G1 X719.624Y753.273
G1 X719.537Y753.255
G1 X719.401Y753.159
G1 X719.221Y752.987
G1 X719.106Y752.858
G1 X719.046Y752.768
G1 Y752.716
G1 X719.09Y752.699
G1 X719.239Y752.761
G1 X719.426Y752.906
G1 X719.586Y753.076
G0 X720.069Y753.694
G1 X720.12Y753.683
G1 X720.204Y753.706
G1 X720.309Y753.755
G1 X720.421Y753.822
G1 X720.53Y753.899
G1 X720.623Y753.979
G1 X720.687Y754.053
G1 X720.712Y754.114
G1 X720.69Y754.209
G1 X720.618Y754.221
G1 X720.561Y754.196
G1 X720.488Y754.149
G1 X720.399Y754.08
G1 X720.292Y753.989
G1 X720.189Y753.891
G1 X720.113Y753.803
G1 X720.07Y753.734
G1 Y753.694
G0 X721.413Y754.198
G1 X721.385Y754.334
G1 X721.413Y754.469
G1 X721.481Y754.526
G1 X721.549Y754.469
G1 X721.577Y754.334
G1 X721.549Y754.198
G1 X721.481Y754.141
G1 X721.413Y754.198
G0 X721.289Y755.055
G1 X721.328
G1 X721.359Y755.13
G1 X721.378Y755.256
G1 Y755.434
G1 Y755.589
G1 Y755.708
G1 X721.368Y755.793
G1 X721.354Y755.844
G1 X721.336Y755.862
G1 X721.313Y755.847
G1 X721.284Y755.799
G1 X721.251Y755.72
G1 X721.204Y755.526
G1 Y755.324
G1 X721.225Y755.154
G1 X721.289Y755.055
G0 X721.363Y756.439
G1 X721.397
G1 X721.437Y756.469
G1 X721.462Y756.517
G1 X721.49Y756.608
G1 X721.52Y756.73
G1 X721.546Y756.87
G1 X721.561Y757.021
G1 Y757.13
G1 X721.533Y757.196
G1 X721.498Y757.219
G1 X721.455Y757.198
G1 X721.41Y757.135
G1 X721.367Y757.028
G1 X721.329Y756.877
G1 X721.305Y756.661
G1 X721.317Y756.509
G1 X721.336Y756.463
G1 X721.363Y756.439
G0 X722.64Y756.412
G1 X722.656Y756.305
G1 X722.679Y756.227
G1 X722.709Y756.178
G1 X722.745Y756.161
G1 X722.783Y756.176
G1 X722.824Y756.226
G1 X722.865Y756.313
G1 X722.919Y756.529
G1 Y756.728
G1 X722.871Y756.873
G1 X722.779Y756.93
G1 X722.712Y756.909
G1 X722.668Y756.842
G1 X722.643Y756.722
G1 Y756.545
G1 Y756.412
G0 X723.838Y755.928
G1 X723.802Y755.877
G1 X723.789Y755.822
G1 X723.802Y755.761
G1 X723.85Y755.737
G1 X723.946Y755.748
G1 X724.101Y755.794
G1 X724.291Y755.866
G1 X724.416Y755.932
G1 X724.48Y755.988
G1 Y756.031
G1 X724.431Y756.057
G1 X724.324
G1 X724.165Y756.044
G1 X723.957Y755.998
G1 X723.891Y755.971
G1 X723.838Y755.928
G0 X725.151Y756.203
G1 X725.197Y756.183
G1 X725.265
G1 X725.351Y756.196
G1 X725.553Y756.237
G1 X725.736Y756.255
G1 X725.854Y756.285
G1 X725.904Y756.353
G1 X725.854Y756.41
G1 X725.72Y756.435
G1 X725.528
G1 X725.303Y756.383
G1 X725.184Y756.322
G1 X725.135Y756.238
G1 X725.151Y756.203
G0 X726.497Y756.505
G1 X726.538Y756.476
G1 X726.61Y756.456
G1 X726.713
G1 X726.921
G1 X727.092Y756.509
G1 X727.208Y756.573
G1 X727.25Y756.652
G1 X727.237Y756.701
G1 X727.174Y756.719
G1 X727.112
G1 X727.023Y756.708
G1 X726.745Y756.669
G1 X726.637Y756.645
G1 X726.558Y756.613
G1 X726.508Y756.577
G1 X726.487Y756.54
G1 X726.497Y756.505
G0 X727.923Y756.737
G1 X727.953Y756.7
G1 X728.036Y756.67
G1 X728.158Y756.649
G1 X728.308
G1 X728.457
G1 X728.579Y756.67
G1 X728.662Y756.7
G1 X728.692Y756.737
G1 X728.662Y756.775
G1 X728.579Y756.805
G1 X728.457Y756.826
G1 X728.308
G1 X728.158
G1 X728.036Y756.805
G1 X727.953Y756.775
G1 X727.923Y756.737
G0 X729.365Y756.786
G1 X729.382Y756.711
G1 X729.44Y756.668
G1 X729.551Y756.652
G1 X729.726
G1 X729.866Y756.679
G1 X729.981Y756.709
G1 X730.058Y756.746
G1 X730.087Y756.786
G1 X730.058Y756.825
G1 X729.981Y756.862
G1 X729.866Y756.892
G1 X729.726Y756.911
G1 X729.551
G1 X729.44
G1 X729.382Y756.86
G1 X729.365Y756.786
G0 X730.712Y756.737
G1 X730.746Y756.7
G1 X730.84Y756.67
G1 X730.98Y756.649
G1 X731.15
G1 X731.327
G1 X731.453Y756.667
G1 X731.523Y756.698
G1 Y756.737
G1 X731.476Y756.775
G1 X731.376Y756.805
G1 X731.242Y756.826
G1 X731.091
G1 X730.943
G1 X730.823Y756.805
G1 X730.742Y756.775
G1 X730.712Y756.737
G0 X732.154Y756.562
G1 X732.183Y756.516
G1 X732.261Y756.465
G1 X732.372Y756.412
G1 X732.502Y756.364
G1 X732.636Y756.324
G1 X732.759Y756.299
G1 X732.855
G1 X732.911
G1 X732.922Y756.383
G1 X732.837Y756.465
G1 X732.678Y756.543
G1 X732.463Y756.603
G1 X732.333Y756.623
G1 X732.235
G1 X732.175Y756.601
G1 X732.154Y756.562
G0 X733.522Y756.141
G1 X733.5Y756.08
G1 X733.528Y756.023
G1 X733.626Y755.949
G1 X733.706Y755.901
G1 X733.81Y755.845
G1 X733.941Y755.778
G1 X734.101Y755.699
G1 X734.152Y755.712
G1 X734.172Y755.792
G1 X734.152Y755.851
G1 X734.096Y755.918
G1 X734.013Y755.984
G1 X733.913Y756.04
G1 X733.721Y756.121
G1 X733.593Y756.155
G1 X733.522Y756.141
G0 X734.677Y755.379
G1 X734.654Y755.313
G1 X734.677Y755.261
G1 X734.739Y755.177
G1 X734.83Y755.072
G1 X734.942Y754.959
G1 X735.072Y754.843
G1 X735.161Y754.784
G1 X735.214
G1 X735.231Y754.828
G1 X735.165Y754.992
G1 X735.008Y755.182
G1 X734.855Y755.313
G1 X734.744Y755.379
G1 X734.677
G0 X735.617Y754.275
G1 X735.578Y754.254
G1 X735.564Y754.189
G1 X735.577Y754.094
G1 X735.611Y753.981
G1 X735.661Y753.862
G1 X735.722Y753.75
G1 X735.786Y753.654
G1 X735.85Y753.589
G1 X735.906Y753.564
G1 X735.976Y753.585
G1 X735.986Y753.658
G1 X735.969Y753.72
G1 X735.935Y753.802
G1 X735.885Y753.907
G1 X735.818Y754.035
G1 X735.742Y754.161
G1 X735.674Y754.243
G1 X735.617Y754.275
G0 X736.129Y752.961
G1 X736.095
G1 X736.063Y752.915
G1 X736.043Y752.762
G1 X736.086Y752.546
G1 X736.169Y752.347
G1 X736.269Y752.241
G1 X736.317
G1 X736.342Y752.287
G1 Y752.38
G1 X736.323Y752.523
G1 X736.266Y752.755
G1 X736.199Y752.904
G1 X736.164Y752.945
G1 X736.129Y752.961
G0 X736.385Y751.497
G1 X736.345
G1 X736.315Y751.433
G1 X736.295Y751.322
G1 Y751.166
G1 Y751.015
G1 X736.317Y750.891
G1 X736.347Y750.807
G1 X736.385Y750.776
G1 X736.422Y750.802
G1 X736.453Y750.873
G1 X736.473Y750.978
G1 Y751.107
G1 Y751.24
G1 X736.453Y751.358
G1 X736.422Y751.448
G1 X736.385Y751.497
G0 X736.951Y750.656
G1 X736.908Y750.629
G1 Y750.591
G1 X737.038Y750.507
G1 X737.258Y750.44
G1 X737.374Y750.419
G1 X737.48
G1 X737.564
G1 X737.615Y750.435
G1 Y750.506
G1 X737.536Y750.587
G1 X737.35Y750.653
G1 X737.127Y750.676
G1 X737.027
G1 X736.951Y750.656
G0 X735.952Y748
G1 X736.24Y747.94
G1 X736.512Y747.831
G1 X736.759Y747.654
G1 X736.85Y747.536
G1 X736.926Y747.382
G1 X736.985Y747.202
G1 X737.026Y747.006
G1 X737.047Y746.804
G1 Y746.605
G1 X737.023Y746.42
G1 X736.976Y746.257
G1 X736.946Y746.185
G1 X736.922Y746.137
G1 X736.905Y746.114
G1 X736.892
G1 Y746.147
G1 X736.878Y746.207
G1 Y746.297
G1 Y746.419
G1 X736.838Y746.799
G1 X736.741Y747.116
G1 X736.569Y747.399
G1 X736.308Y747.675
G1 X735.952Y748
G0 X735.618Y747.995
G1 X735.647Y747.907
G1 X735.775Y747.716
G1 X735.994Y747.512
G1 X736.149Y747.374
G1 X736.279Y747.226
G1 X736.384Y747.066
G1 X736.465Y746.894
G1 X736.523Y746.708
G1 X736.556Y746.508
G1 X736.567Y746.292
G1 X736.543Y745.787
G1 X736.563Y745.585
G1 X736.612Y745.454
G1 X736.685Y745.394
G1 X736.778Y745.407
G1 X736.888Y745.494
G1 X737.011Y745.656
G1 X737.142Y745.895
G1 X737.266Y746.218
G1 X737.333Y746.549
G1 X737.345Y746.876
G1 X737.305Y747.19
G1 X737.215Y747.481
G1 X737.077Y747.737
G1 X736.893Y747.95
G1 X736.665Y748.108
G1 X736.389Y748.212
G1 X736.094Y748.268
G1 X735.958
G1 X735.838
G1 X735.743Y748.249
G1 X735.68Y748.212
G1 X735.634Y748.148
G1 X735.614Y748.076
G1 Y747.995
G0 X733.491Y747.66
G1 Y747.483
G1 X733.468Y747.192
G1 X733.386Y746.914
G1 X733.259Y746.657
G1 X733.093Y746.428
G1 X732.894Y746.235
G1 X732.669Y746.085
G1 X732.424Y745.985
G1 X732.166Y745.943
G1 X731.928Y745.954
G1 X731.74Y746.004
G1 X731.603Y746.093
G1 X731.519Y746.218
G1 X731.487Y746.375
G1 X731.51Y746.564
G1 X731.587Y746.781
G1 X731.721Y747.025
G1 X731.841Y747.191
G1 X731.981Y747.34
G1 X732.139Y747.47
G1 X732.311Y747.58
G1 X732.495Y747.668
G1 X732.688Y747.734
G1 X732.887Y747.775
G1 X733.091Y747.791
G1 X733.223
G1 X733.323
G1 X733.396Y747.776
G1 X733.445Y747.753
G1 X733.491Y747.66
G0 X729.324Y746.817
G1 Y746.791
G1 Y746.731
G1 Y746.636
G1 X729.3Y746.508
G1 Y746.18
G1 X729.357Y745.85
G1 X729.507Y745.554
G1 X729.745Y745.242
G1 X729.881Y745.099
G1 X730.019Y744.974
G1 X730.154Y744.875
G1 X730.277Y744.809
G1 X730.374Y744.767
G1 X730.399Y744.742
G1 X730.349Y744.73
G1 X730.221
G1 X730.094
G1 X729.953Y744.781
G1 X729.804Y744.849
G1 X729.654Y744.938
G1 X729.383Y745.155
G1 X729.2Y745.394
G1 X729.114Y745.662
G1 X729.083Y745.984
G1 X729.108Y746.309
G1 X729.189Y746.589
G1 X729.239Y746.695
G1 X729.278Y746.769
G1 X729.306Y746.81
G1 X729.324
G0 X729.08Y746.995
G1 X728.95Y746.815
G1 X728.851Y746.626
G1 X728.782Y746.429
G1 X728.743Y746.223
G1 Y746.009
G1 X728.754Y745.784
G1 X728.804Y745.55
G1 X728.886Y745.311
G1 X728.996Y745.1
G1 X729.132Y744.918
G1 X729.296Y744.766
G1 X729.486Y744.643
G1 X729.704Y744.549
G1 X729.948Y744.484
G1 X730.219Y744.449
G1 X730.616
G1 X730.932Y744.505
G1 X731.046Y744.548
G1 X731.122Y744.6
G1 X731.156Y744.659
G1 X731.141Y744.723
G1 X731.082Y744.774
G1 X730.961Y744.847
G1 X730.797Y744.932
G1 X730.607Y745.019
G1 X730.406Y745.122
G1 X730.21Y745.248
G1 X730.043Y745.383
G1 X729.927Y745.509
G1 X729.762Y745.836
G1 X729.68Y746.21
G1 Y746.4
G1 Y746.583
G1 X729.725Y746.755
G1 X729.787Y746.909
G1 X729.886Y747.134
G1 X729.927Y747.308
G1 X729.916Y747.429
G1 X729.856Y747.496
G1 X729.755
G1 X729.614Y747.456
G1 X729.441Y747.344
G1 X729.239Y747.169
G1 X729.08Y746.995
G0 X727.921Y748.549
G1 X727.701Y748.503
G1 X727.298Y748.461
G1 X727.707Y748.667
G1 X727.91Y748.786
G1 X728.047Y748.903
G1 X728.117Y749.016
G1 Y749.125
G1 X728.057Y749.23
G1 X727.928Y749.33
G1 X727.732Y749.424
G1 X727.471Y749.512
G1 X727.287Y749.585
G1 X727.101Y749.698
G1 X726.921Y749.843
G1 X726.752Y750.013
G1 X726.601Y750.199
G1 X726.476Y750.395
G1 X726.382Y750.593
G1 X726.326Y750.785
G1 X726.266Y751.112
G1 X726.561Y750.66
G1 X726.72Y750.445
G1 X726.897Y750.261
G1 X727.095Y750.106
G1 X727.318Y749.976
G1 X727.718Y749.794
G1 X728.071Y749.683
G1 X728.254Y749.65
G1 X728.454Y749.628
G1 X728.679Y749.615
G1 X728.94
G1 X729.177Y749.603
G1 X729.364Y749.585
G1 X729.483Y749.561
G1 X729.514Y749.533
G1 X729.491Y749.509
G1 X729.443Y749.469
G1 X729.372Y749.414
G1 X729.282Y749.347
G1 X729.055Y749.186
G1 X728.787Y749.003
G1 X728.459Y748.797
G1 X728.172Y748.646
G1 X727.921Y748.549
G0 X728.853Y752.633
G1 X728.82Y752.65
G1 X728.835Y752.685
G1 X728.896Y752.733
G1 X728.999Y752.793
G1 X729.141Y752.859
G1 X729.32Y752.93
G1 X729.702Y753.031
G1 X730.116Y753.071
G1 X730.536Y753.05
G1 X730.937Y752.966
G1 X731.102Y752.897
G1 X731.292Y752.787
G1 X731.494Y752.648
G1 X731.692Y752.492
G1 X731.872Y752.332
G1 X732.019Y752.179
G1 X732.118Y752.048
G1 X732.154Y751.948
G1 X732.119Y751.928
G1 X732.023Y751.954
G1 X731.881Y752.02
G1 X731.707Y752.121
G1 X731.388Y752.303
G1 X731.057Y752.455
G1 X730.718Y752.575
G1 X730.376Y752.662
G1 X730.036Y752.716
G1 X729.703Y752.735
G1 X729.382Y752.718
G1 X729.077Y752.665
G1 X728.938Y752.637
G1 X728.853
G0 X728.502Y752.822
G1 X728.296Y752.629
G1 X728.167Y752.469
G1 X728.115Y752.343
G1 X728.137Y752.253
G1 X728.232Y752.201
G1 X728.4Y752.187
G1 X728.639Y752.214
G1 X728.947Y752.283
G1 X729.35Y752.362
G1 X729.753Y752.389
G1 X730.154Y752.364
G1 X730.549Y752.288
G1 X730.935Y752.161
G1 X731.309Y751.986
G1 X731.669Y751.761
G1 X732.012Y751.489
G1 X732.202Y751.33
G1 X732.354Y751.226
G1 X732.468Y751.177
G1 X732.547
G1 X732.59Y751.252
G1 X732.6Y751.376
G1 X732.578Y751.559
G1 X732.524Y751.802
G1 X732.443Y752.038
G1 X732.32Y752.27
G1 X732.161Y752.493
G1 X731.972Y752.703
G1 X731.758Y752.895
G1 X731.523Y753.062
G1 X731.273Y753.199
G1 X731.013Y753.303
G1 X730.572Y753.416
G1 X730.168Y753.454
G1 X729.769Y753.417
G1 X729.343Y753.305
G1 X729.136Y753.219
G1 X728.908Y753.1
G1 X728.687Y752.963
G1 X728.502Y752.822
G0 X722.84Y757.594
G1 X722.879Y757.623
G1 X722.904Y757.671
G1 X722.933Y757.762
G1 X722.962Y757.884
G1 X722.988Y758.024
G1 X723.004Y758.175
G1 Y758.283
G1 X722.979Y758.348
G1 X722.946Y758.37
G1 X722.906Y758.348
G1 X722.862Y758.284
G1 X722.82Y758.177
G1 X722.783Y758.026
G1 X722.756Y757.808
G1 Y757.658
G1 X722.783Y757.614
G1 X722.808Y757.592
G1 X722.84
G0 X721.192Y757.79
G1 X721.157Y757.866
G1 X721.062Y757.883
G1 X720.927Y757.843
G1 X720.77Y757.747
G1 X720.61Y757.639
G1 X720.482Y757.571
G1 X720.424Y757.525
G1 X720.437Y757.466
G1 X720.493Y757.449
G1 X720.59Y757.461
G1 X720.713Y757.495
G1 X720.846Y757.547
G1 X720.975Y757.608
G1 X721.086Y757.673
G1 X721.163Y757.736
G1 X721.192Y757.79
G0 X720.464Y758.452
G1 X719.512Y757.956
G1 X718.621Y757.483
G1 X717.787Y757.033
G1 X717.007Y756.604
G1 X716.279Y756.194
G1 X715.598Y755.8
G1 X714.463Y755.126
G1 X714.009Y754.867
G1 X713.603Y754.646
G1 X713.248Y754.465
G1 X712.947Y754.324
G1 X712.7Y754.225
G1 X712.513Y754.17
G1 X712.385Y754.159
G1 X712.135Y754.189
G1 X712.346Y754.457
G1 X712.466Y754.59
G1 X712.627Y754.732
G1 X712.836Y754.888
G1 X713.102Y755.063
G1 X713.431Y755.262
G1 X713.832Y755.49
G1 X714.313Y755.751
G1 X715.426Y756.34
G1 X715.925Y756.608
G1 X716.14Y756.726
G1 X716.466Y756.91
G1 X716.672Y757.032
G1 X716.847Y757.131
G1 X717.362Y757.414
G1 X718.033Y757.776
G1 X719.261Y758.429
G1 X720.093Y758.875
G1 X720.46Y759.076
G1 X721.119Y759.445
G1 X721.703Y759.788
G1 X722.248Y760.125
G1 X722.787Y760.477
G1 X723.353Y760.863
G1 X723.981Y761.305
G1 X724.62Y761.75
G1 X725.279Y762.195
G1 X725.905Y762.636
G1 X726.523Y763.123
G1 X727.138Y763.664
G1 X727.757Y764.265
G1 X728.387Y764.934
G1 X729.034Y765.677
G1 X729.705Y766.5
G1 X730.407Y767.411
G1 X731.6Y768.994
G1 X732.322Y769.872
G1 X733.065Y770.738
G1 X733.599Y771.34
G1 X734.837Y772.721
G1 X735.419Y773.384
G1 X735.69Y773.697
G1 X735.943Y773.994
G1 X736.177Y774.271
G1 X736.388Y774.526
G1 X736.577Y774.749
G1 X736.8Y774.999
G1 X737.052Y775.272
G1 X737.329Y775.563
G1 X737.934Y776.18
G1 X738.577Y776.811
G1 X739.218Y777.419
G1 X739.82Y777.967
G1 X740.093Y778.207
G1 X740.342Y778.417
G1 X740.561Y778.594
G1 X740.746Y778.731
G1 X741.119Y778.979
G1 X741.551Y779.242
G1 X742.021Y779.509
G1 X742.512Y779.77
G1 X743.003Y780.015
G1 X743.476Y780.236
G1 X743.912Y780.421
G1 X744.501Y780.639
G1 X744.661Y780.715
G1 X744.757Y780.779
G1 X744.773Y780.824
G1 X744.756Y780.861
G1 X744.814Y780.839
G1 X744.913Y780.826
G1 X745.1Y780.839
G1 X745.348Y780.875
G1 X746.356Y781.069
G1 X747.134Y781.181
G1 X747.95Y781.266
G1 X748.787Y781.323
G1 X749.631Y781.351
G1 X750.464
G1 X751.272Y781.316
G1 X752.037Y781.251
G1 X753.017Y781.123
G1 X754.01Y780.949
G1 X755.016Y780.73
G1 X756.032Y780.467
G1 X757.056Y780.161
G1 X758.087Y779.812
G1 X759.124Y779.422
G1 X760.163Y778.991
G1 X761.204Y778.519
G1 X762.244Y778.009
G1 X763.282Y777.46
G1 X764.317Y776.873
G1 X765.345Y776.249
G1 X766.366Y775.589
G1 X767.378Y774.893
G1 X768.378Y774.163
G1 X768.657Y773.951
G1 X768.911Y773.752
G1 X769.14Y773.567
G1 X769.344Y773.395
G1 X769.525Y773.235
G1 X769.68Y773.089
G1 X769.812Y772.955
G1 X769.92Y772.833
G1 X770.004Y772.723
G1 X770.065Y772.624
G1 X770.103Y772.538
G1 X770.117Y772.462
G1 X770.078Y772.344
G1 X769.948Y772.268
G1 X769.837
G1 X769.667Y772.309
G1 X769.459Y772.382
G1 X769.231Y772.48
G1 X769.002Y772.592
G1 X768.793Y772.711
G1 X768.621Y772.827
G1 X768.506Y772.931
G1 X768.377Y773.039
G1 X768.242Y773.084
G1 X768.195Y773.097
G1 X768.113Y773.136
G1 X768.002Y773.198
G1 X767.866Y773.28
G1 X767.536Y773.493
G1 X766.285Y774.353
G1 X765.382Y774.933
G1 X764.453Y775.494
G1 X763.502Y776.033
G1 X762.533Y776.549
G1 X761.55Y777.039
G1 X760.557Y777.503
G1 X759.558Y777.939
G1 X758.557Y778.345
G1 X757.557Y778.719
G1 X756.563Y779.06
G1 X755.579Y779.366
G1 X754.609Y779.636
G1 X753.656Y779.867
G1 X752.725Y780.058
G1 X751.819Y780.207
G1 X751.398Y780.265
G1 X751.022Y780.31
G1 X750.673Y780.343
G1 X750.333Y780.366
G1 X749.983Y780.378
G1 X749.605
G1 X749.181
G1 X748.694Y780.365
G1 X748.07Y780.338
G1 X747.478Y780.295
G1 X746.913Y780.235
G1 X746.373Y780.156
G1 X745.855Y780.058
G1 X745.356Y779.938
G1 X744.872Y779.797
G1 X744.401Y779.632
G1 X743.939Y779.442
G1 X743.484Y779.227
G1 X743.032Y778.985
G1 X742.58Y778.716
G1 X742.125Y778.417
G1 X741.664Y778.087
G1 X741.194Y777.727
G1 X740.712Y777.333
G1 X740.145Y776.836
G1 X739.541Y776.266
G1 X738.907Y775.63
G1 X738.251Y774.937
G1 X737.579Y774.193
G1 X736.899Y773.406
G1 X736.217Y772.585
G1 X735.54Y771.736
G1 X734.531Y770.443
G1 X732.319Y767.617
G1 X731.701Y766.86
G1 X731.024Y766.076
G1 X730.31Y765.29
G1 X729.585Y764.527
G1 X728.873Y763.812
G1 X728.198Y763.171
G1 X727.882Y762.886
G1 X727.585Y762.628
G1 X727.309Y762.401
G1 X727.058Y762.208
G1 X726.022Y761.473
G1 X724.995Y760.833
G1 X724.696Y760.662
G1 X724.369Y760.481
G1 X724.007Y760.285
G1 X723.606Y760.072
G1 X723.158Y759.838
G1 X722.658Y759.579
G1 X720.464Y758.452
G0 X719.224Y759.19
G1 X717.65Y758.354
G1 X716.921Y757.96
G1 X716.578Y757.772
G1 X715.986Y757.443
G1 X715.061Y756.921
G1 X714.435Y756.583
G1 X714.177Y756.449
G1 X713.969Y756.346
G1 X713.824Y756.28
G1 X713.752Y756.257
G1 Y756.277
G1 X713.776Y756.334
G1 X713.816Y756.426
G1 X713.872Y756.546
G1 X714.026Y756.86
G1 X714.222Y757.242
G1 X714.384Y757.576
G1 X714.561Y757.978
G1 X714.751Y758.442
G1 X714.952Y758.963
G1 X715.162Y759.535
G1 X715.378Y760.152
G1 X715.6Y760.808
G1 X715.826Y761.497
G1 X716.279Y762.952
G1 X716.723Y764.469
G1 X717.143Y766.003
G1 X717.523Y767.507
G1 X717.713Y768.299
G1 X717.909Y769.14
G1 X718.11Y770.017
G1 X718.314Y770.92
G1 X718.719Y772.757
G1 X719.106Y774.562
G1 X719.287Y775.425
G1 X719.456Y776.247
G1 X719.611Y777.017
G1 X719.75Y777.723
G1 X719.87Y778.355
G1 X719.969Y778.901
G1 X720.044Y779.35
G1 X720.073Y779.535
G1 X720.094Y779.692
G1 X720.159Y780.195
G1 X722.823Y780.236
G1 X723.545Y780.249
G1 X724.347Y780.268
G1 X725.066Y780.295
G1 X725.009Y779.598
G1 X724.992Y779.415
G1 X724.936Y778.846
G1 X724.811Y777.662
G1 X724.609Y775.828
G1 X724.501Y774.783
G1 X724.449Y774.268
G1 X724.358Y773.33
G1 X724.222Y771.837
G1 X724.112Y770.72
G1 X724.08Y770.402
G1 X723.735Y767.17
G1 X723.66Y766.361
G1 X723.62Y765.635
G1 Y764.988
G1 X723.645Y764.415
G1 X723.711Y763.912
G1 X723.813Y763.474
G1 X723.952Y763.096
G1 X724.128Y762.775
G1 X724.363Y762.418
G1 X722.994Y761.465
G1 X722.473Y761.106
G1 X722Y760.79
G1 X721.542Y760.498
G1 X721.067Y760.211
G1 X720.544Y759.909
G1 X719.94Y759.575
G1 X719.224Y759.19
G0 X719.805Y757.202
G1 X719.646Y757.151
G1 X719.438Y757.041
G1 X719.273Y756.925
G1 X719.187Y756.828
G1 Y756.762
G1 X719.274Y756.737
G1 X719.451Y756.784
G1 X719.672Y756.894
G1 X719.776Y756.958
G1 X719.862Y757.022
G1 X719.921Y757.079
G1 X719.942Y757.125
G1 X719.907Y757.194
G1 X719.805
G0 X718.67Y756.525
G1 X718.591
G1 X718.527Y756.511
G1 X718.444Y756.472
G1 X718.339Y756.414
G1 X718.212Y756.338
G1 X718.09Y756.254
G1 X718.007Y756.18
G1 X717.971Y756.123
G1 X717.989Y756.092
G1 X718.061
G1 X718.16Y756.109
G1 X718.275Y756.151
G1 X718.395Y756.206
G1 X718.508Y756.27
G1 X718.603Y756.336
G1 X718.668Y756.398
G1 X718.692Y756.451
G1 X718.67Y756.525
G0 X717.44Y755.832
G1 X717.402Y755.854
G1 X717.355Y755.838
G1 X717.281Y755.803
G1 X717.031Y755.672
G1 X716.894Y755.59
G1 X716.79Y755.51
G1 X716.729Y755.44
G1 Y755.391
G1 X716.774Y755.364
G1 X716.866
G1 X716.983Y755.408
G1 X717.11Y755.463
G1 X717.234Y755.531
G1 X717.34Y755.606
G1 X717.415Y755.68
G1 X717.442Y755.746
G1 Y755.832
G0 X716.171Y755.081
G1 X716.101Y755.092
G1 X715.975Y755.043
G1 X715.784Y754.934
G1 X715.615Y754.812
G1 X715.532Y754.713
G1 Y754.675
G1 Y754.646
G1 X715.579Y754.628
G1 X715.642
G1 X715.797Y754.667
G1 X715.978Y754.774
G1 X716.129Y754.903
G1 X716.192Y755.012
G1 X716.171Y755.081
G0 X718.576Y752.204
G1 X718.455Y752.118
G1 X718.316Y751.967
G1 X718.244Y751.861
G1 X718.195Y751.759
G1 X718.172Y751.673
G1 Y751.614
G1 X718.219Y751.603
G1 X718.285Y751.634
G1 X718.368Y751.698
G1 X718.458Y751.785
G1 X718.62Y751.982
G1 X718.692Y752.146
G1 X718.66Y752.216
G1 X718.576Y752.204
G0 X717.889Y751.043
G1 X717.802Y751.064
G1 X717.74Y751.045
G1 X717.673Y750.992
G1 X717.608Y750.915
G1 X717.554Y750.819
G1 X717.478Y750.63
G1 X717.447Y750.497
G1 X717.463Y750.417
G1 X717.523Y750.391
G1 X717.58Y750.42
G1 X717.654Y750.517
G1 X717.702Y750.597
G1 X717.758Y750.702
G1 X717.825Y750.833
G1 X717.904Y750.992
G1 X717.889Y751.043
G0 X717.222Y749.807
G1 X717.152
G1 X717.106Y749.794
G1 X717.054Y749.74
G1 X717.002Y749.659
G1 X716.956Y749.56
G1 X716.874Y749.358
G1 X716.813Y749.23
G1 Y749.16
G1 X716.861Y749.096
G1 X716.909
G1 X716.971Y749.158
G1 X717.038Y749.258
G1 X717.103Y749.39
G1 X717.202Y749.632
G1 X717.228Y749.707
G1 X717.24Y749.758
G1 X717.222Y749.807
G0 X716.63Y748.468
G1 X716.576Y748.451
G1 X716.523Y748.405
G1 X716.478Y748.336
G1 X716.445Y748.252
G1 X716.404Y748.044
G1 X716.386Y747.848
G1 Y747.77
G1 X716.414Y747.732
G1 X716.445
G1 X716.485Y747.762
G1 X716.577Y747.914
G1 X716.668Y748.162
G1 X716.704Y748.308
G1 Y748.403
G1 X716.686Y748.453
G1 X716.63Y748.468
G0 X717.003Y748.244
G1 X716.882Y747.805
G1 X716.765Y747.338
G1 X716.719Y747.18
G1 X716.669Y747.05
G1 X716.619Y746.962
G1 X716.577Y746.93
G1 X716.542Y746.946
G1 X716.479Y746.992
G1 X716.389Y747.066
G1 X716.278Y747.163
G1 X716.004Y747.415
G1 X715.685Y747.723
G1 X715.298Y748.124
G1 X714.996Y748.48
G1 X714.762Y748.815
G1 X714.577Y749.152
G1 X714.303Y749.837
G1 X714.112Y750.567
G1 X714.051Y750.936
G1 X714.013Y751.298
G1 X714Y751.649
G1 X714.014Y751.982
G1 X714.106Y752.599
G1 X714.257Y753.245
G1 X714.339Y753.523
G1 X714.418Y753.742
G1 X714.454Y753.822
G1 X714.487Y753.879
G1 X714.517Y753.909
G1 X714.541
G1 X714.593
G1 X714.668Y753.934
G1 X714.756Y753.983
G1 X714.847Y754.048
G1 X714.929Y754.118
G1 X714.992Y754.187
G1 X715.027Y754.246
G1 Y754.287
G1 X714.918Y754.299
G1 X714.758Y754.242
G1 X714.679Y754.201
G1 X714.621Y754.178
G1 X714.585
G1 X714.57Y754.195
G1 Y754.241
G1 X714.604Y754.316
G1 X714.651Y754.423
G1 X714.717Y754.565
G1 X714.822Y754.735
G1 X714.97Y754.892
G1 X715.173Y755.044
G1 X715.438Y755.199
G1 X715.656Y755.324
G1 X715.835Y755.442
G1 X715.956Y755.54
G1 X716Y755.605
G1 X716.019Y755.662
G1 X716.065Y755.647
G1 X716.17
G1 X716.333Y755.717
G1 X716.421Y755.771
G1 X716.556Y755.851
G1 X716.947Y756.074
G1 X717.762Y756.528
G1 X718.735Y757.061
G1 X719.404Y757.424
G1 X720.044Y757.768
G1 X720.615Y758.07
G1 X721.025Y758.282
G1 X721.351Y758.442
G1 X721.598Y758.552
G1 X721.776Y758.614
G1 X721.89Y758.629
G1 X721.948Y758.601
G1 X721.958Y758.53
G1 X721.926Y758.419
G1 X721.894Y758.369
G1 X721.848Y758.336
G1 X721.792Y758.323
G1 X721.734
G1 X721.671Y758.341
G1 X721.614Y758.317
G1 X721.566Y758.262
G1 X721.529Y758.179
G1 X721.501Y758.017
G1 X721.526Y757.917
G1 X721.554Y757.897
G1 X721.589
G1 X721.629Y757.93
G1 X721.673Y757.987
G1 X721.722Y758.055
G1 X721.761Y758.088
G1 X721.79
G1 X721.808Y758.056
G1 Y757.995
G1 Y757.905
G1 X721.797Y757.789
G1 X721.751Y757.547
G1 X721.729Y757.405
G1 X721.704Y757.229
G1 X721.678Y757.025
G1 X721.625Y756.561
G1 X721.55Y755.799
G1 X721.522Y755.556
G1 X721.492Y755.339
G1 X721.461Y755.149
G1 X721.43Y754.989
G1 X721.398Y754.862
G1 X721.367Y754.771
G1 X721.336Y754.718
G1 X721.254Y754.621
G1 X721.212Y754.53
G1 X721.194Y754.395
G1 Y754.165
G1 X721.167Y754.023
G1 X721.093Y753.891
G1 X720.953Y753.751
G1 X720.511Y753.421
G1 X720.241Y753.203
G1 X719.957Y752.96
G1 X719.695Y752.721
G1 X719.137Y752.164
G1 X718.652Y751.606
G1 X718.231Y751.033
G1 X717.865Y750.427
G1 X717.544Y749.772
G1 X717.26Y749.05
G1 X717.129Y748.658
G1 X717.003Y748.244
G0 X720.403Y745.666
G1 X720.436Y745.681
G1 X720.499Y745.61
G1 X720.603Y745.426
G1 X720.678Y745.222
G1 X720.708Y745.003
G1 X720.69Y744.782
G1 X720.63Y744.565
G1 X720.529Y744.36
G1 X720.391Y744.17
G1 X720.221Y744.004
G1 X720.023Y743.866
G1 X719.798Y743.762
G1 X719.51Y743.659
G1 X719.778Y743.863
G1 X719.926Y743.993
G1 X720.057Y744.145
G1 X720.17Y744.314
G1 X720.263Y744.498
G1 X720.384Y744.895
G1 X720.408Y745.31
G1 Y745.445
G1 X720.395Y745.547
G1 Y745.621
G1 Y745.666
G0 X720.007Y745.612
G1 X720.077Y745.407
G1 X720.107Y745.209
G1 X720.097Y745.016
G1 X720.046Y744.824
G1 X719.954Y744.633
G1 X719.821Y744.44
G1 X719.646Y744.241
G1 X719.489Y744.09
G1 X719.341Y743.967
G1 X719.218Y743.883
G1 X719.137Y743.853
G1 X719.01Y743.813
G1 X718.892Y743.717
G1 X718.846Y743.648
G1 X718.834Y743.59
G1 X718.856Y743.543
G1 X718.915Y743.506
G1 X719.01Y743.478
G1 X719.143Y743.46
G1 X719.315Y743.45
G1 X719.527
G1 X719.852Y743.477
G1 X720.143Y743.557
G1 X720.399Y743.683
G1 X720.615Y743.854
G1 X720.788Y744.066
G1 X720.916Y744.316
G1 X720.995Y744.6
G1 X721.022Y744.916
G1 X720.978Y745.315
G1 X720.847Y745.669
G1 X720.631Y745.976
G1 X720.332Y746.232
G1 X720.1Y746.371
G1 X719.921Y746.437
G1 X719.791
G1 X719.703Y746.354
G1 Y746.283
G1 X719.736Y746.16
G1 X719.804Y746.002
G1 X719.898Y745.826
G1 X720.007Y745.612
G0 X718.391Y739.422
G1 X718.543Y739.364
G1 X718.748Y739.27
G1 X719.253Y739.075
G1 X719.729Y738.944
G1 X719.854Y738.92
G1 X719.936Y738.902
G1 X719.973Y738.889
G1 X719.905Y738.878
G1 X719.795
G1 X719.414Y738.895
G1 X719.104Y738.911
G1 X718.828Y738.93
G1 X718.617Y738.948
G1 X718.5Y738.964
G1 X718.435
G1 X718.395Y738.948
G1 X718.38Y738.893
G1 X718.391Y738.801
G1 X718.43Y738.664
G1 X718.498Y738.479
G1 X718.596Y738.239
G1 X718.726Y737.939
G1 X718.862Y737.599
G1 X718.982Y737.241
G1 X719.075Y736.907
G1 X719.126Y736.641
G1 X719.149Y736.443
G1 Y736.305
G1 Y736.23
G1 X719.103
G1 X719.021Y736.283
G1 X718.892Y736.42
G1 X718.806Y736.517
G1 X718.005Y737.459
G1 X718.111Y738.911
G1 X718.125Y739.052
G1 X718.158Y739.261
G1 X718.208Y739.384
G1 X718.282Y739.433
G1 X718.391Y739.422
G0 X721.12Y737.156
G1 X721.157
G1 X721.232Y737.114
G1 X721.337Y737.024
G1 X721.599Y736.743
G1 X721.876Y736.384
G1 X721.989Y736.216
G1 X722.071Y736.086
G1 X722.121Y735.994
G1 X722.14Y735.937
G1 X722.127Y735.916
G1 X722.083Y735.93
G1 X722.007Y735.977
G1 X721.901Y736.057
G1 X721.694Y736.196
G1 X721.531Y736.247
G1 X721.401Y736.211
G1 X721.296Y736.088
G1 X721.249Y736.031
G1 X721.218Y736.06
G1 Y736.11
G1 X721.201Y736.185
G1 Y736.287
G1 Y736.417
G1 X721.189Y736.624
G1 X721.175Y736.82
G1 X721.154Y736.983
G1 X721.129Y737.09
G1 Y737.156
G0 X720.706Y737.166
G1 X720.732Y736.866
G1 X720.751Y736.527
G1 Y736.188
G1 X720.768Y735.874
G1 X720.791Y735.6
G1 X720.807Y735.488
G1 X720.825Y735.398
G1 X720.844Y735.332
G1 X720.865Y735.296
G1 X720.986Y735.232
G1 X721.122Y735.263
G1 X721.266Y735.386
G1 X721.412Y735.599
G1 X721.584Y735.9
G1 X721.819Y735.581
G1 X722.032Y735.234
G1 X722.213Y734.846
G1 X722.276Y734.702
G1 X722.343Y734.587
G1 X722.41Y734.503
G1 X722.477Y734.452
G1 X722.542Y734.433
G1 X722.602Y734.448
G1 X722.655Y734.499
G1 X722.7Y734.585
G1 X722.72Y734.715
G1 Y734.91
G1 X722.681Y735.151
G1 X722.631Y735.418
G1 X722.566Y735.692
G1 X722.491Y735.952
G1 X722.409Y736.179
G1 X722.325Y736.352
G1 X722.061Y736.73
G1 X721.741Y737.09
G1 X721.4Y737.396
G1 X721.076Y737.611
G1 X720.932Y737.683
G1 X720.805Y737.741
G1 X720.708Y737.781
G1 X720.655Y737.795
G1 X720.637Y737.763
G1 Y737.675
G1 Y737.545
G1 X720.673Y737.387
G1 X720.706Y737.166
G0 X728.706Y736.327
G1 X728.718Y736.377
G1 X728.739Y736.449
G1 X728.842Y736.756
G1 X728.948Y736.997
G1 X729.083Y737.228
G1 X729.276Y737.505
G1 X729.392Y737.662
G1 X729.479Y737.769
G1 X729.543Y737.824
G1 X729.589
G1 X729.62Y737.755
G1 X729.642Y737.624
G1 X729.659Y737.423
G1 X729.677Y737.148
G1 X729.688Y736.964
G1 Y736.825
G1 Y736.726
G1 Y736.663
G1 X729.667Y736.632
G1 X729.641
G1 X729.604Y736.65
G1 X729.556Y736.691
G1 X729.402Y736.801
G1 X729.266Y736.815
G1 X729.195Y736.783
G1 X729.117Y736.724
G1 X729.029Y736.637
G1 X728.787Y736.358
G1 X728.744Y736.315
G1 X728.717Y736.296
G1 X728.705
G1 Y736.327
G0 X728.417Y736.5
G1 X728.358Y736.164
G1 X728.326Y735.805
G1 X728.315Y735.455
G1 Y735.179
G1 X728.346Y734.988
G1 X728.387Y734.889
G1 X728.451Y734.845
G1 X728.516
G1 X728.581Y734.86
G1 X728.642Y734.915
G1 X728.747Y735.107
G1 X728.815Y735.39
G1 X728.915Y735.762
G1 X729.083Y736.123
G1 X729.301Y736.475
G1 X729.556Y736.163
G1 X729.671Y736.04
G1 X729.785Y735.952
G1 X729.892Y735.899
G1 X729.987Y735.881
G1 X730.066Y735.899
G1 X730.123Y735.952
G1 X730.155Y736.04
G1 Y736.164
G1 Y736.232
G1 X730.132Y736.473
G1 X730.056Y737.686
G1 X730.039Y737.901
G1 X730.02Y738.079
G1 X730Y738.222
G1 X729.977Y738.332
G1 X729.952Y738.408
G1 X729.925Y738.453
G1 X729.895Y738.468
G1 X729.816Y738.439
G1 X729.687Y738.358
G1 X729.526Y738.239
G1 X729.352Y738.094
G1 X729.124Y737.873
G1 X728.926Y737.635
G1 X728.757Y737.38
G1 X728.616Y737.107
G1 X728.503Y736.814
G1 X728.417Y736.5
G0 X731.679Y736.845
G1 Y736.928
G1 Y737.167
G1 X731.708Y737.48
G1 X731.828Y738.212
G1 X732.004Y738.893
G1 X732.099Y739.198
G1 X732.17Y739.465
G1 X732.195Y739.575
G1 X732.211Y739.666
G1 Y739.732
G1 Y739.772
G1 X732.164Y739.818
G1 X732.058
G1 X731.881Y739.788
G1 X731.617Y739.708
G1 X731.193Y739.594
G1 X730.809Y739.534
G1 X730.652
G1 X730.53
G1 X730.451Y739.56
G1 X730.423Y739.602
G1 X730.447Y739.633
G1 X730.512Y739.662
G1 X730.609Y739.686
G1 X730.727Y739.701
G1 X730.907Y739.734
G1 X731.121Y739.805
G1 X731.358Y739.908
G1 X731.606Y740.036
G1 X732.094Y740.346
G1 X732.494Y740.683
G1 X732.861Y741.059
G1 X733.024Y740.797
G1 X733.226Y740.531
G1 X733.483Y740.258
G1 X733.608Y740.127
G1 X733.706Y739.994
G1 X733.78Y739.859
G1 X733.827Y739.722
G1 X733.849Y739.584
G1 Y739.446
G1 X733.814Y739.309
G1 X733.756Y739.173
G1 X733.616Y738.905
G1 X733.509Y739.3
G1 X733.406Y739.588
G1 X733.278Y739.785
G1 X733.208Y739.847
G1 X733.133Y739.884
G1 X733.056Y739.895
G1 X732.978Y739.878
G1 X732.916Y739.835
G1 X732.882Y739.76
G1 Y739.647
G1 Y739.49
G1 X732.909Y739.282
G1 X732.897Y739.056
G1 X732.858Y738.816
G1 X732.791Y738.565
G1 X732.581Y738.044
G1 X732.274Y737.519
G1 X732.099Y737.264
G1 X731.942Y737.041
G1 X731.818Y736.873
G1 X731.747Y736.786
G1 X731.716Y736.77
G1 X731.694Y736.791
G1 X731.679Y736.845
G0 X731.441Y736.9
G1 X731.462Y736.703
G1 X731.486Y736.548
G1 X731.512Y736.432
G1 X731.542Y736.349
G1 X731.577Y736.295
G1 X731.618Y736.266
G1 X731.668
G1 X731.709Y736.276
G1 X731.769Y736.333
G1 X731.846Y736.422
G1 X731.937Y736.539
G1 X732.148Y736.839
G1 X732.381Y737.197
G1 X732.614Y737.58
G1 X732.824Y737.952
G1 X732.914Y738.122
G1 X732.99Y738.277
G1 X733.05Y738.411
G1 X733.09Y738.521
G1 X733.137Y738.669
G1 X733.176Y738.783
G1 X733.209Y738.864
G1 X733.237Y738.914
G1 X733.284Y738.931
G1 X733.374Y738.76
G1 X733.432Y738.704
G1 X733.502Y738.681
G1 X733.581
G1 X733.667Y738.73
G1 X733.759Y738.802
G1 X733.855Y738.904
G1 X733.953Y739.036
G1 X734.061Y739.218
G1 X734.133Y739.393
G1 X734.169Y739.564
G1 Y739.731
G1 X734.132Y739.899
G1 X734.059Y740.067
G1 X733.949Y740.24
G1 X733.802Y740.418
G1 X733.55Y740.712
G1 X733.365Y740.969
G1 X733.251Y741.182
G1 X733.212Y741.344
G1 X733.235Y741.395
G1 X733.298Y741.459
G1 X733.391Y741.529
G1 X733.505Y741.596
G1 X733.721Y741.733
G1 X733.965Y741.928
G1 X734.222Y742.17
G1 X734.483Y742.445
G1 X734.736Y742.74
G1 X734.968Y743.042
G1 X735.168Y743.339
G1 X735.325Y743.617
G1 X735.49Y743.976
G1 X735.598Y744.291
G1 X735.661Y744.609
G1 X735.695Y744.98
G1 Y745.19
G1 X735.705Y745.366
G1 Y745.52
G1 X735.678Y745.66
G1 X735.597Y745.939
G1 X735.448Y746.283
G1 X735.187Y746.768
G1 X734.891Y747.188
G1 X734.567Y747.532
G1 X734.221Y747.795
G1 X734.076Y747.902
G1 X733.962Y748.022
G1 X733.881Y748.156
G1 X733.832Y748.304
G1 X733.763Y748.554
G1 X733.667Y748.788
G1 X733.545Y749.005
G1 X733.396Y749.206
G1 X733.222Y749.39
G1 X733.021Y749.557
G1 X732.795Y749.707
G1 X732.543Y749.839
G1 X732.398Y749.901
G1 X732.249Y749.949
G1 X732.074Y749.986
G1 X731.851Y750.011
G1 X731.558Y750.029
G1 X731.173Y750.04
G1 X730.674
G1 X729.093Y750.053
G1 X728.648
G1 X728.471Y750.067
G1 X728.319
G1 X728.19Y750.086
G1 X727.983Y750.115
G1 X727.825Y750.158
G1 X727.687Y750.218
G1 X727.541Y750.295
G1 X727.347Y750.421
G1 X727.176Y750.566
G1 X727.027Y750.73
G1 X726.904Y750.91
G1 X726.806Y751.105
G1 X726.734Y751.313
G1 X726.69Y751.532
G1 X726.675Y751.761
G1 Y751.902
G1 Y752.01
G1 X726.656Y752.091
G1 X726.637Y752.148
G1 X726.565Y752.206
G1 X726.436Y752.218
G1 X726.332Y752.204
G1 X726.235Y752.163
G1 X726.153Y752.1
G1 X726.092Y752.018
G1 X726.046Y751.899
G1 X726Y751.724
G1 X725.96Y751.517
G1 X725.931Y751.3
G1 X725.914Y751.015
G1 X725.936Y750.779
G1 X726.009Y750.539
G1 X726.142Y750.244
G1 X726.406Y749.824
G1 X726.738Y749.473
G1 X726.913Y749.336
G1 X727.088Y749.231
G1 X727.255Y749.165
G1 X727.409Y749.141
G1 X727.523
G1 X727.595Y749.112
G1 X727.628Y749.08
G1 Y749.039
G1 X727.579Y748.993
G1 X727.501Y748.945
G1 X727.389Y748.897
G1 X727.245Y748.852
G1 X727.041Y748.778
G1 X726.896Y748.688
G1 X726.811Y748.587
G1 X726.784Y748.482
G1 X726.817Y748.379
G1 X726.908Y748.284
G1 X727.057Y748.203
G1 X727.265Y748.143
G1 X727.441Y748.122
G1 X727.623
G1 X727.815Y748.16
G1 X728.021Y748.223
G1 X728.242Y748.315
G1 X728.483Y748.439
G1 X728.745Y748.594
G1 X729.032Y748.783
G1 X729.644Y749.2
G1 X729.799Y749.302
G1 X730.055Y749.459
G1 X730.262Y749.563
G1 X730.443Y749.625
G1 X730.626Y749.655
G1 X730.835
G1 X731.096
G1 X731.499
G1 X731.861Y749.6
G1 X732.184Y749.522
G1 X732.469Y749.413
G1 X732.719Y749.271
G1 X732.934Y749.095
G1 X733.116Y748.886
G1 X733.268Y748.641
G1 X733.335Y748.506
G1 X733.376Y748.4
G1 X733.389Y748.319
G1 X733.373Y748.26
G1 X733.324Y748.22
G1 X733.242Y748.196
G1 X733.123Y748.183
G1 X732.966
G1 X732.579Y748.139
G1 X732.262Y748.042
G1 X732.104Y747.943
G1 X731.939Y747.811
G1 X731.775Y747.653
G1 X731.618Y747.476
G1 X731.474Y747.289
G1 X731.348Y747.098
G1 X731.249Y746.912
G1 X731.181Y746.738
G1 X731.122Y746.461
G1 Y746.221
G1 X731.174Y746.018
G1 X731.282Y745.854
G1 X731.443Y745.731
G1 X731.656Y745.651
G1 X731.919Y745.613
G1 X732.231
G1 X732.741Y745.667
G1 X732.678Y745.246
G1 X732.652Y745.016
G1 X732.669Y744.853
G1 X732.738Y744.718
G1 X732.872Y744.568
G1 X733.024Y744.433
G1 X733.169Y744.361
G1 X733.352Y744.341
G1 X733.621Y744.358
G1 X733.822Y744.388
G1 X733.995Y744.436
G1 X734.14Y744.504
G1 X734.257Y744.591
G1 X734.347Y744.699
G1 X734.411Y744.827
G1 X734.449Y744.976
G1 X734.462Y745.147
G1 X734.414Y745.399
G1 X734.29Y745.605
G1 X734.207Y745.681
G1 X734.115Y745.735
G1 X734.017Y745.762
G1 X733.917
G1 X733.771Y745.682
G1 X733.708Y745.557
G1 Y745.495
G1 X733.738Y745.442
G1 X733.79Y745.405
G1 X733.867Y745.391
G1 X734.002Y745.364
G1 X734.088Y745.293
G1 X734.129Y745.189
G1 Y745.067
G1 X734.082Y744.94
G1 X734Y744.821
G1 X733.882Y744.723
G1 X733.731Y744.659
G1 X733.59Y744.636
G1 X733.458
G1 X733.337Y744.666
G1 X733.231Y744.714
G1 X733.143Y744.783
G1 X733.077Y744.869
G1 X733.034Y744.97
G1 X733.019Y745.086
G1 X733.051Y745.379
G1 X733.14Y745.697
G1 X733.283Y746.024
G1 X733.471Y746.343
G1 X733.663Y746.701
G1 X733.803Y747.092
G1 X733.85Y747.253
G1 X733.899Y747.385
G1 X733.946Y747.474
G1 X733.983Y747.507
G1 X734.071Y747.462
G1 X734.207Y747.34
G1 X734.375Y747.16
G1 X734.561Y746.942
G1 X734.748Y746.704
G1 X734.92Y746.466
G1 X735.063Y746.246
G1 X735.161Y746.064
G1 X735.299Y745.641
G1 X735.354Y745.192
G1 X735.328Y744.727
G1 X735.225Y744.255
G1 X735.046Y743.785
G1 X734.795Y743.327
G1 X734.474Y742.89
G1 X734.087Y742.484
G1 X733.819Y742.248
G1 X733.56Y742.047
G1 X733.305Y741.878
G1 X733.053Y741.74
G1 X732.799Y741.632
G1 X732.541Y741.551
G1 X732.275Y741.496
G1 X731.998Y741.466
G1 X731.747
G1 X731.517
G1 X731.309Y741.512
G1 X731.122Y741.57
G1 X730.957Y741.65
G1 X730.813Y741.751
G1 X730.689Y741.874
G1 X730.587Y742.018
G1 X730.506Y742.174
G1 X730.452Y742.319
G1 X730.426Y742.453
G1 Y742.574
G1 X730.456Y742.684
G1 X730.512Y742.781
G1 X730.596Y742.866
G1 X730.707Y742.937
G1 X730.933Y743.034
G1 X731.126Y743.077
G1 X731.278
G1 X731.385Y743.025
G1 X731.441Y742.939
G1 Y742.82
G1 X731.372Y742.673
G1 X731.236Y742.502
G1 X731.136Y742.387
G1 X731.071Y742.291
G1 X731.04Y742.215
G1 Y742.161
G1 X731.078Y742.133
G1 X731.143
G1 X731.239Y742.162
G1 X731.364Y742.223
G1 X731.604Y742.408
G1 X731.772Y742.635
G1 X731.822Y742.752
G1 X731.847Y742.864
G1 Y742.968
G1 X731.808Y743.059
G1 X731.623Y743.274
G1 X731.394Y743.401
G1 X731.123Y743.438
G1 X730.813Y743.385
G1 X730.622Y743.319
G1 X730.46Y743.244
G1 X730.327Y743.159
G1 X730.22Y743.062
G1 X730.139Y742.951
G1 X730.082Y742.827
G1 X730.049Y742.687
G1 X730.039Y742.531
G1 X730.086Y742.193
G1 X730.22Y741.89
G1 X730.43Y741.628
G1 X730.706Y741.414
G1 X731.037Y741.253
G1 X731.412Y741.153
G1 X731.821Y741.12
G1 X732.254Y741.16
G1 X732.683Y741.237
G1 X732.202Y740.811
G1 X731.937Y740.587
G1 X731.692Y740.405
G1 X731.462Y740.261
G1 X731.24Y740.154
G1 X731.02Y740.08
G1 X730.798Y740.039
G1 X730.566Y740.026
G1 X730.318Y740.041
G1 X730.164Y740.055
G1 X730.039
G1 X729.94Y740.066
G1 X729.865
G1 X729.775Y740.029
G1 X729.75Y739.965
G1 X729.784Y739.758
G1 X729.881Y739.582
G1 X730.035Y739.439
G1 X730.236Y739.333
G1 X730.479Y739.266
G1 X730.755Y739.242
G1 X731.058Y739.263
G1 X731.379Y739.332
G1 X731.51Y739.366
G1 X731.623Y739.388
G1 X731.706
G1 X731.746
G1 Y739.366
G1 Y739.315
G1 X731.731Y739.239
G1 X731.711Y739.141
G1 X731.652Y738.894
G1 X731.573Y738.599
G1 X731.472Y738.198
G1 X731.417Y737.857
G1 X731.401Y737.522
G1 X731.419Y737.143
G1 X731.441Y736.9
G0 X734.71Y736.752
G1 X734.793Y736.977
G1 X734.916Y737.188
G1 X735.076Y737.381
G1 X735.273Y737.552
G1 X735.504Y737.697
G1 X735.836Y737.816
G1 X736.229Y737.878
G1 X736.422
G1 X736.597
G1 X736.744Y737.85
G1 X736.853Y737.805
G1 X736.896Y737.76
G1 X736.877Y737.715
G1 X736.792Y737.665
G1 X736.638Y737.607
G1 X736.463Y737.522
G1 X736.247Y737.375
G1 X736.005Y737.182
G1 X735.754Y736.957
G1 X735.51Y736.716
G1 X735.288Y736.473
G1 X735.105Y736.245
G1 X734.978Y736.047
G1 X734.81Y735.728
G1 X734.72Y736.034
G1 X734.672Y736.276
G1 Y736.517
G1 X734.71Y736.752
G0 X734.403Y736.677
G1 X734.392Y736.287
G1 X734.417Y736.104
G1 X734.463Y735.937
G1 X734.528Y735.792
G1 X734.613Y735.672
G1 X734.789Y735.534
G1 X734.958Y735.49
G1 X735.029Y735.503
G1 X735.085Y735.54
G1 X735.121Y735.6
G1 X735.135Y735.684
G1 X735.148Y735.786
G1 X735.187Y735.9
G1 X735.25Y736.022
G1 X735.333Y736.152
G1 X735.554Y736.424
G1 X735.833Y736.7
G1 X736.152Y736.964
G1 X736.493Y737.2
G1 X736.837Y737.391
G1 X737.168Y737.522
G1 X737.312Y737.57
G1 X737.43Y737.619
G1 X737.509Y737.663
G1 X737.539Y737.697
G1 X737.509Y737.738
G1 X737.429Y737.803
G1 X737.31Y737.883
G1 X737.165Y737.97
G1 X736.992Y738.048
G1 X736.789Y738.109
G1 X736.568Y738.151
G1 X736.339Y738.175
G1 X736.113
G1 X735.902Y738.164
G1 X735.716Y738.128
G1 X735.567Y738.069
G1 X735.346Y737.944
G1 X735.155Y737.823
G1 X734.991Y737.704
G1 X734.853Y737.586
G1 X734.642Y737.339
G1 X734.501Y737.065
G1 X734.403Y736.677
G0 X736.656Y733.83
G1 X736.715Y733.846
G1 X736.797
G1 X736.907
G1 X737.053Y733.823
G1 X737.481Y733.741
G1 X737.88Y733.618
G1 X738.169Y733.451
G1 X738.421Y733.205
G1 X738.62Y732.904
G1 X738.747Y732.568
G1 X738.815Y732.293
G1 X738.345Y732.356
G1 X737.972Y732.372
G1 X737.54Y732.342
G1 X737.113Y732.273
G1 X736.759Y732.172
G1 X736.679
G1 X736.623Y732.234
G1 X736.601Y732.304
G1 X736.582Y732.401
G1 X736.563Y732.53
G1 X736.545Y732.691
G1 X736.526Y732.94
G1 Y733.189
G1 Y733.41
G1 X736.545Y733.573
G1 X736.588Y733.745
G1 X736.656Y733.83
G0 X737.252Y731.88
G1 X737.582Y731.912
G1 X738.006Y731.924
G1 X738.809
G1 X738.746Y731.679
G1 X738.648Y731.402
G1 X738.501Y731.168
G1 X738.307Y730.977
G1 X738.065Y730.83
G1 X737.91Y730.767
G1 X737.762Y730.733
G1 X737.622
G1 X737.489Y730.746
G1 X737.361Y730.795
G1 X737.238Y730.871
G1 X737.12Y730.976
G1 X737.006Y731.109
G1 X736.86Y731.323
G1 X736.784Y731.499
G1 Y731.639
G1 X736.855Y731.747
G1 X737.011Y731.827
G1 X737.252Y731.88
G0 X726.614Y729.207
G1 X726.577Y729.238
G1 X726.54Y729.207
G1 X726.509Y729.125
G1 X726.488Y729.002
G1 Y728.853
G1 Y728.704
G1 X726.509Y728.581
G1 X726.54Y728.499
G1 X726.577Y728.468
G1 X726.614Y728.499
G1 X726.645Y728.581
G1 X726.666Y728.704
G1 Y728.853
G1 Y729.002
G1 X726.645Y729.125
G1 X726.614Y729.207
G0 X725.135Y729.141
G1 Y729.291
G1 X725.106Y729.413
G1 X725.076Y729.496
G1 X725.039Y729.526
G1 X725.001Y729.496
G1 X724.971Y729.413
G1 X724.95Y729.291
G1 Y729.141
G1 Y728.992
G1 X724.971Y728.87
G1 X725.001Y728.787
G1 X725.039Y728.757
G1 X725.076Y728.787
G1 X725.106Y728.87
G1 X725.127Y728.992
G1 Y729.141
G0 X725.135Y728.084
G1 X725.097Y728.053
G1 X725.067Y727.971
G1 X725.046Y727.848
G1 Y727.699
G1 Y727.55
G1 X725.067Y727.427
G1 X725.097Y727.345
G1 X725.135Y727.314
G1 X725.172Y727.345
G1 X725.203Y727.427
G1 X725.223Y727.55
G1 Y727.699
G1 Y727.848
G1 X725.203Y727.971
G1 X725.172Y728.053
G1 X725.135Y728.084
G0 X726.636Y727.765
G1 X726.605Y727.682
G1 X726.585Y727.56
G1 Y727.411
G1 Y727.261
G1 X726.605Y727.139
G1 X726.636Y727.056
G1 X726.673Y727.026
G1 X726.71Y727.056
G1 X726.741Y727.139
G1 X726.762Y727.261
G1 Y727.411
G1 Y727.56
G1 X726.741Y727.682
G1 X726.71Y727.765
G1 X726.673Y727.795
G1 X726.636Y727.765
G0 X726.769Y726.353
G1 X726.732Y726.323
G1 X726.701Y726.24
G1 X726.681Y726.118
G1 Y725.968
G1 Y725.819
G1 X726.701Y725.697
G1 X726.732Y725.614
G1 X726.769Y725.584
G1 X726.807Y725.614
G1 X726.837Y725.697
G1 X726.858Y725.819
G1 Y725.968
G1 Y726.118
G1 X726.837Y726.24
G1 X726.807Y726.323
G1 X726.769Y726.353
G0 X725.327Y726.257
G1 Y726.406
G1 X725.299Y726.528
G1 X725.268Y726.611
G1 X725.231Y726.641
G1 X725.193Y726.611
G1 X725.163Y726.528
G1 X725.142Y726.406
G1 Y726.257
G1 Y726.107
G1 X725.163Y725.985
G1 X725.193Y725.902
G1 X725.231Y725.872
G1 X725.268Y725.902
G1 X725.299Y725.985
G1 X725.319Y726.107
G1 Y726.257
G0 X725.327Y725.247
G1 X725.287
G1 X725.257Y725.172
G1 X725.238Y725.045
G1 Y724.868
G1 Y724.698
G1 X725.259Y724.559
G1 X725.29Y724.464
G1 X725.327Y724.43
G1 X725.364Y724.46
G1 X725.395Y724.541
G1 X725.416Y724.662
G1 Y724.809
G1 Y724.961
G1 X725.395Y725.094
G1 X725.364Y725.194
G1 X725.327Y725.247
G0 X726.828Y724.88
G1 X726.797Y724.798
G1 X726.777Y724.675
G1 Y724.526
G1 Y724.377
G1 X726.797Y724.254
G1 X726.828Y724.172
G1 X726.865Y724.141
G1 X726.903Y724.172
G1 X726.933Y724.254
G1 X726.954Y724.377
G1 Y724.526
G1 Y724.675
G1 X726.933Y724.798
G1 X726.903Y724.88
G1 X726.865Y724.911
G1 X726.828Y724.88
G0 X725.423Y723.853
G1 X725.386Y723.823
G1 X725.355Y723.742
G1 X725.335Y723.621
G1 Y723.474
G1 Y723.322
G1 X725.355Y723.189
G1 X725.386Y723.089
G1 X725.423Y723.036
G1 X725.463
G1 X725.493Y723.111
G1 X725.513Y723.237
G1 Y723.415
G1 Y723.585
G1 X725.491Y723.724
G1 X725.46Y723.818
G1 X725.423Y723.853
G0 X726.924Y723.438
G1 X726.894Y723.355
G1 X726.873Y723.233
G1 Y723.084
G1 Y722.934
G1 X726.894Y722.812
G1 X726.924Y722.729
G1 X726.962Y722.699
G1 X726.999Y722.729
G1 X727.03Y722.812
G1 X727.05Y722.934
G1 Y723.084
G1 Y723.233
G1 X727.03Y723.355
G1 X726.999Y723.438
G1 X726.962Y723.468
G1 X726.924Y723.438
G0 X726.989Y722.089
G1 X726.953Y722.076
G1 X726.916Y722.03
G1 X726.883Y721.842
G1 X726.911Y721.585
G1 X726.941Y721.465
G1 X726.979Y721.369
G1 X727.02Y721.313
G1 X727.063
G1 X727.127Y721.423
G1 X727.15Y721.62
G1 X727.13Y721.838
G1 X727.068Y722.012
G1 X727.026Y722.068
G1 X726.989Y722.089
G0 X725.615Y721.978
G1 Y722.146
G1 X725.587Y722.284
G1 X725.557Y722.376
G1 X725.519Y722.411
G1 X725.482Y722.376
G1 X725.451Y722.284
G1 X725.431Y722.146
G1 Y721.978
G1 Y721.81
G1 X725.451Y721.672
G1 X725.482Y721.579
G1 X725.519Y721.545
G1 X725.557Y721.579
G1 X725.587Y721.672
G1 X725.608Y721.81
G1 Y721.978
G0 X725.533Y720.968
G1 X725.498Y720.951
G1 X725.468Y720.902
G1 X725.444Y720.823
G1 X725.429Y720.717
G1 Y720.584
G1 Y720.406
G1 X725.456Y720.287
G1 X725.501Y720.22
G1 X725.567Y720.199
G1 X725.659Y720.255
G1 X725.707Y720.401
G1 Y720.6
G1 X725.653Y720.816
G1 X725.612Y720.903
G1 X725.572Y720.953
G1 X725.533Y720.968
G0 X727.02Y720.646
G1 X726.99Y720.553
G1 X726.969Y720.415
G1 Y720.247
G1 Y720.079
G1 X726.99Y719.942
G1 X727.02Y719.849
G1 X727.058Y719.814
G1 X727.095Y719.849
G1 X727.126Y719.942
G1 X727.146Y720.079
G1 Y720.247
G1 Y720.415
G1 X727.126Y720.553
G1 X727.095Y720.646
G1 X727.058Y720.68
G1 X727.02Y720.646
G0 X727.081Y719.219
G1 X727.036Y719.202
G1 X726.998Y719.137
G1 X726.971Y719.024
G1 X726.962Y718.861
G1 Y718.677
G1 X726.995Y718.555
G1 X727.041Y718.489
G1 X727.112Y718.468
G1 X727.182Y718.486
G1 X727.223Y718.544
G1 X727.239Y718.653
G1 Y718.821
G1 X727.208Y718.989
G1 X727.172Y719.112
G1 X727.127Y719.189
G1 X727.081Y719.219
G0 X725.712Y719.141
G1 Y719.291
G1 X725.683Y719.413
G1 X725.653Y719.496
G1 X725.615Y719.526
G1 X725.578Y719.496
G1 X725.547Y719.413
G1 X725.527Y719.291
G1 Y719.141
G1 Y718.992
G1 X725.547Y718.87
G1 X725.578Y718.787
G1 X725.615Y718.757
G1 X725.653Y718.787
G1 X725.683Y718.87
G1 X725.704Y718.992
G1 Y719.141
G0 X725.603Y718.084
G1 X725.571Y718.053
G1 X725.544Y717.971
G1 X725.526Y717.848
G1 Y717.699
G1 X725.538Y717.473
G1 X725.59Y717.341
G1 X725.625Y717.313
G1 X725.665
G1 X725.708Y717.341
G1 X725.754Y717.401
G1 X725.776Y717.559
G1 X725.745Y717.788
G1 X725.715Y717.9
G1 X725.68Y717.994
G1 X725.642Y718.059
G1 X725.603Y718.084
G0 X720.42Y717.045
G1 X720.394Y717.031
G1 X720.318
G1 X720.13Y716.967
G1 X719.976Y716.812
G1 X719.88Y716.599
G1 X719.865Y716.363
G1 X719.878Y716.27
G1 Y716.207
G1 X719.866Y716.176
G1 X719.83
G1 X719.766Y716.22
G1 X719.67Y716.301
G1 X719.533Y716.423
G1 X719.352Y716.59
G1 X718.854Y716.994
G1 X718.314Y717.321
G1 X717.737Y717.57
G1 X717.126Y717.738
G1 X716.545Y717.857
G1 X716.876Y718.109
G1 X717.042Y718.216
G1 X717.282Y718.344
G1 X717.567Y718.481
G1 X717.869Y718.615
G1 X718.161Y718.734
G1 X718.413Y718.827
G1 X718.515Y718.859
G1 X718.597Y718.881
G1 X718.656
G1 X718.687
G1 Y718.858
G1 X718.654Y718.815
G1 X718.594Y718.759
G1 X718.514Y718.698
G1 X718.327Y718.556
G1 X718.175Y718.414
G1 X718.058Y718.277
G1 X717.979Y718.146
G1 X717.936Y718.022
G1 Y717.908
G1 X717.969Y717.806
G1 X718.045Y717.717
G1 X718.159Y717.656
G1 X718.355Y717.58
G1 X718.61Y717.498
G1 X718.899Y717.415
G1 X719.197Y717.339
G1 X719.478Y717.276
G1 X719.718Y717.233
G1 X719.892Y717.217
G1 X720.14Y717.188
G1 X720.327Y717.122
G1 X720.398Y717.073
G1 X720.42Y717.045
G0 X717.398Y715.636
G1 X717.442Y715.584
G1 X717.509Y715.404
G1 X717.537Y715.175
G1 X717.524Y715.043
G1 X717.486Y714.922
G1 X717.424Y714.814
G1 X717.343Y714.718
G1 X717.129Y714.567
G1 X716.866Y714.475
G1 X716.574Y714.445
G1 X716.275Y714.483
G1 X715.99Y714.592
G1 X715.739Y714.779
G1 X715.646Y714.881
G1 X715.587Y714.967
G1 X715.56Y715.031
G1 Y715.072
G1 X715.593Y715.086
G1 X715.649Y715.07
G1 X715.73Y715.02
G1 X715.832Y714.933
G1 X716.087Y714.738
G1 X716.346Y714.622
G1 X716.606Y714.588
G1 X716.864Y714.636
G1 X717.086Y714.746
G1 X717.235Y714.904
G1 X717.32Y715.121
G1 X717.348Y715.409
G1 Y715.554
G1 X717.369Y715.628
G1 X717.398
G0 X714.65Y716.845
G1 X714.403Y716.671
G1 X714.203Y716.55
G1 X714.004Y716.44
G1 X713.83Y716.355
G1 X713.703Y716.305
G1 X713.58Y716.274
G1 X713.52Y716.286
G1 X713.51Y716.355
G1 X713.539Y716.494
G1 X713.606Y716.79
G1 X713.872Y718.042
G1 X713.974Y718.508
G1 X714.085Y719.001
G1 X714.197Y719.49
G1 X714.303Y719.941
G1 X714.433Y720.478
G1 X714.491Y720.697
G1 X714.508Y720.752
G1 X714.55Y720.835
G1 X714.609Y720.865
G1 X714.702Y720.846
G1 X714.846Y720.776
G1 X714.932Y720.697
G1 X715.019Y720.555
G1 X715.103Y720.361
G1 X715.182Y720.121
G1 X715.315Y719.543
G1 X715.397Y718.888
G1 X715.411Y718.675
G1 Y718.499
G1 Y718.347
G1 X715.395Y718.21
G1 X715.363Y718.076
G1 X715.315Y717.934
G1 X715.249Y717.773
G1 X715.162Y717.583
G1 X714.999Y717.264
G1 X714.838Y717.03
G1 X714.65Y716.845
G0 X716.661Y720.168
G1 X716.639Y720.179
G1 X716.612Y720.227
G1 X716.578Y720.313
G1 X716.534Y720.442
G1 X716.48Y720.614
G1 X716.283Y721.121
G1 X716.055Y721.552
G1 X715.96Y721.704
G1 X715.902Y721.815
G1 X715.881Y721.885
G1 X715.897Y721.914
G1 X715.95Y721.901
G1 X716.039Y721.848
G1 X716.164Y721.753
G1 X716.325Y721.617
G1 X716.458Y721.486
G1 X716.567Y721.343
G1 X716.654Y721.191
G1 X716.716Y721.031
G1 X716.755Y720.863
G1 X716.769Y720.689
G1 X716.759Y720.509
G1 X716.724Y720.324
G1 X716.701Y720.243
G1 X716.681Y720.19
G1 X716.661Y720.168
G0 X716.932Y719.953
G1 X717.064Y720.33
G1 X717.11Y720.584
G1 Y720.824
G1 X717.077Y721.052
G1 X716.998Y721.27
G1 X716.875Y721.479
G1 X716.709Y721.681
G1 X716.497Y721.876
G1 X716.241Y722.068
G1 X715.994Y722.21
G1 X715.767Y722.288
G1 X715.555Y722.301
G1 X715.351Y722.251
G1 X715.255Y722.179
G1 Y722.068
G1 X715.279Y721.994
G1 X715.334Y721.905
G1 X715.414Y721.799
G1 X715.519Y721.675
G1 X715.834Y721.262
G1 X716.057Y720.834
G1 X716.199Y720.368
G1 X716.268Y719.839
G1 X716.292Y719.568
G1 X716.325Y719.346
G1 X716.361Y719.196
G1 X716.396Y719.141
G1 X716.461Y719.174
G1 X716.544Y719.263
G1 X716.639Y719.398
G1 X716.74Y719.565
G1 X716.932Y719.953
G0 X715.695Y719.819
G1 X715.64Y719.925
G1 X715.59Y719.943
G1 X715.555Y719.926
G1 X715.537
G1 Y719.951
G1 X715.556Y719.989
G1 X715.572Y720.082
G1 X715.545Y720.227
G1 X715.485Y720.407
G1 X715.399Y720.607
G1 X715.294Y720.812
G1 X715.178Y721.004
G1 X715.058Y721.169
G1 X714.942Y721.29
G1 X714.679Y721.511
G1 X715.42Y724.5
G1 X715.591Y725.177
G1 X715.73Y725.71
G1 X715.791Y725.929
G1 X715.845Y726.119
G1 X715.896Y726.283
G1 X715.985Y726.542
G1 X716.066Y726.728
G1 X716.144Y726.859
G1 X716.226Y726.955
G1 X716.491Y727.22
G1 X716.425Y726.412
G1 X716.405Y726.064
G1 Y725.714
G1 Y725.403
G1 X716.425Y725.171
G1 X716.542Y724.777
G1 X716.751Y724.355
G1 X716.873Y724.163
G1 X716.997Y724
G1 X717.115Y723.879
G1 X717.221Y723.811
G1 X717.314Y723.786
G1 X717.391
G1 X717.449Y723.816
G1 X717.488Y723.863
G1 X717.507Y723.93
G1 Y724.012
G1 X717.477Y724.108
G1 X717.426Y724.214
G1 X717.336Y724.387
G1 X717.269Y724.562
G1 X717.226Y724.75
G1 X717.205Y724.963
G1 Y725.213
G1 X717.23Y725.511
G1 X717.275Y725.868
G1 X717.393Y726.625
G1 X717.437Y726.924
G1 X717.472Y727.195
G1 X717.499Y727.441
G1 X717.524Y727.867
G1 X717.509Y728.225
G1 X717.454Y728.538
G1 X717.355Y728.826
G1 X717.211Y729.112
G1 X717.018Y729.418
G1 X716.696Y729.896
G1 X716.821Y730.456
G1 X716.942Y731.014
G1 X717.057Y731.569
G1 X717.11Y731.788
G1 X717.17Y731.963
G1 X717.231Y732.08
G1 X717.286Y732.122
G1 X717.326
G1 X717.388Y732.086
G1 X717.47Y732.044
G1 X717.569Y731.989
G1 X717.807Y731.843
G1 X718.08Y731.666
G1 X718.367Y731.469
G1 X718.645Y731.27
G1 X718.893Y731.081
G1 X719.089Y730.917
G1 X719.428Y730.598
G1 X719.733Y730.282
G1 X720Y729.971
G1 X720.23Y729.666
G1 X720.421Y729.37
G1 X720.572Y729.083
G1 X720.682Y728.808
G1 X720.75Y728.545
G1 X720.761Y728.207
G1 X720.68Y727.896
G1 X720.525Y727.628
G1 X720.314Y727.416
G1 X720.067Y727.274
G1 X719.801Y727.217
G1 X719.667
G1 X719.535Y727.259
G1 X719.408Y727.322
G1 X719.287Y727.414
G1 X719.165Y727.552
G1 X719.091Y727.688
G1 X719.065Y727.817
G1 X719.083Y727.934
G1 X719.144Y728.034
G1 X719.247Y728.112
G1 X719.389Y728.162
G1 X719.568Y728.18
G1 X719.705
G1 X719.81Y728.203
G1 X719.883Y728.232
G1 X719.925Y728.274
G1 X719.935Y728.33
G1 X719.915Y728.399
G1 X719.864Y728.482
G1 X719.783Y728.581
G1 X719.676Y728.666
G1 X719.538Y728.724
G1 X719.38Y728.756
G1 X719.211
G1 X719.04Y728.745
G1 X718.878Y728.701
G1 X718.735Y728.633
G1 X718.619Y728.54
G1 X718.46Y728.341
G1 X718.348Y728.135
G1 X718.284Y727.924
G1 X718.267Y727.713
G1 X718.297Y727.502
G1 X718.374Y727.296
G1 X718.499Y727.095
G1 X718.671Y726.903
G1 X718.884Y726.724
G1 X719.114Y726.581
G1 X719.355Y726.473
G1 X719.603Y726.403
G1 X719.853Y726.37
G1 X720.102
G1 X720.344Y726.421
G1 X720.575Y726.507
G1 X720.829Y726.682
G1 X721.057Y726.932
G1 X721.226Y727.21
G1 X721.299Y727.47
G1 Y727.524
G1 X721.316Y727.549
G1 X721.331
G1 X721.349Y727.523
G1 X721.391Y727.415
G1 X721.439Y727.245
G1 X721.527Y726.808
G1 X721.57Y726.384
G1 Y726.224
G1 Y726.101
G1 X721.555Y726.008
G1 X721.531Y725.94
G1 X721.435Y725.85
G1 X721.25Y725.779
G1 X720.961Y725.652
G1 X720.723Y725.497
G1 X720.605Y725.374
G1 X720.495Y725.219
G1 X720.396Y725.037
G1 X720.309Y724.836
G1 X720.184Y724.397
G1 X720.136Y723.949
G1 X720.111Y723.505
G1 X720.042Y723.138
G1 X719.931Y722.85
G1 X719.782Y722.645
G1 X719.595Y722.525
G1 X719.375Y722.491
G1 X719.123Y722.547
G1 X718.843Y722.694
G1 X718.725Y722.766
G1 X718.629Y722.812
G1 X718.553Y722.83
G1 X718.495
G1 X718.452Y722.783
G1 X718.424Y722.715
G1 X718.409Y722.616
G1 Y722.486
G1 X718.423Y722.328
G1 X718.487Y722.175
G1 X718.603Y722.015
G1 X718.779Y721.832
G1 X719.008Y721.639
G1 X719.23Y721.503
G1 X719.447Y721.426
G1 X719.658Y721.406
G1 X719.867Y721.445
G1 X720.075Y721.542
G1 X720.282Y721.697
G1 X720.492Y721.91
G1 X720.581Y722.011
G1 X720.651Y722.087
G1 X720.706Y722.138
G1 X720.746Y722.167
G1 X720.791
G1 X720.804Y722.068
G1 X720.793Y721.949
G1 X720.759Y721.774
G1 X720.709Y721.565
G1 X720.646Y721.346
G1 X720.584Y721.139
G1 X720.536Y720.96
G1 X720.505Y720.83
G1 Y720.766
G1 X720.48Y720.722
G1 X720.424Y720.645
G1 X720.337Y720.546
G1 X720.228Y720.437
G1 X720.071Y720.298
G1 X719.953Y720.231
G1 X719.841
G1 X719.704Y720.277
G1 X719.543Y720.406
G1 X719.465Y720.572
G1 Y720.65
G1 X719.482Y720.715
G1 X719.53Y720.76
G1 X719.606Y720.776
G1 X719.663Y720.791
G1 X719.709Y720.833
G1 X719.739Y720.896
G1 X719.75Y720.975
G1 X719.733Y721.067
G1 X719.687Y721.125
G1 X719.617Y721.15
G1 X719.533
G1 X719.439Y721.111
G1 X719.344Y721.049
G1 X719.254Y720.961
G1 X719.176Y720.848
G1 X719.102Y720.699
G1 X719.077Y720.585
G1 X719.101Y720.471
G1 X719.173Y720.326
G1 X719.251Y720.217
G1 X719.35Y720.125
G1 X719.466Y720.052
G1 X719.595Y719.999
G1 X719.873Y719.959
G1 X720.152Y720.016
G1 X720.282Y720.088
G1 X720.412Y720.199
G1 X720.54Y720.343
G1 X720.663Y720.518
G1 X720.887Y720.946
G1 X721.065Y721.454
G1 X721.115Y721.63
G1 X721.155Y721.763
G1 X721.189Y721.855
G1 X721.217Y721.911
G1 X721.242Y721.932
G1 X721.266Y721.922
G1 X721.292Y721.883
G1 X721.32Y721.819
G1 X721.338Y721.75
G1 X721.354Y721.639
G1 X721.368Y721.492
G1 X721.379Y721.314
G1 X721.393Y720.892
G1 Y720.417
G1 Y719.989
G1 Y719.641
G1 X721.426Y719.358
G1 X721.47Y719.127
G1 X721.537Y718.933
G1 X721.63Y718.763
G1 X721.753Y718.601
G1 X721.909Y718.433
G1 X722.113Y718.269
G1 X722.345Y718.144
G1 X722.594Y718.061
G1 X722.847Y718.021
G1 X723.09
G1 X723.313Y718.071
G1 X723.5Y718.163
G1 X723.642Y718.301
G1 X723.745Y718.48
G1 X723.78Y718.647
G1 X723.745Y718.838
G1 X723.64Y719.089
G1 X723.485Y719.329
G1 X723.293Y719.484
G1 X723.077Y719.549
G1 X722.851Y719.516
G1 X722.755Y719.467
G1 X722.686Y719.406
G1 X722.644Y719.34
G1 X722.63Y719.276
G1 X722.643Y719.22
G1 X722.683Y719.18
G1 X722.752Y719.163
G1 X722.847Y719.175
G1 X723.019
G1 X723.166Y719.13
G1 X723.282Y719.026
G1 X723.361Y718.891
G1 X723.396Y718.741
G1 X723.38Y718.591
G1 X723.307Y718.458
G1 X723.172Y718.358
G1 X723.042Y718.324
G1 X722.895
G1 X722.735Y718.363
G1 X722.571Y718.43
G1 X722.407Y718.525
G1 X722.25Y718.645
G1 X722.107Y718.785
G1 X721.983Y718.945
G1 X721.862Y719.158
G1 X721.799Y719.409
G1 X721.785Y719.584
G1 Y719.812
G1 Y720.107
G1 X721.798Y720.878
G1 Y721.184
G1 Y721.424
G1 X721.773Y721.618
G1 X721.737Y721.786
G1 X721.683Y721.951
G1 X721.607Y722.131
G1 X721.505Y722.349
G1 X721.384Y722.626
G1 X721.286Y722.89
G1 X721.222Y723.112
G1 X721.2Y723.263
G1 Y723.4
G1 X721.222Y723.439
G1 X721.236Y723.421
G1 X721.256Y723.376
G1 X721.32Y723.206
G1 X721.391Y723.037
G1 X721.473Y722.891
G1 X721.566Y722.768
G1 X721.671Y722.668
G1 X721.788Y722.591
G1 X721.918Y722.536
G1 X722.062Y722.502
G1 X722.22Y722.49
G1 X722.46Y722.505
G1 X722.682Y722.555
G1 X722.882Y722.637
G1 X723.056Y722.747
G1 X723.2Y722.882
G1 X723.308Y723.039
G1 X723.377Y723.213
G1 X723.402Y723.403
G1 X723.381Y723.616
G1 X723.32Y723.803
G1 X723.225Y723.959
G1 X723.103Y724.078
G1 X722.96Y724.157
G1 X722.804Y724.189
G1 X722.641Y724.169
G1 X722.477Y724.094
G1 X722.33Y723.959
G1 X722.258Y723.817
G1 Y723.755
G1 X722.27Y723.706
G1 X722.31Y723.673
G1 X722.375Y723.661
G1 X722.496Y723.693
G1 X722.672Y723.812
G1 X722.738
G1 X722.806
G1 X722.871Y723.763
G1 X722.977Y723.626
G1 X723.019Y723.439
G1 X723.004Y723.312
G1 X722.96Y723.197
G1 X722.892Y723.094
G1 X722.802Y723.008
G1 X722.693Y722.941
G1 X722.569Y722.894
G1 X722.434Y722.871
G1 X722.29
G1 X722.109Y722.908
G1 X721.983Y722.968
G1 X721.889Y723.073
G1 X721.808Y723.237
G1 X721.711Y723.552
G1 X721.681Y723.894
G1 Y724.084
G1 X721.718Y724.291
G1 X721.762Y724.518
G1 X721.824Y724.77
G1 X721.946Y725.359
G1 X722.028Y725.968
G1 Y726.366
G1 X721.999Y726.78
G1 X721.917Y727.206
G1 X721.793Y727.642
G1 X721.63Y728.083
G1 X721.429Y728.527
G1 X721.193Y728.968
G1 X720.925Y729.404
G1 X720.627Y729.832
G1 X720.301Y730.246
G1 X719.949Y730.645
G1 X719.574Y731.024
G1 X719.179Y731.379
G1 X718.766Y731.708
G1 X718.336Y732.005
G1 X717.893Y732.269
G1 X717.735Y732.358
G1 X717.601Y732.438
G1 X717.492Y732.511
G1 X717.407Y732.575
G1 X717.306Y732.683
G1 X717.292Y732.767
G1 X717.33Y732.902
G1 X717.346Y733.031
G1 X717.391Y733.09
G1 X717.528Y733.141
G1 X717.76Y733.184
G1 X718.091Y733.221
G1 X718.6Y733.286
G1 X719.089Y733.396
G1 X719.601Y733.563
G1 X720.183Y733.8
G1 X720.567Y733.967
G1 X720.255Y733.641
G1 X720.134Y733.501
G1 X720.034Y733.361
G1 X719.967Y733.237
G1 X719.942Y733.146
G1 X719.982Y733.048
G1 X720.093Y732.943
G1 X720.267Y732.837
G1 X720.495Y732.732
G1 X720.767Y732.633
G1 X721.074Y732.542
G1 X721.406Y732.465
G1 X721.755Y732.405
G1 X721.936Y732.377
G1 X722.09Y732.35
G1 X722.217Y732.324
G1 X722.317Y732.298
G1 X722.388Y732.273
G1 X722.431Y732.25
G1 X722.444Y732.228
G1 X722.428Y732.207
G1 X722.329Y732.166
G1 X722.193Y732.139
G1 X722.027Y732.127
G1 X721.84
G1 X721.437Y732.174
G1 X721.05Y732.271
G1 X720.863Y732.328
G1 X720.715Y732.362
G1 X720.606
G1 X720.534
G1 X720.5Y732.313
G1 Y732.246
G1 X720.544Y732.155
G1 X720.622Y732.038
G1 X720.787Y731.759
G1 X720.936Y731.423
G1 X720.992Y731.264
G1 X721.03Y731.127
G1 X721.045Y731.025
G1 X721.032Y730.969
G1 X721.006
G1 X720.968Y730.992
G1 X720.924Y731.042
G1 X720.777Y731.267
G1 X720.637Y731.442
G1 X720.473Y731.626
G1 X720.296Y731.805
G1 X720.121Y731.967
G1 X719.96Y732.098
G1 X719.828Y732.186
G1 X719.737Y732.218
G1 X719.655
G1 X719.6Y732.195
G1 X719.571Y732.167
G1 Y732.127
G1 X719.595Y732.076
G1 X719.648Y732.014
G1 X719.727Y731.942
G1 X719.832Y731.859
G1 X719.966Y731.743
G1 X720.11Y731.588
G1 X720.257Y731.406
G1 X720.397Y731.212
G1 X720.521Y731.018
G1 X720.621Y730.837
G1 X720.688Y730.682
G1 X720.725Y730.495
G1 X720.764Y730.441
G1 X720.821Y730.408
G1 X720.894Y730.394
G1 X721.064Y730.427
G1 X721.234Y730.542
G1 X721.341Y730.726
G1 X721.378Y730.979
G1 X721.345Y731.279
G1 X721.241Y731.606
G1 X721.199Y731.71
G1 X721.168Y731.789
G1 X721.151Y731.847
G1 Y731.885
G1 X721.172Y731.913
G1 X721.25Y731.892
G1 X721.489Y731.818
G1 X721.736Y731.776
G1 X721.983Y731.764
G1 X722.223Y731.783
G1 X722.45Y731.83
G1 X722.656Y731.905
G1 X722.836Y732.007
G1 X722.982Y732.134
G1 X723.079Y732.248
G1 X723.112Y732.322
G1 X723.081Y732.383
G1 X722.988Y732.458
G1 X722.935Y732.487
G1 X722.851Y732.521
G1 X722.74Y732.557
G1 X722.606Y732.596
G1 X722.288Y732.674
G1 X721.931Y732.747
G1 X721.604Y732.811
G1 X721.31Y732.877
G1 X721.052Y732.944
G1 X720.834Y733.01
G1 X720.659Y733.074
G1 X720.531Y733.136
G1 X720.452Y733.194
G1 X720.426Y733.247
G1 X720.45Y733.299
G1 X720.513Y733.385
G1 X720.606Y733.492
G1 X720.719Y733.609
G1 X720.826Y733.732
G1 X720.906Y733.86
G1 X720.958Y733.987
G1 X720.982Y734.108
G1 Y734.217
G1 X720.943Y734.307
G1 X720.88Y734.374
G1 X720.786Y734.411
G1 X720.737
G1 X720.66Y734.396
G1 X720.56Y734.369
G1 X720.44Y734.33
G1 X720.157Y734.225
G1 X719.841Y734.091
G1 X719.466Y733.938
G1 X719.059Y733.801
G1 X718.653Y733.689
G1 X718.276Y733.612
G1 X717.969Y733.565
G1 X717.714Y733.53
G1 X717.538Y733.51
G1 X717.488
G1 X717.467
G1 Y733.545
G1 X717.477Y733.641
G1 X717.521Y733.988
G1 X717.592Y734.495
G1 X717.775Y735.734
G1 X717.882Y736.482
G1 X717.92Y736.772
G1 Y736.834
G1 X717.941Y736.848
G1 X717.981Y736.833
G1 X718.044Y736.791
G1 X718.126Y736.724
G1 X718.339Y736.527
G1 X718.598Y736.259
G1 X718.739Y736.109
G1 X718.865Y735.979
G1 X718.976Y735.871
G1 X719.073Y735.783
G1 X719.23Y735.671
G1 X719.341Y735.645
G1 X719.412Y735.705
G1 X719.449Y735.853
G1 Y736.09
G1 Y736.417
G1 X719.406Y736.752
G1 X719.335Y737.098
G1 X719.232Y737.455
G1 X719.095Y737.826
G1 X718.879Y738.363
G1 X718.789Y738.596
G1 X718.804
G1 X718.919
G1 X719.253Y738.611
G1 X719.76
G1 X719.935
G1 X720.08Y738.632
G1 X720.199Y738.649
G1 X720.379Y738.706
G1 X720.514Y738.8
G1 X720.65Y739.001
G1 X720.697Y739.226
G1 X720.686Y739.323
G1 X720.653Y739.396
G1 X720.598Y739.437
G1 X720.519
G1 X720.422Y739.415
G1 X720.262Y739.394
G1 X720.063Y739.374
G1 X719.846Y739.357
G1 X719.559
G1 X719.317Y739.381
G1 X719.076Y739.458
G1 X718.789Y739.593
G1 X718.527Y739.737
G1 X718.36Y739.861
G1 X718.268Y739.984
G1 X718.229Y740.125
G1 X718.217Y740.273
G1 X718.243Y740.337
G1 X718.277
G1 X718.331
G1 X718.406Y740.3
G1 X718.507Y740.258
G1 X718.676Y740.202
G1 X718.845Y740.176
G1 X719.01
G1 X719.172Y740.206
G1 X719.474Y740.332
G1 X719.737Y740.539
G1 X719.945Y740.813
G1 X720.083Y741.138
G1 X720.122Y741.315
G1 X720.138Y741.499
G1 Y741.689
G1 X720.095Y741.882
G1 X720.012Y742.045
G1 X719.862Y742.18
G1 X719.663Y742.284
G1 X719.432Y742.353
G1 X719.187Y742.384
G1 X718.945Y742.373
G1 X718.723Y742.317
G1 X718.54Y742.211
G1 X718.44Y742.082
G1 X718.401Y741.923
G1 X718.415Y741.75
G1 X718.476Y741.576
G1 X718.576Y741.416
G1 X718.71Y741.284
G1 X718.869Y741.194
G1 X719.047Y741.161
G1 X719.145
G1 X719.212Y741.18
G1 X719.249Y741.207
G1 Y741.246
G1 X719.23Y741.3
G1 X719.174Y741.368
G1 X719.086Y741.453
G1 X718.967Y741.555
G1 X718.851Y741.66
G1 X718.775Y741.753
G1 X718.738Y741.834
G1 Y741.902
G1 X718.78Y741.955
G1 X718.859Y741.994
G1 X718.976Y742.018
G1 X719.131
G1 X719.287
G1 X719.424Y741.984
G1 X719.539Y741.935
G1 X719.633Y741.87
G1 X719.76Y741.701
G1 X719.804Y741.493
G1 X719.764Y741.264
G1 X719.641Y741.03
G1 X719.434Y740.809
G1 X719.144Y740.616
G1 X718.989Y740.547
G1 X718.867Y740.528
G1 X718.739Y740.564
G1 X718.566Y740.656
G1 X718.26Y740.835
G1 X718.246Y742.368
G1 Y742.738
G1 X718.231Y743.08
G1 X718.216Y743.395
G1 X718.198Y743.681
G1 X718.175Y743.94
G1 X718.147Y744.171
G1 X718.115Y744.374
G1 X718.079Y744.551
G1 X717.925Y745.072
G1 X717.723Y745.585
G1 X717.617Y745.808
G1 X717.515Y745.995
G1 X717.422Y746.133
G1 X717.31Y746.243
G1 X717.29Y746.294
G1 Y746.369
G1 Y746.471
G1 X717.308Y746.605
G1 X717.342Y746.776
G1 X717.39Y746.987
G1 X717.454Y747.242
G1 X717.514Y747.445
G1 X717.591Y747.553
G1 X717.649Y747.58
G1 X717.726Y747.595
G1 X717.829
G1 X717.963
G1 X718.206Y747.582
G1 X718.451Y747.502
G1 X718.592Y747.431
G1 X718.755Y747.336
G1 X718.947Y747.214
G1 X719.176Y747.06
G1 X719.504Y746.848
G1 X719.796Y746.682
G1 X720.056Y746.561
G1 X720.288Y746.486
G1 X720.494Y746.455
G1 X720.678Y746.466
G1 X720.843Y746.521
G1 X720.993Y746.616
G1 X721.085Y746.705
G1 X721.143Y746.792
G1 X721.167Y746.878
G1 Y746.96
G1 X721.118Y747.039
G1 X721.044Y747.111
G1 X720.939Y747.177
G1 X720.803Y747.234
G1 X720.507Y747.338
G1 X720.798Y747.515
G1 X721.045Y747.718
G1 X721.251Y747.992
G1 X721.414Y748.32
G1 X721.529Y748.685
G1 X721.591Y749.069
G1 Y749.454
G1 X721.543Y749.823
G1 X721.424Y750.159
G1 X721.33Y750.33
G1 X721.242Y750.45
G1 X721.162Y750.52
G1 X721.093Y750.54
G1 X721.037Y750.509
G1 X720.998Y750.43
G1 X720.977Y750.3
G1 Y749.795
G1 X720.939Y749.488
G1 X720.86Y749.205
G1 X720.743Y748.948
G1 X720.59Y748.72
G1 X720.402Y748.523
G1 X720.181Y748.36
G1 X719.929Y748.234
G1 X719.697Y748.167
G1 X719.375Y748.107
G1 X719Y748.056
G1 X718.609Y748.019
G1 X718.239Y747.997
G1 X717.928
G1 X717.807
G1 X717.714Y748.012
G1 X717.655Y748.03
G1 X717.635Y748.054
G1 X717.651Y748.159
G1 X717.696Y748.322
G1 X717.765Y748.53
G1 X717.852Y748.769
G1 X718.062Y749.287
G1 X718.284Y749.767
G1 X718.576Y750.278
G1 X718.951Y750.833
G1 X719.372Y751.385
G1 X719.806Y751.882
G1 X719.996Y752.071
G1 X720.243Y752.298
G1 X720.523Y752.545
G1 X720.813Y752.79
G1 X721.09Y753.015
G1 X721.328Y753.201
G1 X721.426Y753.272
G1 X721.505Y753.326
G1 X721.564Y753.36
G1 X721.598Y753.372
G1 X721.651Y753.31
G1 X721.673Y753.162
G1 X721.691Y752.974
G1 X721.742Y752.721
G1 X721.82Y752.418
G1 X721.92Y752.083
G1 X722.168Y751.375
G1 X722.444Y750.728
G1 X722.534Y750.552
G1 X722.648Y750.349
G1 X722.781Y750.124
G1 X722.929Y749.885
G1 X723.25Y749.395
G1 X723.574Y748.938
G1 X723.897Y748.492
G1 X724.174Y748.082
G1 X724.409Y747.701
G1 X724.604Y747.345
G1 X724.761Y747.009
G1 X724.884Y746.687
G1 X724.975Y746.374
G1 X725.036Y746.064
G1 X725.079Y745.703
G1 X725.109Y745.272
G1 X725.128Y744.809
G1 Y744.351
G1 Y743.936
G1 X725.11Y743.602
G1 X725.096Y743.477
G1 X725.079Y743.385
G1 X725.06Y743.333
G1 X725.037
G1 X724.983Y743.391
G1 Y743.466
G1 X725.008Y743.572
G1 X724.978Y743.7
G1 X724.915Y743.807
G1 X724.836Y743.853
G1 X724.799Y743.821
G1 X724.773Y743.736
G1 X724.757Y743.614
G1 Y743.473
G1 Y743.328
G1 X724.774Y743.197
G1 X724.801Y743.096
G1 X724.838Y743.041
G1 X724.914
G1 X724.975Y743.107
G1 X724.987
G1 X724.998Y743.085
G1 Y743.016
G1 X725.014Y742.916
G1 X725.025Y742.643
G1 Y742.308
G1 Y741.953
G1 Y741.619
G1 X725.01Y741.473
G1 Y741.349
G1 X724.99Y741.251
G1 X724.978Y741.185
G1 X724.945Y741.101
G1 X724.898Y741.032
G1 X724.843Y740.985
G1 X724.787Y740.968
G1 X724.728Y740.945
G1 X724.686Y740.875
G1 X724.662Y740.755
G1 Y740.584
G1 Y740.434
G1 X724.682Y740.312
G1 X724.713Y740.229
G1 X724.75Y740.199
G1 X724.787Y740.219
G1 X724.818Y740.274
G1 X724.839Y740.356
G1 Y740.455
G1 X724.849Y740.552
G1 Y740.625
G1 X724.871Y740.667
G1 X724.886
G1 X724.896Y740.624
G1 X724.91Y740.501
G1 X724.927Y740.312
G1 X724.966Y739.768
G1 X725.009Y739.057
G1 X725.277Y734.141
G1 X725.42Y731.452
G1 X725.63Y727.259
G1 X725.73Y725.332
G1 X725.853Y723.091
G1 X725.891Y722.321
G1 X725.923Y721.591
G1 X725.948Y720.903
G1 X725.967Y720.26
G1 X725.979Y719.663
G1 Y719.114
G1 Y718.615
G1 Y718.167
G1 X725.964Y717.773
G1 X725.944Y717.435
G1 X725.918Y717.154
G1 X725.885Y716.933
G1 X725.847Y716.772
G1 X725.801Y716.674
G1 X725.75Y716.641
G1 X725.698Y716.629
G1 X725.655Y716.597
G1 X725.626Y716.548
G1 X725.606Y716.436
G1 X725.577Y716.362
G1 X725.531Y716.269
G1 X725.47Y716.159
G1 X725.307Y715.899
G1 X725.1Y715.598
G1 X724.604Y714.945
G1 X724.081Y714.337
G1 X723.906Y714.148
G1 X723.77Y713.993
G1 X723.668Y713.863
G1 X723.595Y713.751
G1 X723.517Y713.545
G1 X723.5Y713.308
G1 X723.519Y713.098
G1 X723.572Y712.828
G1 X723.649Y712.533
G1 X723.744Y712.247
G1 X724.118Y711.234
G1 X724.249Y710.868
G1 X724.349Y710.568
G1 X724.49Y710.085
G1 X724.592Y709.622
G1 X724.691Y709.051
G1 X724.775Y708.412
G1 X724.843Y707.7
G1 X724.896Y706.905
G1 X724.934Y706.02
G1 X724.958Y705.038
G1 Y704.508
G1 Y703.952
G1 Y703.367
G1 Y702.753
G1 Y702.097
G1 X724.942Y700.924
G1 X724.932Y700.435
G1 X724.922Y700.028
G1 X724.911Y699.719
G1 Y699.519
G1 X724.896Y699.464
G1 Y699.443
G1 X724.856Y699.43
G1 X724.788
G1 X724.692
G1 X724.572Y699.447
G1 X724.273Y699.494
G1 X723.926Y699.562
G1 X723.56Y699.645
G1 X723.209Y699.736
G1 X722.905Y699.827
G1 X722.68Y699.912
G1 X722.173Y700.175
G1 X721.65Y700.51
G1 X721.115Y700.915
G1 X720.566Y701.389
G1 X720.007Y701.93
G1 X719.438Y702.538
G1 X718.861Y703.212
G1 X718.277Y703.949
G1 X717.83Y704.531
G1 X717.398Y705.084
G1 X717.204Y705.331
G1 X716.889Y705.725
G1 X716.78Y705.856
G1 X716.688Y705.96
G1 X716.57Y706.084
G1 X716.429Y706.227
G1 X716.268Y706.385
G1 X715.899Y706.734
G1 X715.491Y707.108
G1 X715.069Y707.484
G1 X714.659Y707.838
G1 X714.288Y708.146
G1 X713.981Y708.385
G1 X713.593Y708.64
G1 X713.121Y708.91
G1 X712.886Y709.033
G1 X712.671Y709.138
G1 X712.487Y709.217
G1 X712.348Y709.265
G1 X712.263Y709.297
G1 X712.204Y709.341
G1 X712.174Y709.393
G1 Y709.448
G1 X712.192Y709.498
G1 X712.214Y709.594
G1 X712.277Y709.897
G1 X712.359Y710.314
G1 X712.532Y711.248
G1 X712.568Y711.428
G1 X712.602Y711.58
G1 X712.671Y711.809
G1 X712.749Y711.946
G1 X712.847Y712.005
G1 X712.978
G1 X713.151Y711.938
G1 X713.38Y711.836
G1 X713.638Y711.71
G1 X713.894Y711.564
G1 X714.156Y711.392
G1 X714.433Y711.188
G1 X714.732Y710.945
G1 X715.064Y710.656
G1 X715.435Y710.314
G1 X715.856Y709.914
G1 X716.353Y709.444
G1 X716.854Y708.988
G1 X717.088Y708.782
G1 X717.301Y708.599
G1 X717.486Y708.446
G1 X717.635Y708.328
G1 X717.909Y708.116
G1 X718.194Y707.889
G1 X718.455Y707.673
G1 X718.66Y707.495
G1 X719.071Y707.174
G1 X719.547Y706.895
G1 X720.091Y706.656
G1 X720.708Y706.457
G1 X721.006Y706.367
G1 X721.27Y706.273
G1 X721.501Y706.172
G1 X721.701Y706.066
G1 X721.871Y705.952
G1 X722.013Y705.831
G1 X722.126Y705.7
G1 X722.214Y705.561
G1 X722.329Y705.242
G1 X722.363Y704.919
G1 X722.349Y704.772
G1 X722.317Y704.642
G1 X722.264Y704.535
G1 X722.191Y704.458
G1 X722.086Y704.391
G1 X721.994Y704.361
G1 X721.911Y704.375
G1 X721.83Y704.44
G1 X721.747Y704.562
G1 X721.654Y704.747
G1 X721.546Y705.003
G1 X721.418Y705.336
G1 X721.312Y705.581
G1 X721.193Y705.76
G1 X721.036Y705.901
G1 X720.817Y706.033
G1 X720.601Y706.124
G1 X720.351Y706.194
G1 X720.085Y706.242
G1 X719.82Y706.266
G1 X719.575
G1 X719.368Y706.242
G1 X719.217Y706.191
G1 X719.139Y706.114
G1 X719.15Y705.998
G1 X719.248Y705.889
G1 X719.406Y705.808
G1 X719.594Y705.776
G1 X719.671Y705.758
G1 X719.774Y705.71
G1 X719.888Y705.638
G1 X720.002Y705.55
G1 X720.264Y705.325
