; LightBurn 1.3.01
; GRBL device profile, absolute coords
; Bounds: X10 Y10 to X790 Y501.3
G00 G17 G40 G21 G54
G90
M4
; Cut @ 2500.002 mm/min, 100% power
M8
G0 X37.496Y173
; Layer Linea 
G1 X48.746S1000F2500
G1 Y170.001
G1 X37.496
G1 Y173
G0 X59.626Y173
G1 X70.876
G1 Y170.001
G1 X59.626
G1 Y173
G0 X81.746Y173
G1 X92.996
G1 Y170.001
G1 X81.746
G1 Y173
G0 X103.876Y173
G1 X115.126
G1 Y170.001
G1 X103.876
G1 Y173
G0 X126.006Y173
G1 X137.256
G1 Y170.001
G1 X126.006
G1 Y173
G0 X148.136Y173
G1 X159.386
G1 Y170.001
G1 X148.136
G1 Y173
G0 X170.256Y173
G1 X181.506
G1 Y170.001
G1 X170.256
G1 Y173
G0 X192.386Y173
G1 X203.636
G1 Y170.001
G1 X192.386
G1 Y173
G0 X222.365Y173
G1 X233.617
G1 Y170.001
G1 X222.365
G1 Y173
G0 X244.495Y173
G1 X255.747
G1 Y170.001
G1 X244.495
G1 Y173
G0 X266.615Y173
G1 X277.867
G1 Y170.001
G1 X266.615
G1 Y173
G0 X288.745Y173
G1 X299.997
G1 Y170.001
G1 X288.745
G1 Y173
G0 X310.875Y173
G1 X322.127
G1 Y170.001
G1 X310.875
G1 Y173
G0 X333.005Y173
G1 X344.257
G1 Y170.001
G1 X333.005
G1 Y173
G0 X355.125Y173
G1 X366.377
G1 Y170.001
G1 X355.125
G1 Y173
G0 X377.255Y173
G1 X388.507
G1 Y170.001
G1 X377.255
G1 Y173
; Cut @ 600 mm/min, 95% power
M8
G0 X10Y406.134
; Layer Corte Pass 1 of 10
G1 Y417.385S950F600
; Layer Corte Pass 2 of 10
G1 Y406.134
; Layer Corte Pass 3 of 10
G1 Y417.385
; Layer Corte Pass 4 of 10
G1 Y406.134
; Layer Corte Pass 5 of 10
G1 Y417.385
; Layer Corte Pass 6 of 10
G1 Y406.134
; Layer Corte Pass 7 of 10
G1 Y417.385
; Layer Corte Pass 8 of 10
G1 Y406.134
; Layer Corte Pass 9 of 10
G1 Y417.385
; Layer Corte Pass 10 of 10
G1 Y406.134
G0 X10Y417.388
; Layer Corte Pass 1 of 10
G1 X13.001
; Layer Corte Pass 2 of 10
G1 X10
; Layer Corte Pass 3 of 10
G1 X13.001
; Layer Corte Pass 4 of 10
G1 X10
; Layer Corte Pass 5 of 10
G1 X13.001
; Layer Corte Pass 6 of 10
G1 X10
; Layer Corte Pass 7 of 10
G1 X13.001
; Layer Corte Pass 8 of 10
G1 X10
; Layer Corte Pass 9 of 10
G1 X13.001
; Layer Corte Pass 10 of 10
G1 X10
G0 X13Y417.389
; Layer Corte Pass 1 of 10
G1 Y433.001
; Layer Corte Pass 2 of 10
G1 Y417.389
; Layer Corte Pass 3 of 10
G1 Y433.001
; Layer Corte Pass 4 of 10
G1 Y417.389
; Layer Corte Pass 5 of 10
G1 Y433.001
; Layer Corte Pass 6 of 10
G1 Y417.389
; Layer Corte Pass 7 of 10
G1 Y433.001
; Layer Corte Pass 8 of 10
G1 Y417.389
; Layer Corte Pass 9 of 10
G1 Y433.001
; Layer Corte Pass 10 of 10
G1 Y417.389
G0 X10Y440
; Layer Corte Pass 1 of 10
G1 X30
; Layer Corte Pass 2 of 10
G1 X10
; Layer Corte Pass 3 of 10
G1 X30
; Layer Corte Pass 4 of 10
G1 X10
; Layer Corte Pass 5 of 10
G1 X30
; Layer Corte Pass 6 of 10
G1 X10
; Layer Corte Pass 7 of 10
G1 X30
; Layer Corte Pass 8 of 10
G1 X10
; Layer Corte Pass 9 of 10
G1 X30
; Layer Corte Pass 10 of 10
G1 X10
G0 X30Y440
; Layer Corte Pass 1 of 10
G1 Y443.3
; Layer Corte Pass 2 of 10
G1 Y440
; Layer Corte Pass 3 of 10
G1 Y443.3
; Layer Corte Pass 4 of 10
G1 Y440
; Layer Corte Pass 5 of 10
G1 Y443.3
; Layer Corte Pass 6 of 10
G1 Y440
; Layer Corte Pass 7 of 10
G1 Y443.3
; Layer Corte Pass 8 of 10
G1 Y440
; Layer Corte Pass 9 of 10
G1 Y443.3
; Layer Corte Pass 10 of 10
G1 Y440
G0 X30Y443.3
; Layer Corte Pass 1 of 10
G1 X50
; Layer Corte Pass 2 of 10
G1 X30
; Layer Corte Pass 3 of 10
G1 X50
; Layer Corte Pass 4 of 10
G1 X30
; Layer Corte Pass 5 of 10
G1 X50
; Layer Corte Pass 6 of 10
G1 X30
; Layer Corte Pass 7 of 10
G1 X50
; Layer Corte Pass 8 of 10
G1 X30
; Layer Corte Pass 9 of 10
G1 X50
; Layer Corte Pass 10 of 10
G1 X30
G0 X37.492Y435.999
; Layer Corte Pass 1 of 10
G1 Y433
; Layer Corte Pass 2 of 10
G1 Y435.999
; Layer Corte Pass 3 of 10
G1 Y433
; Layer Corte Pass 4 of 10
G1 Y435.999
; Layer Corte Pass 5 of 10
G1 Y433
; Layer Corte Pass 6 of 10
G1 Y435.999
; Layer Corte Pass 7 of 10
G1 Y433
; Layer Corte Pass 8 of 10
G1 Y435.999
; Layer Corte Pass 9 of 10
G1 Y433
; Layer Corte Pass 10 of 10
G1 Y435.999
G0 X37.493Y433
; Layer Corte Pass 1 of 10
G1 X13.001
; Layer Corte Pass 2 of 10
G1 X37.493
; Layer Corte Pass 3 of 10
G1 X13.001
; Layer Corte Pass 4 of 10
G1 X37.493
; Layer Corte Pass 5 of 10
G1 X13.001
; Layer Corte Pass 6 of 10
G1 X37.493
; Layer Corte Pass 7 of 10
G1 X13.001
; Layer Corte Pass 8 of 10
G1 X37.493
; Layer Corte Pass 9 of 10
G1 X13.001
; Layer Corte Pass 10 of 10
G1 X37.493
G0 X13.001Y406.138
; Layer Corte Pass 1 of 10
G1 X10
; Layer Corte Pass 2 of 10
G1 X13.001
; Layer Corte Pass 3 of 10
G1 X10
; Layer Corte Pass 4 of 10
G1 X13.001
; Layer Corte Pass 5 of 10
G1 X10
; Layer Corte Pass 6 of 10
G1 X13.001
; Layer Corte Pass 7 of 10
G1 X10
; Layer Corte Pass 8 of 10
G1 X13.001
; Layer Corte Pass 9 of 10
G1 X10
; Layer Corte Pass 10 of 10
G1 X13.001
G0 X13.001Y406.134
; Layer Corte Pass 1 of 10
G1 Y386.636
; Layer Corte Pass 2 of 10
G1 Y406.134
; Layer Corte Pass 3 of 10
G1 Y386.636
; Layer Corte Pass 4 of 10
G1 Y406.134
; Layer Corte Pass 5 of 10
G1 Y386.636
; Layer Corte Pass 6 of 10
G1 Y406.134
; Layer Corte Pass 7 of 10
G1 Y386.636
; Layer Corte Pass 8 of 10
G1 Y406.134
; Layer Corte Pass 9 of 10
G1 Y386.636
; Layer Corte Pass 10 of 10
G1 Y406.134
G0 X10Y386.633
; Layer Corte Pass 1 of 10
G1 Y375.382
; Layer Corte Pass 2 of 10
G1 Y386.633
; Layer Corte Pass 3 of 10
G1 Y375.382
; Layer Corte Pass 4 of 10
G1 Y386.633
; Layer Corte Pass 5 of 10
G1 Y375.382
; Layer Corte Pass 6 of 10
G1 Y386.633
; Layer Corte Pass 7 of 10
G1 Y375.382
; Layer Corte Pass 8 of 10
G1 Y386.633
; Layer Corte Pass 9 of 10
G1 Y375.382
; Layer Corte Pass 10 of 10
G1 Y386.633
G0 X10Y375.386
; Layer Corte Pass 1 of 10
G1 X13.001
; Layer Corte Pass 2 of 10
G1 X10
; Layer Corte Pass 3 of 10
G1 X13.001
; Layer Corte Pass 4 of 10
G1 X10
; Layer Corte Pass 5 of 10
G1 X13.001
; Layer Corte Pass 6 of 10
G1 X10
; Layer Corte Pass 7 of 10
G1 X13.001
; Layer Corte Pass 8 of 10
G1 X10
; Layer Corte Pass 9 of 10
G1 X13.001
; Layer Corte Pass 10 of 10
G1 X10
G0 X13.001Y375.382
; Layer Corte Pass 1 of 10
G1 Y355.884
; Layer Corte Pass 2 of 10
G1 Y375.382
; Layer Corte Pass 3 of 10
G1 Y355.884
; Layer Corte Pass 4 of 10
G1 Y375.382
; Layer Corte Pass 5 of 10
G1 Y355.884
; Layer Corte Pass 6 of 10
G1 Y375.382
; Layer Corte Pass 7 of 10
G1 Y355.884
; Layer Corte Pass 8 of 10
G1 Y375.382
; Layer Corte Pass 9 of 10
G1 Y355.884
; Layer Corte Pass 10 of 10
G1 Y375.382
G0 X10Y355.881
; Layer Corte Pass 1 of 10
G1 Y344.63
; Layer Corte Pass 2 of 10
G1 Y355.881
; Layer Corte Pass 3 of 10
G1 Y344.63
; Layer Corte Pass 4 of 10
G1 Y355.881
; Layer Corte Pass 5 of 10
G1 Y344.63
; Layer Corte Pass 6 of 10
G1 Y355.881
; Layer Corte Pass 7 of 10
G1 Y344.63
; Layer Corte Pass 8 of 10
G1 Y355.881
; Layer Corte Pass 9 of 10
G1 Y344.63
; Layer Corte Pass 10 of 10
G1 Y355.881
G0 X10Y344.634
; Layer Corte Pass 1 of 10
G1 X13.001
; Layer Corte Pass 2 of 10
G1 X10
; Layer Corte Pass 3 of 10
G1 X13.001
; Layer Corte Pass 4 of 10
G1 X10
; Layer Corte Pass 5 of 10
G1 X13.001
; Layer Corte Pass 6 of 10
G1 X10
; Layer Corte Pass 7 of 10
G1 X13.001
; Layer Corte Pass 8 of 10
G1 X10
; Layer Corte Pass 9 of 10
G1 X13.001
; Layer Corte Pass 10 of 10
G1 X10
G0 X13.001Y344.63
; Layer Corte Pass 1 of 10
G1 Y325.132
; Layer Corte Pass 2 of 10
G1 Y344.63
; Layer Corte Pass 3 of 10
G1 Y325.132
; Layer Corte Pass 4 of 10
G1 Y344.63
; Layer Corte Pass 5 of 10
G1 Y325.132
; Layer Corte Pass 6 of 10
G1 Y344.63
; Layer Corte Pass 7 of 10
G1 Y325.132
; Layer Corte Pass 8 of 10
G1 Y344.63
; Layer Corte Pass 9 of 10
G1 Y325.132
; Layer Corte Pass 10 of 10
G1 Y344.63
G0 X10Y325.122
; Layer Corte Pass 1 of 10
G1 Y313.871
; Layer Corte Pass 2 of 10
G1 Y325.122
; Layer Corte Pass 3 of 10
G1 Y313.871
; Layer Corte Pass 4 of 10
G1 Y325.122
; Layer Corte Pass 5 of 10
G1 Y313.871
; Layer Corte Pass 6 of 10
G1 Y325.122
; Layer Corte Pass 7 of 10
G1 Y313.871
; Layer Corte Pass 8 of 10
G1 Y325.122
; Layer Corte Pass 9 of 10
G1 Y313.871
; Layer Corte Pass 10 of 10
G1 Y325.122
G0 X10Y313.875
; Layer Corte Pass 1 of 10
G1 X13.001
; Layer Corte Pass 2 of 10
G1 X10
; Layer Corte Pass 3 of 10
G1 X13.001
; Layer Corte Pass 4 of 10
G1 X10
; Layer Corte Pass 5 of 10
G1 X13.001
; Layer Corte Pass 6 of 10
G1 X10
; Layer Corte Pass 7 of 10
G1 X13.001
; Layer Corte Pass 8 of 10
G1 X10
; Layer Corte Pass 9 of 10
G1 X13.001
; Layer Corte Pass 10 of 10
G1 X10
G0 X13.001Y313.871
; Layer Corte Pass 1 of 10
G1 Y294.373
; Layer Corte Pass 2 of 10
G1 Y313.871
; Layer Corte Pass 3 of 10
G1 Y294.373
; Layer Corte Pass 4 of 10
G1 Y313.871
; Layer Corte Pass 5 of 10
G1 Y294.373
; Layer Corte Pass 6 of 10
G1 Y313.871
; Layer Corte Pass 7 of 10
G1 Y294.373
; Layer Corte Pass 8 of 10
G1 Y313.871
; Layer Corte Pass 9 of 10
G1 Y294.373
; Layer Corte Pass 10 of 10
G1 Y313.871
G0 X10Y294.373
; Layer Corte Pass 1 of 10
G1 Y283.122
; Layer Corte Pass 2 of 10
G1 Y294.373
; Layer Corte Pass 3 of 10
G1 Y283.122
; Layer Corte Pass 4 of 10
G1 Y294.373
; Layer Corte Pass 5 of 10
G1 Y283.122
; Layer Corte Pass 6 of 10
G1 Y294.373
; Layer Corte Pass 7 of 10
G1 Y283.122
; Layer Corte Pass 8 of 10
G1 Y294.373
; Layer Corte Pass 9 of 10
G1 Y283.122
; Layer Corte Pass 10 of 10
G1 Y294.373
G0 X10Y283.126
; Layer Corte Pass 1 of 10
G1 X13.001
; Layer Corte Pass 2 of 10
G1 X10
; Layer Corte Pass 3 of 10
G1 X13.001
; Layer Corte Pass 4 of 10
G1 X10
; Layer Corte Pass 5 of 10
G1 X13.001
; Layer Corte Pass 6 of 10
G1 X10
; Layer Corte Pass 7 of 10
G1 X13.001
; Layer Corte Pass 8 of 10
G1 X10
; Layer Corte Pass 9 of 10
G1 X13.001
; Layer Corte Pass 10 of 10
G1 X10
G0 X13.001Y283.119
; Layer Corte Pass 1 of 10
G1 Y263.621
; Layer Corte Pass 2 of 10
G1 Y283.119
; Layer Corte Pass 3 of 10
G1 Y263.621
; Layer Corte Pass 4 of 10
G1 Y283.119
; Layer Corte Pass 5 of 10
G1 Y263.621
; Layer Corte Pass 6 of 10
G1 Y283.119
; Layer Corte Pass 7 of 10
G1 Y263.621
; Layer Corte Pass 8 of 10
G1 Y283.119
; Layer Corte Pass 9 of 10
G1 Y263.621
; Layer Corte Pass 10 of 10
G1 Y283.119
G0 X10Y263.621
; Layer Corte Pass 1 of 10
G1 Y252.37
; Layer Corte Pass 2 of 10
G1 Y263.621
; Layer Corte Pass 3 of 10
G1 Y252.37
; Layer Corte Pass 4 of 10
G1 Y263.621
; Layer Corte Pass 5 of 10
G1 Y252.37
; Layer Corte Pass 6 of 10
G1 Y263.621
; Layer Corte Pass 7 of 10
G1 Y252.37
; Layer Corte Pass 8 of 10
G1 Y263.621
; Layer Corte Pass 9 of 10
G1 Y252.37
; Layer Corte Pass 10 of 10
G1 Y263.621
G0 X10Y252.374
; Layer Corte Pass 1 of 10
G1 X13.001
; Layer Corte Pass 2 of 10
G1 X10
; Layer Corte Pass 3 of 10
G1 X13.001
; Layer Corte Pass 4 of 10
G1 X10
; Layer Corte Pass 5 of 10
G1 X13.001
; Layer Corte Pass 6 of 10
G1 X10
; Layer Corte Pass 7 of 10
G1 X13.001
; Layer Corte Pass 8 of 10
G1 X10
; Layer Corte Pass 9 of 10
G1 X13.001
; Layer Corte Pass 10 of 10
G1 X10
G0 X13.001Y252.369
; Layer Corte Pass 1 of 10
G1 Y232.871
; Layer Corte Pass 2 of 10
G1 Y252.369
; Layer Corte Pass 3 of 10
G1 Y232.871
; Layer Corte Pass 4 of 10
G1 Y252.369
; Layer Corte Pass 5 of 10
G1 Y232.871
; Layer Corte Pass 6 of 10
G1 Y252.369
; Layer Corte Pass 7 of 10
G1 Y232.871
; Layer Corte Pass 8 of 10
G1 Y252.369
; Layer Corte Pass 9 of 10
G1 Y232.871
; Layer Corte Pass 10 of 10
G1 Y252.369
G0 X10Y232.871
; Layer Corte Pass 1 of 10
G1 Y221.62
; Layer Corte Pass 2 of 10
G1 Y232.871
; Layer Corte Pass 3 of 10
G1 Y221.62
; Layer Corte Pass 4 of 10
G1 Y232.871
; Layer Corte Pass 5 of 10
G1 Y221.62
; Layer Corte Pass 6 of 10
G1 Y232.871
; Layer Corte Pass 7 of 10
G1 Y221.62
; Layer Corte Pass 8 of 10
G1 Y232.871
; Layer Corte Pass 9 of 10
G1 Y221.62
; Layer Corte Pass 10 of 10
G1 Y232.871
G0 X10Y221.624
; Layer Corte Pass 1 of 10
G1 X13.001
; Layer Corte Pass 2 of 10
G1 X10
; Layer Corte Pass 3 of 10
G1 X13.001
; Layer Corte Pass 4 of 10
G1 X10
; Layer Corte Pass 5 of 10
G1 X13.001
; Layer Corte Pass 6 of 10
G1 X10
; Layer Corte Pass 7 of 10
G1 X13.001
; Layer Corte Pass 8 of 10
G1 X10
; Layer Corte Pass 9 of 10
G1 X13.001
; Layer Corte Pass 10 of 10
G1 X10
G0 X13.001Y221.62
; Layer Corte Pass 1 of 10
G1 Y202.122
; Layer Corte Pass 2 of 10
G1 Y221.62
; Layer Corte Pass 3 of 10
G1 Y202.122
; Layer Corte Pass 4 of 10
G1 Y221.62
; Layer Corte Pass 5 of 10
G1 Y202.122
; Layer Corte Pass 6 of 10
G1 Y221.62
; Layer Corte Pass 7 of 10
G1 Y202.122
; Layer Corte Pass 8 of 10
G1 Y221.62
; Layer Corte Pass 9 of 10
G1 Y202.122
; Layer Corte Pass 10 of 10
G1 Y221.62
G0 X10Y202.122
; Layer Corte Pass 1 of 10
G1 Y190.871
; Layer Corte Pass 2 of 10
G1 Y202.122
; Layer Corte Pass 3 of 10
G1 Y190.871
; Layer Corte Pass 4 of 10
G1 Y202.122
; Layer Corte Pass 5 of 10
G1 Y190.871
; Layer Corte Pass 6 of 10
G1 Y202.122
; Layer Corte Pass 7 of 10
G1 Y190.871
; Layer Corte Pass 8 of 10
G1 Y202.122
; Layer Corte Pass 9 of 10
G1 Y190.871
; Layer Corte Pass 10 of 10
G1 Y202.122
G0 X10Y190.875
; Layer Corte Pass 1 of 10
G1 X13.001
; Layer Corte Pass 2 of 10
G1 X10
; Layer Corte Pass 3 of 10
G1 X13.001
; Layer Corte Pass 4 of 10
G1 X10
; Layer Corte Pass 5 of 10
G1 X13.001
; Layer Corte Pass 6 of 10
G1 X10
; Layer Corte Pass 7 of 10
G1 X13.001
; Layer Corte Pass 8 of 10
G1 X10
; Layer Corte Pass 9 of 10
G1 X13.001
; Layer Corte Pass 10 of 10
G1 X10
G0 X13Y190.874
; Layer Corte Pass 1 of 10
G1 Y172.999
; Layer Corte Pass 2 of 10
G1 Y190.874
; Layer Corte Pass 3 of 10
G1 Y172.999
; Layer Corte Pass 4 of 10
G1 Y190.874
; Layer Corte Pass 5 of 10
G1 Y172.999
; Layer Corte Pass 6 of 10
G1 Y190.874
; Layer Corte Pass 7 of 10
G1 Y172.999
; Layer Corte Pass 8 of 10
G1 Y190.874
; Layer Corte Pass 9 of 10
G1 Y172.999
; Layer Corte Pass 10 of 10
G1 Y190.874
G0 X13Y172.999
; Layer Corte Pass 1 of 10
G1 X37.496
; Layer Corte Pass 2 of 10
G1 X13
; Layer Corte Pass 3 of 10
G1 X37.496
; Layer Corte Pass 4 of 10
G1 X13
; Layer Corte Pass 5 of 10
G1 X37.496
; Layer Corte Pass 6 of 10
G1 X13
; Layer Corte Pass 7 of 10
G1 X37.496
; Layer Corte Pass 8 of 10
G1 X13
; Layer Corte Pass 9 of 10
G1 X37.496
; Layer Corte Pass 10 of 10
G1 X13
G0 X37.5Y170
; Layer Corte Pass 1 of 10
G1 X48.75
; Layer Corte Pass 2 of 10
G1 X37.5
; Layer Corte Pass 3 of 10
G1 X48.75
; Layer Corte Pass 4 of 10
G1 X37.5
; Layer Corte Pass 5 of 10
G1 X48.75
; Layer Corte Pass 6 of 10
G1 X37.5
; Layer Corte Pass 7 of 10
G1 X48.75
; Layer Corte Pass 8 of 10
G1 X37.5
; Layer Corte Pass 9 of 10
G1 X48.75
; Layer Corte Pass 10 of 10
G1 X37.5
G0 X48.751Y170.001
; Layer Corte Pass 1 of 10
G1 Y173
; Layer Corte Pass 2 of 10
G1 Y170.001
; Layer Corte Pass 3 of 10
G1 Y173
; Layer Corte Pass 4 of 10
G1 Y170.001
; Layer Corte Pass 5 of 10
G1 Y173
; Layer Corte Pass 6 of 10
G1 Y170.001
; Layer Corte Pass 7 of 10
G1 Y173
; Layer Corte Pass 8 of 10
G1 Y170.001
; Layer Corte Pass 9 of 10
G1 Y173
; Layer Corte Pass 10 of 10
G1 Y170.001
G0 X48.744Y172.999
; Layer Corte Pass 1 of 10
G1 X59.62
; Layer Corte Pass 2 of 10
G1 X48.744
; Layer Corte Pass 3 of 10
G1 X59.62
; Layer Corte Pass 4 of 10
G1 X48.744
; Layer Corte Pass 5 of 10
G1 X59.62
; Layer Corte Pass 6 of 10
G1 X48.744
; Layer Corte Pass 7 of 10
G1 X59.62
; Layer Corte Pass 8 of 10
G1 X48.744
; Layer Corte Pass 9 of 10
G1 X59.62
; Layer Corte Pass 10 of 10
G1 X48.744
G0 X59.621Y173
; Layer Corte Pass 1 of 10
G1 Y170.001
; Layer Corte Pass 2 of 10
G1 Y173
; Layer Corte Pass 3 of 10
G1 Y170.001
; Layer Corte Pass 4 of 10
G1 Y173
; Layer Corte Pass 5 of 10
G1 Y170.001
; Layer Corte Pass 6 of 10
G1 Y173
; Layer Corte Pass 7 of 10
G1 Y170.001
; Layer Corte Pass 8 of 10
G1 Y173
; Layer Corte Pass 9 of 10
G1 Y170.001
; Layer Corte Pass 10 of 10
G1 Y173
G0 X59.62Y170
; Layer Corte Pass 1 of 10
G1 X70.87
; Layer Corte Pass 2 of 10
G1 X59.62
; Layer Corte Pass 3 of 10
G1 X70.87
; Layer Corte Pass 4 of 10
G1 X59.62
; Layer Corte Pass 5 of 10
G1 X70.87
; Layer Corte Pass 6 of 10
G1 X59.62
; Layer Corte Pass 7 of 10
G1 X70.87
; Layer Corte Pass 8 of 10
G1 X59.62
; Layer Corte Pass 9 of 10
G1 X70.87
; Layer Corte Pass 10 of 10
G1 X59.62
G0 X70.871Y170.001
; Layer Corte Pass 1 of 10
G1 Y173
; Layer Corte Pass 2 of 10
G1 Y170.001
; Layer Corte Pass 3 of 10
G1 Y173
; Layer Corte Pass 4 of 10
G1 Y170.001
; Layer Corte Pass 5 of 10
G1 Y173
; Layer Corte Pass 6 of 10
G1 Y170.001
; Layer Corte Pass 7 of 10
G1 Y173
; Layer Corte Pass 8 of 10
G1 Y170.001
; Layer Corte Pass 9 of 10
G1 Y173
; Layer Corte Pass 10 of 10
G1 Y170.001
G0 X70.874Y172.999
; Layer Corte Pass 1 of 10
G1 X81.75
; Layer Corte Pass 2 of 10
G1 X70.874
; Layer Corte Pass 3 of 10
G1 X81.75
; Layer Corte Pass 4 of 10
G1 X70.874
; Layer Corte Pass 5 of 10
G1 X81.75
; Layer Corte Pass 6 of 10
G1 X70.874
; Layer Corte Pass 7 of 10
G1 X81.75
; Layer Corte Pass 8 of 10
G1 X70.874
; Layer Corte Pass 9 of 10
G1 X81.75
; Layer Corte Pass 10 of 10
G1 X70.874
G0 X81.751Y173
; Layer Corte Pass 1 of 10
G1 Y170.001
; Layer Corte Pass 2 of 10
G1 Y173
; Layer Corte Pass 3 of 10
G1 Y170.001
; Layer Corte Pass 4 of 10
G1 Y173
; Layer Corte Pass 5 of 10
G1 Y170.001
; Layer Corte Pass 6 of 10
G1 Y173
; Layer Corte Pass 7 of 10
G1 Y170.001
; Layer Corte Pass 8 of 10
G1 Y173
; Layer Corte Pass 9 of 10
G1 Y170.001
; Layer Corte Pass 10 of 10
G1 Y173
G0 X81.75Y170
; Layer Corte Pass 1 of 10
G1 X93
; Layer Corte Pass 2 of 10
G1 X81.75
; Layer Corte Pass 3 of 10
G1 X93
; Layer Corte Pass 4 of 10
G1 X81.75
; Layer Corte Pass 5 of 10
G1 X93
; Layer Corte Pass 6 of 10
G1 X81.75
; Layer Corte Pass 7 of 10
G1 X93
; Layer Corte Pass 8 of 10
G1 X81.75
; Layer Corte Pass 9 of 10
G1 X93
; Layer Corte Pass 10 of 10
G1 X81.75
G0 X93.001Y170.001
; Layer Corte Pass 1 of 10
G1 Y173
; Layer Corte Pass 2 of 10
G1 Y170.001
; Layer Corte Pass 3 of 10
G1 Y173
; Layer Corte Pass 4 of 10
G1 Y170.001
; Layer Corte Pass 5 of 10
G1 Y173
; Layer Corte Pass 6 of 10
G1 Y170.001
; Layer Corte Pass 7 of 10
G1 Y173
; Layer Corte Pass 8 of 10
G1 Y170.001
; Layer Corte Pass 9 of 10
G1 Y173
; Layer Corte Pass 10 of 10
G1 Y170.001
G0 X93.004Y172.999
; Layer Corte Pass 1 of 10
G1 X103.88
; Layer Corte Pass 2 of 10
G1 X93.004
; Layer Corte Pass 3 of 10
G1 X103.88
; Layer Corte Pass 4 of 10
G1 X93.004
; Layer Corte Pass 5 of 10
G1 X103.88
; Layer Corte Pass 6 of 10
G1 X93.004
; Layer Corte Pass 7 of 10
G1 X103.88
; Layer Corte Pass 8 of 10
G1 X93.004
; Layer Corte Pass 9 of 10
G1 X103.88
; Layer Corte Pass 10 of 10
G1 X93.004
G0 X103.88Y173
; Layer Corte Pass 1 of 10
G1 Y170.001
; Layer Corte Pass 2 of 10
G1 Y173
; Layer Corte Pass 3 of 10
G1 Y170.001
; Layer Corte Pass 4 of 10
G1 Y173
; Layer Corte Pass 5 of 10
G1 Y170.001
; Layer Corte Pass 6 of 10
G1 Y173
; Layer Corte Pass 7 of 10
G1 Y170.001
; Layer Corte Pass 8 of 10
G1 Y173
; Layer Corte Pass 9 of 10
G1 Y170.001
; Layer Corte Pass 10 of 10
G1 Y173
G0 X103.88Y170
; Layer Corte Pass 1 of 10
G1 X115.13
; Layer Corte Pass 2 of 10
G1 X103.88
; Layer Corte Pass 3 of 10
G1 X115.13
; Layer Corte Pass 4 of 10
G1 X103.88
; Layer Corte Pass 5 of 10
G1 X115.13
; Layer Corte Pass 6 of 10
G1 X103.88
; Layer Corte Pass 7 of 10
G1 X115.13
; Layer Corte Pass 8 of 10
G1 X103.88
; Layer Corte Pass 9 of 10
G1 X115.13
; Layer Corte Pass 10 of 10
G1 X103.88
G0 X115.131Y170.001
; Layer Corte Pass 1 of 10
G1 Y173
; Layer Corte Pass 2 of 10
G1 Y170.001
; Layer Corte Pass 3 of 10
G1 Y173
; Layer Corte Pass 4 of 10
G1 Y170.001
; Layer Corte Pass 5 of 10
G1 Y173
; Layer Corte Pass 6 of 10
G1 Y170.001
; Layer Corte Pass 7 of 10
G1 Y173
; Layer Corte Pass 8 of 10
G1 Y170.001
; Layer Corte Pass 9 of 10
G1 Y173
; Layer Corte Pass 10 of 10
G1 Y170.001
G0 X115.124Y172.999
; Layer Corte Pass 1 of 10
G1 X126
; Layer Corte Pass 2 of 10
G1 X115.124
; Layer Corte Pass 3 of 10
G1 X126
; Layer Corte Pass 4 of 10
G1 X115.124
; Layer Corte Pass 5 of 10
G1 X126
; Layer Corte Pass 6 of 10
G1 X115.124
; Layer Corte Pass 7 of 10
G1 X126
; Layer Corte Pass 8 of 10
G1 X115.124
; Layer Corte Pass 9 of 10
G1 X126
; Layer Corte Pass 10 of 10
G1 X115.124
G0 X126.001Y173
; Layer Corte Pass 1 of 10
G1 Y170.001
; Layer Corte Pass 2 of 10
G1 Y173
; Layer Corte Pass 3 of 10
G1 Y170.001
; Layer Corte Pass 4 of 10
G1 Y173
; Layer Corte Pass 5 of 10
G1 Y170.001
; Layer Corte Pass 6 of 10
G1 Y173
; Layer Corte Pass 7 of 10
G1 Y170.001
; Layer Corte Pass 8 of 10
G1 Y173
; Layer Corte Pass 9 of 10
G1 Y170.001
; Layer Corte Pass 10 of 10
G1 Y173
G0 X126.01Y170
; Layer Corte Pass 1 of 10
G1 X137.26
; Layer Corte Pass 2 of 10
G1 X126.01
; Layer Corte Pass 3 of 10
G1 X137.26
; Layer Corte Pass 4 of 10
G1 X126.01
; Layer Corte Pass 5 of 10
G1 X137.26
; Layer Corte Pass 6 of 10
G1 X126.01
; Layer Corte Pass 7 of 10
G1 X137.26
; Layer Corte Pass 8 of 10
G1 X126.01
; Layer Corte Pass 9 of 10
G1 X137.26
; Layer Corte Pass 10 of 10
G1 X126.01
G0 X137.251Y170.001
; Layer Corte Pass 1 of 10
G1 Y173
; Layer Corte Pass 2 of 10
G1 Y170.001
; Layer Corte Pass 3 of 10
G1 Y173
; Layer Corte Pass 4 of 10
G1 Y170.001
; Layer Corte Pass 5 of 10
G1 Y173
; Layer Corte Pass 6 of 10
G1 Y170.001
; Layer Corte Pass 7 of 10
G1 Y173
; Layer Corte Pass 8 of 10
G1 Y170.001
; Layer Corte Pass 9 of 10
G1 Y173
; Layer Corte Pass 10 of 10
G1 Y170.001
G0 X137.254Y172.999
; Layer Corte Pass 1 of 10
G1 X148.13
; Layer Corte Pass 2 of 10
G1 X137.254
; Layer Corte Pass 3 of 10
G1 X148.13
; Layer Corte Pass 4 of 10
G1 X137.254
; Layer Corte Pass 5 of 10
G1 X148.13
; Layer Corte Pass 6 of 10
G1 X137.254
; Layer Corte Pass 7 of 10
G1 X148.13
; Layer Corte Pass 8 of 10
G1 X137.254
; Layer Corte Pass 9 of 10
G1 X148.13
; Layer Corte Pass 10 of 10
G1 X137.254
G0 X148.13Y173
; Layer Corte Pass 1 of 10
G1 Y170.001
; Layer Corte Pass 2 of 10
G1 Y173
; Layer Corte Pass 3 of 10
G1 Y170.001
; Layer Corte Pass 4 of 10
G1 Y173
; Layer Corte Pass 5 of 10
G1 Y170.001
; Layer Corte Pass 6 of 10
G1 Y173
; Layer Corte Pass 7 of 10
G1 Y170.001
; Layer Corte Pass 8 of 10
G1 Y173
; Layer Corte Pass 9 of 10
G1 Y170.001
; Layer Corte Pass 10 of 10
G1 Y173
G0 X148.13Y170
; Layer Corte Pass 1 of 10
G1 X159.38
; Layer Corte Pass 2 of 10
G1 X148.13
; Layer Corte Pass 3 of 10
G1 X159.38
; Layer Corte Pass 4 of 10
G1 X148.13
; Layer Corte Pass 5 of 10
G1 X159.38
; Layer Corte Pass 6 of 10
G1 X148.13
; Layer Corte Pass 7 of 10
G1 X159.38
; Layer Corte Pass 8 of 10
G1 X148.13
; Layer Corte Pass 9 of 10
G1 X159.38
; Layer Corte Pass 10 of 10
G1 X148.13
G0 X159.381Y170.001
; Layer Corte Pass 1 of 10
G1 Y173
; Layer Corte Pass 2 of 10
G1 Y170.001
; Layer Corte Pass 3 of 10
G1 Y173
; Layer Corte Pass 4 of 10
G1 Y170.001
; Layer Corte Pass 5 of 10
G1 Y173
; Layer Corte Pass 6 of 10
G1 Y170.001
; Layer Corte Pass 7 of 10
G1 Y173
; Layer Corte Pass 8 of 10
G1 Y170.001
; Layer Corte Pass 9 of 10
G1 Y173
; Layer Corte Pass 10 of 10
G1 Y170.001
G0 X159.384Y172.999
; Layer Corte Pass 1 of 10
G1 X170.26
; Layer Corte Pass 2 of 10
G1 X159.384
; Layer Corte Pass 3 of 10
G1 X170.26
; Layer Corte Pass 4 of 10
G1 X159.384
; Layer Corte Pass 5 of 10
G1 X170.26
; Layer Corte Pass 6 of 10
G1 X159.384
; Layer Corte Pass 7 of 10
G1 X170.26
; Layer Corte Pass 8 of 10
G1 X159.384
; Layer Corte Pass 9 of 10
G1 X170.26
; Layer Corte Pass 10 of 10
G1 X159.384
G0 X170.261Y173
; Layer Corte Pass 1 of 10
G1 Y170.001
; Layer Corte Pass 2 of 10
G1 Y173
; Layer Corte Pass 3 of 10
G1 Y170.001
; Layer Corte Pass 4 of 10
G1 Y173
; Layer Corte Pass 5 of 10
G1 Y170.001
; Layer Corte Pass 6 of 10
G1 Y173
; Layer Corte Pass 7 of 10
G1 Y170.001
; Layer Corte Pass 8 of 10
G1 Y173
; Layer Corte Pass 9 of 10
G1 Y170.001
; Layer Corte Pass 10 of 10
G1 Y173
G0 X170.26Y170
; Layer Corte Pass 1 of 10
G1 X181.51
; Layer Corte Pass 2 of 10
G1 X170.26
; Layer Corte Pass 3 of 10
G1 X181.51
; Layer Corte Pass 4 of 10
G1 X170.26
; Layer Corte Pass 5 of 10
G1 X181.51
; Layer Corte Pass 6 of 10
G1 X170.26
; Layer Corte Pass 7 of 10
G1 X181.51
; Layer Corte Pass 8 of 10
G1 X170.26
; Layer Corte Pass 9 of 10
G1 X181.51
; Layer Corte Pass 10 of 10
G1 X170.26
G0 X181.511Y170.001
; Layer Corte Pass 1 of 10
G1 Y173
; Layer Corte Pass 2 of 10
G1 Y170.001
; Layer Corte Pass 3 of 10
G1 Y173
; Layer Corte Pass 4 of 10
G1 Y170.001
; Layer Corte Pass 5 of 10
G1 Y173
; Layer Corte Pass 6 of 10
G1 Y170.001
; Layer Corte Pass 7 of 10
G1 Y173
; Layer Corte Pass 8 of 10
G1 Y170.001
; Layer Corte Pass 9 of 10
G1 Y173
; Layer Corte Pass 10 of 10
G1 Y170.001
G0 X181.514Y172.999
; Layer Corte Pass 1 of 10
G1 X192.39
; Layer Corte Pass 2 of 10
G1 X181.514
; Layer Corte Pass 3 of 10
G1 X192.39
; Layer Corte Pass 4 of 10
G1 X181.514
; Layer Corte Pass 5 of 10
G1 X192.39
; Layer Corte Pass 6 of 10
G1 X181.514
; Layer Corte Pass 7 of 10
G1 X192.39
; Layer Corte Pass 8 of 10
G1 X181.514
; Layer Corte Pass 9 of 10
G1 X192.39
; Layer Corte Pass 10 of 10
G1 X181.514
G0 X141.351Y173
; Layer Corte Pass 1 of 10
G1 Y193
G1 X144.651
G1 Y173
; Layer Corte Pass 2 of 10
G1 Y193
G1 X141.351
G1 Y173
; Layer Corte Pass 3 of 10
G1 Y193
G1 X144.651
G1 Y173
; Layer Corte Pass 4 of 10
G1 Y193
G1 X141.351
G1 Y173
; Layer Corte Pass 5 of 10
G1 Y193
G1 X144.651
G1 Y173
; Layer Corte Pass 6 of 10
G1 Y193
G1 X141.351
G1 Y173
; Layer Corte Pass 7 of 10
G1 Y193
G1 X144.651
G1 Y173
; Layer Corte Pass 8 of 10
G1 Y193
G1 X141.351
G1 Y173
; Layer Corte Pass 9 of 10
G1 Y193
G1 X144.651
G1 Y173
; Layer Corte Pass 10 of 10
G1 Y193
G1 X141.351
G1 Y173
G0 X37.501Y173
; Layer Corte Pass 1 of 10
G1 Y170.001
; Layer Corte Pass 2 of 10
G1 Y173
; Layer Corte Pass 3 of 10
G1 Y170.001
; Layer Corte Pass 4 of 10
G1 Y173
; Layer Corte Pass 5 of 10
G1 Y170.001
; Layer Corte Pass 6 of 10
G1 Y173
; Layer Corte Pass 7 of 10
G1 Y170.001
; Layer Corte Pass 8 of 10
G1 Y173
; Layer Corte Pass 9 of 10
G1 Y170.001
; Layer Corte Pass 10 of 10
G1 Y173
G0 X13.001Y202.126
; Layer Corte Pass 1 of 10
G1 X10
; Layer Corte Pass 2 of 10
G1 X13.001
; Layer Corte Pass 3 of 10
G1 X10
; Layer Corte Pass 4 of 10
G1 X13.001
; Layer Corte Pass 5 of 10
G1 X10
; Layer Corte Pass 6 of 10
G1 X13.001
; Layer Corte Pass 7 of 10
G1 X10
; Layer Corte Pass 8 of 10
G1 X13.001
; Layer Corte Pass 9 of 10
G1 X10
; Layer Corte Pass 10 of 10
G1 X13.001
G0 X10Y232.875
; Layer Corte Pass 1 of 10
G1 X13.001
; Layer Corte Pass 2 of 10
G1 X10
; Layer Corte Pass 3 of 10
G1 X13.001
; Layer Corte Pass 4 of 10
G1 X10
; Layer Corte Pass 5 of 10
G1 X13.001
; Layer Corte Pass 6 of 10
G1 X10
; Layer Corte Pass 7 of 10
G1 X13.001
; Layer Corte Pass 8 of 10
G1 X10
; Layer Corte Pass 9 of 10
G1 X13.001
; Layer Corte Pass 10 of 10
G1 X10
G0 X13.001Y263.625
; Layer Corte Pass 1 of 10
G1 X10
; Layer Corte Pass 2 of 10
G1 X13.001
; Layer Corte Pass 3 of 10
G1 X10
; Layer Corte Pass 4 of 10
G1 X13.001
; Layer Corte Pass 5 of 10
G1 X10
; Layer Corte Pass 6 of 10
G1 X13.001
; Layer Corte Pass 7 of 10
G1 X10
; Layer Corte Pass 8 of 10
G1 X13.001
; Layer Corte Pass 9 of 10
G1 X10
; Layer Corte Pass 10 of 10
G1 X13.001
G0 X10Y294.377
; Layer Corte Pass 1 of 10
G1 X13.001
; Layer Corte Pass 2 of 10
G1 X10
; Layer Corte Pass 3 of 10
G1 X13.001
; Layer Corte Pass 4 of 10
G1 X10
; Layer Corte Pass 5 of 10
G1 X13.001
; Layer Corte Pass 6 of 10
G1 X10
; Layer Corte Pass 7 of 10
G1 X13.001
; Layer Corte Pass 8 of 10
G1 X10
; Layer Corte Pass 9 of 10
G1 X13.001
; Layer Corte Pass 10 of 10
G1 X10
G0 X13.001Y325.125
; Layer Corte Pass 1 of 10
G1 X10
; Layer Corte Pass 2 of 10
G1 X13.001
; Layer Corte Pass 3 of 10
G1 X10
; Layer Corte Pass 4 of 10
G1 X13.001
; Layer Corte Pass 5 of 10
G1 X10
; Layer Corte Pass 6 of 10
G1 X13.001
; Layer Corte Pass 7 of 10
G1 X10
; Layer Corte Pass 8 of 10
G1 X13.001
; Layer Corte Pass 9 of 10
G1 X10
; Layer Corte Pass 10 of 10
G1 X13.001
G0 X10Y355.884
; Layer Corte Pass 1 of 10
G1 X13.001
; Layer Corte Pass 2 of 10
G1 X10
; Layer Corte Pass 3 of 10
G1 X13.001
; Layer Corte Pass 4 of 10
G1 X10
; Layer Corte Pass 5 of 10
G1 X13.001
; Layer Corte Pass 6 of 10
G1 X10
; Layer Corte Pass 7 of 10
G1 X13.001
; Layer Corte Pass 8 of 10
G1 X10
; Layer Corte Pass 9 of 10
G1 X13.001
; Layer Corte Pass 10 of 10
G1 X10
G0 X13.001Y386.636
; Layer Corte Pass 1 of 10
G1 X10
; Layer Corte Pass 2 of 10
G1 X13.001
; Layer Corte Pass 3 of 10
G1 X10
; Layer Corte Pass 4 of 10
G1 X13.001
; Layer Corte Pass 5 of 10
G1 X10
; Layer Corte Pass 6 of 10
G1 X13.001
; Layer Corte Pass 7 of 10
G1 X10
; Layer Corte Pass 8 of 10
G1 X13.001
; Layer Corte Pass 9 of 10
G1 X10
; Layer Corte Pass 10 of 10
G1 X13.001
G0 X37.493Y436
; Layer Corte Pass 1 of 10
G1 X48.744
; Layer Corte Pass 2 of 10
G1 X37.493
; Layer Corte Pass 3 of 10
G1 X48.744
; Layer Corte Pass 4 of 10
G1 X37.493
; Layer Corte Pass 5 of 10
G1 X48.744
; Layer Corte Pass 6 of 10
G1 X37.493
; Layer Corte Pass 7 of 10
G1 X48.744
; Layer Corte Pass 8 of 10
G1 X37.493
; Layer Corte Pass 9 of 10
G1 X48.744
; Layer Corte Pass 10 of 10
G1 X37.493
G0 X48.744Y435.999
; Layer Corte Pass 1 of 10
G1 Y433
; Layer Corte Pass 2 of 10
G1 Y435.999
; Layer Corte Pass 3 of 10
G1 Y433
; Layer Corte Pass 4 of 10
G1 Y435.999
; Layer Corte Pass 5 of 10
G1 Y433
; Layer Corte Pass 6 of 10
G1 Y435.999
; Layer Corte Pass 7 of 10
G1 Y433
; Layer Corte Pass 8 of 10
G1 Y435.999
; Layer Corte Pass 9 of 10
G1 Y433
; Layer Corte Pass 10 of 10
G1 Y435.999
G0 X48.747Y433.001
; Layer Corte Pass 1 of 10
G1 X59.623
; Layer Corte Pass 2 of 10
G1 X48.747
; Layer Corte Pass 3 of 10
G1 X59.623
; Layer Corte Pass 4 of 10
G1 X48.747
; Layer Corte Pass 5 of 10
G1 X59.623
; Layer Corte Pass 6 of 10
G1 X48.747
; Layer Corte Pass 7 of 10
G1 X59.623
; Layer Corte Pass 8 of 10
G1 X48.747
; Layer Corte Pass 9 of 10
G1 X59.623
; Layer Corte Pass 10 of 10
G1 X48.747
G0 X59.622Y433
; Layer Corte Pass 1 of 10
G1 Y435.999
; Layer Corte Pass 2 of 10
G1 Y433
; Layer Corte Pass 3 of 10
G1 Y435.999
; Layer Corte Pass 4 of 10
G1 Y433
; Layer Corte Pass 5 of 10
G1 Y435.999
; Layer Corte Pass 6 of 10
G1 Y433
; Layer Corte Pass 7 of 10
G1 Y435.999
; Layer Corte Pass 8 of 10
G1 Y433
; Layer Corte Pass 9 of 10
G1 Y435.999
; Layer Corte Pass 10 of 10
G1 Y433
G0 X50Y440
; Layer Corte Pass 1 of 10
G1 X70
; Layer Corte Pass 2 of 10
G1 X50
; Layer Corte Pass 3 of 10
G1 X70
; Layer Corte Pass 4 of 10
G1 X50
; Layer Corte Pass 5 of 10
G1 X70
; Layer Corte Pass 6 of 10
G1 X50
; Layer Corte Pass 7 of 10
G1 X70
; Layer Corte Pass 8 of 10
G1 X50
; Layer Corte Pass 9 of 10
G1 X70
; Layer Corte Pass 10 of 10
G1 X50
G0 X50Y440
; Layer Corte Pass 1 of 10
G1 Y443.3
; Layer Corte Pass 2 of 10
G1 Y440
; Layer Corte Pass 3 of 10
G1 Y443.3
; Layer Corte Pass 4 of 10
G1 Y440
; Layer Corte Pass 5 of 10
G1 Y443.3
; Layer Corte Pass 6 of 10
G1 Y440
; Layer Corte Pass 7 of 10
G1 Y443.3
; Layer Corte Pass 8 of 10
G1 Y440
; Layer Corte Pass 9 of 10
G1 Y443.3
; Layer Corte Pass 10 of 10
G1 Y440
G0 X59.623Y436
; Layer Corte Pass 1 of 10
G1 X70.874
; Layer Corte Pass 2 of 10
G1 X59.623
; Layer Corte Pass 3 of 10
G1 X70.874
; Layer Corte Pass 4 of 10
G1 X59.623
; Layer Corte Pass 5 of 10
G1 X70.874
; Layer Corte Pass 6 of 10
G1 X59.623
; Layer Corte Pass 7 of 10
G1 X70.874
; Layer Corte Pass 8 of 10
G1 X59.623
; Layer Corte Pass 9 of 10
G1 X70.874
; Layer Corte Pass 10 of 10
G1 X59.623
G0 X70.874Y435.999
; Layer Corte Pass 1 of 10
G1 Y433
; Layer Corte Pass 2 of 10
G1 Y435.999
; Layer Corte Pass 3 of 10
G1 Y433
; Layer Corte Pass 4 of 10
G1 Y435.999
; Layer Corte Pass 5 of 10
G1 Y433
; Layer Corte Pass 6 of 10
G1 Y435.999
; Layer Corte Pass 7 of 10
G1 Y433
; Layer Corte Pass 8 of 10
G1 Y435.999
; Layer Corte Pass 9 of 10
G1 Y433
; Layer Corte Pass 10 of 10
G1 Y435.999
G0 X70.877Y433.001
; Layer Corte Pass 1 of 10
G1 X81.753
; Layer Corte Pass 2 of 10
G1 X70.877
; Layer Corte Pass 3 of 10
G1 X81.753
; Layer Corte Pass 4 of 10
G1 X70.877
; Layer Corte Pass 5 of 10
G1 X81.753
; Layer Corte Pass 6 of 10
G1 X70.877
; Layer Corte Pass 7 of 10
G1 X81.753
; Layer Corte Pass 8 of 10
G1 X70.877
; Layer Corte Pass 9 of 10
G1 X81.753
; Layer Corte Pass 10 of 10
G1 X70.877
G0 X81.752Y433
; Layer Corte Pass 1 of 10
G1 Y435.999
; Layer Corte Pass 2 of 10
G1 Y433
; Layer Corte Pass 3 of 10
G1 Y435.999
; Layer Corte Pass 4 of 10
G1 Y433
; Layer Corte Pass 5 of 10
G1 Y435.999
; Layer Corte Pass 6 of 10
G1 Y433
; Layer Corte Pass 7 of 10
G1 Y435.999
; Layer Corte Pass 8 of 10
G1 Y433
; Layer Corte Pass 9 of 10
G1 Y435.999
; Layer Corte Pass 10 of 10
G1 Y433
G0 X70Y440
; Layer Corte Pass 1 of 10
G1 Y443.3
; Layer Corte Pass 2 of 10
G1 Y440
; Layer Corte Pass 3 of 10
G1 Y443.3
; Layer Corte Pass 4 of 10
G1 Y440
; Layer Corte Pass 5 of 10
G1 Y443.3
; Layer Corte Pass 6 of 10
G1 Y440
; Layer Corte Pass 7 of 10
G1 Y443.3
; Layer Corte Pass 8 of 10
G1 Y440
; Layer Corte Pass 9 of 10
G1 Y443.3
; Layer Corte Pass 10 of 10
G1 Y440
G0 X70Y443.3
; Layer Corte Pass 1 of 10
G1 X90
; Layer Corte Pass 2 of 10
G1 X70
; Layer Corte Pass 3 of 10
G1 X90
; Layer Corte Pass 4 of 10
G1 X70
; Layer Corte Pass 5 of 10
G1 X90
; Layer Corte Pass 6 of 10
G1 X70
; Layer Corte Pass 7 of 10
G1 X90
; Layer Corte Pass 8 of 10
G1 X70
; Layer Corte Pass 9 of 10
G1 X90
; Layer Corte Pass 10 of 10
G1 X70
G0 X90Y443.3
; Layer Corte Pass 1 of 10
G1 Y440
; Layer Corte Pass 2 of 10
G1 Y443.3
; Layer Corte Pass 3 of 10
G1 Y440
; Layer Corte Pass 4 of 10
G1 Y443.3
; Layer Corte Pass 5 of 10
G1 Y440
; Layer Corte Pass 6 of 10
G1 Y443.3
; Layer Corte Pass 7 of 10
G1 Y440
; Layer Corte Pass 8 of 10
G1 Y443.3
; Layer Corte Pass 9 of 10
G1 Y440
; Layer Corte Pass 10 of 10
G1 Y443.3
G0 X90Y440
; Layer Corte Pass 1 of 10
G1 X110
; Layer Corte Pass 2 of 10
G1 X90
; Layer Corte Pass 3 of 10
G1 X110
; Layer Corte Pass 4 of 10
G1 X90
; Layer Corte Pass 5 of 10
G1 X110
; Layer Corte Pass 6 of 10
G1 X90
; Layer Corte Pass 7 of 10
G1 X110
; Layer Corte Pass 8 of 10
G1 X90
; Layer Corte Pass 9 of 10
G1 X110
; Layer Corte Pass 10 of 10
G1 X90
G0 X110Y440
; Layer Corte Pass 1 of 10
G1 Y443.3
; Layer Corte Pass 2 of 10
G1 Y440
; Layer Corte Pass 3 of 10
G1 Y443.3
; Layer Corte Pass 4 of 10
G1 Y440
; Layer Corte Pass 5 of 10
G1 Y443.3
; Layer Corte Pass 6 of 10
G1 Y440
; Layer Corte Pass 7 of 10
G1 Y443.3
; Layer Corte Pass 8 of 10
G1 Y440
; Layer Corte Pass 9 of 10
G1 Y443.3
; Layer Corte Pass 10 of 10
G1 Y440
G0 X110Y443.3
; Layer Corte Pass 1 of 10
G1 X130
; Layer Corte Pass 2 of 10
G1 X110
; Layer Corte Pass 3 of 10
G1 X130
; Layer Corte Pass 4 of 10
G1 X110
; Layer Corte Pass 5 of 10
G1 X130
; Layer Corte Pass 6 of 10
G1 X110
; Layer Corte Pass 7 of 10
G1 X130
; Layer Corte Pass 8 of 10
G1 X110
; Layer Corte Pass 9 of 10
G1 X130
; Layer Corte Pass 10 of 10
G1 X110
G0 X130Y443.3
; Layer Corte Pass 1 of 10
G1 Y440
; Layer Corte Pass 2 of 10
G1 Y443.3
; Layer Corte Pass 3 of 10
G1 Y440
; Layer Corte Pass 4 of 10
G1 Y443.3
; Layer Corte Pass 5 of 10
G1 Y440
; Layer Corte Pass 6 of 10
G1 Y443.3
; Layer Corte Pass 7 of 10
G1 Y440
; Layer Corte Pass 8 of 10
G1 Y443.3
; Layer Corte Pass 9 of 10
G1 Y440
; Layer Corte Pass 10 of 10
G1 Y443.3
G0 X130Y440
; Layer Corte Pass 1 of 10
G1 X150
; Layer Corte Pass 2 of 10
G1 X130
; Layer Corte Pass 3 of 10
G1 X150
; Layer Corte Pass 4 of 10
G1 X130
; Layer Corte Pass 5 of 10
G1 X150
; Layer Corte Pass 6 of 10
G1 X130
; Layer Corte Pass 7 of 10
G1 X150
; Layer Corte Pass 8 of 10
G1 X130
; Layer Corte Pass 9 of 10
G1 X150
; Layer Corte Pass 10 of 10
G1 X130
G0 X137.254Y436
; Layer Corte Pass 1 of 10
G1 X126.003
; Layer Corte Pass 2 of 10
G1 X137.254
; Layer Corte Pass 3 of 10
G1 X126.003
; Layer Corte Pass 4 of 10
G1 X137.254
; Layer Corte Pass 5 of 10
G1 X126.003
; Layer Corte Pass 6 of 10
G1 X137.254
; Layer Corte Pass 7 of 10
G1 X126.003
; Layer Corte Pass 8 of 10
G1 X137.254
; Layer Corte Pass 9 of 10
G1 X126.003
; Layer Corte Pass 10 of 10
G1 X137.254
G0 X103.872Y435.999
; Layer Corte Pass 1 of 10
G1 Y433
; Layer Corte Pass 2 of 10
G1 Y435.999
; Layer Corte Pass 3 of 10
G1 Y433
; Layer Corte Pass 4 of 10
G1 Y435.999
; Layer Corte Pass 5 of 10
G1 Y433
; Layer Corte Pass 6 of 10
G1 Y435.999
; Layer Corte Pass 7 of 10
G1 Y433
; Layer Corte Pass 8 of 10
G1 Y435.999
; Layer Corte Pass 9 of 10
G1 Y433
; Layer Corte Pass 10 of 10
G1 Y435.999
G0 X103.873Y433.001
; Layer Corte Pass 1 of 10
G1 X92.997
; Layer Corte Pass 2 of 10
G1 X103.873
; Layer Corte Pass 3 of 10
G1 X92.997
; Layer Corte Pass 4 of 10
G1 X103.873
; Layer Corte Pass 5 of 10
G1 X92.997
; Layer Corte Pass 6 of 10
G1 X103.873
; Layer Corte Pass 7 of 10
G1 X92.997
; Layer Corte Pass 8 of 10
G1 X103.873
; Layer Corte Pass 9 of 10
G1 X92.997
; Layer Corte Pass 10 of 10
G1 X103.873
G0 X93.004Y433
; Layer Corte Pass 1 of 10
G1 Y435.999
; Layer Corte Pass 2 of 10
G1 Y433
; Layer Corte Pass 3 of 10
G1 Y435.999
; Layer Corte Pass 4 of 10
G1 Y433
; Layer Corte Pass 5 of 10
G1 Y435.999
; Layer Corte Pass 6 of 10
G1 Y433
; Layer Corte Pass 7 of 10
G1 Y435.999
; Layer Corte Pass 8 of 10
G1 Y433
; Layer Corte Pass 9 of 10
G1 Y435.999
; Layer Corte Pass 10 of 10
G1 Y433
G0 X93.004Y436
; Layer Corte Pass 1 of 10
G1 X81.753
; Layer Corte Pass 2 of 10
G1 X93.004
; Layer Corte Pass 3 of 10
G1 X81.753
; Layer Corte Pass 4 of 10
G1 X93.004
; Layer Corte Pass 5 of 10
G1 X81.753
; Layer Corte Pass 6 of 10
G1 X93.004
; Layer Corte Pass 7 of 10
G1 X81.753
; Layer Corte Pass 8 of 10
G1 X93.004
; Layer Corte Pass 9 of 10
G1 X81.753
; Layer Corte Pass 10 of 10
G1 X93.004
G0 X103.873Y436
; Layer Corte Pass 1 of 10
G1 X115.124
; Layer Corte Pass 2 of 10
G1 X103.873
; Layer Corte Pass 3 of 10
G1 X115.124
; Layer Corte Pass 4 of 10
G1 X103.873
; Layer Corte Pass 5 of 10
G1 X115.124
; Layer Corte Pass 6 of 10
G1 X103.873
; Layer Corte Pass 7 of 10
G1 X115.124
; Layer Corte Pass 8 of 10
G1 X103.873
; Layer Corte Pass 9 of 10
G1 X115.124
; Layer Corte Pass 10 of 10
G1 X103.873
G0 X115.124Y435.999
; Layer Corte Pass 1 of 10
G1 Y433
; Layer Corte Pass 2 of 10
G1 Y435.999
; Layer Corte Pass 3 of 10
G1 Y433
; Layer Corte Pass 4 of 10
G1 Y435.999
; Layer Corte Pass 5 of 10
G1 Y433
; Layer Corte Pass 6 of 10
G1 Y435.999
; Layer Corte Pass 7 of 10
G1 Y433
; Layer Corte Pass 8 of 10
G1 Y435.999
; Layer Corte Pass 9 of 10
G1 Y433
; Layer Corte Pass 10 of 10
G1 Y435.999
G0 X115.127Y433.001
; Layer Corte Pass 1 of 10
G1 X126.003
; Layer Corte Pass 2 of 10
G1 X115.127
; Layer Corte Pass 3 of 10
G1 X126.003
; Layer Corte Pass 4 of 10
G1 X115.127
; Layer Corte Pass 5 of 10
G1 X126.003
; Layer Corte Pass 6 of 10
G1 X115.127
; Layer Corte Pass 7 of 10
G1 X126.003
; Layer Corte Pass 8 of 10
G1 X115.127
; Layer Corte Pass 9 of 10
G1 X126.003
; Layer Corte Pass 10 of 10
G1 X115.127
G0 X126.002Y433
; Layer Corte Pass 1 of 10
G1 Y435.999
; Layer Corte Pass 2 of 10
G1 Y433
; Layer Corte Pass 3 of 10
G1 Y435.999
; Layer Corte Pass 4 of 10
G1 Y433
; Layer Corte Pass 5 of 10
G1 Y435.999
; Layer Corte Pass 6 of 10
G1 Y433
; Layer Corte Pass 7 of 10
G1 Y435.999
; Layer Corte Pass 8 of 10
G1 Y433
; Layer Corte Pass 9 of 10
G1 Y435.999
; Layer Corte Pass 10 of 10
G1 Y433
G0 X137.254Y435.999
; Layer Corte Pass 1 of 10
G1 Y433
; Layer Corte Pass 2 of 10
G1 Y435.999
; Layer Corte Pass 3 of 10
G1 Y433
; Layer Corte Pass 4 of 10
G1 Y435.999
; Layer Corte Pass 5 of 10
G1 Y433
; Layer Corte Pass 6 of 10
G1 Y435.999
; Layer Corte Pass 7 of 10
G1 Y433
; Layer Corte Pass 8 of 10
G1 Y435.999
; Layer Corte Pass 9 of 10
G1 Y433
; Layer Corte Pass 10 of 10
G1 Y435.999
G0 X137.257Y433.001
; Layer Corte Pass 1 of 10
G1 X148.133
; Layer Corte Pass 2 of 10
G1 X137.257
; Layer Corte Pass 3 of 10
G1 X148.133
; Layer Corte Pass 4 of 10
G1 X137.257
; Layer Corte Pass 5 of 10
G1 X148.133
; Layer Corte Pass 6 of 10
G1 X137.257
; Layer Corte Pass 7 of 10
G1 X148.133
; Layer Corte Pass 8 of 10
G1 X137.257
; Layer Corte Pass 9 of 10
G1 X148.133
; Layer Corte Pass 10 of 10
G1 X137.257
G0 X148.132Y433
; Layer Corte Pass 1 of 10
G1 Y435.999
; Layer Corte Pass 2 of 10
G1 Y433
; Layer Corte Pass 3 of 10
G1 Y435.999
; Layer Corte Pass 4 of 10
G1 Y433
; Layer Corte Pass 5 of 10
G1 Y435.999
; Layer Corte Pass 6 of 10
G1 Y433
; Layer Corte Pass 7 of 10
G1 Y435.999
; Layer Corte Pass 8 of 10
G1 Y433
; Layer Corte Pass 9 of 10
G1 Y435.999
; Layer Corte Pass 10 of 10
G1 Y433
G0 X148.133Y436
; Layer Corte Pass 1 of 10
G1 X159.384
; Layer Corte Pass 2 of 10
G1 X148.133
; Layer Corte Pass 3 of 10
G1 X159.384
; Layer Corte Pass 4 of 10
G1 X148.133
; Layer Corte Pass 5 of 10
G1 X159.384
; Layer Corte Pass 6 of 10
G1 X148.133
; Layer Corte Pass 7 of 10
G1 X159.384
; Layer Corte Pass 8 of 10
G1 X148.133
; Layer Corte Pass 9 of 10
G1 X159.384
; Layer Corte Pass 10 of 10
G1 X148.133
G0 X159.384Y435.999
; Layer Corte Pass 1 of 10
G1 Y433
; Layer Corte Pass 2 of 10
G1 Y435.999
; Layer Corte Pass 3 of 10
G1 Y433
; Layer Corte Pass 4 of 10
G1 Y435.999
; Layer Corte Pass 5 of 10
G1 Y433
; Layer Corte Pass 6 of 10
G1 Y435.999
; Layer Corte Pass 7 of 10
G1 Y433
; Layer Corte Pass 8 of 10
G1 Y435.999
; Layer Corte Pass 9 of 10
G1 Y433
; Layer Corte Pass 10 of 10
G1 Y435.999
G0 X150Y440
; Layer Corte Pass 1 of 10
G1 Y443.3
; Layer Corte Pass 2 of 10
G1 Y440
; Layer Corte Pass 3 of 10
G1 Y443.3
; Layer Corte Pass 4 of 10
G1 Y440
; Layer Corte Pass 5 of 10
G1 Y443.3
; Layer Corte Pass 6 of 10
G1 Y440
; Layer Corte Pass 7 of 10
G1 Y443.3
; Layer Corte Pass 8 of 10
G1 Y440
; Layer Corte Pass 9 of 10
G1 Y443.3
; Layer Corte Pass 10 of 10
G1 Y440
G0 X150Y443.3
; Layer Corte Pass 1 of 10
G1 X170
; Layer Corte Pass 2 of 10
G1 X150
; Layer Corte Pass 3 of 10
G1 X170
; Layer Corte Pass 4 of 10
G1 X150
; Layer Corte Pass 5 of 10
G1 X170
; Layer Corte Pass 6 of 10
G1 X150
; Layer Corte Pass 7 of 10
G1 X170
; Layer Corte Pass 8 of 10
G1 X150
; Layer Corte Pass 9 of 10
G1 X170
; Layer Corte Pass 10 of 10
G1 X150
G0 X170Y443.3
; Layer Corte Pass 1 of 10
G1 Y440
; Layer Corte Pass 2 of 10
G1 Y443.3
; Layer Corte Pass 3 of 10
G1 Y440
; Layer Corte Pass 4 of 10
G1 Y443.3
; Layer Corte Pass 5 of 10
G1 Y440
; Layer Corte Pass 6 of 10
G1 Y443.3
; Layer Corte Pass 7 of 10
G1 Y440
; Layer Corte Pass 8 of 10
G1 Y443.3
; Layer Corte Pass 9 of 10
G1 Y440
; Layer Corte Pass 10 of 10
G1 Y443.3
G0 X170Y440
; Layer Corte Pass 1 of 10
G1 X190
; Layer Corte Pass 2 of 10
G1 X170
; Layer Corte Pass 3 of 10
G1 X190
; Layer Corte Pass 4 of 10
G1 X170
; Layer Corte Pass 5 of 10
G1 X190
; Layer Corte Pass 6 of 10
G1 X170
; Layer Corte Pass 7 of 10
G1 X190
; Layer Corte Pass 8 of 10
G1 X170
; Layer Corte Pass 9 of 10
G1 X190
; Layer Corte Pass 10 of 10
G1 X170
G0 X181.514Y436
; Layer Corte Pass 1 of 10
G1 X170.263
; Layer Corte Pass 2 of 10
G1 X181.514
; Layer Corte Pass 3 of 10
G1 X170.263
; Layer Corte Pass 4 of 10
G1 X181.514
; Layer Corte Pass 5 of 10
G1 X170.263
; Layer Corte Pass 6 of 10
G1 X181.514
; Layer Corte Pass 7 of 10
G1 X170.263
; Layer Corte Pass 8 of 10
G1 X181.514
; Layer Corte Pass 9 of 10
G1 X170.263
; Layer Corte Pass 10 of 10
G1 X181.514
G0 X170.262Y435.999
; Layer Corte Pass 1 of 10
G1 Y433
; Layer Corte Pass 2 of 10
G1 Y435.999
; Layer Corte Pass 3 of 10
G1 Y433
; Layer Corte Pass 4 of 10
G1 Y435.999
; Layer Corte Pass 5 of 10
G1 Y433
; Layer Corte Pass 6 of 10
G1 Y435.999
; Layer Corte Pass 7 of 10
G1 Y433
; Layer Corte Pass 8 of 10
G1 Y435.999
; Layer Corte Pass 9 of 10
G1 Y433
; Layer Corte Pass 10 of 10
G1 Y435.999
G0 X170.263Y433.001
; Layer Corte Pass 1 of 10
G1 X159.387
; Layer Corte Pass 2 of 10
G1 X170.263
; Layer Corte Pass 3 of 10
G1 X159.387
; Layer Corte Pass 4 of 10
G1 X170.263
; Layer Corte Pass 5 of 10
G1 X159.387
; Layer Corte Pass 6 of 10
G1 X170.263
; Layer Corte Pass 7 of 10
G1 X159.387
; Layer Corte Pass 8 of 10
G1 X170.263
; Layer Corte Pass 9 of 10
G1 X159.387
; Layer Corte Pass 10 of 10
G1 X170.263
G0 X144.651Y433
; Layer Corte Pass 1 of 10
G1 Y413
G1 X141.351
G1 Y433
; Layer Corte Pass 2 of 10
G1 Y413
G1 X144.651
G1 Y433
; Layer Corte Pass 3 of 10
G1 Y413
G1 X141.351
G1 Y433
; Layer Corte Pass 4 of 10
G1 Y413
G1 X144.651
G1 Y433
; Layer Corte Pass 5 of 10
G1 Y413
G1 X141.351
G1 Y433
; Layer Corte Pass 6 of 10
G1 Y413
G1 X144.651
G1 Y433
; Layer Corte Pass 7 of 10
G1 Y413
G1 X141.351
G1 Y433
; Layer Corte Pass 8 of 10
G1 Y413
G1 X144.651
G1 Y433
; Layer Corte Pass 9 of 10
G1 Y413
G1 X141.351
G1 Y433
; Layer Corte Pass 10 of 10
G1 Y413
G1 X144.651
G1 Y433
G0 X138.36Y440
; Layer Corte Pass 1 of 10
G1 Y472.3
G1 X141.66
G1 Y440
; Layer Corte Pass 2 of 10
G1 Y472.3
G1 X138.36
G1 Y440
; Layer Corte Pass 3 of 10
G1 Y472.3
G1 X141.66
G1 Y440
; Layer Corte Pass 4 of 10
G1 Y472.3
G1 X138.36
G1 Y440
; Layer Corte Pass 5 of 10
G1 Y472.3
G1 X141.66
G1 Y440
; Layer Corte Pass 6 of 10
G1 Y472.3
G1 X138.36
G1 Y440
; Layer Corte Pass 7 of 10
G1 Y472.3
G1 X141.66
G1 Y440
; Layer Corte Pass 8 of 10
G1 Y472.3
G1 X138.36
G1 Y440
; Layer Corte Pass 9 of 10
G1 Y472.3
G1 X141.66
G1 Y440
; Layer Corte Pass 10 of 10
G1 Y472.3
G1 X138.36
G1 Y440
G0 X181.514Y435.999
; Layer Corte Pass 1 of 10
G1 Y433
; Layer Corte Pass 2 of 10
G1 Y435.999
; Layer Corte Pass 3 of 10
G1 Y433
; Layer Corte Pass 4 of 10
G1 Y435.999
; Layer Corte Pass 5 of 10
G1 Y433
; Layer Corte Pass 6 of 10
G1 Y435.999
; Layer Corte Pass 7 of 10
G1 Y433
; Layer Corte Pass 8 of 10
G1 Y435.999
; Layer Corte Pass 9 of 10
G1 Y433
; Layer Corte Pass 10 of 10
G1 Y435.999
G0 X181.517Y433.001
; Layer Corte Pass 1 of 10
G1 X192.393
; Layer Corte Pass 2 of 10
G1 X181.517
; Layer Corte Pass 3 of 10
G1 X192.393
; Layer Corte Pass 4 of 10
G1 X181.517
; Layer Corte Pass 5 of 10
G1 X192.393
; Layer Corte Pass 6 of 10
G1 X181.517
; Layer Corte Pass 7 of 10
G1 X192.393
; Layer Corte Pass 8 of 10
G1 X181.517
; Layer Corte Pass 9 of 10
G1 X192.393
; Layer Corte Pass 10 of 10
G1 X181.517
G0 X192.392Y433
; Layer Corte Pass 1 of 10
G1 Y435.999
; Layer Corte Pass 2 of 10
G1 Y433
; Layer Corte Pass 3 of 10
G1 Y435.999
; Layer Corte Pass 4 of 10
G1 Y433
; Layer Corte Pass 5 of 10
G1 Y435.999
; Layer Corte Pass 6 of 10
G1 Y433
; Layer Corte Pass 7 of 10
G1 Y435.999
; Layer Corte Pass 8 of 10
G1 Y433
; Layer Corte Pass 9 of 10
G1 Y435.999
; Layer Corte Pass 10 of 10
G1 Y433
G0 X192.393Y436
; Layer Corte Pass 1 of 10
G1 X203.644
; Layer Corte Pass 2 of 10
G1 X192.393
; Layer Corte Pass 3 of 10
G1 X203.644
; Layer Corte Pass 4 of 10
G1 X192.393
; Layer Corte Pass 5 of 10
G1 X203.644
; Layer Corte Pass 6 of 10
G1 X192.393
; Layer Corte Pass 7 of 10
G1 X203.644
; Layer Corte Pass 8 of 10
G1 X192.393
; Layer Corte Pass 9 of 10
G1 X203.644
; Layer Corte Pass 10 of 10
G1 X192.393
G0 X203.644Y435.999
; Layer Corte Pass 1 of 10
G1 Y433
; Layer Corte Pass 2 of 10
G1 Y435.999
; Layer Corte Pass 3 of 10
G1 Y433
; Layer Corte Pass 4 of 10
G1 Y435.999
; Layer Corte Pass 5 of 10
G1 Y433
; Layer Corte Pass 6 of 10
G1 Y435.999
; Layer Corte Pass 7 of 10
G1 Y433
; Layer Corte Pass 8 of 10
G1 Y435.999
; Layer Corte Pass 9 of 10
G1 Y433
; Layer Corte Pass 10 of 10
G1 Y435.999
G0 X210Y440
; Layer Corte Pass 1 of 10
G1 X230
; Layer Corte Pass 2 of 10
G1 X210
; Layer Corte Pass 3 of 10
G1 X230
; Layer Corte Pass 4 of 10
G1 X210
; Layer Corte Pass 5 of 10
G1 X230
; Layer Corte Pass 6 of 10
G1 X210
; Layer Corte Pass 7 of 10
G1 X230
; Layer Corte Pass 8 of 10
G1 X210
; Layer Corte Pass 9 of 10
G1 X230
; Layer Corte Pass 10 of 10
G1 X210
G0 X210Y440
; Layer Corte Pass 1 of 10
G1 Y443.3
; Layer Corte Pass 2 of 10
G1 Y440
; Layer Corte Pass 3 of 10
G1 Y443.3
; Layer Corte Pass 4 of 10
G1 Y440
; Layer Corte Pass 5 of 10
G1 Y443.3
; Layer Corte Pass 6 of 10
G1 Y440
; Layer Corte Pass 7 of 10
G1 Y443.3
; Layer Corte Pass 8 of 10
G1 Y440
; Layer Corte Pass 9 of 10
G1 Y443.3
; Layer Corte Pass 10 of 10
G1 Y440
G0 X210Y443.3
; Layer Corte Pass 1 of 10
G1 X190
; Layer Corte Pass 2 of 10
G1 X210
; Layer Corte Pass 3 of 10
G1 X190
; Layer Corte Pass 4 of 10
G1 X210
; Layer Corte Pass 5 of 10
G1 X190
; Layer Corte Pass 6 of 10
G1 X210
; Layer Corte Pass 7 of 10
G1 X190
; Layer Corte Pass 8 of 10
G1 X210
; Layer Corte Pass 9 of 10
G1 X190
; Layer Corte Pass 10 of 10
G1 X210
G0 X190Y443.3
; Layer Corte Pass 1 of 10
G1 Y440
; Layer Corte Pass 2 of 10
G1 Y443.3
; Layer Corte Pass 3 of 10
G1 Y440
; Layer Corte Pass 4 of 10
G1 Y443.3
; Layer Corte Pass 5 of 10
G1 Y440
; Layer Corte Pass 6 of 10
G1 Y443.3
; Layer Corte Pass 7 of 10
G1 Y440
; Layer Corte Pass 8 of 10
G1 Y443.3
; Layer Corte Pass 9 of 10
G1 Y440
; Layer Corte Pass 10 of 10
G1 Y443.3
G0 X144.651Y393
; Layer Corte Pass 1 of 10
G1 Y373
G1 X141.351
G1 Y393
G1 X144.651
; Layer Corte Pass 2 of 10
G1 Y373
G1 X141.351
G1 Y393
G1 X144.651
; Layer Corte Pass 3 of 10
G1 Y373
G1 X141.351
G1 Y393
G1 X144.651
; Layer Corte Pass 4 of 10
G1 Y373
G1 X141.351
G1 Y393
G1 X144.651
; Layer Corte Pass 5 of 10
G1 Y373
G1 X141.351
G1 Y393
G1 X144.651
; Layer Corte Pass 6 of 10
G1 Y373
G1 X141.351
G1 Y393
G1 X144.651
; Layer Corte Pass 7 of 10
G1 Y373
G1 X141.351
G1 Y393
G1 X144.651
; Layer Corte Pass 8 of 10
G1 Y373
G1 X141.351
G1 Y393
G1 X144.651
; Layer Corte Pass 9 of 10
G1 Y373
G1 X141.351
G1 Y393
G1 X144.651
; Layer Corte Pass 10 of 10
G1 Y373
G1 X141.351
G1 Y393
G1 X144.651
G0 X144.651Y353
; Layer Corte Pass 1 of 10
G1 Y333
G1 X141.351
G1 Y353
G1 X144.651
; Layer Corte Pass 2 of 10
G1 Y333
G1 X141.351
G1 Y353
G1 X144.651
; Layer Corte Pass 3 of 10
G1 Y333
G1 X141.351
G1 Y353
G1 X144.651
; Layer Corte Pass 4 of 10
G1 Y333
G1 X141.351
G1 Y353
G1 X144.651
; Layer Corte Pass 5 of 10
G1 Y333
G1 X141.351
G1 Y353
G1 X144.651
; Layer Corte Pass 6 of 10
G1 Y333
G1 X141.351
G1 Y353
G1 X144.651
; Layer Corte Pass 7 of 10
G1 Y333
G1 X141.351
G1 Y353
G1 X144.651
; Layer Corte Pass 8 of 10
G1 Y333
G1 X141.351
G1 Y353
G1 X144.651
; Layer Corte Pass 9 of 10
G1 Y333
G1 X141.351
G1 Y353
G1 X144.651
; Layer Corte Pass 10 of 10
G1 Y333
G1 X141.351
G1 Y353
G1 X144.651
G0 X103Y304.65
; Layer Corte Pass 1 of 10
G1 Y301.35
G1 X83
G1 Y304.65
G1 X103
; Layer Corte Pass 2 of 10
G1 Y301.35
G1 X83
G1 Y304.65
G1 X103
; Layer Corte Pass 3 of 10
G1 Y301.35
G1 X83
G1 Y304.65
G1 X103
; Layer Corte Pass 4 of 10
G1 Y301.35
G1 X83
G1 Y304.65
G1 X103
; Layer Corte Pass 5 of 10
G1 Y301.35
G1 X83
G1 Y304.65
G1 X103
; Layer Corte Pass 6 of 10
G1 Y301.35
G1 X83
G1 Y304.65
G1 X103
; Layer Corte Pass 7 of 10
G1 Y301.35
G1 X83
G1 Y304.65
G1 X103
; Layer Corte Pass 8 of 10
G1 Y301.35
G1 X83
G1 Y304.65
G1 X103
; Layer Corte Pass 9 of 10
G1 Y301.35
G1 X83
G1 Y304.65
G1 X103
; Layer Corte Pass 10 of 10
G1 Y301.35
G1 X83
G1 Y304.65
G1 X103
G0 X63Y304.65
; Layer Corte Pass 1 of 10
G1 Y301.35
G1 X43
G1 Y304.65
G1 X63
; Layer Corte Pass 2 of 10
G1 Y301.35
G1 X43
G1 Y304.65
G1 X63
; Layer Corte Pass 3 of 10
G1 Y301.35
G1 X43
G1 Y304.65
G1 X63
; Layer Corte Pass 4 of 10
G1 Y301.35
G1 X43
G1 Y304.65
G1 X63
; Layer Corte Pass 5 of 10
G1 Y301.35
G1 X43
G1 Y304.65
G1 X63
; Layer Corte Pass 6 of 10
G1 Y301.35
G1 X43
G1 Y304.65
G1 X63
; Layer Corte Pass 7 of 10
G1 Y301.35
G1 X43
G1 Y304.65
G1 X63
; Layer Corte Pass 8 of 10
G1 Y301.35
G1 X43
G1 Y304.65
G1 X63
; Layer Corte Pass 9 of 10
G1 Y301.35
G1 X43
G1 Y304.65
G1 X63
; Layer Corte Pass 10 of 10
G1 Y301.35
G1 X43
G1 Y304.65
G1 X63
G0 X123Y304.65
; Layer Corte Pass 1 of 10
G1 X143
G1 Y301.35
G1 X123
G1 Y304.65
; Layer Corte Pass 2 of 10
G1 X143
G1 Y301.35
G1 X123
G1 Y304.65
; Layer Corte Pass 3 of 10
G1 X143
G1 Y301.35
G1 X123
G1 Y304.65
; Layer Corte Pass 4 of 10
G1 X143
G1 Y301.35
G1 X123
G1 Y304.65
; Layer Corte Pass 5 of 10
G1 X143
G1 Y301.35
G1 X123
G1 Y304.65
; Layer Corte Pass 6 of 10
G1 X143
G1 Y301.35
G1 X123
G1 Y304.65
; Layer Corte Pass 7 of 10
G1 X143
G1 Y301.35
G1 X123
G1 Y304.65
; Layer Corte Pass 8 of 10
G1 X143
G1 Y301.35
G1 X123
G1 Y304.65
; Layer Corte Pass 9 of 10
G1 X143
G1 Y301.35
G1 X123
G1 Y304.65
; Layer Corte Pass 10 of 10
G1 X143
G1 Y301.35
G1 X123
G1 Y304.65
G0 X141.351Y313
; Layer Corte Pass 1 of 10
G1 X144.651
G1 Y293
G1 X141.351
G1 Y313
; Layer Corte Pass 2 of 10
G1 X144.651
G1 Y293
G1 X141.351
G1 Y313
; Layer Corte Pass 3 of 10
G1 X144.651
G1 Y293
G1 X141.351
G1 Y313
; Layer Corte Pass 4 of 10
G1 X144.651
G1 Y293
G1 X141.351
G1 Y313
; Layer Corte Pass 5 of 10
G1 X144.651
G1 Y293
G1 X141.351
G1 Y313
; Layer Corte Pass 6 of 10
G1 X144.651
G1 Y293
G1 X141.351
G1 Y313
; Layer Corte Pass 7 of 10
G1 X144.651
G1 Y293
G1 X141.351
G1 Y313
; Layer Corte Pass 8 of 10
G1 X144.651
G1 Y293
G1 X141.351
G1 Y313
; Layer Corte Pass 9 of 10
G1 X144.651
G1 Y293
G1 X141.351
G1 Y313
; Layer Corte Pass 10 of 10
G1 X144.651
G1 Y293
G1 X141.351
G1 Y313
G0 X163Y304.65
; Layer Corte Pass 1 of 10
G1 X183
G1 Y301.35
G1 X163
G1 Y304.65
; Layer Corte Pass 2 of 10
G1 X183
G1 Y301.35
G1 X163
G1 Y304.65
; Layer Corte Pass 3 of 10
G1 X183
G1 Y301.35
G1 X163
G1 Y304.65
; Layer Corte Pass 4 of 10
G1 X183
G1 Y301.35
G1 X163
G1 Y304.65
; Layer Corte Pass 5 of 10
G1 X183
G1 Y301.35
G1 X163
G1 Y304.65
; Layer Corte Pass 6 of 10
G1 X183
G1 Y301.35
G1 X163
G1 Y304.65
; Layer Corte Pass 7 of 10
G1 X183
G1 Y301.35
G1 X163
G1 Y304.65
; Layer Corte Pass 8 of 10
G1 X183
G1 Y301.35
G1 X163
G1 Y304.65
; Layer Corte Pass 9 of 10
G1 X183
G1 Y301.35
G1 X163
G1 Y304.65
; Layer Corte Pass 10 of 10
G1 X183
G1 Y301.35
G1 X163
G1 Y304.65
G0 X144.651Y273
; Layer Corte Pass 1 of 10
G1 Y253
G1 X141.351
G1 Y273
G1 X144.651
; Layer Corte Pass 2 of 10
G1 Y253
G1 X141.351
G1 Y273
G1 X144.651
; Layer Corte Pass 3 of 10
G1 Y253
G1 X141.351
G1 Y273
G1 X144.651
; Layer Corte Pass 4 of 10
G1 Y253
G1 X141.351
G1 Y273
G1 X144.651
; Layer Corte Pass 5 of 10
G1 Y253
G1 X141.351
G1 Y273
G1 X144.651
; Layer Corte Pass 6 of 10
G1 Y253
G1 X141.351
G1 Y273
G1 X144.651
; Layer Corte Pass 7 of 10
G1 Y253
G1 X141.351
G1 Y273
G1 X144.651
; Layer Corte Pass 8 of 10
G1 Y253
G1 X141.351
G1 Y273
G1 X144.651
; Layer Corte Pass 9 of 10
G1 Y253
G1 X141.351
G1 Y273
G1 X144.651
; Layer Corte Pass 10 of 10
G1 Y253
G1 X141.351
G1 Y273
G1 X144.651
G0 X144.651Y233
; Layer Corte Pass 1 of 10
G1 Y213
G1 X141.351
G1 Y233
G1 X144.651
; Layer Corte Pass 2 of 10
G1 Y213
G1 X141.351
G1 Y233
G1 X144.651
; Layer Corte Pass 3 of 10
G1 Y213
G1 X141.351
G1 Y233
G1 X144.651
; Layer Corte Pass 4 of 10
G1 Y213
G1 X141.351
G1 Y233
G1 X144.651
; Layer Corte Pass 5 of 10
G1 Y213
G1 X141.351
G1 Y233
G1 X144.651
; Layer Corte Pass 6 of 10
G1 Y213
G1 X141.351
G1 Y233
G1 X144.651
; Layer Corte Pass 7 of 10
G1 Y213
G1 X141.351
G1 Y233
G1 X144.651
; Layer Corte Pass 8 of 10
G1 Y213
G1 X141.351
G1 Y233
G1 X144.651
; Layer Corte Pass 9 of 10
G1 Y213
G1 X141.351
G1 Y233
G1 X144.651
; Layer Corte Pass 10 of 10
G1 Y213
G1 X141.351
G1 Y233
G1 X144.651
G0 X192.39Y173
; Layer Corte Pass 1 of 10
G1 Y170.001
; Layer Corte Pass 2 of 10
G1 Y173
; Layer Corte Pass 3 of 10
G1 Y170.001
; Layer Corte Pass 4 of 10
G1 Y173
; Layer Corte Pass 5 of 10
G1 Y170.001
; Layer Corte Pass 6 of 10
G1 Y173
; Layer Corte Pass 7 of 10
G1 Y170.001
; Layer Corte Pass 8 of 10
G1 Y173
; Layer Corte Pass 9 of 10
G1 Y170.001
; Layer Corte Pass 10 of 10
G1 Y173
G0 X192.39Y170
; Layer Corte Pass 1 of 10
G1 X203.64
; Layer Corte Pass 2 of 10
G1 X192.39
; Layer Corte Pass 3 of 10
G1 X203.64
; Layer Corte Pass 4 of 10
G1 X192.39
; Layer Corte Pass 5 of 10
G1 X203.64
; Layer Corte Pass 6 of 10
G1 X192.39
; Layer Corte Pass 7 of 10
G1 X203.64
; Layer Corte Pass 8 of 10
G1 X192.39
; Layer Corte Pass 9 of 10
G1 X203.64
; Layer Corte Pass 10 of 10
G1 X192.39
G0 X203.641Y170.001
; Layer Corte Pass 1 of 10
G1 Y173
; Layer Corte Pass 2 of 10
G1 Y170.001
; Layer Corte Pass 3 of 10
G1 Y173
; Layer Corte Pass 4 of 10
G1 Y170.001
; Layer Corte Pass 5 of 10
G1 Y173
; Layer Corte Pass 6 of 10
G1 Y170.001
; Layer Corte Pass 7 of 10
G1 Y173
; Layer Corte Pass 8 of 10
G1 Y170.001
; Layer Corte Pass 9 of 10
G1 Y173
; Layer Corte Pass 10 of 10
G1 Y170.001
G0 X203.637Y173
; Layer Corte Pass 1 of 10
G1 X222.363
; Layer Corte Pass 2 of 10
G1 X203.637
; Layer Corte Pass 3 of 10
G1 X222.363
; Layer Corte Pass 4 of 10
G1 X203.637
; Layer Corte Pass 5 of 10
G1 X222.363
; Layer Corte Pass 6 of 10
G1 X203.637
; Layer Corte Pass 7 of 10
G1 X222.363
; Layer Corte Pass 8 of 10
G1 X203.637
; Layer Corte Pass 9 of 10
G1 X222.363
; Layer Corte Pass 10 of 10
G1 X203.637
G0 X222.366Y172.999
; Layer Corte Pass 1 of 10
G1 Y170
; Layer Corte Pass 2 of 10
G1 Y172.999
; Layer Corte Pass 3 of 10
G1 Y170
; Layer Corte Pass 4 of 10
G1 Y172.999
; Layer Corte Pass 5 of 10
G1 Y170
; Layer Corte Pass 6 of 10
G1 Y172.999
; Layer Corte Pass 7 of 10
G1 Y170
; Layer Corte Pass 8 of 10
G1 Y172.999
; Layer Corte Pass 9 of 10
G1 Y170
; Layer Corte Pass 10 of 10
G1 Y172.999
G0 X222.368Y170
; Layer Corte Pass 1 of 10
G1 X233.62
; Layer Corte Pass 2 of 10
G1 X222.368
; Layer Corte Pass 3 of 10
G1 X233.62
; Layer Corte Pass 4 of 10
G1 X222.368
; Layer Corte Pass 5 of 10
G1 X233.62
; Layer Corte Pass 6 of 10
G1 X222.368
; Layer Corte Pass 7 of 10
G1 X233.62
; Layer Corte Pass 8 of 10
G1 X222.368
; Layer Corte Pass 9 of 10
G1 X233.62
; Layer Corte Pass 10 of 10
G1 X222.368
G0 X233.618Y170
; Layer Corte Pass 1 of 10
G1 Y172.999
; Layer Corte Pass 2 of 10
G1 Y170
; Layer Corte Pass 3 of 10
G1 Y172.999
; Layer Corte Pass 4 of 10
G1 Y170
; Layer Corte Pass 5 of 10
G1 Y172.999
; Layer Corte Pass 6 of 10
G1 Y170
; Layer Corte Pass 7 of 10
G1 Y172.999
; Layer Corte Pass 8 of 10
G1 Y170
; Layer Corte Pass 9 of 10
G1 Y172.999
; Layer Corte Pass 10 of 10
G1 Y170
G0 X233.62Y172.999
; Layer Corte Pass 1 of 10
G1 X244.495
; Layer Corte Pass 2 of 10
G1 X233.62
; Layer Corte Pass 3 of 10
G1 X244.495
; Layer Corte Pass 4 of 10
G1 X233.62
; Layer Corte Pass 5 of 10
G1 X244.495
; Layer Corte Pass 6 of 10
G1 X233.62
; Layer Corte Pass 7 of 10
G1 X244.495
; Layer Corte Pass 8 of 10
G1 X233.62
; Layer Corte Pass 9 of 10
G1 X244.495
; Layer Corte Pass 10 of 10
G1 X233.62
G0 X244.486Y172.999
; Layer Corte Pass 1 of 10
G1 Y170
; Layer Corte Pass 2 of 10
G1 Y172.999
; Layer Corte Pass 3 of 10
G1 Y170
; Layer Corte Pass 4 of 10
G1 Y172.999
; Layer Corte Pass 5 of 10
G1 Y170
; Layer Corte Pass 6 of 10
G1 Y172.999
; Layer Corte Pass 7 of 10
G1 Y170
; Layer Corte Pass 8 of 10
G1 Y172.999
; Layer Corte Pass 9 of 10
G1 Y170
; Layer Corte Pass 10 of 10
G1 Y172.999
G0 X244.488Y170
; Layer Corte Pass 1 of 10
G1 X255.74
; Layer Corte Pass 2 of 10
G1 X244.488
; Layer Corte Pass 3 of 10
G1 X255.74
; Layer Corte Pass 4 of 10
G1 X244.488
; Layer Corte Pass 5 of 10
G1 X255.74
; Layer Corte Pass 6 of 10
G1 X244.488
; Layer Corte Pass 7 of 10
G1 X255.74
; Layer Corte Pass 8 of 10
G1 X244.488
; Layer Corte Pass 9 of 10
G1 X255.74
; Layer Corte Pass 10 of 10
G1 X244.488
G0 X255.738Y170
; Layer Corte Pass 1 of 10
G1 Y172.999
; Layer Corte Pass 2 of 10
G1 Y170
; Layer Corte Pass 3 of 10
G1 Y172.999
; Layer Corte Pass 4 of 10
G1 Y170
; Layer Corte Pass 5 of 10
G1 Y172.999
; Layer Corte Pass 6 of 10
G1 Y170
; Layer Corte Pass 7 of 10
G1 Y172.999
; Layer Corte Pass 8 of 10
G1 Y170
; Layer Corte Pass 9 of 10
G1 Y172.999
; Layer Corte Pass 10 of 10
G1 Y170
G0 X255.74Y172.999
; Layer Corte Pass 1 of 10
G1 X266.615
; Layer Corte Pass 2 of 10
G1 X255.74
; Layer Corte Pass 3 of 10
G1 X266.615
; Layer Corte Pass 4 of 10
G1 X255.74
; Layer Corte Pass 5 of 10
G1 X266.615
; Layer Corte Pass 6 of 10
G1 X255.74
; Layer Corte Pass 7 of 10
G1 X266.615
; Layer Corte Pass 8 of 10
G1 X255.74
; Layer Corte Pass 9 of 10
G1 X266.615
; Layer Corte Pass 10 of 10
G1 X255.74
G0 X266.616Y172.999
; Layer Corte Pass 1 of 10
G1 Y170
; Layer Corte Pass 2 of 10
G1 Y172.999
; Layer Corte Pass 3 of 10
G1 Y170
; Layer Corte Pass 4 of 10
G1 Y172.999
; Layer Corte Pass 5 of 10
G1 Y170
; Layer Corte Pass 6 of 10
G1 Y172.999
; Layer Corte Pass 7 of 10
G1 Y170
; Layer Corte Pass 8 of 10
G1 Y172.999
; Layer Corte Pass 9 of 10
G1 Y170
; Layer Corte Pass 10 of 10
G1 Y172.999
G0 X266.618Y170
; Layer Corte Pass 1 of 10
G1 X277.87
; Layer Corte Pass 2 of 10
G1 X266.618
; Layer Corte Pass 3 of 10
G1 X277.87
; Layer Corte Pass 4 of 10
G1 X266.618
; Layer Corte Pass 5 of 10
G1 X277.87
; Layer Corte Pass 6 of 10
G1 X266.618
; Layer Corte Pass 7 of 10
G1 X277.87
; Layer Corte Pass 8 of 10
G1 X266.618
; Layer Corte Pass 9 of 10
G1 X277.87
; Layer Corte Pass 10 of 10
G1 X266.618
G0 X277.868Y170
; Layer Corte Pass 1 of 10
G1 Y172.999
; Layer Corte Pass 2 of 10
G1 Y170
; Layer Corte Pass 3 of 10
G1 Y172.999
; Layer Corte Pass 4 of 10
G1 Y170
; Layer Corte Pass 5 of 10
G1 Y172.999
; Layer Corte Pass 6 of 10
G1 Y170
; Layer Corte Pass 7 of 10
G1 Y172.999
; Layer Corte Pass 8 of 10
G1 Y170
; Layer Corte Pass 9 of 10
G1 Y172.999
; Layer Corte Pass 10 of 10
G1 Y170
G0 X277.87Y172.999
; Layer Corte Pass 1 of 10
G1 X288.745
; Layer Corte Pass 2 of 10
G1 X277.87
; Layer Corte Pass 3 of 10
G1 X288.745
; Layer Corte Pass 4 of 10
G1 X277.87
; Layer Corte Pass 5 of 10
G1 X288.745
; Layer Corte Pass 6 of 10
G1 X277.87
; Layer Corte Pass 7 of 10
G1 X288.745
; Layer Corte Pass 8 of 10
G1 X277.87
; Layer Corte Pass 9 of 10
G1 X288.745
; Layer Corte Pass 10 of 10
G1 X277.87
G0 X281.351Y173
; Layer Corte Pass 1 of 10
G1 Y193
G1 X284.651
G1 Y173
; Layer Corte Pass 2 of 10
G1 Y193
G1 X281.351
G1 Y173
; Layer Corte Pass 3 of 10
G1 Y193
G1 X284.651
G1 Y173
; Layer Corte Pass 4 of 10
G1 Y193
G1 X281.351
G1 Y173
; Layer Corte Pass 5 of 10
G1 Y193
G1 X284.651
G1 Y173
; Layer Corte Pass 6 of 10
G1 Y193
G1 X281.351
G1 Y173
; Layer Corte Pass 7 of 10
G1 Y193
G1 X284.651
G1 Y173
; Layer Corte Pass 8 of 10
G1 Y193
G1 X281.351
G1 Y173
; Layer Corte Pass 9 of 10
G1 Y193
G1 X284.651
G1 Y173
; Layer Corte Pass 10 of 10
G1 Y193
G1 X281.351
G1 Y173
G0 X288.746Y172.999
; Layer Corte Pass 1 of 10
G1 Y170
; Layer Corte Pass 2 of 10
G1 Y172.999
; Layer Corte Pass 3 of 10
G1 Y170
; Layer Corte Pass 4 of 10
G1 Y172.999
; Layer Corte Pass 5 of 10
G1 Y170
; Layer Corte Pass 6 of 10
G1 Y172.999
; Layer Corte Pass 7 of 10
G1 Y170
; Layer Corte Pass 8 of 10
G1 Y172.999
; Layer Corte Pass 9 of 10
G1 Y170
; Layer Corte Pass 10 of 10
G1 Y172.999
G0 X288.748Y170
; Layer Corte Pass 1 of 10
G1 X300
; Layer Corte Pass 2 of 10
G1 X288.748
; Layer Corte Pass 3 of 10
G1 X300
; Layer Corte Pass 4 of 10
G1 X288.748
; Layer Corte Pass 5 of 10
G1 X300
; Layer Corte Pass 6 of 10
G1 X288.748
; Layer Corte Pass 7 of 10
G1 X300
; Layer Corte Pass 8 of 10
G1 X288.748
; Layer Corte Pass 9 of 10
G1 X300
; Layer Corte Pass 10 of 10
G1 X288.748
G0 X299.998Y170
; Layer Corte Pass 1 of 10
G1 Y172.999
; Layer Corte Pass 2 of 10
G1 Y170
; Layer Corte Pass 3 of 10
G1 Y172.999
; Layer Corte Pass 4 of 10
G1 Y170
; Layer Corte Pass 5 of 10
G1 Y172.999
; Layer Corte Pass 6 of 10
G1 Y170
; Layer Corte Pass 7 of 10
G1 Y172.999
; Layer Corte Pass 8 of 10
G1 Y170
; Layer Corte Pass 9 of 10
G1 Y172.999
; Layer Corte Pass 10 of 10
G1 Y170
G0 X300Y172.999
; Layer Corte Pass 1 of 10
G1 X310.875
; Layer Corte Pass 2 of 10
G1 X300
; Layer Corte Pass 3 of 10
G1 X310.875
; Layer Corte Pass 4 of 10
G1 X300
; Layer Corte Pass 5 of 10
G1 X310.875
; Layer Corte Pass 6 of 10
G1 X300
; Layer Corte Pass 7 of 10
G1 X310.875
; Layer Corte Pass 8 of 10
G1 X300
; Layer Corte Pass 9 of 10
G1 X310.875
; Layer Corte Pass 10 of 10
G1 X300
G0 X310.876Y172.999
; Layer Corte Pass 1 of 10
G1 Y170
; Layer Corte Pass 2 of 10
G1 Y172.999
; Layer Corte Pass 3 of 10
G1 Y170
; Layer Corte Pass 4 of 10
G1 Y172.999
; Layer Corte Pass 5 of 10
G1 Y170
; Layer Corte Pass 6 of 10
G1 Y172.999
; Layer Corte Pass 7 of 10
G1 Y170
; Layer Corte Pass 8 of 10
G1 Y172.999
; Layer Corte Pass 9 of 10
G1 Y170
; Layer Corte Pass 10 of 10
G1 Y172.999
G0 X310.878Y170
; Layer Corte Pass 1 of 10
G1 X322.13
; Layer Corte Pass 2 of 10
G1 X310.878
; Layer Corte Pass 3 of 10
G1 X322.13
; Layer Corte Pass 4 of 10
G1 X310.878
; Layer Corte Pass 5 of 10
G1 X322.13
; Layer Corte Pass 6 of 10
G1 X310.878
; Layer Corte Pass 7 of 10
G1 X322.13
; Layer Corte Pass 8 of 10
G1 X310.878
; Layer Corte Pass 9 of 10
G1 X322.13
; Layer Corte Pass 10 of 10
G1 X310.878
G0 X322.128Y170
; Layer Corte Pass 1 of 10
G1 Y172.999
; Layer Corte Pass 2 of 10
G1 Y170
; Layer Corte Pass 3 of 10
G1 Y172.999
; Layer Corte Pass 4 of 10
G1 Y170
; Layer Corte Pass 5 of 10
G1 Y172.999
; Layer Corte Pass 6 of 10
G1 Y170
; Layer Corte Pass 7 of 10
G1 Y172.999
; Layer Corte Pass 8 of 10
G1 Y170
; Layer Corte Pass 9 of 10
G1 Y172.999
; Layer Corte Pass 10 of 10
G1 Y170
G0 X322.13Y172.999
; Layer Corte Pass 1 of 10
G1 X333.005
; Layer Corte Pass 2 of 10
G1 X322.13
; Layer Corte Pass 3 of 10
G1 X333.005
; Layer Corte Pass 4 of 10
G1 X322.13
; Layer Corte Pass 5 of 10
G1 X333.005
; Layer Corte Pass 6 of 10
G1 X322.13
; Layer Corte Pass 7 of 10
G1 X333.005
; Layer Corte Pass 8 of 10
G1 X322.13
; Layer Corte Pass 9 of 10
G1 X333.005
; Layer Corte Pass 10 of 10
G1 X322.13
G0 X333.006Y172.999
; Layer Corte Pass 1 of 10
G1 Y170
; Layer Corte Pass 2 of 10
G1 Y172.999
; Layer Corte Pass 3 of 10
G1 Y170
; Layer Corte Pass 4 of 10
G1 Y172.999
; Layer Corte Pass 5 of 10
G1 Y170
; Layer Corte Pass 6 of 10
G1 Y172.999
; Layer Corte Pass 7 of 10
G1 Y170
; Layer Corte Pass 8 of 10
G1 Y172.999
; Layer Corte Pass 9 of 10
G1 Y170
; Layer Corte Pass 10 of 10
G1 Y172.999
G0 X332.998Y170
; Layer Corte Pass 1 of 10
G1 X344.25
; Layer Corte Pass 2 of 10
G1 X332.998
; Layer Corte Pass 3 of 10
G1 X344.25
; Layer Corte Pass 4 of 10
G1 X332.998
; Layer Corte Pass 5 of 10
G1 X344.25
; Layer Corte Pass 6 of 10
G1 X332.998
; Layer Corte Pass 7 of 10
G1 X344.25
; Layer Corte Pass 8 of 10
G1 X332.998
; Layer Corte Pass 9 of 10
G1 X344.25
; Layer Corte Pass 10 of 10
G1 X332.998
G0 X344.258Y170
; Layer Corte Pass 1 of 10
G1 Y172.999
; Layer Corte Pass 2 of 10
G1 Y170
; Layer Corte Pass 3 of 10
G1 Y172.999
; Layer Corte Pass 4 of 10
G1 Y170
; Layer Corte Pass 5 of 10
G1 Y172.999
; Layer Corte Pass 6 of 10
G1 Y170
; Layer Corte Pass 7 of 10
G1 Y172.999
; Layer Corte Pass 8 of 10
G1 Y170
; Layer Corte Pass 9 of 10
G1 Y172.999
; Layer Corte Pass 10 of 10
G1 Y170
G0 X344.25Y172.999
; Layer Corte Pass 1 of 10
G1 X355.125
; Layer Corte Pass 2 of 10
G1 X344.25
; Layer Corte Pass 3 of 10
G1 X355.125
; Layer Corte Pass 4 of 10
G1 X344.25
; Layer Corte Pass 5 of 10
G1 X355.125
; Layer Corte Pass 6 of 10
G1 X344.25
; Layer Corte Pass 7 of 10
G1 X355.125
; Layer Corte Pass 8 of 10
G1 X344.25
; Layer Corte Pass 9 of 10
G1 X355.125
; Layer Corte Pass 10 of 10
G1 X344.25
G0 X355.126Y172.999
; Layer Corte Pass 1 of 10
G1 Y170
; Layer Corte Pass 2 of 10
G1 Y172.999
; Layer Corte Pass 3 of 10
G1 Y170
; Layer Corte Pass 4 of 10
G1 Y172.999
; Layer Corte Pass 5 of 10
G1 Y170
; Layer Corte Pass 6 of 10
G1 Y172.999
; Layer Corte Pass 7 of 10
G1 Y170
; Layer Corte Pass 8 of 10
G1 Y172.999
; Layer Corte Pass 9 of 10
G1 Y170
; Layer Corte Pass 10 of 10
G1 Y172.999
G0 X355.128Y170
; Layer Corte Pass 1 of 10
G1 X366.38
; Layer Corte Pass 2 of 10
G1 X355.128
; Layer Corte Pass 3 of 10
G1 X366.38
; Layer Corte Pass 4 of 10
G1 X355.128
; Layer Corte Pass 5 of 10
G1 X366.38
; Layer Corte Pass 6 of 10
G1 X355.128
; Layer Corte Pass 7 of 10
G1 X366.38
; Layer Corte Pass 8 of 10
G1 X355.128
; Layer Corte Pass 9 of 10
G1 X366.38
; Layer Corte Pass 10 of 10
G1 X355.128
G0 X366.378Y170
; Layer Corte Pass 1 of 10
G1 Y172.999
; Layer Corte Pass 2 of 10
G1 Y170
; Layer Corte Pass 3 of 10
G1 Y172.999
; Layer Corte Pass 4 of 10
G1 Y170
; Layer Corte Pass 5 of 10
G1 Y172.999
; Layer Corte Pass 6 of 10
G1 Y170
; Layer Corte Pass 7 of 10
G1 Y172.999
; Layer Corte Pass 8 of 10
G1 Y170
; Layer Corte Pass 9 of 10
G1 Y172.999
; Layer Corte Pass 10 of 10
G1 Y170
G0 X366.38Y172.999
; Layer Corte Pass 1 of 10
G1 X377.255
; Layer Corte Pass 2 of 10
G1 X366.38
; Layer Corte Pass 3 of 10
G1 X377.255
; Layer Corte Pass 4 of 10
G1 X366.38
; Layer Corte Pass 5 of 10
G1 X377.255
; Layer Corte Pass 6 of 10
G1 X366.38
; Layer Corte Pass 7 of 10
G1 X377.255
; Layer Corte Pass 8 of 10
G1 X366.38
; Layer Corte Pass 9 of 10
G1 X377.255
; Layer Corte Pass 10 of 10
G1 X366.38
G0 X377.256Y172.999
; Layer Corte Pass 1 of 10
G1 Y170
; Layer Corte Pass 2 of 10
G1 Y172.999
; Layer Corte Pass 3 of 10
G1 Y170
; Layer Corte Pass 4 of 10
G1 Y172.999
; Layer Corte Pass 5 of 10
G1 Y170
; Layer Corte Pass 6 of 10
G1 Y172.999
; Layer Corte Pass 7 of 10
G1 Y170
; Layer Corte Pass 8 of 10
G1 Y172.999
; Layer Corte Pass 9 of 10
G1 Y170
; Layer Corte Pass 10 of 10
G1 Y172.999
G0 X377.258Y170
; Layer Corte Pass 1 of 10
G1 X388.51
; Layer Corte Pass 2 of 10
G1 X377.258
; Layer Corte Pass 3 of 10
G1 X388.51
; Layer Corte Pass 4 of 10
G1 X377.258
; Layer Corte Pass 5 of 10
G1 X388.51
; Layer Corte Pass 6 of 10
G1 X377.258
; Layer Corte Pass 7 of 10
G1 X388.51
; Layer Corte Pass 8 of 10
G1 X377.258
; Layer Corte Pass 9 of 10
G1 X388.51
; Layer Corte Pass 10 of 10
G1 X377.258
G0 X284.651Y213
; Layer Corte Pass 1 of 10
G1 X281.351
G1 Y233
G1 X284.651
G1 Y213
; Layer Corte Pass 2 of 10
G1 X281.351
G1 Y233
G1 X284.651
G1 Y213
; Layer Corte Pass 3 of 10
G1 X281.351
G1 Y233
G1 X284.651
G1 Y213
; Layer Corte Pass 4 of 10
G1 X281.351
G1 Y233
G1 X284.651
G1 Y213
; Layer Corte Pass 5 of 10
G1 X281.351
G1 Y233
G1 X284.651
G1 Y213
; Layer Corte Pass 6 of 10
G1 X281.351
G1 Y233
G1 X284.651
G1 Y213
; Layer Corte Pass 7 of 10
G1 X281.351
G1 Y233
G1 X284.651
G1 Y213
; Layer Corte Pass 8 of 10
G1 X281.351
G1 Y233
G1 X284.651
G1 Y213
; Layer Corte Pass 9 of 10
G1 X281.351
G1 Y233
G1 X284.651
G1 Y213
; Layer Corte Pass 10 of 10
G1 X281.351
G1 Y233
G1 X284.651
G1 Y213
G0 X284.651Y253
; Layer Corte Pass 1 of 10
G1 X281.351
G1 Y273
G1 X284.651
G1 Y253
; Layer Corte Pass 2 of 10
G1 X281.351
G1 Y273
G1 X284.651
G1 Y253
; Layer Corte Pass 3 of 10
G1 X281.351
G1 Y273
G1 X284.651
G1 Y253
; Layer Corte Pass 4 of 10
G1 X281.351
G1 Y273
G1 X284.651
G1 Y253
; Layer Corte Pass 5 of 10
G1 X281.351
G1 Y273
G1 X284.651
G1 Y253
; Layer Corte Pass 6 of 10
G1 X281.351
G1 Y273
G1 X284.651
G1 Y253
; Layer Corte Pass 7 of 10
G1 X281.351
G1 Y273
G1 X284.651
G1 Y253
; Layer Corte Pass 8 of 10
G1 X281.351
G1 Y273
G1 X284.651
G1 Y253
; Layer Corte Pass 9 of 10
G1 X281.351
G1 Y273
G1 X284.651
G1 Y253
; Layer Corte Pass 10 of 10
G1 X281.351
G1 Y273
G1 X284.651
G1 Y253
G0 X223Y301.35
; Layer Corte Pass 1 of 10
G1 X203
G1 Y304.65
G1 X223
G1 Y301.35
; Layer Corte Pass 2 of 10
G1 X203
G1 Y304.65
G1 X223
G1 Y301.35
; Layer Corte Pass 3 of 10
G1 X203
G1 Y304.65
G1 X223
G1 Y301.35
; Layer Corte Pass 4 of 10
G1 X203
G1 Y304.65
G1 X223
G1 Y301.35
; Layer Corte Pass 5 of 10
G1 X203
G1 Y304.65
G1 X223
G1 Y301.35
; Layer Corte Pass 6 of 10
G1 X203
G1 Y304.65
G1 X223
G1 Y301.35
; Layer Corte Pass 7 of 10
G1 X203
G1 Y304.65
G1 X223
G1 Y301.35
; Layer Corte Pass 8 of 10
G1 X203
G1 Y304.65
G1 X223
G1 Y301.35
; Layer Corte Pass 9 of 10
G1 X203
G1 Y304.65
G1 X223
G1 Y301.35
; Layer Corte Pass 10 of 10
G1 X203
G1 Y304.65
G1 X223
G1 Y301.35
G0 X243Y301.35
; Layer Corte Pass 1 of 10
G1 Y304.65
G1 X263
G1 Y301.35
G1 X243
; Layer Corte Pass 2 of 10
G1 Y304.65
G1 X263
G1 Y301.35
G1 X243
; Layer Corte Pass 3 of 10
G1 Y304.65
G1 X263
G1 Y301.35
G1 X243
; Layer Corte Pass 4 of 10
G1 Y304.65
G1 X263
G1 Y301.35
G1 X243
; Layer Corte Pass 5 of 10
G1 Y304.65
G1 X263
G1 Y301.35
G1 X243
; Layer Corte Pass 6 of 10
G1 Y304.65
G1 X263
G1 Y301.35
G1 X243
; Layer Corte Pass 7 of 10
G1 Y304.65
G1 X263
G1 Y301.35
G1 X243
; Layer Corte Pass 8 of 10
G1 Y304.65
G1 X263
G1 Y301.35
G1 X243
; Layer Corte Pass 9 of 10
G1 Y304.65
G1 X263
G1 Y301.35
G1 X243
; Layer Corte Pass 10 of 10
G1 Y304.65
G1 X263
G1 Y301.35
G1 X243
G0 X283Y301.35
; Layer Corte Pass 1 of 10
G1 Y304.65
G1 X303
G1 Y301.35
G1 X283
; Layer Corte Pass 2 of 10
G1 Y304.65
G1 X303
G1 Y301.35
G1 X283
; Layer Corte Pass 3 of 10
G1 Y304.65
G1 X303
G1 Y301.35
G1 X283
; Layer Corte Pass 4 of 10
G1 Y304.65
G1 X303
G1 Y301.35
G1 X283
; Layer Corte Pass 5 of 10
G1 Y304.65
G1 X303
G1 Y301.35
G1 X283
; Layer Corte Pass 6 of 10
G1 Y304.65
G1 X303
G1 Y301.35
G1 X283
; Layer Corte Pass 7 of 10
G1 Y304.65
G1 X303
G1 Y301.35
G1 X283
; Layer Corte Pass 8 of 10
G1 Y304.65
G1 X303
G1 Y301.35
G1 X283
; Layer Corte Pass 9 of 10
G1 Y304.65
G1 X303
G1 Y301.35
G1 X283
; Layer Corte Pass 10 of 10
G1 Y304.65
G1 X303
G1 Y301.35
G1 X283
G0 X281.351Y293
; Layer Corte Pass 1 of 10
G1 Y313
G1 X284.651
G1 Y293
G1 X281.351
; Layer Corte Pass 2 of 10
G1 Y313
G1 X284.651
G1 Y293
G1 X281.351
; Layer Corte Pass 3 of 10
G1 Y313
G1 X284.651
G1 Y293
G1 X281.351
; Layer Corte Pass 4 of 10
G1 Y313
G1 X284.651
G1 Y293
G1 X281.351
; Layer Corte Pass 5 of 10
G1 Y313
G1 X284.651
G1 Y293
G1 X281.351
; Layer Corte Pass 6 of 10
G1 Y313
G1 X284.651
G1 Y293
G1 X281.351
; Layer Corte Pass 7 of 10
G1 Y313
G1 X284.651
G1 Y293
G1 X281.351
; Layer Corte Pass 8 of 10
G1 Y313
G1 X284.651
G1 Y293
G1 X281.351
; Layer Corte Pass 9 of 10
G1 Y313
G1 X284.651
G1 Y293
G1 X281.351
; Layer Corte Pass 10 of 10
G1 Y313
G1 X284.651
G1 Y293
G1 X281.351
G0 X281.351Y333
; Layer Corte Pass 1 of 10
G1 Y353
G1 X284.651
G1 Y333
G1 X281.351
; Layer Corte Pass 2 of 10
G1 Y353
G1 X284.651
G1 Y333
G1 X281.351
; Layer Corte Pass 3 of 10
G1 Y353
G1 X284.651
G1 Y333
G1 X281.351
; Layer Corte Pass 4 of 10
G1 Y353
G1 X284.651
G1 Y333
G1 X281.351
; Layer Corte Pass 5 of 10
G1 Y353
G1 X284.651
G1 Y333
G1 X281.351
; Layer Corte Pass 6 of 10
G1 Y353
G1 X284.651
G1 Y333
G1 X281.351
; Layer Corte Pass 7 of 10
G1 Y353
G1 X284.651
G1 Y333
G1 X281.351
; Layer Corte Pass 8 of 10
G1 Y353
G1 X284.651
G1 Y333
G1 X281.351
; Layer Corte Pass 9 of 10
G1 Y353
G1 X284.651
G1 Y333
G1 X281.351
; Layer Corte Pass 10 of 10
G1 Y353
G1 X284.651
G1 Y333
G1 X281.351
G0 X281.351Y373
; Layer Corte Pass 1 of 10
G1 Y393
G1 X284.651
G1 Y373
G1 X281.351
; Layer Corte Pass 2 of 10
G1 Y393
G1 X284.651
G1 Y373
G1 X281.351
; Layer Corte Pass 3 of 10
G1 Y393
G1 X284.651
G1 Y373
G1 X281.351
; Layer Corte Pass 4 of 10
G1 Y393
G1 X284.651
G1 Y373
G1 X281.351
; Layer Corte Pass 5 of 10
G1 Y393
G1 X284.651
G1 Y373
G1 X281.351
; Layer Corte Pass 6 of 10
G1 Y393
G1 X284.651
G1 Y373
G1 X281.351
; Layer Corte Pass 7 of 10
G1 Y393
G1 X284.651
G1 Y373
G1 X281.351
; Layer Corte Pass 8 of 10
G1 Y393
G1 X284.651
G1 Y373
G1 X281.351
; Layer Corte Pass 9 of 10
G1 Y393
G1 X284.651
G1 Y373
G1 X281.351
; Layer Corte Pass 10 of 10
G1 Y393
G1 X284.651
G1 Y373
G1 X281.351
G0 X233.622Y433
; Layer Corte Pass 1 of 10
G1 Y435.999
; Layer Corte Pass 2 of 10
G1 Y433
; Layer Corte Pass 3 of 10
G1 Y435.999
; Layer Corte Pass 4 of 10
G1 Y433
; Layer Corte Pass 5 of 10
G1 Y435.999
; Layer Corte Pass 6 of 10
G1 Y433
; Layer Corte Pass 7 of 10
G1 Y435.999
; Layer Corte Pass 8 of 10
G1 Y433
; Layer Corte Pass 9 of 10
G1 Y435.999
; Layer Corte Pass 10 of 10
G1 Y433
G0 X233.622Y436
; Layer Corte Pass 1 of 10
G1 X222.372
; Layer Corte Pass 2 of 10
G1 X233.622
; Layer Corte Pass 3 of 10
G1 X222.372
; Layer Corte Pass 4 of 10
G1 X233.622
; Layer Corte Pass 5 of 10
G1 X222.372
; Layer Corte Pass 6 of 10
G1 X233.622
; Layer Corte Pass 7 of 10
G1 X222.372
; Layer Corte Pass 8 of 10
G1 X233.622
; Layer Corte Pass 9 of 10
G1 X222.372
; Layer Corte Pass 10 of 10
G1 X233.622
G0 X222.372Y435.999
; Layer Corte Pass 1 of 10
G1 Y433
; Layer Corte Pass 2 of 10
G1 Y435.999
; Layer Corte Pass 3 of 10
G1 Y433
; Layer Corte Pass 4 of 10
G1 Y435.999
; Layer Corte Pass 5 of 10
G1 Y433
; Layer Corte Pass 6 of 10
G1 Y435.999
; Layer Corte Pass 7 of 10
G1 Y433
; Layer Corte Pass 8 of 10
G1 Y435.999
; Layer Corte Pass 9 of 10
G1 Y433
; Layer Corte Pass 10 of 10
G1 Y435.999
G0 X222.37Y433
; Layer Corte Pass 1 of 10
G1 X203.642
; Layer Corte Pass 2 of 10
G1 X222.37
; Layer Corte Pass 3 of 10
G1 X203.642
; Layer Corte Pass 4 of 10
G1 X222.37
; Layer Corte Pass 5 of 10
G1 X203.642
; Layer Corte Pass 6 of 10
G1 X222.37
; Layer Corte Pass 7 of 10
G1 X203.642
; Layer Corte Pass 8 of 10
G1 X222.37
; Layer Corte Pass 9 of 10
G1 X203.642
; Layer Corte Pass 10 of 10
G1 X222.37
G0 X230Y440
; Layer Corte Pass 1 of 10
G1 Y443.3
; Layer Corte Pass 2 of 10
G1 Y440
; Layer Corte Pass 3 of 10
G1 Y443.3
; Layer Corte Pass 4 of 10
G1 Y440
; Layer Corte Pass 5 of 10
G1 Y443.3
; Layer Corte Pass 6 of 10
G1 Y440
; Layer Corte Pass 7 of 10
G1 Y443.3
; Layer Corte Pass 8 of 10
G1 Y440
; Layer Corte Pass 9 of 10
G1 Y443.3
; Layer Corte Pass 10 of 10
G1 Y440
G0 X230Y443.3
; Layer Corte Pass 1 of 10
G1 X250
; Layer Corte Pass 2 of 10
G1 X230
; Layer Corte Pass 3 of 10
G1 X250
; Layer Corte Pass 4 of 10
G1 X230
; Layer Corte Pass 5 of 10
G1 X250
; Layer Corte Pass 6 of 10
G1 X230
; Layer Corte Pass 7 of 10
G1 X250
; Layer Corte Pass 8 of 10
G1 X230
; Layer Corte Pass 9 of 10
G1 X250
; Layer Corte Pass 10 of 10
G1 X230
G0 X250Y443.3
; Layer Corte Pass 1 of 10
G1 Y440
; Layer Corte Pass 2 of 10
G1 Y443.3
; Layer Corte Pass 3 of 10
G1 Y440
; Layer Corte Pass 4 of 10
G1 Y443.3
; Layer Corte Pass 5 of 10
G1 Y440
; Layer Corte Pass 6 of 10
G1 Y443.3
; Layer Corte Pass 7 of 10
G1 Y440
; Layer Corte Pass 8 of 10
G1 Y443.3
; Layer Corte Pass 9 of 10
G1 Y440
; Layer Corte Pass 10 of 10
G1 Y443.3
G0 X250Y440
; Layer Corte Pass 1 of 10
G1 X270
; Layer Corte Pass 2 of 10
G1 X250
; Layer Corte Pass 3 of 10
G1 X270
; Layer Corte Pass 4 of 10
G1 X250
; Layer Corte Pass 5 of 10
G1 X270
; Layer Corte Pass 6 of 10
G1 X250
; Layer Corte Pass 7 of 10
G1 X270
; Layer Corte Pass 8 of 10
G1 X250
; Layer Corte Pass 9 of 10
G1 X270
; Layer Corte Pass 10 of 10
G1 X250
G0 X255.742Y436
; Layer Corte Pass 1 of 10
G1 X244.492
; Layer Corte Pass 2 of 10
G1 X255.742
; Layer Corte Pass 3 of 10
G1 X244.492
; Layer Corte Pass 4 of 10
G1 X255.742
; Layer Corte Pass 5 of 10
G1 X244.492
; Layer Corte Pass 6 of 10
G1 X255.742
; Layer Corte Pass 7 of 10
G1 X244.492
; Layer Corte Pass 8 of 10
G1 X255.742
; Layer Corte Pass 9 of 10
G1 X244.492
; Layer Corte Pass 10 of 10
G1 X255.742
G0 X244.492Y435.999
; Layer Corte Pass 1 of 10
G1 Y433
; Layer Corte Pass 2 of 10
G1 Y435.999
; Layer Corte Pass 3 of 10
G1 Y433
; Layer Corte Pass 4 of 10
G1 Y435.999
; Layer Corte Pass 5 of 10
G1 Y433
; Layer Corte Pass 6 of 10
G1 Y435.999
; Layer Corte Pass 7 of 10
G1 Y433
; Layer Corte Pass 8 of 10
G1 Y435.999
; Layer Corte Pass 9 of 10
G1 Y433
; Layer Corte Pass 10 of 10
G1 Y435.999
G0 X244.498Y433.001
; Layer Corte Pass 1 of 10
G1 X233.622
; Layer Corte Pass 2 of 10
G1 X244.498
; Layer Corte Pass 3 of 10
G1 X233.622
; Layer Corte Pass 4 of 10
G1 X244.498
; Layer Corte Pass 5 of 10
G1 X233.622
; Layer Corte Pass 6 of 10
G1 X244.498
; Layer Corte Pass 7 of 10
G1 X233.622
; Layer Corte Pass 8 of 10
G1 X244.498
; Layer Corte Pass 9 of 10
G1 X233.622
; Layer Corte Pass 10 of 10
G1 X244.498
G0 X255.742Y433
; Layer Corte Pass 1 of 10
G1 Y435.999
; Layer Corte Pass 2 of 10
G1 Y433
; Layer Corte Pass 3 of 10
G1 Y435.999
; Layer Corte Pass 4 of 10
G1 Y433
; Layer Corte Pass 5 of 10
G1 Y435.999
; Layer Corte Pass 6 of 10
G1 Y433
; Layer Corte Pass 7 of 10
G1 Y435.999
; Layer Corte Pass 8 of 10
G1 Y433
; Layer Corte Pass 9 of 10
G1 Y435.999
; Layer Corte Pass 10 of 10
G1 Y433
G0 X255.742Y433.001
; Layer Corte Pass 1 of 10
G1 X266.618
; Layer Corte Pass 2 of 10
G1 X255.742
; Layer Corte Pass 3 of 10
G1 X266.618
; Layer Corte Pass 4 of 10
G1 X255.742
; Layer Corte Pass 5 of 10
G1 X266.618
; Layer Corte Pass 6 of 10
G1 X255.742
; Layer Corte Pass 7 of 10
G1 X266.618
; Layer Corte Pass 8 of 10
G1 X255.742
; Layer Corte Pass 9 of 10
G1 X266.618
; Layer Corte Pass 10 of 10
G1 X255.742
G0 X266.622Y433
; Layer Corte Pass 1 of 10
G1 Y435.999
; Layer Corte Pass 2 of 10
G1 Y433
; Layer Corte Pass 3 of 10
G1 Y435.999
; Layer Corte Pass 4 of 10
G1 Y433
; Layer Corte Pass 5 of 10
G1 Y435.999
; Layer Corte Pass 6 of 10
G1 Y433
; Layer Corte Pass 7 of 10
G1 Y435.999
; Layer Corte Pass 8 of 10
G1 Y433
; Layer Corte Pass 9 of 10
G1 Y435.999
; Layer Corte Pass 10 of 10
G1 Y433
G0 X266.622Y436
; Layer Corte Pass 1 of 10
G1 X277.872
; Layer Corte Pass 2 of 10
G1 X266.622
; Layer Corte Pass 3 of 10
G1 X277.872
; Layer Corte Pass 4 of 10
G1 X266.622
; Layer Corte Pass 5 of 10
G1 X277.872
; Layer Corte Pass 6 of 10
G1 X266.622
; Layer Corte Pass 7 of 10
G1 X277.872
; Layer Corte Pass 8 of 10
G1 X266.622
; Layer Corte Pass 9 of 10
G1 X277.872
; Layer Corte Pass 10 of 10
G1 X266.622
G0 X277.872Y435.999
; Layer Corte Pass 1 of 10
G1 Y433
; Layer Corte Pass 2 of 10
G1 Y435.999
; Layer Corte Pass 3 of 10
G1 Y433
; Layer Corte Pass 4 of 10
G1 Y435.999
; Layer Corte Pass 5 of 10
G1 Y433
; Layer Corte Pass 6 of 10
G1 Y435.999
; Layer Corte Pass 7 of 10
G1 Y433
; Layer Corte Pass 8 of 10
G1 Y435.999
; Layer Corte Pass 9 of 10
G1 Y433
; Layer Corte Pass 10 of 10
G1 Y435.999
G0 X284.651Y433
; Layer Corte Pass 1 of 10
G1 Y413
G1 X281.351
G1 Y433
; Layer Corte Pass 2 of 10
G1 Y413
G1 X284.651
G1 Y433
; Layer Corte Pass 3 of 10
G1 Y413
G1 X281.351
G1 Y433
; Layer Corte Pass 4 of 10
G1 Y413
G1 X284.651
G1 Y433
; Layer Corte Pass 5 of 10
G1 Y413
G1 X281.351
G1 Y433
; Layer Corte Pass 6 of 10
G1 Y413
G1 X284.651
G1 Y433
; Layer Corte Pass 7 of 10
G1 Y413
G1 X281.351
G1 Y433
; Layer Corte Pass 8 of 10
G1 Y413
G1 X284.651
G1 Y433
; Layer Corte Pass 9 of 10
G1 Y413
G1 X281.351
G1 Y433
; Layer Corte Pass 10 of 10
G1 Y413
G1 X284.651
G1 Y433
G0 X270Y440
; Layer Corte Pass 1 of 10
G1 Y501.3
G1 X10
G1 Y440
; Layer Corte Pass 2 of 10
G1 Y501.3
G1 X270
G1 Y440
; Layer Corte Pass 3 of 10
G1 Y501.3
G1 X10
G1 Y440
; Layer Corte Pass 4 of 10
G1 Y501.3
G1 X270
G1 Y440
; Layer Corte Pass 5 of 10
G1 Y501.3
G1 X10
G1 Y440
; Layer Corte Pass 6 of 10
G1 Y501.3
G1 X270
G1 Y440
; Layer Corte Pass 7 of 10
G1 Y501.3
G1 X10
G1 Y440
; Layer Corte Pass 8 of 10
G1 Y501.3
G1 X270
G1 Y440
; Layer Corte Pass 9 of 10
G1 Y501.3
G1 X10
G1 Y440
; Layer Corte Pass 10 of 10
G1 Y501.3
G1 X270
G1 Y440
G0 X277.872Y433.001
; Layer Corte Pass 1 of 10
G1 X288.748
; Layer Corte Pass 2 of 10
G1 X277.872
; Layer Corte Pass 3 of 10
G1 X288.748
; Layer Corte Pass 4 of 10
G1 X277.872
; Layer Corte Pass 5 of 10
G1 X288.748
; Layer Corte Pass 6 of 10
G1 X277.872
; Layer Corte Pass 7 of 10
G1 X288.748
; Layer Corte Pass 8 of 10
G1 X277.872
; Layer Corte Pass 9 of 10
G1 X288.748
; Layer Corte Pass 10 of 10
G1 X277.872
G0 X288.752Y433
; Layer Corte Pass 1 of 10
G1 Y435.999
; Layer Corte Pass 2 of 10
G1 Y433
; Layer Corte Pass 3 of 10
G1 Y435.999
; Layer Corte Pass 4 of 10
G1 Y433
; Layer Corte Pass 5 of 10
G1 Y435.999
; Layer Corte Pass 6 of 10
G1 Y433
; Layer Corte Pass 7 of 10
G1 Y435.999
; Layer Corte Pass 8 of 10
G1 Y433
; Layer Corte Pass 9 of 10
G1 Y435.999
; Layer Corte Pass 10 of 10
G1 Y433
G0 X288.752Y436
; Layer Corte Pass 1 of 10
G1 X300.003
; Layer Corte Pass 2 of 10
G1 X288.752
; Layer Corte Pass 3 of 10
G1 X300.003
; Layer Corte Pass 4 of 10
G1 X288.752
; Layer Corte Pass 5 of 10
G1 X300.003
; Layer Corte Pass 6 of 10
G1 X288.752
; Layer Corte Pass 7 of 10
G1 X300.003
; Layer Corte Pass 8 of 10
G1 X288.752
; Layer Corte Pass 9 of 10
G1 X300.003
; Layer Corte Pass 10 of 10
G1 X288.752
G0 X300.002Y435.999
; Layer Corte Pass 1 of 10
G1 Y433
; Layer Corte Pass 2 of 10
G1 Y435.999
; Layer Corte Pass 3 of 10
G1 Y433
; Layer Corte Pass 4 of 10
G1 Y435.999
; Layer Corte Pass 5 of 10
G1 Y433
; Layer Corte Pass 6 of 10
G1 Y435.999
; Layer Corte Pass 7 of 10
G1 Y433
; Layer Corte Pass 8 of 10
G1 Y435.999
; Layer Corte Pass 9 of 10
G1 Y433
; Layer Corte Pass 10 of 10
G1 Y435.999
G0 X300.003Y433.001
; Layer Corte Pass 1 of 10
G1 X310.878
; Layer Corte Pass 2 of 10
G1 X300.003
; Layer Corte Pass 3 of 10
G1 X310.878
; Layer Corte Pass 4 of 10
G1 X300.003
; Layer Corte Pass 5 of 10
G1 X310.878
; Layer Corte Pass 6 of 10
G1 X300.003
; Layer Corte Pass 7 of 10
G1 X310.878
; Layer Corte Pass 8 of 10
G1 X300.003
; Layer Corte Pass 9 of 10
G1 X310.878
; Layer Corte Pass 10 of 10
G1 X300.003
G0 X310.872Y433
; Layer Corte Pass 1 of 10
G1 Y435.999
; Layer Corte Pass 2 of 10
G1 Y433
; Layer Corte Pass 3 of 10
G1 Y435.999
; Layer Corte Pass 4 of 10
G1 Y433
; Layer Corte Pass 5 of 10
G1 Y435.999
; Layer Corte Pass 6 of 10
G1 Y433
; Layer Corte Pass 7 of 10
G1 Y435.999
; Layer Corte Pass 8 of 10
G1 Y433
; Layer Corte Pass 9 of 10
G1 Y435.999
; Layer Corte Pass 10 of 10
G1 Y433
G0 X310.872Y436
; Layer Corte Pass 1 of 10
G1 X322.122
; Layer Corte Pass 2 of 10
G1 X310.872
; Layer Corte Pass 3 of 10
G1 X322.122
; Layer Corte Pass 4 of 10
G1 X310.872
; Layer Corte Pass 5 of 10
G1 X322.122
; Layer Corte Pass 6 of 10
G1 X310.872
; Layer Corte Pass 7 of 10
G1 X322.122
; Layer Corte Pass 8 of 10
G1 X310.872
; Layer Corte Pass 9 of 10
G1 X322.122
; Layer Corte Pass 10 of 10
G1 X310.872
G0 X322.122Y435.999
; Layer Corte Pass 1 of 10
G1 Y433
; Layer Corte Pass 2 of 10
G1 Y435.999
; Layer Corte Pass 3 of 10
G1 Y433
; Layer Corte Pass 4 of 10
G1 Y435.999
; Layer Corte Pass 5 of 10
G1 Y433
; Layer Corte Pass 6 of 10
G1 Y435.999
; Layer Corte Pass 7 of 10
G1 Y433
; Layer Corte Pass 8 of 10
G1 Y435.999
; Layer Corte Pass 9 of 10
G1 Y433
; Layer Corte Pass 10 of 10
G1 Y435.999
G0 X322.122Y433.001
; Layer Corte Pass 1 of 10
G1 X332.998
; Layer Corte Pass 2 of 10
G1 X322.122
; Layer Corte Pass 3 of 10
G1 X332.998
; Layer Corte Pass 4 of 10
G1 X322.122
; Layer Corte Pass 5 of 10
G1 X332.998
; Layer Corte Pass 6 of 10
G1 X322.122
; Layer Corte Pass 7 of 10
G1 X332.998
; Layer Corte Pass 8 of 10
G1 X322.122
; Layer Corte Pass 9 of 10
G1 X332.998
; Layer Corte Pass 10 of 10
G1 X322.122
G0 X333.002Y433
; Layer Corte Pass 1 of 10
G1 Y435.999
; Layer Corte Pass 2 of 10
G1 Y433
; Layer Corte Pass 3 of 10
G1 Y435.999
; Layer Corte Pass 4 of 10
G1 Y433
; Layer Corte Pass 5 of 10
G1 Y435.999
; Layer Corte Pass 6 of 10
G1 Y433
; Layer Corte Pass 7 of 10
G1 Y435.999
; Layer Corte Pass 8 of 10
G1 Y433
; Layer Corte Pass 9 of 10
G1 Y435.999
; Layer Corte Pass 10 of 10
G1 Y433
G0 X333.002Y436
; Layer Corte Pass 1 of 10
G1 X344.253
; Layer Corte Pass 2 of 10
G1 X333.002
; Layer Corte Pass 3 of 10
G1 X344.253
; Layer Corte Pass 4 of 10
G1 X333.002
; Layer Corte Pass 5 of 10
G1 X344.253
; Layer Corte Pass 6 of 10
G1 X333.002
; Layer Corte Pass 7 of 10
G1 X344.253
; Layer Corte Pass 8 of 10
G1 X333.002
; Layer Corte Pass 9 of 10
G1 X344.253
; Layer Corte Pass 10 of 10
G1 X333.002
G0 X344.252Y435.999
; Layer Corte Pass 1 of 10
G1 Y433
; Layer Corte Pass 2 of 10
G1 Y435.999
; Layer Corte Pass 3 of 10
G1 Y433
; Layer Corte Pass 4 of 10
G1 Y435.999
; Layer Corte Pass 5 of 10
G1 Y433
; Layer Corte Pass 6 of 10
G1 Y435.999
; Layer Corte Pass 7 of 10
G1 Y433
; Layer Corte Pass 8 of 10
G1 Y435.999
; Layer Corte Pass 9 of 10
G1 Y433
; Layer Corte Pass 10 of 10
G1 Y435.999
G0 X344.253Y433.001
; Layer Corte Pass 1 of 10
G1 X355.128
; Layer Corte Pass 2 of 10
G1 X344.253
; Layer Corte Pass 3 of 10
G1 X355.128
; Layer Corte Pass 4 of 10
G1 X344.253
; Layer Corte Pass 5 of 10
G1 X355.128
; Layer Corte Pass 6 of 10
G1 X344.253
; Layer Corte Pass 7 of 10
G1 X355.128
; Layer Corte Pass 8 of 10
G1 X344.253
; Layer Corte Pass 9 of 10
G1 X355.128
; Layer Corte Pass 10 of 10
G1 X344.253
G0 X355.132Y433
; Layer Corte Pass 1 of 10
G1 Y435.999
; Layer Corte Pass 2 of 10
G1 Y433
; Layer Corte Pass 3 of 10
G1 Y435.999
; Layer Corte Pass 4 of 10
G1 Y433
; Layer Corte Pass 5 of 10
G1 Y435.999
; Layer Corte Pass 6 of 10
G1 Y433
; Layer Corte Pass 7 of 10
G1 Y435.999
; Layer Corte Pass 8 of 10
G1 Y433
; Layer Corte Pass 9 of 10
G1 Y435.999
; Layer Corte Pass 10 of 10
G1 Y433
G0 X355.132Y436
; Layer Corte Pass 1 of 10
G1 X366.383
; Layer Corte Pass 2 of 10
G1 X355.132
; Layer Corte Pass 3 of 10
G1 X366.383
; Layer Corte Pass 4 of 10
G1 X355.132
; Layer Corte Pass 5 of 10
G1 X366.383
; Layer Corte Pass 6 of 10
G1 X355.132
; Layer Corte Pass 7 of 10
G1 X366.383
; Layer Corte Pass 8 of 10
G1 X355.132
; Layer Corte Pass 9 of 10
G1 X366.383
; Layer Corte Pass 10 of 10
G1 X355.132
G0 X366.382Y435.999
; Layer Corte Pass 1 of 10
G1 Y433
; Layer Corte Pass 2 of 10
G1 Y435.999
; Layer Corte Pass 3 of 10
G1 Y433
; Layer Corte Pass 4 of 10
G1 Y435.999
; Layer Corte Pass 5 of 10
G1 Y433
; Layer Corte Pass 6 of 10
G1 Y435.999
; Layer Corte Pass 7 of 10
G1 Y433
; Layer Corte Pass 8 of 10
G1 Y435.999
; Layer Corte Pass 9 of 10
G1 Y433
; Layer Corte Pass 10 of 10
G1 Y435.999
G0 X366.383Y433.001
; Layer Corte Pass 1 of 10
G1 X377.258
; Layer Corte Pass 2 of 10
G1 X366.383
; Layer Corte Pass 3 of 10
G1 X377.258
; Layer Corte Pass 4 of 10
G1 X366.383
; Layer Corte Pass 5 of 10
G1 X377.258
; Layer Corte Pass 6 of 10
G1 X366.383
; Layer Corte Pass 7 of 10
G1 X377.258
; Layer Corte Pass 8 of 10
G1 X366.383
; Layer Corte Pass 9 of 10
G1 X377.258
; Layer Corte Pass 10 of 10
G1 X366.383
G0 X377.252Y433
; Layer Corte Pass 1 of 10
G1 Y435.999
; Layer Corte Pass 2 of 10
G1 Y433
; Layer Corte Pass 3 of 10
G1 Y435.999
; Layer Corte Pass 4 of 10
G1 Y433
; Layer Corte Pass 5 of 10
G1 Y435.999
; Layer Corte Pass 6 of 10
G1 Y433
; Layer Corte Pass 7 of 10
G1 Y435.999
; Layer Corte Pass 8 of 10
G1 Y433
; Layer Corte Pass 9 of 10
G1 Y435.999
; Layer Corte Pass 10 of 10
G1 Y433
G0 X377.252Y436
; Layer Corte Pass 1 of 10
G1 X388.503
; Layer Corte Pass 2 of 10
G1 X377.252
; Layer Corte Pass 3 of 10
G1 X388.503
; Layer Corte Pass 4 of 10
G1 X377.252
; Layer Corte Pass 5 of 10
G1 X388.503
; Layer Corte Pass 6 of 10
G1 X377.252
; Layer Corte Pass 7 of 10
G1 X388.503
; Layer Corte Pass 8 of 10
G1 X377.252
; Layer Corte Pass 9 of 10
G1 X388.503
; Layer Corte Pass 10 of 10
G1 X377.252
G0 X388.502Y435.999
; Layer Corte Pass 1 of 10
G1 Y433
; Layer Corte Pass 2 of 10
G1 Y435.999
; Layer Corte Pass 3 of 10
G1 Y433
; Layer Corte Pass 4 of 10
G1 Y435.999
; Layer Corte Pass 5 of 10
G1 Y433
; Layer Corte Pass 6 of 10
G1 Y435.999
; Layer Corte Pass 7 of 10
G1 Y433
; Layer Corte Pass 8 of 10
G1 Y435.999
; Layer Corte Pass 9 of 10
G1 Y433
; Layer Corte Pass 10 of 10
G1 Y435.999
G0 X388.504Y433
; Layer Corte Pass 1 of 10
G1 X413.002
; Layer Corte Pass 2 of 10
G1 X388.504
; Layer Corte Pass 3 of 10
G1 X413.002
; Layer Corte Pass 4 of 10
G1 X388.504
; Layer Corte Pass 5 of 10
G1 X413.002
; Layer Corte Pass 6 of 10
G1 X388.504
; Layer Corte Pass 7 of 10
G1 X413.002
; Layer Corte Pass 8 of 10
G1 X388.504
; Layer Corte Pass 9 of 10
G1 X413.002
; Layer Corte Pass 10 of 10
G1 X388.504
G0 X413.002Y433.001
; Layer Corte Pass 1 of 10
G1 Y417.388
; Layer Corte Pass 2 of 10
G1 Y433.001
; Layer Corte Pass 3 of 10
G1 Y417.388
; Layer Corte Pass 4 of 10
G1 Y433.001
; Layer Corte Pass 5 of 10
G1 Y417.388
; Layer Corte Pass 6 of 10
G1 Y433.001
; Layer Corte Pass 7 of 10
G1 Y417.388
; Layer Corte Pass 8 of 10
G1 Y433.001
; Layer Corte Pass 9 of 10
G1 Y417.388
; Layer Corte Pass 10 of 10
G1 Y433.001
G0 X413.002Y417.388
; Layer Corte Pass 1 of 10
G1 X416.002
; Layer Corte Pass 2 of 10
G1 X413.002
; Layer Corte Pass 3 of 10
G1 X416.002
; Layer Corte Pass 4 of 10
G1 X413.002
; Layer Corte Pass 5 of 10
G1 X416.002
; Layer Corte Pass 6 of 10
G1 X413.002
; Layer Corte Pass 7 of 10
G1 X416.002
; Layer Corte Pass 8 of 10
G1 X413.002
; Layer Corte Pass 9 of 10
G1 X416.002
; Layer Corte Pass 10 of 10
G1 X413.002
G0 X416.003Y417.385
; Layer Corte Pass 1 of 10
G1 Y406.134
; Layer Corte Pass 2 of 10
G1 Y417.385
; Layer Corte Pass 3 of 10
G1 Y406.134
; Layer Corte Pass 4 of 10
G1 Y417.385
; Layer Corte Pass 5 of 10
G1 Y406.134
; Layer Corte Pass 6 of 10
G1 Y417.385
; Layer Corte Pass 7 of 10
G1 Y406.134
; Layer Corte Pass 8 of 10
G1 Y417.385
; Layer Corte Pass 9 of 10
G1 Y406.134
; Layer Corte Pass 10 of 10
G1 Y417.385
G0 X416.002Y406.138
; Layer Corte Pass 1 of 10
G1 X413.001
; Layer Corte Pass 2 of 10
G1 X416.002
; Layer Corte Pass 3 of 10
G1 X413.001
; Layer Corte Pass 4 of 10
G1 X416.002
; Layer Corte Pass 5 of 10
G1 X413.001
; Layer Corte Pass 6 of 10
G1 X416.002
; Layer Corte Pass 7 of 10
G1 X413.001
; Layer Corte Pass 8 of 10
G1 X416.002
; Layer Corte Pass 9 of 10
G1 X413.001
; Layer Corte Pass 10 of 10
G1 X416.002
G0 X413.002Y406.134
; Layer Corte Pass 1 of 10
G1 Y386.637
; Layer Corte Pass 2 of 10
G1 Y406.134
; Layer Corte Pass 3 of 10
G1 Y386.637
; Layer Corte Pass 4 of 10
G1 Y406.134
; Layer Corte Pass 5 of 10
G1 Y386.637
; Layer Corte Pass 6 of 10
G1 Y406.134
; Layer Corte Pass 7 of 10
G1 Y386.637
; Layer Corte Pass 8 of 10
G1 Y406.134
; Layer Corte Pass 9 of 10
G1 Y386.637
; Layer Corte Pass 10 of 10
G1 Y406.134
G0 X413.002Y386.636
; Layer Corte Pass 1 of 10
G1 X416.002
; Layer Corte Pass 2 of 10
G1 X413.002
; Layer Corte Pass 3 of 10
G1 X416.002
; Layer Corte Pass 4 of 10
G1 X413.002
; Layer Corte Pass 5 of 10
G1 X416.002
; Layer Corte Pass 6 of 10
G1 X413.002
; Layer Corte Pass 7 of 10
G1 X416.002
; Layer Corte Pass 8 of 10
G1 X413.002
; Layer Corte Pass 9 of 10
G1 X416.002
; Layer Corte Pass 10 of 10
G1 X413.002
G0 X416.003Y386.633
; Layer Corte Pass 1 of 10
G1 Y375.382
; Layer Corte Pass 2 of 10
G1 Y386.633
; Layer Corte Pass 3 of 10
G1 Y375.382
; Layer Corte Pass 4 of 10
G1 Y386.633
; Layer Corte Pass 5 of 10
G1 Y375.382
; Layer Corte Pass 6 of 10
G1 Y386.633
; Layer Corte Pass 7 of 10
G1 Y375.382
; Layer Corte Pass 8 of 10
G1 Y386.633
; Layer Corte Pass 9 of 10
G1 Y375.382
; Layer Corte Pass 10 of 10
G1 Y386.633
G0 X416.002Y375.386
; Layer Corte Pass 1 of 10
G1 X413.001
; Layer Corte Pass 2 of 10
G1 X416.002
; Layer Corte Pass 3 of 10
G1 X413.001
; Layer Corte Pass 4 of 10
G1 X416.002
; Layer Corte Pass 5 of 10
G1 X413.001
; Layer Corte Pass 6 of 10
G1 X416.002
; Layer Corte Pass 7 of 10
G1 X413.001
; Layer Corte Pass 8 of 10
G1 X416.002
; Layer Corte Pass 9 of 10
G1 X413.001
; Layer Corte Pass 10 of 10
G1 X416.002
G0 X413.002Y375.382
; Layer Corte Pass 1 of 10
G1 Y355.884
; Layer Corte Pass 2 of 10
G1 Y375.382
; Layer Corte Pass 3 of 10
G1 Y355.884
; Layer Corte Pass 4 of 10
G1 Y375.382
; Layer Corte Pass 5 of 10
G1 Y355.884
; Layer Corte Pass 6 of 10
G1 Y375.382
; Layer Corte Pass 7 of 10
G1 Y355.884
; Layer Corte Pass 8 of 10
G1 Y375.382
; Layer Corte Pass 9 of 10
G1 Y355.884
; Layer Corte Pass 10 of 10
G1 Y375.382
G0 X413.002Y355.884
; Layer Corte Pass 1 of 10
G1 X416.002
; Layer Corte Pass 2 of 10
G1 X413.002
; Layer Corte Pass 3 of 10
G1 X416.002
; Layer Corte Pass 4 of 10
G1 X413.002
; Layer Corte Pass 5 of 10
G1 X416.002
; Layer Corte Pass 6 of 10
G1 X413.002
; Layer Corte Pass 7 of 10
G1 X416.002
; Layer Corte Pass 8 of 10
G1 X413.002
; Layer Corte Pass 9 of 10
G1 X416.002
; Layer Corte Pass 10 of 10
G1 X413.002
G0 X416.003Y355.881
; Layer Corte Pass 1 of 10
G1 Y344.63
; Layer Corte Pass 2 of 10
G1 Y355.881
; Layer Corte Pass 3 of 10
G1 Y344.63
; Layer Corte Pass 4 of 10
G1 Y355.881
; Layer Corte Pass 5 of 10
G1 Y344.63
; Layer Corte Pass 6 of 10
G1 Y355.881
; Layer Corte Pass 7 of 10
G1 Y344.63
; Layer Corte Pass 8 of 10
G1 Y355.881
; Layer Corte Pass 9 of 10
G1 Y344.63
; Layer Corte Pass 10 of 10
G1 Y355.881
G0 X416.002Y344.634
; Layer Corte Pass 1 of 10
G1 X413.001
; Layer Corte Pass 2 of 10
G1 X416.002
; Layer Corte Pass 3 of 10
G1 X413.001
; Layer Corte Pass 4 of 10
G1 X416.002
; Layer Corte Pass 5 of 10
G1 X413.001
; Layer Corte Pass 6 of 10
G1 X416.002
; Layer Corte Pass 7 of 10
G1 X413.001
; Layer Corte Pass 8 of 10
G1 X416.002
; Layer Corte Pass 9 of 10
G1 X413.001
; Layer Corte Pass 10 of 10
G1 X416.002
G0 X413.002Y344.63
; Layer Corte Pass 1 of 10
G1 Y325.133
; Layer Corte Pass 2 of 10
G1 Y344.63
; Layer Corte Pass 3 of 10
G1 Y325.133
; Layer Corte Pass 4 of 10
G1 Y344.63
; Layer Corte Pass 5 of 10
G1 Y325.133
; Layer Corte Pass 6 of 10
G1 Y344.63
; Layer Corte Pass 7 of 10
G1 Y325.133
; Layer Corte Pass 8 of 10
G1 Y344.63
; Layer Corte Pass 9 of 10
G1 Y325.133
; Layer Corte Pass 10 of 10
G1 Y344.63
G0 X383Y304.65
; Layer Corte Pass 1 of 10
G1 Y301.35
G1 X363
G1 Y304.65
G1 X383
; Layer Corte Pass 2 of 10
G1 Y301.35
G1 X363
G1 Y304.65
G1 X383
; Layer Corte Pass 3 of 10
G1 Y301.35
G1 X363
G1 Y304.65
G1 X383
; Layer Corte Pass 4 of 10
G1 Y301.35
G1 X363
G1 Y304.65
G1 X383
; Layer Corte Pass 5 of 10
G1 Y301.35
G1 X363
G1 Y304.65
G1 X383
; Layer Corte Pass 6 of 10
G1 Y301.35
G1 X363
G1 Y304.65
G1 X383
; Layer Corte Pass 7 of 10
G1 Y301.35
G1 X363
G1 Y304.65
G1 X383
; Layer Corte Pass 8 of 10
G1 Y301.35
G1 X363
G1 Y304.65
G1 X383
; Layer Corte Pass 9 of 10
G1 Y301.35
G1 X363
G1 Y304.65
G1 X383
; Layer Corte Pass 10 of 10
G1 Y301.35
G1 X363
G1 Y304.65
G1 X383
G0 X343Y304.65
; Layer Corte Pass 1 of 10
G1 Y301.35
G1 X323
G1 Y304.65
G1 X343
; Layer Corte Pass 2 of 10
G1 Y301.35
G1 X323
G1 Y304.65
G1 X343
; Layer Corte Pass 3 of 10
G1 Y301.35
G1 X323
G1 Y304.65
G1 X343
; Layer Corte Pass 4 of 10
G1 Y301.35
G1 X323
G1 Y304.65
G1 X343
; Layer Corte Pass 5 of 10
G1 Y301.35
G1 X323
G1 Y304.65
G1 X343
; Layer Corte Pass 6 of 10
G1 Y301.35
G1 X323
G1 Y304.65
G1 X343
; Layer Corte Pass 7 of 10
G1 Y301.35
G1 X323
G1 Y304.65
G1 X343
; Layer Corte Pass 8 of 10
G1 Y301.35
G1 X323
G1 Y304.65
G1 X343
; Layer Corte Pass 9 of 10
G1 Y301.35
G1 X323
G1 Y304.65
G1 X343
; Layer Corte Pass 10 of 10
G1 Y301.35
G1 X323
G1 Y304.65
G1 X343
G0 X413.002Y313.871
; Layer Corte Pass 1 of 10
G1 Y294.374
; Layer Corte Pass 2 of 10
G1 Y313.871
; Layer Corte Pass 3 of 10
G1 Y294.374
; Layer Corte Pass 4 of 10
G1 Y313.871
; Layer Corte Pass 5 of 10
G1 Y294.374
; Layer Corte Pass 6 of 10
G1 Y313.871
; Layer Corte Pass 7 of 10
G1 Y294.374
; Layer Corte Pass 8 of 10
G1 Y313.871
; Layer Corte Pass 9 of 10
G1 Y294.374
; Layer Corte Pass 10 of 10
G1 Y313.871
G0 X413.001Y294.377
; Layer Corte Pass 1 of 10
G1 X416.002
; Layer Corte Pass 2 of 10
G1 X413.001
; Layer Corte Pass 3 of 10
G1 X416.002
; Layer Corte Pass 4 of 10
G1 X413.001
; Layer Corte Pass 5 of 10
G1 X416.002
; Layer Corte Pass 6 of 10
G1 X413.001
; Layer Corte Pass 7 of 10
G1 X416.002
; Layer Corte Pass 8 of 10
G1 X413.001
; Layer Corte Pass 9 of 10
G1 X416.002
; Layer Corte Pass 10 of 10
G1 X413.001
G0 X416.003Y294.374
; Layer Corte Pass 1 of 10
G1 Y283.122
; Layer Corte Pass 2 of 10
G1 Y294.374
; Layer Corte Pass 3 of 10
G1 Y283.122
; Layer Corte Pass 4 of 10
G1 Y294.374
; Layer Corte Pass 5 of 10
G1 Y283.122
; Layer Corte Pass 6 of 10
G1 Y294.374
; Layer Corte Pass 7 of 10
G1 Y283.122
; Layer Corte Pass 8 of 10
G1 Y294.374
; Layer Corte Pass 9 of 10
G1 Y283.122
; Layer Corte Pass 10 of 10
G1 Y294.374
G0 X416.002Y283.126
; Layer Corte Pass 1 of 10
G1 X413.001
; Layer Corte Pass 2 of 10
G1 X416.002
; Layer Corte Pass 3 of 10
G1 X413.001
; Layer Corte Pass 4 of 10
G1 X416.002
; Layer Corte Pass 5 of 10
G1 X413.001
; Layer Corte Pass 6 of 10
G1 X416.002
; Layer Corte Pass 7 of 10
G1 X413.001
; Layer Corte Pass 8 of 10
G1 X416.002
; Layer Corte Pass 9 of 10
G1 X413.001
; Layer Corte Pass 10 of 10
G1 X416.002
G0 X413.002Y283.121
; Layer Corte Pass 1 of 10
G1 Y263.624
; Layer Corte Pass 2 of 10
G1 Y283.121
; Layer Corte Pass 3 of 10
G1 Y263.624
; Layer Corte Pass 4 of 10
G1 Y283.121
; Layer Corte Pass 5 of 10
G1 Y263.624
; Layer Corte Pass 6 of 10
G1 Y283.121
; Layer Corte Pass 7 of 10
G1 Y263.624
; Layer Corte Pass 8 of 10
G1 Y283.121
; Layer Corte Pass 9 of 10
G1 Y263.624
; Layer Corte Pass 10 of 10
G1 Y283.121
G0 X413.001Y263.627
; Layer Corte Pass 1 of 10
G1 X416.002
; Layer Corte Pass 2 of 10
G1 X413.001
; Layer Corte Pass 3 of 10
G1 X416.002
; Layer Corte Pass 4 of 10
G1 X413.001
; Layer Corte Pass 5 of 10
G1 X416.002
; Layer Corte Pass 6 of 10
G1 X413.001
; Layer Corte Pass 7 of 10
G1 X416.002
; Layer Corte Pass 8 of 10
G1 X413.001
; Layer Corte Pass 9 of 10
G1 X416.002
; Layer Corte Pass 10 of 10
G1 X413.001
G0 X416.003Y263.624
; Layer Corte Pass 1 of 10
G1 Y252.372
; Layer Corte Pass 2 of 10
G1 Y263.624
; Layer Corte Pass 3 of 10
G1 Y252.372
; Layer Corte Pass 4 of 10
G1 Y263.624
; Layer Corte Pass 5 of 10
G1 Y252.372
; Layer Corte Pass 6 of 10
G1 Y263.624
; Layer Corte Pass 7 of 10
G1 Y252.372
; Layer Corte Pass 8 of 10
G1 Y263.624
; Layer Corte Pass 9 of 10
G1 Y252.372
; Layer Corte Pass 10 of 10
G1 Y263.624
G0 X416.002Y252.376
; Layer Corte Pass 1 of 10
G1 X413.001
; Layer Corte Pass 2 of 10
G1 X416.002
; Layer Corte Pass 3 of 10
G1 X413.001
; Layer Corte Pass 4 of 10
G1 X416.002
; Layer Corte Pass 5 of 10
G1 X413.001
; Layer Corte Pass 6 of 10
G1 X416.002
; Layer Corte Pass 7 of 10
G1 X413.001
; Layer Corte Pass 8 of 10
G1 X416.002
; Layer Corte Pass 9 of 10
G1 X413.001
; Layer Corte Pass 10 of 10
G1 X416.002
G0 X413.002Y252.371
; Layer Corte Pass 1 of 10
G1 Y232.874
; Layer Corte Pass 2 of 10
G1 Y252.371
; Layer Corte Pass 3 of 10
G1 Y232.874
; Layer Corte Pass 4 of 10
G1 Y252.371
; Layer Corte Pass 5 of 10
G1 Y232.874
; Layer Corte Pass 6 of 10
G1 Y252.371
; Layer Corte Pass 7 of 10
G1 Y232.874
; Layer Corte Pass 8 of 10
G1 Y252.371
; Layer Corte Pass 9 of 10
G1 Y232.874
; Layer Corte Pass 10 of 10
G1 Y252.371
G0 X413.001Y232.877
; Layer Corte Pass 1 of 10
G1 X416.002
; Layer Corte Pass 2 of 10
G1 X413.001
; Layer Corte Pass 3 of 10
G1 X416.002
; Layer Corte Pass 4 of 10
G1 X413.001
; Layer Corte Pass 5 of 10
G1 X416.002
; Layer Corte Pass 6 of 10
G1 X413.001
; Layer Corte Pass 7 of 10
G1 X416.002
; Layer Corte Pass 8 of 10
G1 X413.001
; Layer Corte Pass 9 of 10
G1 X416.002
; Layer Corte Pass 10 of 10
G1 X413.001
G0 X416.003Y232.874
; Layer Corte Pass 1 of 10
G1 Y221.622
; Layer Corte Pass 2 of 10
G1 Y232.874
; Layer Corte Pass 3 of 10
G1 Y221.622
; Layer Corte Pass 4 of 10
G1 Y232.874
; Layer Corte Pass 5 of 10
G1 Y221.622
; Layer Corte Pass 6 of 10
G1 Y232.874
; Layer Corte Pass 7 of 10
G1 Y221.622
; Layer Corte Pass 8 of 10
G1 Y232.874
; Layer Corte Pass 9 of 10
G1 Y221.622
; Layer Corte Pass 10 of 10
G1 Y232.874
G0 X416.002Y221.626
