; LightBurn 1.3.01
; GRBL device profile, absolute coords
; Bounds: X5 Y0 to X540 Y283.36
G00 G17 G40 G21 G54
G90
M4
; Cut @ 2500.002 mm/min, 100% power
M8
G0 X74.431Y138.426
; Layer Linea 
G1 X74.258Y138.242S1000F2500
G1 X74.111Y138.031
G1 X73.895Y137.628
G1 X73.758Y137.195
G1 X73.703Y136.745
G1 X73.732Y136.288
G1 X73.756Y136.078
G1 X73.804Y135.875
G1 X73.876Y135.68
G1 X73.971Y135.496
G1 X74.087Y135.325
G1 X74.224Y135.169
G1 X74.38Y135.03
G1 X74.554Y134.91
G1 X74.804Y134.995
G1 X75.039Y135.074
G1 X75.239Y135.153
G1 X75.418Y135.217
G1 X75.853Y135.424
G1 X76.246Y135.689
G1 X76.593Y136.006
G1 X76.89Y136.367
G1 X77.131Y136.767
G1 X77.313Y137.2
G1 X77.432Y137.659
G1 X77.482Y138.138
G1 Y138.51
G1 X77.289Y138.56
G1 X76.804Y138.681
G1 X76.315Y138.782
G1 X75.825Y138.874
G1 X75.569Y138.886
G1 X75.317Y138.861
G1 X75.074Y138.801
G1 X74.843Y138.707
G1 X74.627Y138.581
G1 X74.431Y138.426
G0 X75.525Y128.567
G1 X68.718
G1 X67.889Y128.545
G1 X67.008Y128.502
G1 X66.132Y128.403
G1 X69.168Y126.807
G1 X70.847Y125.995
G1 X71.097Y125.878
G1 X71.355Y125.777
G1 X71.62Y125.695
G1 X71.889Y125.631
G1 X72.345
G1 X72.796Y125.679
G1 X73.238Y125.78
G1 X73.668Y125.931
G1 X73.867Y126.027
G1 X74.051Y126.147
G1 X74.219Y126.289
G1 X74.368Y126.453
G1 X74.802Y126.918
G1 X75.189Y127.424
G1 X75.32Y127.694
G1 X75.42Y127.977
G1 X75.489Y128.269
G1 X75.525Y128.567
G0 X71.939Y112.631
G1 X70.432Y112.674
G1 X68.673Y112.714
G1 X67.542
G1 X66.412Y112.679
G1 X65.282Y112.617
G1 X65.004Y112.579
G1 X64.729Y112.521
G1 X64.46Y112.443
G1 X64.197Y112.345
G1 X63.996Y112.217
G1 X63.827Y112.053
G1 X63.694Y111.858
G1 X63.604Y111.638
G1 X63.4Y111.019
G1 X63.261Y110.381
G1 X63.119Y109.493
G1 X63.049Y108.597
G1 Y107.699
G1 X63.125Y106.803
G1 X63.174Y106.509
G1 X63.244Y106.219
G1 X63.335Y105.936
G1 X63.447Y105.66
G1 X63.538Y105.516
G1 X63.65Y105.393
G1 X63.779Y105.291
G1 X63.923Y105.212
G1 X64.077Y105.157
G1 X64.239Y105.126
G1 X64.406
G1 X64.575Y105.145
G1 X64.789Y105.167
G1 X64.932
G1 X66.489
G1 X68.047Y105.145
G1 X69.382
G1 X69.141Y105.488
G1 X68.854Y105.802
G1 X68.113Y106.534
G1 X67.354Y107.245
G1 X65.247Y109.195
G1 X67.304Y109.302
G1 X67.754Y109.331
G1 X68.154Y109.352
G1 X68.569Y109.38
G1 X68.982Y109.432
G1 X69.392Y109.506
G1 X69.797Y109.602
G1 X70.106Y109.736
G1 X70.393Y109.908
G1 X70.656Y110.117
G1 X71.101Y110.578
G1 X71.296Y110.809
G1 X71.476Y111.054
G1 X71.639Y111.31
G1 X71.763Y111.628
G1 X71.855Y111.956
G1 X71.914Y112.291
G1 X71.939Y112.631
G0 X69.732Y102.495
G1 X69.697
G1 X69.275Y102.374
G1 X68.885Y102.273
G1 X68.504Y102.143
G1 X68.135Y101.986
G1 X67.78Y101.802
G1 X67.439Y101.592
G1 X67.114Y101.358
G1 X66.806Y101.099
G1 X66.518Y100.817
G1 X66.249Y100.482
G1 X66.025Y100.117
G1 X66.211Y100.088
G1 X66.678
G1 X67.136Y100.133
G1 X67.578Y100.249
G1 X67.998Y100.424
G1 X68.39Y100.655
G1 X68.748Y100.939
G1 X69.067Y101.272
G1 X69.339Y101.652
G1 X69.57Y102.058
G1 X69.732Y102.495
G0 X467.518Y149.847
G1 X467.711Y149.797
G1 X468.196Y149.676
G1 X468.685Y149.575
G1 X469.175Y149.483
G1 X469.431Y149.471
G1 X469.683Y149.496
G1 X469.926Y149.556
G1 X470.157Y149.65
G1 X470.373Y149.776
G1 X470.569Y149.931
G1 X470.742Y150.115
G1 X470.889Y150.326
G1 X471.105Y150.729
G1 X471.242Y151.162
G1 X471.297Y151.612
G1 X471.268Y152.069
G1 X471.244Y152.279
G1 X471.196Y152.482
G1 X471.124Y152.677
G1 X471.029Y152.861
G1 X470.912Y153.032
G1 X470.776Y153.188
G1 X470.62Y153.327
G1 X470.446Y153.447
G1 X470.196Y153.362
G1 X469.961Y153.283
G1 X469.76Y153.204
G1 X469.582Y153.14
G1 X469.147Y152.933
G1 X468.754Y152.668
G1 X468.407Y152.351
G1 X468.11Y151.99
G1 X467.869Y151.59
G1 X467.687Y151.157
G1 X467.568Y150.698
G1 X467.518Y150.219
G1 Y149.847
G0 X469.475Y159.79
G1 X476.282
G1 X477.111Y159.812
G1 X477.991Y159.855
G1 X478.868Y159.954
G1 X475.831Y161.55
G1 X474.153Y162.362
G1 X473.903Y162.479
G1 X473.645Y162.58
G1 X473.38Y162.662
G1 X473.111Y162.726
G1 X472.655
G1 X472.204Y162.678
G1 X471.762Y162.577
G1 X471.332Y162.426
G1 X471.133Y162.33
G1 X470.948Y162.21
G1 X470.781Y162.068
G1 X470.632Y161.904
G1 X470.198Y161.439
G1 X469.811Y160.933
G1 X469.68Y160.663
G1 X469.58Y160.38
G1 X469.511Y160.088
G1 X469.475Y159.79
G0 X473.061Y175.726
G1 X474.568Y175.683
G1 X476.327Y175.643
G1 X477.458
G1 X478.588Y175.678
G1 X479.718Y175.74
G1 X479.996Y175.778
G1 X480.271Y175.836
G1 X480.54Y175.914
G1 X480.803Y176.012
G1 X481.004Y176.14
G1 X481.173Y176.304
G1 X481.306Y176.499
G1 X481.396Y176.719
G1 X481.6Y177.338
G1 X481.739Y177.976
G1 X481.881Y178.864
G1 X481.951Y179.76
G1 Y180.658
G1 X481.875Y181.555
G1 X481.826Y181.848
G1 X481.756Y182.138
G1 X481.665Y182.421
G1 X481.553Y182.697
G1 X481.462Y182.841
G1 X481.35Y182.964
G1 X481.221Y183.066
G1 X481.077Y183.145
G1 X480.923Y183.201
G1 X480.761Y183.231
G1 X480.594
G1 X480.425Y183.212
G1 X480.211Y183.19
G1 X480.068
G1 X478.511
G1 X476.953Y183.212
G1 X475.618
G1 X475.859Y182.869
G1 X476.146Y182.555
G1 X476.887Y181.823
G1 X477.646Y181.112
G1 X479.753Y179.162
G1 X477.696Y179.055
G1 X477.246Y179.026
G1 X476.846Y179.005
G1 X476.431Y178.977
G1 X476.018Y178.925
G1 X475.608Y178.851
G1 X475.203Y178.755
G1 X474.894Y178.621
G1 X474.607Y178.449
G1 X474.344Y178.24
G1 X473.899Y177.779
G1 X473.704Y177.548
G1 X473.524Y177.303
G1 X473.361Y177.047
G1 X473.237Y176.729
G1 X473.145Y176.401
G1 X473.086Y176.066
G1 X473.061Y175.726
G0 X475.268Y185.862
G1 X475.303
G1 X475.725Y185.983
G1 X476.115Y186.084
G1 X476.496Y186.214
G1 X476.865Y186.371
G1 X477.22Y186.555
G1 X477.561Y186.765
G1 X477.886Y186.999
G1 X478.194Y187.258
G1 X478.482Y187.54
G1 X478.75Y187.875
G1 X478.975Y188.24
G1 X478.789Y188.269
G1 X478.321Y188.279
G1 X477.864Y188.224
G1 X477.422Y188.108
G1 X477.002Y187.933
G1 X476.61Y187.702
G1 X476.252Y187.418
G1 X475.933Y187.085
G1 X475.661Y186.705
G1 X475.43Y186.299
G1 X475.268Y185.862
; Cut @ 600 mm/min, 95% power
M8
G0 X47.085Y126.004
; Layer Corte Pass 1 of 10
G1 X47.117Y126.018S950F600
G1 X47.786Y126.244
G1 X50.08Y126.996
G1 X55.068Y128.61
G1 X60.689Y130.432
G1 X60.911Y130.509
G1 X61.252Y130.593
G1 X61.6Y130.642
G1 X61.773Y130.625
G1 X61.942Y130.584
G1 X62.103Y130.522
G1 X62.255Y130.437
G1 X62.852Y130.117
G1 X66.126Y128.399
G1 X66.023Y128.38
G1 X65.725Y128.282
G1 X65.443Y128.143
G1 X65.271Y127.972
G1 X65.128Y127.777
G1 X65.022Y127.56
G1 X64.942Y127.331
G1 X64.794Y126.792
G1 X64.673Y126.248
G1 X64.579Y125.699
G1 X64.511Y125.146
G1 X64.47Y124.59
G1 X64.456Y124.033
G1 X64.469Y123.475
G1 X64.509Y122.917
G1 X64.555Y122.593
G1 X64.619Y122.272
G1 X64.703Y121.956
G1 X64.804Y121.644
G1 X64.906Y121.48
G1 X65.034Y121.336
G1 X65.183Y121.217
G1 X65.352Y121.124
G1 X65.506Y121.078
G1 X65.663Y121.049
G1 X65.823
G1 X65.983
G1 X66.322Y121.076
G1 X68.171Y121.134
G1 X70.021Y121.156
G1 X75.489
G1 X75.929Y121.08
G1 X77.315Y120.861
G1 X78.702Y120.645
G1 X79.526Y120.501
G1 X81.491Y120.113
G1 X83.441Y119.655
G1 X85.373Y119.126
G1 X87.286Y118.528
G1 X88.134Y118.193
G1 X88.959Y117.808
G1 X89.76Y117.372
G1 X90.534Y116.888
G1 X90.815Y116.663
G1 X91.078Y116.417
G1 X91.322Y116.152
G1 X91.546Y115.868
G1 X91.667Y115.633
G1 X91.747Y115.383
G1 X91.786Y115.122
G1 Y114.856
G1 X91.749Y114.71
G1 X91.66Y114.47
G1 X91.531Y114.252
G1 X91.365Y114.063
G1 X91.164Y113.907
G1 X90.622Y113.599
G1 X90.056Y113.344
G1 X89.469Y113.141
G1 X88.865Y112.994
G1 X88.016Y112.815
G1 X87.16Y112.679
G1 X86.299Y112.587
G1 X85.433Y112.54
G1 X82.059Y112.49
G1 X78.685
G1 X75.31Y112.537
G1 X71.937Y112.634
G1 Y112.774
G1 X71.885Y113.346
G1 X71.736Y113.888
G1 X71.504Y114.392
G1 X71.194Y114.847
G1 X70.816Y115.245
G1 X70.376Y115.576
G1 X69.881Y115.833
G1 X69.339Y116.005
G1 X68.357Y116.03
G1 X67.374Y116.019
G1 X62.822Y115.832
G1 X58.271Y115.621
G1 X54.776Y118.85
G1 X51.269Y122.066
G1 X49.886Y123.348
G1 X48.511Y124.639
G1 X47.144Y125.939
G1 X47.085Y126.004
; Layer Corte Pass 2 of 10
G1 X47.117Y126.018
G1 X47.786Y126.244
G1 X50.08Y126.996
G1 X55.068Y128.61
G1 X60.689Y130.432
G1 X60.911Y130.509
G1 X61.252Y130.593
G1 X61.6Y130.642
G1 X61.773Y130.625
G1 X61.942Y130.584
G1 X62.103Y130.522
G1 X62.255Y130.437
G1 X62.852Y130.117
G1 X66.126Y128.399
G1 X66.023Y128.38
G1 X65.725Y128.282
G1 X65.443Y128.143
G1 X65.271Y127.972
G1 X65.128Y127.777
G1 X65.022Y127.56
G1 X64.942Y127.331
G1 X64.794Y126.792
G1 X64.673Y126.248
G1 X64.579Y125.699
G1 X64.511Y125.146
G1 X64.47Y124.59
G1 X64.456Y124.033
G1 X64.469Y123.475
G1 X64.509Y122.917
G1 X64.555Y122.593
G1 X64.619Y122.272
G1 X64.703Y121.956
G1 X64.804Y121.644
G1 X64.906Y121.48
G1 X65.034Y121.336
G1 X65.183Y121.217
G1 X65.352Y121.124
G1 X65.506Y121.078
G1 X65.663Y121.049
G1 X65.823
G1 X65.983
G1 X66.322Y121.076
G1 X68.171Y121.134
G1 X70.021Y121.156
G1 X75.489
G1 X75.929Y121.08
G1 X77.315Y120.861
G1 X78.702Y120.645
G1 X79.526Y120.501
G1 X81.491Y120.113
G1 X83.441Y119.655
G1 X85.373Y119.126
G1 X87.286Y118.528
G1 X88.134Y118.193
G1 X88.959Y117.808
G1 X89.76Y117.372
G1 X90.534Y116.888
G1 X90.815Y116.663
G1 X91.078Y116.417
G1 X91.322Y116.152
G1 X91.546Y115.868
G1 X91.667Y115.633
G1 X91.747Y115.383
G1 X91.786Y115.122
G1 Y114.856
G1 X91.749Y114.71
G1 X91.66Y114.47
G1 X91.531Y114.252
G1 X91.365Y114.063
G1 X91.164Y113.907
G1 X90.622Y113.599
G1 X90.056Y113.344
G1 X89.469Y113.141
G1 X88.865Y112.994
G1 X88.016Y112.815
G1 X87.16Y112.679
G1 X86.299Y112.587
G1 X85.433Y112.54
G1 X82.059Y112.49
G1 X78.685
G1 X75.31Y112.537
G1 X71.937Y112.634
G1 Y112.774
G1 X71.885Y113.346
G1 X71.736Y113.888
G1 X71.504Y114.392
G1 X71.194Y114.847
G1 X70.816Y115.245
G1 X70.376Y115.576
G1 X69.881Y115.833
G1 X69.339Y116.005
G1 X68.357Y116.03
G1 X67.374Y116.019
G1 X62.822Y115.832
G1 X58.271Y115.621
G1 X54.776Y118.85
G1 X51.269Y122.066
G1 X49.886Y123.348
G1 X48.511Y124.639
G1 X47.144Y125.939
G1 X47.085Y126.004
; Layer Corte Pass 3 of 10
G1 X47.117Y126.018
G1 X47.786Y126.244
G1 X50.08Y126.996
G1 X55.068Y128.61
G1 X60.689Y130.432
G1 X60.911Y130.509
G1 X61.252Y130.593
G1 X61.6Y130.642
G1 X61.773Y130.625
G1 X61.942Y130.584
G1 X62.103Y130.522
G1 X62.255Y130.437
G1 X62.852Y130.117
G1 X66.126Y128.399
G1 X66.023Y128.38
G1 X65.725Y128.282
G1 X65.443Y128.143
G1 X65.271Y127.972
G1 X65.128Y127.777
G1 X65.022Y127.56
G1 X64.942Y127.331
G1 X64.794Y126.792
G1 X64.673Y126.248
G1 X64.579Y125.699
G1 X64.511Y125.146
G1 X64.47Y124.59
G1 X64.456Y124.033
G1 X64.469Y123.475
G1 X64.509Y122.917
G1 X64.555Y122.593
G1 X64.619Y122.272
G1 X64.703Y121.956
G1 X64.804Y121.644
G1 X64.906Y121.48
G1 X65.034Y121.336
G1 X65.183Y121.217
G1 X65.352Y121.124
G1 X65.506Y121.078
G1 X65.663Y121.049
G1 X65.823
G1 X65.983
G1 X66.322Y121.076
G1 X68.171Y121.134
G1 X70.021Y121.156
G1 X75.489
G1 X75.929Y121.08
G1 X77.315Y120.861
G1 X78.702Y120.645
G1 X79.526Y120.501
G1 X81.491Y120.113
G1 X83.441Y119.655
G1 X85.373Y119.126
G1 X87.286Y118.528
G1 X88.134Y118.193
G1 X88.959Y117.808
G1 X89.76Y117.372
G1 X90.534Y116.888
G1 X90.815Y116.663
G1 X91.078Y116.417
G1 X91.322Y116.152
G1 X91.546Y115.868
G1 X91.667Y115.633
G1 X91.747Y115.383
G1 X91.786Y115.122
G1 Y114.856
G1 X91.749Y114.71
G1 X91.66Y114.47
G1 X91.531Y114.252
G1 X91.365Y114.063
G1 X91.164Y113.907
G1 X90.622Y113.599
G1 X90.056Y113.344
G1 X89.469Y113.141
G1 X88.865Y112.994
G1 X88.016Y112.815
G1 X87.16Y112.679
G1 X86.299Y112.587
G1 X85.433Y112.54
G1 X82.059Y112.49
G1 X78.685
G1 X75.31Y112.537
G1 X71.937Y112.634
G1 Y112.774
G1 X71.885Y113.346
G1 X71.736Y113.888
G1 X71.504Y114.392
G1 X71.194Y114.847
G1 X70.816Y115.245
G1 X70.376Y115.576
G1 X69.881Y115.833
G1 X69.339Y116.005
G1 X68.357Y116.03
G1 X67.374Y116.019
G1 X62.822Y115.832
G1 X58.271Y115.621
G1 X54.776Y118.85
G1 X51.269Y122.066
G1 X49.886Y123.348
G1 X48.511Y124.639
G1 X47.144Y125.939
G1 X47.085Y126.004
; Layer Corte Pass 4 of 10
G1 X47.117Y126.018
G1 X47.786Y126.244
G1 X50.08Y126.996
G1 X55.068Y128.61
G1 X60.689Y130.432
G1 X60.911Y130.509
G1 X61.252Y130.593
G1 X61.6Y130.642
G1 X61.773Y130.625
G1 X61.942Y130.584
G1 X62.103Y130.522
G1 X62.255Y130.437
G1 X62.852Y130.117
G1 X66.126Y128.399
G1 X66.023Y128.38
G1 X65.725Y128.282
G1 X65.443Y128.143
G1 X65.271Y127.972
G1 X65.128Y127.777
G1 X65.022Y127.56
G1 X64.942Y127.331
G1 X64.794Y126.792
G1 X64.673Y126.248
G1 X64.579Y125.699
G1 X64.511Y125.146
G1 X64.47Y124.59
G1 X64.456Y124.033
G1 X64.469Y123.475
G1 X64.509Y122.917
G1 X64.555Y122.593
G1 X64.619Y122.272
G1 X64.703Y121.956
G1 X64.804Y121.644
G1 X64.906Y121.48
G1 X65.034Y121.336
G1 X65.183Y121.217
G1 X65.352Y121.124
G1 X65.506Y121.078
G1 X65.663Y121.049
G1 X65.823
G1 X65.983
G1 X66.322Y121.076
G1 X68.171Y121.134
G1 X70.021Y121.156
G1 X75.489
G1 X75.929Y121.08
G1 X77.315Y120.861
G1 X78.702Y120.645
G1 X79.526Y120.501
G1 X81.491Y120.113
G1 X83.441Y119.655
G1 X85.373Y119.126
G1 X87.286Y118.528
G1 X88.134Y118.193
G1 X88.959Y117.808
G1 X89.76Y117.372
G1 X90.534Y116.888
G1 X90.815Y116.663
G1 X91.078Y116.417
G1 X91.322Y116.152
G1 X91.546Y115.868
G1 X91.667Y115.633
G1 X91.747Y115.383
G1 X91.786Y115.122
G1 Y114.856
G1 X91.749Y114.71
G1 X91.66Y114.47
G1 X91.531Y114.252
G1 X91.365Y114.063
G1 X91.164Y113.907
G1 X90.622Y113.599
G1 X90.056Y113.344
G1 X89.469Y113.141
G1 X88.865Y112.994
G1 X88.016Y112.815
G1 X87.16Y112.679
G1 X86.299Y112.587
G1 X85.433Y112.54
G1 X82.059Y112.49
G1 X78.685
G1 X75.31Y112.537
G1 X71.937Y112.634
G1 Y112.774
G1 X71.885Y113.346
G1 X71.736Y113.888
G1 X71.504Y114.392
G1 X71.194Y114.847
G1 X70.816Y115.245
G1 X70.376Y115.576
G1 X69.881Y115.833
G1 X69.339Y116.005
G1 X68.357Y116.03
G1 X67.374Y116.019
G1 X62.822Y115.832
G1 X58.271Y115.621
G1 X54.776Y118.85
G1 X51.269Y122.066
G1 X49.886Y123.348
G1 X48.511Y124.639
G1 X47.144Y125.939
G1 X47.085Y126.004
; Layer Corte Pass 5 of 10
G1 X47.117Y126.018
G1 X47.786Y126.244
G1 X50.08Y126.996
G1 X55.068Y128.61
G1 X60.689Y130.432
G1 X60.911Y130.509
G1 X61.252Y130.593
G1 X61.6Y130.642
G1 X61.773Y130.625
G1 X61.942Y130.584
G1 X62.103Y130.522
G1 X62.255Y130.437
G1 X62.852Y130.117
G1 X66.126Y128.399
G1 X66.023Y128.38
G1 X65.725Y128.282
G1 X65.443Y128.143
G1 X65.271Y127.972
G1 X65.128Y127.777
G1 X65.022Y127.56
G1 X64.942Y127.331
G1 X64.794Y126.792
G1 X64.673Y126.248
G1 X64.579Y125.699
G1 X64.511Y125.146
G1 X64.47Y124.59
G1 X64.456Y124.033
G1 X64.469Y123.475
G1 X64.509Y122.917
G1 X64.555Y122.593
G1 X64.619Y122.272
G1 X64.703Y121.956
G1 X64.804Y121.644
G1 X64.906Y121.48
G1 X65.034Y121.336
G1 X65.183Y121.217
G1 X65.352Y121.124
G1 X65.506Y121.078
G1 X65.663Y121.049
G1 X65.823
G1 X65.983
G1 X66.322Y121.076
G1 X68.171Y121.134
G1 X70.021Y121.156
G1 X75.489
G1 X75.929Y121.08
G1 X77.315Y120.861
G1 X78.702Y120.645
G1 X79.526Y120.501
G1 X81.491Y120.113
G1 X83.441Y119.655
G1 X85.373Y119.126
G1 X87.286Y118.528
G1 X88.134Y118.193
G1 X88.959Y117.808
G1 X89.76Y117.372
G1 X90.534Y116.888
G1 X90.815Y116.663
G1 X91.078Y116.417
G1 X91.322Y116.152
G1 X91.546Y115.868
G1 X91.667Y115.633
G1 X91.747Y115.383
G1 X91.786Y115.122
G1 Y114.856
G1 X91.749Y114.71
G1 X91.66Y114.47
G1 X91.531Y114.252
G1 X91.365Y114.063
G1 X91.164Y113.907
G1 X90.622Y113.599
G1 X90.056Y113.344
G1 X89.469Y113.141
G1 X88.865Y112.994
G1 X88.016Y112.815
G1 X87.16Y112.679
G1 X86.299Y112.587
G1 X85.433Y112.54
G1 X82.059Y112.49
G1 X78.685
G1 X75.31Y112.537
G1 X71.937Y112.634
G1 Y112.774
G1 X71.885Y113.346
G1 X71.736Y113.888
G1 X71.504Y114.392
G1 X71.194Y114.847
G1 X70.816Y115.245
G1 X70.376Y115.576
G1 X69.881Y115.833
G1 X69.339Y116.005
G1 X68.357Y116.03
G1 X67.374Y116.019
G1 X62.822Y115.832
G1 X58.271Y115.621
G1 X54.776Y118.85
G1 X51.269Y122.066
G1 X49.886Y123.348
G1 X48.511Y124.639
G1 X47.144Y125.939
G1 X47.085Y126.004
; Layer Corte Pass 6 of 10
G1 X47.117Y126.018
G1 X47.786Y126.244
G1 X50.08Y126.996
G1 X55.068Y128.61
G1 X60.689Y130.432
G1 X60.911Y130.509
G1 X61.252Y130.593
G1 X61.6Y130.642
G1 X61.773Y130.625
G1 X61.942Y130.584
G1 X62.103Y130.522
G1 X62.255Y130.437
G1 X62.852Y130.117
G1 X66.126Y128.399
G1 X66.023Y128.38
G1 X65.725Y128.282
G1 X65.443Y128.143
G1 X65.271Y127.972
G1 X65.128Y127.777
G1 X65.022Y127.56
G1 X64.942Y127.331
G1 X64.794Y126.792
G1 X64.673Y126.248
G1 X64.579Y125.699
G1 X64.511Y125.146
G1 X64.47Y124.59
G1 X64.456Y124.033
G1 X64.469Y123.475
G1 X64.509Y122.917
G1 X64.555Y122.593
G1 X64.619Y122.272
G1 X64.703Y121.956
G1 X64.804Y121.644
G1 X64.906Y121.48
G1 X65.034Y121.336
G1 X65.183Y121.217
G1 X65.352Y121.124
G1 X65.506Y121.078
G1 X65.663Y121.049
G1 X65.823
G1 X65.983
G1 X66.322Y121.076
G1 X68.171Y121.134
G1 X70.021Y121.156
G1 X75.489
G1 X75.929Y121.08
G1 X77.315Y120.861
G1 X78.702Y120.645
G1 X79.526Y120.501
G1 X81.491Y120.113
G1 X83.441Y119.655
G1 X85.373Y119.126
G1 X87.286Y118.528
G1 X88.134Y118.193
G1 X88.959Y117.808
G1 X89.76Y117.372
G1 X90.534Y116.888
G1 X90.815Y116.663
G1 X91.078Y116.417
G1 X91.322Y116.152
G1 X91.546Y115.868
G1 X91.667Y115.633
G1 X91.747Y115.383
G1 X91.786Y115.122
G1 Y114.856
G1 X91.749Y114.71
G1 X91.66Y114.47
G1 X91.531Y114.252
G1 X91.365Y114.063
G1 X91.164Y113.907
G1 X90.622Y113.599
G1 X90.056Y113.344
G1 X89.469Y113.141
G1 X88.865Y112.994
G1 X88.016Y112.815
G1 X87.16Y112.679
G1 X86.299Y112.587
G1 X85.433Y112.54
G1 X82.059Y112.49
G1 X78.685
G1 X75.31Y112.537
G1 X71.937Y112.634
G1 Y112.774
G1 X71.885Y113.346
G1 X71.736Y113.888
G1 X71.504Y114.392
G1 X71.194Y114.847
G1 X70.816Y115.245
G1 X70.376Y115.576
G1 X69.881Y115.833
G1 X69.339Y116.005
G1 X68.357Y116.03
G1 X67.374Y116.019
G1 X62.822Y115.832
G1 X58.271Y115.621
G1 X54.776Y118.85
G1 X51.269Y122.066
G1 X49.886Y123.348
G1 X48.511Y124.639
G1 X47.144Y125.939
G1 X47.085Y126.004
; Layer Corte Pass 7 of 10
G1 X47.117Y126.018
G1 X47.786Y126.244
G1 X50.08Y126.996
G1 X55.068Y128.61
G1 X60.689Y130.432
G1 X60.911Y130.509
G1 X61.252Y130.593
G1 X61.6Y130.642
G1 X61.773Y130.625
G1 X61.942Y130.584
G1 X62.103Y130.522
G1 X62.255Y130.437
G1 X62.852Y130.117
G1 X66.126Y128.399
G1 X66.023Y128.38
G1 X65.725Y128.282
G1 X65.443Y128.143
G1 X65.271Y127.972
G1 X65.128Y127.777
G1 X65.022Y127.56
G1 X64.942Y127.331
G1 X64.794Y126.792
G1 X64.673Y126.248
G1 X64.579Y125.699
G1 X64.511Y125.146
G1 X64.47Y124.59
G1 X64.456Y124.033
G1 X64.469Y123.475
G1 X64.509Y122.917
G1 X64.555Y122.593
G1 X64.619Y122.272
G1 X64.703Y121.956
G1 X64.804Y121.644
G1 X64.906Y121.48
G1 X65.034Y121.336
G1 X65.183Y121.217
G1 X65.352Y121.124
G1 X65.506Y121.078
G1 X65.663Y121.049
G1 X65.823
G1 X65.983
G1 X66.322Y121.076
G1 X68.171Y121.134
G1 X70.021Y121.156
G1 X75.489
G1 X75.929Y121.08
G1 X77.315Y120.861
G1 X78.702Y120.645
G1 X79.526Y120.501
G1 X81.491Y120.113
G1 X83.441Y119.655
G1 X85.373Y119.126
G1 X87.286Y118.528
G1 X88.134Y118.193
G1 X88.959Y117.808
G1 X89.76Y117.372
G1 X90.534Y116.888
G1 X90.815Y116.663
G1 X91.078Y116.417
G1 X91.322Y116.152
G1 X91.546Y115.868
G1 X91.667Y115.633
G1 X91.747Y115.383
G1 X91.786Y115.122
G1 Y114.856
G1 X91.749Y114.71
G1 X91.66Y114.47
G1 X91.531Y114.252
G1 X91.365Y114.063
G1 X91.164Y113.907
G1 X90.622Y113.599
G1 X90.056Y113.344
G1 X89.469Y113.141
G1 X88.865Y112.994
G1 X88.016Y112.815
G1 X87.16Y112.679
G1 X86.299Y112.587
G1 X85.433Y112.54
G1 X82.059Y112.49
G1 X78.685
G1 X75.31Y112.537
G1 X71.937Y112.634
G1 Y112.774
G1 X71.885Y113.346
G1 X71.736Y113.888
G1 X71.504Y114.392
G1 X71.194Y114.847
G1 X70.816Y115.245
G1 X70.376Y115.576
G1 X69.881Y115.833
G1 X69.339Y116.005
G1 X68.357Y116.03
G1 X67.374Y116.019
G1 X62.822Y115.832
G1 X58.271Y115.621
G1 X54.776Y118.85
G1 X51.269Y122.066
G1 X49.886Y123.348
G1 X48.511Y124.639
G1 X47.144Y125.939
G1 X47.085Y126.004
; Layer Corte Pass 8 of 10
G1 X47.117Y126.018
G1 X47.786Y126.244
G1 X50.08Y126.996
G1 X55.068Y128.61
G1 X60.689Y130.432
G1 X60.911Y130.509
G1 X61.252Y130.593
G1 X61.6Y130.642
G1 X61.773Y130.625
G1 X61.942Y130.584
G1 X62.103Y130.522
G1 X62.255Y130.437
G1 X62.852Y130.117
G1 X66.126Y128.399
G1 X66.023Y128.38
G1 X65.725Y128.282
G1 X65.443Y128.143
G1 X65.271Y127.972
G1 X65.128Y127.777
G1 X65.022Y127.56
G1 X64.942Y127.331
G1 X64.794Y126.792
G1 X64.673Y126.248
G1 X64.579Y125.699
G1 X64.511Y125.146
G1 X64.47Y124.59
G1 X64.456Y124.033
G1 X64.469Y123.475
G1 X64.509Y122.917
G1 X64.555Y122.593
G1 X64.619Y122.272
G1 X64.703Y121.956
G1 X64.804Y121.644
G1 X64.906Y121.48
G1 X65.034Y121.336
G1 X65.183Y121.217
G1 X65.352Y121.124
G1 X65.506Y121.078
G1 X65.663Y121.049
G1 X65.823
G1 X65.983
G1 X66.322Y121.076
G1 X68.171Y121.134
G1 X70.021Y121.156
G1 X75.489
G1 X75.929Y121.08
G1 X77.315Y120.861
G1 X78.702Y120.645
G1 X79.526Y120.501
G1 X81.491Y120.113
G1 X83.441Y119.655
G1 X85.373Y119.126
G1 X87.286Y118.528
G1 X88.134Y118.193
G1 X88.959Y117.808
G1 X89.76Y117.372
G1 X90.534Y116.888
G1 X90.815Y116.663
G1 X91.078Y116.417
G1 X91.322Y116.152
G1 X91.546Y115.868
G1 X91.667Y115.633
G1 X91.747Y115.383
G1 X91.786Y115.122
G1 Y114.856
G1 X91.749Y114.71
G1 X91.66Y114.47
G1 X91.531Y114.252
G1 X91.365Y114.063
G1 X91.164Y113.907
G1 X90.622Y113.599
G1 X90.056Y113.344
G1 X89.469Y113.141
G1 X88.865Y112.994
G1 X88.016Y112.815
G1 X87.16Y112.679
G1 X86.299Y112.587
G1 X85.433Y112.54
G1 X82.059Y112.49
G1 X78.685
G1 X75.31Y112.537
G1 X71.937Y112.634
G1 Y112.774
G1 X71.885Y113.346
G1 X71.736Y113.888
G1 X71.504Y114.392
G1 X71.194Y114.847
G1 X70.816Y115.245
G1 X70.376Y115.576
G1 X69.881Y115.833
G1 X69.339Y116.005
G1 X68.357Y116.03
G1 X67.374Y116.019
G1 X62.822Y115.832
G1 X58.271Y115.621
G1 X54.776Y118.85
G1 X51.269Y122.066
G1 X49.886Y123.348
G1 X48.511Y124.639
G1 X47.144Y125.939
G1 X47.085Y126.004
; Layer Corte Pass 9 of 10
G1 X47.117Y126.018
G1 X47.786Y126.244
G1 X50.08Y126.996
G1 X55.068Y128.61
G1 X60.689Y130.432
G1 X60.911Y130.509
G1 X61.252Y130.593
G1 X61.6Y130.642
G1 X61.773Y130.625
G1 X61.942Y130.584
G1 X62.103Y130.522
G1 X62.255Y130.437
G1 X62.852Y130.117
G1 X66.126Y128.399
G1 X66.023Y128.38
G1 X65.725Y128.282
G1 X65.443Y128.143
G1 X65.271Y127.972
G1 X65.128Y127.777
G1 X65.022Y127.56
G1 X64.942Y127.331
G1 X64.794Y126.792
G1 X64.673Y126.248
G1 X64.579Y125.699
G1 X64.511Y125.146
G1 X64.47Y124.59
G1 X64.456Y124.033
G1 X64.469Y123.475
G1 X64.509Y122.917
G1 X64.555Y122.593
G1 X64.619Y122.272
G1 X64.703Y121.956
G1 X64.804Y121.644
G1 X64.906Y121.48
G1 X65.034Y121.336
G1 X65.183Y121.217
G1 X65.352Y121.124
G1 X65.506Y121.078
G1 X65.663Y121.049
G1 X65.823
G1 X65.983
G1 X66.322Y121.076
G1 X68.171Y121.134
G1 X70.021Y121.156
G1 X75.489
G1 X75.929Y121.08
G1 X77.315Y120.861
G1 X78.702Y120.645
G1 X79.526Y120.501
G1 X81.491Y120.113
G1 X83.441Y119.655
G1 X85.373Y119.126
G1 X87.286Y118.528
G1 X88.134Y118.193
G1 X88.959Y117.808
G1 X89.76Y117.372
G1 X90.534Y116.888
G1 X90.815Y116.663
G1 X91.078Y116.417
G1 X91.322Y116.152
G1 X91.546Y115.868
G1 X91.667Y115.633
G1 X91.747Y115.383
G1 X91.786Y115.122
G1 Y114.856
G1 X91.749Y114.71
G1 X91.66Y114.47
G1 X91.531Y114.252
G1 X91.365Y114.063
G1 X91.164Y113.907
G1 X90.622Y113.599
G1 X90.056Y113.344
G1 X89.469Y113.141
G1 X88.865Y112.994
G1 X88.016Y112.815
G1 X87.16Y112.679
G1 X86.299Y112.587
G1 X85.433Y112.54
G1 X82.059Y112.49
G1 X78.685
G1 X75.31Y112.537
G1 X71.937Y112.634
G1 Y112.774
G1 X71.885Y113.346
G1 X71.736Y113.888
G1 X71.504Y114.392
G1 X71.194Y114.847
G1 X70.816Y115.245
G1 X70.376Y115.576
G1 X69.881Y115.833
G1 X69.339Y116.005
G1 X68.357Y116.03
G1 X67.374Y116.019
G1 X62.822Y115.832
G1 X58.271Y115.621
G1 X54.776Y118.85
G1 X51.269Y122.066
G1 X49.886Y123.348
G1 X48.511Y124.639
G1 X47.144Y125.939
G1 X47.085Y126.004
; Layer Corte Pass 10 of 10
G1 X47.117Y126.018
G1 X47.786Y126.244
G1 X50.08Y126.996
G1 X55.068Y128.61
G1 X60.689Y130.432
G1 X60.911Y130.509
G1 X61.252Y130.593
G1 X61.6Y130.642
G1 X61.773Y130.625
G1 X61.942Y130.584
G1 X62.103Y130.522
G1 X62.255Y130.437
G1 X62.852Y130.117
G1 X66.126Y128.399
G1 X66.023Y128.38
G1 X65.725Y128.282
G1 X65.443Y128.143
G1 X65.271Y127.972
G1 X65.128Y127.777
G1 X65.022Y127.56
G1 X64.942Y127.331
G1 X64.794Y126.792
G1 X64.673Y126.248
G1 X64.579Y125.699
G1 X64.511Y125.146
G1 X64.47Y124.59
G1 X64.456Y124.033
G1 X64.469Y123.475
G1 X64.509Y122.917
G1 X64.555Y122.593
G1 X64.619Y122.272
G1 X64.703Y121.956
G1 X64.804Y121.644
G1 X64.906Y121.48
G1 X65.034Y121.336
G1 X65.183Y121.217
G1 X65.352Y121.124
G1 X65.506Y121.078
G1 X65.663Y121.049
G1 X65.823
G1 X65.983
G1 X66.322Y121.076
G1 X68.171Y121.134
G1 X70.021Y121.156
G1 X75.489
G1 X75.929Y121.08
G1 X77.315Y120.861
G1 X78.702Y120.645
G1 X79.526Y120.501
G1 X81.491Y120.113
G1 X83.441Y119.655
G1 X85.373Y119.126
G1 X87.286Y118.528
G1 X88.134Y118.193
G1 X88.959Y117.808
G1 X89.76Y117.372
G1 X90.534Y116.888
G1 X90.815Y116.663
G1 X91.078Y116.417
G1 X91.322Y116.152
G1 X91.546Y115.868
G1 X91.667Y115.633
G1 X91.747Y115.383
G1 X91.786Y115.122
G1 Y114.856
G1 X91.749Y114.71
G1 X91.66Y114.47
G1 X91.531Y114.252
G1 X91.365Y114.063
G1 X91.164Y113.907
G1 X90.622Y113.599
G1 X90.056Y113.344
G1 X89.469Y113.141
G1 X88.865Y112.994
G1 X88.016Y112.815
G1 X87.16Y112.679
G1 X86.299Y112.587
G1 X85.433Y112.54
G1 X82.059Y112.49
G1 X78.685
G1 X75.31Y112.537
G1 X71.937Y112.634
G1 Y112.774
G1 X71.885Y113.346
G1 X71.736Y113.888
G1 X71.504Y114.392
G1 X71.194Y114.847
G1 X70.816Y115.245
G1 X70.376Y115.576
G1 X69.881Y115.833
G1 X69.339Y116.005
G1 X68.357Y116.03
G1 X67.374Y116.019
G1 X62.822Y115.832
G1 X58.271Y115.621
G1 X54.776Y118.85
G1 X51.269Y122.066
G1 X49.886Y123.348
G1 X48.511Y124.639
G1 X47.144Y125.939
G1 X47.085Y126.004
G0 X51.73Y92.5
; Layer Corte Pass 1 of 10
G1 X52.968
G1 X54.202Y92.399
G1 X55.427Y92.21
G1 X57.419Y91.812
G1 X59.39Y91.32
G1 X61.335Y90.734
G1 X63.252Y90.055
G1 X64.748Y89.5
G1 X66.234Y88.918
G1 X65.521Y88.978
G1 X62.722Y89.219
G1 X59.932Y89.552
G1 X57.155Y89.977
G1 X54.392Y90.493
G1 X53.531Y90.699
G1 X52.681Y90.949
G1 X51.845Y91.242
G1 X51.025Y91.578
G1 X50.657Y91.788
G1 X50.313Y92.035
G1 X50.267Y92.094
G1 X50.234Y92.162
G1 X50.216Y92.238
G1 Y92.27
G1 X50.353Y92.353
G1 X50.494Y92.412
G1 X51.73Y92.5
; Layer Corte Pass 2 of 10
G1 X52.968
G1 X54.202Y92.399
G1 X55.427Y92.21
G1 X57.419Y91.812
G1 X59.39Y91.32
G1 X61.335Y90.734
G1 X63.252Y90.055
G1 X64.748Y89.5
G1 X66.234Y88.918
G1 X65.521Y88.978
G1 X62.722Y89.219
G1 X59.932Y89.552
G1 X57.155Y89.977
G1 X54.392Y90.493
G1 X53.531Y90.699
G1 X52.681Y90.949
G1 X51.845Y91.242
G1 X51.025Y91.578
G1 X50.657Y91.788
G1 X50.313Y92.035
G1 X50.267Y92.094
G1 X50.234Y92.162
G1 X50.216Y92.238
G1 Y92.27
G1 X50.353Y92.353
G1 X50.494Y92.412
G1 X51.73Y92.5
; Layer Corte Pass 3 of 10
G1 X52.968
G1 X54.202Y92.399
G1 X55.427Y92.21
G1 X57.419Y91.812
G1 X59.39Y91.32
G1 X61.335Y90.734
G1 X63.252Y90.055
G1 X64.748Y89.5
G1 X66.234Y88.918
G1 X65.521Y88.978
G1 X62.722Y89.219
G1 X59.932Y89.552
G1 X57.155Y89.977
G1 X54.392Y90.493
G1 X53.531Y90.699
G1 X52.681Y90.949
G1 X51.845Y91.242
G1 X51.025Y91.578
G1 X50.657Y91.788
G1 X50.313Y92.035
G1 X50.267Y92.094
G1 X50.234Y92.162
G1 X50.216Y92.238
G1 Y92.27
G1 X50.353Y92.353
G1 X50.494Y92.412
G1 X51.73Y92.5
; Layer Corte Pass 4 of 10
G1 X52.968
G1 X54.202Y92.399
G1 X55.427Y92.21
G1 X57.419Y91.812
G1 X59.39Y91.32
G1 X61.335Y90.734
G1 X63.252Y90.055
G1 X64.748Y89.5
G1 X66.234Y88.918
G1 X65.521Y88.978
G1 X62.722Y89.219
G1 X59.932Y89.552
G1 X57.155Y89.977
G1 X54.392Y90.493
G1 X53.531Y90.699
G1 X52.681Y90.949
G1 X51.845Y91.242
G1 X51.025Y91.578
G1 X50.657Y91.788
G1 X50.313Y92.035
G1 X50.267Y92.094
G1 X50.234Y92.162
G1 X50.216Y92.238
G1 Y92.27
G1 X50.353Y92.353
G1 X50.494Y92.412
G1 X51.73Y92.5
; Layer Corte Pass 5 of 10
G1 X52.968
G1 X54.202Y92.399
G1 X55.427Y92.21
G1 X57.419Y91.812
G1 X59.39Y91.32
G1 X61.335Y90.734
G1 X63.252Y90.055
G1 X64.748Y89.5
G1 X66.234Y88.918
G1 X65.521Y88.978
G1 X62.722Y89.219
G1 X59.932Y89.552
G1 X57.155Y89.977
G1 X54.392Y90.493
G1 X53.531Y90.699
G1 X52.681Y90.949
G1 X51.845Y91.242
G1 X51.025Y91.578
G1 X50.657Y91.788
G1 X50.313Y92.035
G1 X50.267Y92.094
G1 X50.234Y92.162
G1 X50.216Y92.238
G1 Y92.27
G1 X50.353Y92.353
G1 X50.494Y92.412
G1 X51.73Y92.5
; Layer Corte Pass 6 of 10
G1 X52.968
G1 X54.202Y92.399
G1 X55.427Y92.21
G1 X57.419Y91.812
G1 X59.39Y91.32
G1 X61.335Y90.734
G1 X63.252Y90.055
G1 X64.748Y89.5
G1 X66.234Y88.918
G1 X65.521Y88.978
G1 X62.722Y89.219
G1 X59.932Y89.552
G1 X57.155Y89.977
G1 X54.392Y90.493
G1 X53.531Y90.699
G1 X52.681Y90.949
G1 X51.845Y91.242
G1 X51.025Y91.578
G1 X50.657Y91.788
G1 X50.313Y92.035
G1 X50.267Y92.094
G1 X50.234Y92.162
G1 X50.216Y92.238
G1 Y92.27
G1 X50.353Y92.353
G1 X50.494Y92.412
G1 X51.73Y92.5
; Layer Corte Pass 7 of 10
G1 X52.968
G1 X54.202Y92.399
G1 X55.427Y92.21
G1 X57.419Y91.812
G1 X59.39Y91.32
G1 X61.335Y90.734
G1 X63.252Y90.055
G1 X64.748Y89.5
G1 X66.234Y88.918
G1 X65.521Y88.978
G1 X62.722Y89.219
G1 X59.932Y89.552
G1 X57.155Y89.977
G1 X54.392Y90.493
G1 X53.531Y90.699
G1 X52.681Y90.949
G1 X51.845Y91.242
G1 X51.025Y91.578
G1 X50.657Y91.788
G1 X50.313Y92.035
G1 X50.267Y92.094
G1 X50.234Y92.162
G1 X50.216Y92.238
G1 Y92.27
G1 X50.353Y92.353
G1 X50.494Y92.412
G1 X51.73Y92.5
; Layer Corte Pass 8 of 10
G1 X52.968
G1 X54.202Y92.399
G1 X55.427Y92.21
G1 X57.419Y91.812
G1 X59.39Y91.32
G1 X61.335Y90.734
G1 X63.252Y90.055
G1 X64.748Y89.5
G1 X66.234Y88.918
G1 X65.521Y88.978
G1 X62.722Y89.219
G1 X59.932Y89.552
G1 X57.155Y89.977
G1 X54.392Y90.493
G1 X53.531Y90.699
G1 X52.681Y90.949
G1 X51.845Y91.242
G1 X51.025Y91.578
G1 X50.657Y91.788
G1 X50.313Y92.035
G1 X50.267Y92.094
G1 X50.234Y92.162
G1 X50.216Y92.238
G1 Y92.27
G1 X50.353Y92.353
G1 X50.494Y92.412
G1 X51.73Y92.5
; Layer Corte Pass 9 of 10
G1 X52.968
G1 X54.202Y92.399
G1 X55.427Y92.21
G1 X57.419Y91.812
G1 X59.39Y91.32
G1 X61.335Y90.734
G1 X63.252Y90.055
G1 X64.748Y89.5
G1 X66.234Y88.918
G1 X65.521Y88.978
G1 X62.722Y89.219
G1 X59.932Y89.552
G1 X57.155Y89.977
G1 X54.392Y90.493
G1 X53.531Y90.699
G1 X52.681Y90.949
G1 X51.845Y91.242
G1 X51.025Y91.578
G1 X50.657Y91.788
G1 X50.313Y92.035
G1 X50.267Y92.094
G1 X50.234Y92.162
G1 X50.216Y92.238
G1 Y92.27
G1 X50.353Y92.353
G1 X50.494Y92.412
G1 X51.73Y92.5
; Layer Corte Pass 10 of 10
G1 X52.968
G1 X54.202Y92.399
G1 X55.427Y92.21
G1 X57.419Y91.812
G1 X59.39Y91.32
G1 X61.335Y90.734
G1 X63.252Y90.055
G1 X64.748Y89.5
G1 X66.234Y88.918
G1 X65.521Y88.978
G1 X62.722Y89.219
G1 X59.932Y89.552
G1 X57.155Y89.977
G1 X54.392Y90.493
G1 X53.531Y90.699
G1 X52.681Y90.949
G1 X51.845Y91.242
G1 X51.025Y91.578
G1 X50.657Y91.788
G1 X50.313Y92.035
G1 X50.267Y92.094
G1 X50.234Y92.162
G1 X50.216Y92.238
G1 Y92.27
G1 X50.353Y92.353
G1 X50.494Y92.412
G1 X51.73Y92.5
G0 X69.359Y97.944
; Layer Corte Pass 1 of 10
G1 X69.324Y98.053
G1 X69.312Y98.168
G1 X69.348Y98.323
G1 X69.479Y98.464
G1 X69.589Y98.558
G1 X69.71Y98.637
G1 X69.839Y98.699
G1 X69.975Y98.743
G1 X70.319Y98.832
G1 X70.666Y98.898
G1 X71.017Y98.941
G1 X71.371Y98.963
G1 X72.751Y98.994
G1 X74.131Y98.976
G1 X75.509Y98.908
G1 X76.885Y98.79
G1 X78.005Y98.685
G1 X79.124Y98.56
G1 X78.936Y98.492
G1 X78.146Y98.232
G1 X77.35Y97.991
G1 X76.549Y97.769
G1 X75.743Y97.567
G1 X75.047Y97.445
G1 X74.347Y97.355
G1 X73.645Y97.298
G1 X72.941Y97.272
G1 X72.237
G1 X71.533Y97.318
G1 X70.831Y97.389
G1 X70.132Y97.493
G1 X69.913Y97.556
G1 X69.708Y97.653
G1 X69.522Y97.783
G1 X69.359Y97.944
; Layer Corte Pass 2 of 10
G1 X69.324Y98.053
G1 X69.312Y98.168
G1 X69.348Y98.323
G1 X69.479Y98.464
G1 X69.589Y98.558
G1 X69.71Y98.637
G1 X69.839Y98.699
G1 X69.975Y98.743
G1 X70.319Y98.832
G1 X70.666Y98.898
G1 X71.017Y98.941
G1 X71.371Y98.963
G1 X72.751Y98.994
G1 X74.131Y98.976
G1 X75.509Y98.908
G1 X76.885Y98.79
G1 X78.005Y98.685
G1 X79.124Y98.56
G1 X78.936Y98.492
G1 X78.146Y98.232
G1 X77.35Y97.991
G1 X76.549Y97.769
G1 X75.743Y97.567
G1 X75.047Y97.445
G1 X74.347Y97.355
G1 X73.645Y97.298
G1 X72.941Y97.272
G1 X72.237
G1 X71.533Y97.318
G1 X70.831Y97.389
G1 X70.132Y97.493
G1 X69.913Y97.556
G1 X69.708Y97.653
G1 X69.522Y97.783
G1 X69.359Y97.944
; Layer Corte Pass 3 of 10
G1 X69.324Y98.053
G1 X69.312Y98.168
G1 X69.348Y98.323
G1 X69.479Y98.464
G1 X69.589Y98.558
G1 X69.71Y98.637
G1 X69.839Y98.699
G1 X69.975Y98.743
G1 X70.319Y98.832
G1 X70.666Y98.898
G1 X71.017Y98.941
G1 X71.371Y98.963
G1 X72.751Y98.994
G1 X74.131Y98.976
G1 X75.509Y98.908
G1 X76.885Y98.79
G1 X78.005Y98.685
G1 X79.124Y98.56
G1 X78.936Y98.492
G1 X78.146Y98.232
G1 X77.35Y97.991
G1 X76.549Y97.769
G1 X75.743Y97.567
G1 X75.047Y97.445
G1 X74.347Y97.355
G1 X73.645Y97.298
G1 X72.941Y97.272
G1 X72.237
G1 X71.533Y97.318
G1 X70.831Y97.389
G1 X70.132Y97.493
G1 X69.913Y97.556
G1 X69.708Y97.653
G1 X69.522Y97.783
G1 X69.359Y97.944
; Layer Corte Pass 4 of 10
G1 X69.324Y98.053
G1 X69.312Y98.168
G1 X69.348Y98.323
G1 X69.479Y98.464
G1 X69.589Y98.558
G1 X69.71Y98.637
G1 X69.839Y98.699
G1 X69.975Y98.743
G1 X70.319Y98.832
G1 X70.666Y98.898
G1 X71.017Y98.941
G1 X71.371Y98.963
G1 X72.751Y98.994
G1 X74.131Y98.976
G1 X75.509Y98.908
G1 X76.885Y98.79
G1 X78.005Y98.685
G1 X79.124Y98.56
G1 X78.936Y98.492
G1 X78.146Y98.232
G1 X77.35Y97.991
G1 X76.549Y97.769
G1 X75.743Y97.567
G1 X75.047Y97.445
G1 X74.347Y97.355
G1 X73.645Y97.298
G1 X72.941Y97.272
G1 X72.237
G1 X71.533Y97.318
G1 X70.831Y97.389
G1 X70.132Y97.493
G1 X69.913Y97.556
G1 X69.708Y97.653
G1 X69.522Y97.783
G1 X69.359Y97.944
; Layer Corte Pass 5 of 10
G1 X69.324Y98.053
G1 X69.312Y98.168
G1 X69.348Y98.323
G1 X69.479Y98.464
G1 X69.589Y98.558
G1 X69.71Y98.637
G1 X69.839Y98.699
G1 X69.975Y98.743
G1 X70.319Y98.832
G1 X70.666Y98.898
G1 X71.017Y98.941
G1 X71.371Y98.963
G1 X72.751Y98.994
G1 X74.131Y98.976
G1 X75.509Y98.908
G1 X76.885Y98.79
G1 X78.005Y98.685
G1 X79.124Y98.56
G1 X78.936Y98.492
G1 X78.146Y98.232
G1 X77.35Y97.991
G1 X76.549Y97.769
G1 X75.743Y97.567
G1 X75.047Y97.445
G1 X74.347Y97.355
G1 X73.645Y97.298
G1 X72.941Y97.272
G1 X72.237
G1 X71.533Y97.318
G1 X70.831Y97.389
G1 X70.132Y97.493
G1 X69.913Y97.556
G1 X69.708Y97.653
G1 X69.522Y97.783
G1 X69.359Y97.944
; Layer Corte Pass 6 of 10
G1 X69.324Y98.053
G1 X69.312Y98.168
G1 X69.348Y98.323
G1 X69.479Y98.464
G1 X69.589Y98.558
G1 X69.71Y98.637
G1 X69.839Y98.699
G1 X69.975Y98.743
G1 X70.319Y98.832
G1 X70.666Y98.898
G1 X71.017Y98.941
G1 X71.371Y98.963
G1 X72.751Y98.994
G1 X74.131Y98.976
G1 X75.509Y98.908
G1 X76.885Y98.79
G1 X78.005Y98.685
G1 X79.124Y98.56
G1 X78.936Y98.492
G1 X78.146Y98.232
G1 X77.35Y97.991
G1 X76.549Y97.769
G1 X75.743Y97.567
G1 X75.047Y97.445
G1 X74.347Y97.355
G1 X73.645Y97.298
G1 X72.941Y97.272
G1 X72.237
G1 X71.533Y97.318
G1 X70.831Y97.389
G1 X70.132Y97.493
G1 X69.913Y97.556
G1 X69.708Y97.653
G1 X69.522Y97.783
G1 X69.359Y97.944
; Layer Corte Pass 7 of 10
G1 X69.324Y98.053
G1 X69.312Y98.168
G1 X69.348Y98.323
G1 X69.479Y98.464
G1 X69.589Y98.558
G1 X69.71Y98.637
G1 X69.839Y98.699
G1 X69.975Y98.743
G1 X70.319Y98.832
G1 X70.666Y98.898
G1 X71.017Y98.941
G1 X71.371Y98.963
G1 X72.751Y98.994
G1 X74.131Y98.976
G1 X75.509Y98.908
G1 X76.885Y98.79
G1 X78.005Y98.685
G1 X79.124Y98.56
G1 X78.936Y98.492
G1 X78.146Y98.232
G1 X77.35Y97.991
G1 X76.549Y97.769
G1 X75.743Y97.567
G1 X75.047Y97.445
G1 X74.347Y97.355
G1 X73.645Y97.298
G1 X72.941Y97.272
G1 X72.237
G1 X71.533Y97.318
G1 X70.831Y97.389
G1 X70.132Y97.493
G1 X69.913Y97.556
G1 X69.708Y97.653
G1 X69.522Y97.783
G1 X69.359Y97.944
; Layer Corte Pass 8 of 10
G1 X69.324Y98.053
G1 X69.312Y98.168
G1 X69.348Y98.323
G1 X69.479Y98.464
G1 X69.589Y98.558
G1 X69.71Y98.637
G1 X69.839Y98.699
G1 X69.975Y98.743
G1 X70.319Y98.832
G1 X70.666Y98.898
G1 X71.017Y98.941
G1 X71.371Y98.963
G1 X72.751Y98.994
G1 X74.131Y98.976
G1 X75.509Y98.908
G1 X76.885Y98.79
G1 X78.005Y98.685
G1 X79.124Y98.56
G1 X78.936Y98.492
G1 X78.146Y98.232
G1 X77.35Y97.991
G1 X76.549Y97.769
G1 X75.743Y97.567
G1 X75.047Y97.445
G1 X74.347Y97.355
G1 X73.645Y97.298
G1 X72.941Y97.272
G1 X72.237
G1 X71.533Y97.318
G1 X70.831Y97.389
G1 X70.132Y97.493
G1 X69.913Y97.556
G1 X69.708Y97.653
G1 X69.522Y97.783
G1 X69.359Y97.944
; Layer Corte Pass 9 of 10
G1 X69.324Y98.053
G1 X69.312Y98.168
G1 X69.348Y98.323
G1 X69.479Y98.464
G1 X69.589Y98.558
G1 X69.71Y98.637
G1 X69.839Y98.699
G1 X69.975Y98.743
G1 X70.319Y98.832
G1 X70.666Y98.898
G1 X71.017Y98.941
G1 X71.371Y98.963
G1 X72.751Y98.994
G1 X74.131Y98.976
G1 X75.509Y98.908
G1 X76.885Y98.79
G1 X78.005Y98.685
G1 X79.124Y98.56
G1 X78.936Y98.492
G1 X78.146Y98.232
G1 X77.35Y97.991
G1 X76.549Y97.769
G1 X75.743Y97.567
G1 X75.047Y97.445
G1 X74.347Y97.355
G1 X73.645Y97.298
G1 X72.941Y97.272
G1 X72.237
G1 X71.533Y97.318
G1 X70.831Y97.389
G1 X70.132Y97.493
G1 X69.913Y97.556
G1 X69.708Y97.653
G1 X69.522Y97.783
G1 X69.359Y97.944
; Layer Corte Pass 10 of 10
G1 X69.324Y98.053
G1 X69.312Y98.168
G1 X69.348Y98.323
G1 X69.479Y98.464
G1 X69.589Y98.558
G1 X69.71Y98.637
G1 X69.839Y98.699
G1 X69.975Y98.743
G1 X70.319Y98.832
G1 X70.666Y98.898
G1 X71.017Y98.941
G1 X71.371Y98.963
G1 X72.751Y98.994
G1 X74.131Y98.976
G1 X75.509Y98.908
G1 X76.885Y98.79
G1 X78.005Y98.685
G1 X79.124Y98.56
G1 X78.936Y98.492
G1 X78.146Y98.232
G1 X77.35Y97.991
G1 X76.549Y97.769
G1 X75.743Y97.567
G1 X75.047Y97.445
G1 X74.347Y97.355
G1 X73.645Y97.298
G1 X72.941Y97.272
G1 X72.237
G1 X71.533Y97.318
G1 X70.831Y97.389
G1 X70.132Y97.493
G1 X69.913Y97.556
G1 X69.708Y97.653
G1 X69.522Y97.783
G1 X69.359Y97.944
G0 X69.733Y102.493
; Layer Corte Pass 1 of 10
G1 X69.784Y102.666
G1 X69.845Y102.985
G1 X69.874Y103.307
G1 Y103.627
G1 X69.836Y103.945
G1 X69.769Y104.258
G1 X69.671Y104.563
G1 X69.543Y104.858
G1 X69.384Y105.14
G1 X70.68
G1 X72.809
G1 X74.938Y105.193
G1 X77.065Y105.268
G1 X79.192Y105.374
G1 X79.389Y105.056
G1 X79.681Y104.461
G1 X79.896Y103.837
G1 X80.032Y103.19
G1 X80.087Y102.529
G1 X79.399Y102.668
G1 X78.707Y102.771
G1 X76.885Y102.906
G1 X75.059Y102.955
G1 X73.234Y102.919
G1 X71.411Y102.796
G1 X70.567Y102.671
G1 X69.733Y102.493
; Layer Corte Pass 2 of 10
G1 X69.784Y102.666
G1 X69.845Y102.985
G1 X69.874Y103.307
G1 Y103.627
G1 X69.836Y103.945
G1 X69.769Y104.258
G1 X69.671Y104.563
G1 X69.543Y104.858
G1 X69.384Y105.14
G1 X70.68
G1 X72.809
G1 X74.938Y105.193
G1 X77.065Y105.268
G1 X79.192Y105.374
G1 X79.389Y105.056
G1 X79.681Y104.461
G1 X79.896Y103.837
G1 X80.032Y103.19
G1 X80.087Y102.529
G1 X79.399Y102.668
G1 X78.707Y102.771
G1 X76.885Y102.906
G1 X75.059Y102.955
G1 X73.234Y102.919
G1 X71.411Y102.796
G1 X70.567Y102.671
G1 X69.733Y102.493
; Layer Corte Pass 3 of 10
G1 X69.784Y102.666
G1 X69.845Y102.985
G1 X69.874Y103.307
G1 Y103.627
G1 X69.836Y103.945
G1 X69.769Y104.258
G1 X69.671Y104.563
G1 X69.543Y104.858
G1 X69.384Y105.14
G1 X70.68
G1 X72.809
G1 X74.938Y105.193
G1 X77.065Y105.268
G1 X79.192Y105.374
G1 X79.389Y105.056
G1 X79.681Y104.461
G1 X79.896Y103.837
G1 X80.032Y103.19
G1 X80.087Y102.529
G1 X79.399Y102.668
G1 X78.707Y102.771
G1 X76.885Y102.906
G1 X75.059Y102.955
G1 X73.234Y102.919
G1 X71.411Y102.796
G1 X70.567Y102.671
G1 X69.733Y102.493
; Layer Corte Pass 4 of 10
G1 X69.784Y102.666
G1 X69.845Y102.985
G1 X69.874Y103.307
G1 Y103.627
G1 X69.836Y103.945
G1 X69.769Y104.258
G1 X69.671Y104.563
G1 X69.543Y104.858
G1 X69.384Y105.14
G1 X70.68
G1 X72.809
G1 X74.938Y105.193
G1 X77.065Y105.268
G1 X79.192Y105.374
G1 X79.389Y105.056
G1 X79.681Y104.461
G1 X79.896Y103.837
G1 X80.032Y103.19
G1 X80.087Y102.529
G1 X79.399Y102.668
G1 X78.707Y102.771
G1 X76.885Y102.906
G1 X75.059Y102.955
G1 X73.234Y102.919
G1 X71.411Y102.796
G1 X70.567Y102.671
G1 X69.733Y102.493
; Layer Corte Pass 5 of 10
G1 X69.784Y102.666
G1 X69.845Y102.985
G1 X69.874Y103.307
G1 Y103.627
G1 X69.836Y103.945
G1 X69.769Y104.258
G1 X69.671Y104.563
G1 X69.543Y104.858
G1 X69.384Y105.14
G1 X70.68
G1 X72.809
G1 X74.938Y105.193
G1 X77.065Y105.268
G1 X79.192Y105.374
G1 X79.389Y105.056
G1 X79.681Y104.461
G1 X79.896Y103.837
G1 X80.032Y103.19
G1 X80.087Y102.529
G1 X79.399Y102.668
G1 X78.707Y102.771
G1 X76.885Y102.906
G1 X75.059Y102.955
G1 X73.234Y102.919
G1 X71.411Y102.796
G1 X70.567Y102.671
G1 X69.733Y102.493
; Layer Corte Pass 6 of 10
G1 X69.784Y102.666
G1 X69.845Y102.985
G1 X69.874Y103.307
G1 Y103.627
G1 X69.836Y103.945
G1 X69.769Y104.258
G1 X69.671Y104.563
G1 X69.543Y104.858
G1 X69.384Y105.14
G1 X70.68
G1 X72.809
G1 X74.938Y105.193
G1 X77.065Y105.268
G1 X79.192Y105.374
G1 X79.389Y105.056
G1 X79.681Y104.461
G1 X79.896Y103.837
G1 X80.032Y103.19
G1 X80.087Y102.529
G1 X79.399Y102.668
G1 X78.707Y102.771
G1 X76.885Y102.906
G1 X75.059Y102.955
G1 X73.234Y102.919
G1 X71.411Y102.796
G1 X70.567Y102.671
G1 X69.733Y102.493
; Layer Corte Pass 7 of 10
G1 X69.784Y102.666
G1 X69.845Y102.985
G1 X69.874Y103.307
G1 Y103.627
G1 X69.836Y103.945
G1 X69.769Y104.258
G1 X69.671Y104.563
G1 X69.543Y104.858
G1 X69.384Y105.14
G1 X70.68
G1 X72.809
G1 X74.938Y105.193
G1 X77.065Y105.268
G1 X79.192Y105.374
G1 X79.389Y105.056
G1 X79.681Y104.461
G1 X79.896Y103.837
G1 X80.032Y103.19
G1 X80.087Y102.529
G1 X79.399Y102.668
G1 X78.707Y102.771
G1 X76.885Y102.906
G1 X75.059Y102.955
G1 X73.234Y102.919
G1 X71.411Y102.796
G1 X70.567Y102.671
G1 X69.733Y102.493
; Layer Corte Pass 8 of 10
G1 X69.784Y102.666
G1 X69.845Y102.985
G1 X69.874Y103.307
G1 Y103.627
G1 X69.836Y103.945
G1 X69.769Y104.258
G1 X69.671Y104.563
G1 X69.543Y104.858
G1 X69.384Y105.14
G1 X70.68
G1 X72.809
G1 X74.938Y105.193
G1 X77.065Y105.268
G1 X79.192Y105.374
G1 X79.389Y105.056
G1 X79.681Y104.461
G1 X79.896Y103.837
G1 X80.032Y103.19
G1 X80.087Y102.529
G1 X79.399Y102.668
G1 X78.707Y102.771
G1 X76.885Y102.906
G1 X75.059Y102.955
G1 X73.234Y102.919
G1 X71.411Y102.796
G1 X70.567Y102.671
G1 X69.733Y102.493
; Layer Corte Pass 9 of 10
G1 X69.784Y102.666
G1 X69.845Y102.985
G1 X69.874Y103.307
G1 Y103.627
G1 X69.836Y103.945
G1 X69.769Y104.258
G1 X69.671Y104.563
G1 X69.543Y104.858
G1 X69.384Y105.14
G1 X70.68
G1 X72.809
G1 X74.938Y105.193
G1 X77.065Y105.268
G1 X79.192Y105.374
G1 X79.389Y105.056
G1 X79.681Y104.461
G1 X79.896Y103.837
G1 X80.032Y103.19
G1 X80.087Y102.529
G1 X79.399Y102.668
G1 X78.707Y102.771
G1 X76.885Y102.906
G1 X75.059Y102.955
G1 X73.234Y102.919
G1 X71.411Y102.796
G1 X70.567Y102.671
G1 X69.733Y102.493
; Layer Corte Pass 10 of 10
G1 X69.784Y102.666
G1 X69.845Y102.985
G1 X69.874Y103.307
G1 Y103.627
G1 X69.836Y103.945
G1 X69.769Y104.258
G1 X69.671Y104.563
G1 X69.543Y104.858
G1 X69.384Y105.14
G1 X70.68
G1 X72.809
G1 X74.938Y105.193
G1 X77.065Y105.268
G1 X79.192Y105.374
G1 X79.389Y105.056
G1 X79.681Y104.461
G1 X79.896Y103.837
G1 X80.032Y103.19
G1 X80.087Y102.529
G1 X79.399Y102.668
G1 X78.707Y102.771
G1 X76.885Y102.906
G1 X75.059Y102.955
G1 X73.234Y102.919
G1 X71.411Y102.796
G1 X70.567Y102.671
G1 X69.733Y102.493
G0 X83.934Y102.91
; Layer Corte Pass 1 of 10
G1 X83.834Y103.89
G1 X83.642Y104.856
G1 X83.361Y105.802
G1 X84.103Y105.909
G1 X85.479Y106.138
G1 X86.841Y106.436
G1 X88.187Y106.802
G1 X89.514Y107.237
G1 X90.391Y107.604
G1 X91.242Y108.026
G1 X92.065Y108.501
G1 X92.858Y109.029
G1 X93.371Y109.455
G1 X93.852Y109.918
G1 X94.297Y110.415
G1 X94.705Y110.945
G1 X94.941Y111.351
G1 X95.144Y111.772
G1 X95.315Y112.206
G1 X95.452Y112.652
G1 X95.556Y113.107
G1 X95.625Y113.569
G1 X95.66Y114.036
G1 Y114.507
G1 X95.623Y115.126
G1 X95.534Y115.738
G1 X95.392Y116.339
G1 X95.197Y116.926
G1 X95.683Y116.362
G1 X96.22Y115.769
G1 X96.778Y115.196
G1 X97.356Y114.644
G1 X97.953Y114.115
G1 X98.569Y113.607
G1 X99.203Y113.123
G1 X99.854Y112.662
G1 X100.522Y112.225
G1 X101.384Y111.752
G1 X102.28Y111.355
G1 X103.206Y111.033
G1 X104.156Y110.79
G1 X104.704Y110.705
G1 X105.254Y110.654
G1 X105.805Y110.637
G1 X106.356Y110.653
G1 X106.905Y110.702
G1 X107.451Y110.785
G1 X107.991Y110.901
G1 X108.526Y111.05
G1 X108.866Y111.183
G1 X109.195Y111.34
G1 X109.512Y111.518
G1 X109.816Y111.718
G1 X110.38Y112.177
G1 X110.881Y112.713
G1 X110.934Y112.482
G1 X110.985Y112.288
G1 X111.066Y112.11
G1 X111.175Y111.952
G1 X111.308Y111.815
G1 X111.462Y111.703
G1 X111.634Y111.618
G1 X111.82Y111.565
G1 X112.017Y111.544
G1 X112.22
G1 X112.42Y111.587
G1 X113.004Y111.604
G1 X113.881
G1 X114.757Y111.579
G1 X116.871Y111.556
G1 X119.042Y111.581
G1 X121.213Y111.63
G1 X122.697Y111.403
G1 X124.879Y111.032
G1 X127.046Y110.589
G1 X129.199Y110.075
G1 X131.334Y109.491
G1 X132.163Y109.233
G1 X132.976Y108.933
G1 X133.775Y108.593
G1 X134.555Y108.213
G1 X135.291Y107.793
G1 X136Y107.329
G1 X136.318Y107.07
G1 X136.605Y106.778
G1 X136.859Y106.456
G1 X137.079Y106.107
G1 X137.14Y105.932
G1 X137.178Y105.751
G1 X137.192Y105.567
G1 X137.181Y105.382
G1 X137.13Y105.142
G1 X137.066Y104.965
G1 X136.977Y104.799
G1 X136.864Y104.65
G1 X136.729Y104.518
G1 X136.346Y104.249
G1 X135.94Y104.019
G1 X135.513Y103.831
G1 X135.069Y103.687
G1 X134.027Y103.414
G1 X132.971Y103.211
G1 X131.905Y103.077
G1 X130.831Y103.013
G1 X128.515Y102.973
G1 X126.199Y102.957
G1 X123.882
G1 X121.566Y102.997
G1 X114.539Y103.181
G1 X112.607
G1 X110.677Y103.088
G1 X110.399Y103.049
G1 X110.124Y102.991
G1 X109.855Y102.914
G1 X109.591Y102.817
G1 X109.394Y102.687
G1 X109.223Y102.523
G1 X109.093Y102.325
G1 X108.999Y102.107
G1 X108.799Y101.488
G1 X108.655Y100.854
G1 X108.515Y99.966
G1 X108.446Y99.07
G1 Y98.172
G1 X108.522Y97.276
G1 X108.572Y96.982
G1 X108.642Y96.693
G1 X108.733Y96.409
G1 X108.843Y96.133
G1 X108.938Y95.991
G1 X109.051Y95.868
G1 X109.181Y95.766
G1 X109.325Y95.687
G1 X109.479Y95.631
G1 X109.64Y95.6
G1 X109.807
G1 X110.185Y95.64
G1 X110.334
G1 X111.889
G1 X113.443Y95.621
G1 X116.261
G1 X119.079Y95.642
G1 X119.022Y95.619
G1 X118.08Y95.203
G1 X117.167Y94.729
G1 X116.287Y94.2
G1 X115.441Y93.617
G1 X114.634Y92.982
G1 X113.866Y92.296
G1 X113.14Y91.562
G1 X112.459Y90.782
G1 X112.072Y90.273
G1 X111.71Y89.747
G1 X111.374Y89.205
G1 X111.064Y88.648
G1 X110.78Y88.076
G1 X110.523Y87.491
G1 X110.294Y86.894
G1 X110.093Y86.285
G1 X109.857Y85.317
G1 X109.696Y84.336
G1 X109.61Y83.344
G1 Y82.347
G1 X109.592Y81.892
G1 X109.521Y81.216
G1 X109.382Y80.55
G1 X109.113Y79.659
G1 X109.069Y79.694
G1 X108.4Y79.967
G1 X107.722Y80.212
G1 X107.034Y80.427
G1 X106.339Y80.612
G1 X105.636Y80.768
G1 X104.928Y80.893
G1 X104.214Y80.988
G1 X103.495Y81.052
G1 X102.871Y81.039
G1 X102.252Y80.967
G1 X101.643Y80.837
G1 X101.046Y80.65
G1 X100.819Y80.529
G1 X100.612Y80.382
G1 X100.427Y80.211
G1 X100.264Y80.019
G1 X100.127Y79.807
G1 X100.018Y79.578
G1 X99.937Y79.335
G1 X99.887Y79.081
G1 X99.811Y78.616
G1 X99.788Y78.149
G1 X99.817Y77.685
G1 X99.897Y77.229
G1 X100.026Y76.785
G1 X100.204Y76.356
G1 X100.43Y75.949
G1 X100.702Y75.565
G1 X101.014Y75.187
G1 X101.351Y74.835
G1 X101.712Y74.509
G1 X102.095Y74.212
G1 X102.498Y73.944
G1 X102.921Y73.707
G1 X103.361Y73.502
G1 X103.816Y73.33
G1 X104.618Y73.081
G1 X105.435Y72.92
G1 X106.259Y72.846
G1 X107.084Y72.857
G1 X107.904Y72.954
G1 X108.711Y73.137
G1 X109.5Y73.404
G1 X110.263Y73.756
G1 X110.603Y73.959
G1 X110.928Y74.182
G1 X111.239Y74.426
G1 X111.532Y74.689
G1 X111.809Y74.971
G1 X112.068Y75.27
G1 X112.308Y75.585
G1 X112.528Y75.917
G1 X112.658Y76.171
G1 X113.287Y76.005
G1 X114.241Y75.8
G1 X115.206Y75.65
G1 X115.804Y75.54
G1 X118.13Y75.053
G1 X120.454Y74.551
G1 X120.687Y74.517
G1 X120.911Y74.501
G1 X121.132Y74.515
G1 X121.347Y74.558
G1 X121.554Y74.63
G1 X121.75Y74.727
G1 X121.932Y74.851
G1 X122.098Y75
G1 X122.245Y75.172
G1 X122.422Y75.407
G1 X122.572Y75.661
G1 X122.691Y75.931
G1 X122.78Y76.213
G1 X123.229Y75.839
G1 X123.652Y75.438
G1 X124.047Y75.01
G1 X124.414Y74.559
G1 X124.751Y74.084
G1 X125.058Y73.588
G1 X125.333Y73.071
G1 X125.576Y72.536
G1 X124.453
G1 X123.333Y72.504
G1 X122.217Y72.411
G1 X121.107Y72.267
G1 X120.004Y72.073
G1 X118.911Y71.828
G1 X117.828Y71.533
G1 X116.758Y71.188
G1 X116.123Y70.941
G1 X115.499Y70.67
G1 X114.886Y70.375
G1 X114.284Y70.056
G1 X113.695Y69.715
G1 X113.119Y69.35
G1 X112.557Y68.964
G1 X112.009Y68.556
G1 X111.427Y68.056
G1 X110.877Y67.524
G1 X110.361Y66.96
G1 X109.88Y66.366
G1 X109.435Y65.743
G1 X109.028Y65.095
G1 X108.659Y64.421
G1 X108.331Y63.724
G1 X108.134Y63.211
G1 X107.965Y62.689
G1 X107.821Y62.16
G1 X107.705Y61.625
G1 X107.616Y61.084
G1 X107.554Y60.539
G1 X107.519Y59.991
G1 Y59.44
G1 Y58.909
G1 X107.546Y58.381
G1 X107.604Y57.858
G1 X107.689Y57.34
G1 X107.8Y56.829
G1 X107.937Y56.325
G1 X108.1Y55.83
G1 X108.289Y55.345
G1 X108.502Y54.87
G1 X108.739Y54.407
G1 X109Y53.956
G1 X109.285Y53.519
G1 X109.593Y53.097
G1 X109.923Y52.69
G1 X110.276Y52.3
G1 X110.651Y51.928
G1 X111.107Y51.516
G1 X111.587Y51.136
G1 X112.088Y50.788
G1 X112.61Y50.472
G1 X113.15Y50.19
G1 X113.707Y49.943
G1 X114.28Y49.731
G1 X114.866Y49.556
G1 X115.492Y49.389
G1 X116.13Y49.282
G1 X116.774Y49.236
G1 X117.422Y49.25
G1 X117.553Y48.986
G1 X117.718Y48.744
G1 X117.915Y48.527
G1 X118.141Y48.341
G1 X118.972Y47.774
G1 X119.851Y47.293
G1 X120.772Y46.902
G1 X121.729Y46.603
G1 X122.952Y46.295
G1 X124.191Y46.069
G1 X125.442Y45.927
G1 X126.701Y45.868
G1 X126.917Y45.565
G1 X127.465Y44.691
G1 X127.96Y43.787
G1 X128.402Y42.856
G1 X128.79Y41.898
G1 X129.167Y40.911
G1 X129.631Y39.715
G1 X130.107Y38.524
G1 X128.556Y38.553
G1 X127.006Y38.593
G1 X126.591
G1 X120.677Y38.556
G1 X114.764Y38.474
G1 X112.585Y38.462
G1 X110.356
G1 X108.31Y38.56
G1 X108.135Y39.213
G1 X107.923Y39.853
G1 X107.673Y40.477
G1 X107.385Y41.083
G1 X107.061Y41.669
G1 X106.7Y42.233
G1 X106.306Y42.773
G1 X105.877Y43.288
G1 X105.416Y43.776
G1 X105.026Y44.089
G1 X104.614Y44.369
G1 X104.184Y44.615
G1 X103.736Y44.826
G1 X103.274Y45.001
G1 X102.799Y45.14
G1 X102.313Y45.24
G1 X101.819Y45.302
G1 X101.347Y45.351
G1 X100.874Y45.374
G1 X100.402
G1 X99.93Y45.34
G1 X99.462Y45.284
G1 X98.996Y45.203
G1 X98.535Y45.095
G1 X98.079Y44.962
G1 X97.612Y44.772
G1 X97.17Y44.537
G1 X96.756Y44.26
G1 X96.373Y43.942
G1 X96.024Y43.586
G1 X95.711Y43.195
G1 X95.438Y42.772
G1 X95.208Y42.32
G1 X95.065Y41.942
G1 X94.958Y41.552
G1 X94.921Y41.696
G1 X94.748Y42.285
G1 X94.547Y42.861
G1 X94.317Y43.424
G1 X94.06Y43.972
G1 X93.777Y44.506
G1 X93.468Y45.023
G1 X93.134Y45.522
G1 X92.775Y46.004
G1 X92.393Y46.467
G1 X91.988Y46.91
G1 X91.561Y47.332
G1 X91.113Y47.732
G1 X90.643Y48.11
G1 X90.154Y48.464
G1 X89.645Y48.794
G1 X89.118Y49.098
G1 X88.602Y49.354
G1 X88.075Y49.582
G1 X87.537Y49.782
G1 X86.99Y49.954
G1 X86.435Y50.098
G1 X85.874Y50.212
G1 X85.306Y50.297
G1 X84.734Y50.353
G1 X85.244Y50.386
G1 X86.066Y50.453
G1 X86.883Y50.563
G1 X87.691Y50.715
G1 X88.49Y50.909
G1 X89.278Y51.145
G1 X90.054Y51.422
G1 X90.815Y51.74
G1 X91.561Y52.098
G1 X92.261Y52.525
G1 X92.918Y53.013
G1 X93.528Y53.561
G1 X94.087Y54.164
G1 X94.445Y54.662
G1 X94.756Y55.186
G1 X95.02Y55.734
G1 X95.235Y56.302
G1 X95.4Y56.887
G1 X95.515Y57.485
G1 X95.578Y58.093
G1 Y58.708
G1 Y59.42
G1 X95.491Y60.122
G1 X95.344Y60.81
G1 X95.135Y61.479
G1 X94.865Y62.126
G1 X94.535Y62.746
G1 X94.148Y63.333
G1 X93.703Y63.885
G1 X93.152Y64.472
G1 X92.576Y65.033
G1 X91.976Y65.567
G1 X91.354Y66.073
G1 X90.711Y66.551
G1 X90.046Y67
G1 X89.363Y67.418
G1 X88.66Y67.807
G1 X87.929Y68.2
G1 X87.187Y68.57
G1 X86.433Y68.915
G1 X85.67Y69.236
G1 X84.897Y69.532
G1 X84.114Y69.803
G1 X83.324Y70.049
G1 X82.525Y70.269
G1 X82.578
G1 X83.704Y70.382
G1 X84.824Y70.533
G1 X85.937Y70.727
G1 X87.042Y70.963
G1 X88.137Y71.241
G1 X89.222Y71.56
G1 X90.294Y71.921
G1 X91.354Y72.323
G1 X92.178Y72.728
G1 X92.964Y73.202
G1 X93.707Y73.741
G1 X94.404Y74.343
G1 X94.711Y74.699
G1 X94.978Y75.083
G1 X95.203Y75.49
G1 X95.385Y75.918
G1 X95.523Y76.362
G1 X95.614Y76.82
G1 X95.658Y77.287
G1 Y77.76
G1 X95.616Y78.225
G1 X95.535Y78.681
G1 X95.411Y79.124
G1 X95.246Y79.553
G1 X95.04Y79.963
G1 X94.795Y80.352
G1 X94.513Y80.717
G1 X94.195Y81.054
G1 X93.733Y81.494
G1 X93.253Y81.912
G1 X92.756Y82.307
G1 X92.242Y82.679
G1 X91.712Y83.028
G1 X91.167Y83.353
G1 X90.607Y83.653
G1 X90.034Y83.928
G1 X89.572Y84.132
G1 X89.904Y84.295
G1 X90.493Y84.608
G1 X91.065Y84.95
G1 X91.62Y85.319
G1 X92.156Y85.715
G1 X92.672Y86.137
G1 X93.167Y86.584
G1 X93.641Y87.055
G1 X94.092Y87.551
G1 X94.502Y88.134
G1 X94.853Y88.75
G1 X95.143Y89.395
G1 X95.371Y90.063
G1 X95.536Y90.75
G1 X95.635Y91.451
G1 X95.668Y92.161
G1 X95.634Y92.877
G1 X95.559Y93.498
G1 X95.431Y94.107
G1 X95.252Y94.7
G1 X95.022Y95.273
G1 X94.742Y95.824
G1 X94.416Y96.349
G1 X94.044Y96.844
G1 X93.627Y97.307
G1 X92.874Y98.047
G1 X92.056Y98.71
G1 X91.181Y99.293
G1 X90.254Y99.79
G1 X89.499Y100.153
G1 X88.733Y100.489
G1 X87.957Y100.797
G1 X87.17Y101.078
G1 X86.375Y101.331
G1 X85.571Y101.556
G1 X84.76Y101.753
G1 X83.941Y101.922
G1 Y102.91
; Layer Corte Pass 2 of 10
G1 X83.834Y103.89
G1 X83.642Y104.856
G1 X83.361Y105.802
G1 X84.103Y105.909
G1 X85.479Y106.138
G1 X86.841Y106.436
G1 X88.187Y106.802
G1 X89.514Y107.237
G1 X90.391Y107.604
G1 X91.242Y108.026
G1 X92.065Y108.501
G1 X92.858Y109.029
G1 X93.371Y109.455
G1 X93.852Y109.918
G1 X94.297Y110.415
G1 X94.705Y110.945
G1 X94.941Y111.351
G1 X95.144Y111.772
G1 X95.315Y112.206
G1 X95.452Y112.652
G1 X95.556Y113.107
G1 X95.625Y113.569
G1 X95.66Y114.036
G1 Y114.507
G1 X95.623Y115.126
G1 X95.534Y115.738
G1 X95.392Y116.339
G1 X95.197Y116.926
G1 X95.683Y116.362
G1 X96.22Y115.769
G1 X96.778Y115.196
G1 X97.356Y114.644
G1 X97.953Y114.115
G1 X98.569Y113.607
G1 X99.203Y113.123
G1 X99.854Y112.662
G1 X100.522Y112.225
G1 X101.384Y111.752
G1 X102.28Y111.355
G1 X103.206Y111.033
G1 X104.156Y110.79
G1 X104.704Y110.705
G1 X105.254Y110.654
G1 X105.805Y110.637
G1 X106.356Y110.653
G1 X106.905Y110.702
G1 X107.451Y110.785
G1 X107.991Y110.901
G1 X108.526Y111.05
G1 X108.866Y111.183
G1 X109.195Y111.34
G1 X109.512Y111.518
G1 X109.816Y111.718
G1 X110.38Y112.177
G1 X110.881Y112.713
G1 X110.934Y112.482
G1 X110.985Y112.288
G1 X111.066Y112.11
G1 X111.175Y111.952
G1 X111.308Y111.815
G1 X111.462Y111.703
G1 X111.634Y111.618
G1 X111.82Y111.565
G1 X112.017Y111.544
G1 X112.22
G1 X112.42Y111.587
G1 X113.004Y111.604
G1 X113.881
G1 X114.757Y111.579
G1 X116.871Y111.556
G1 X119.042Y111.581
G1 X121.213Y111.63
G1 X122.697Y111.403
G1 X124.879Y111.032
G1 X127.046Y110.589
G1 X129.199Y110.075
G1 X131.334Y109.491
G1 X132.163Y109.233
G1 X132.976Y108.933
G1 X133.775Y108.593
G1 X134.555Y108.213
G1 X135.291Y107.793
G1 X136Y107.329
G1 X136.318Y107.07
G1 X136.605Y106.778
G1 X136.859Y106.456
G1 X137.079Y106.107
G1 X137.14Y105.932
G1 X137.178Y105.751
G1 X137.192Y105.567
G1 X137.181Y105.382
G1 X137.13Y105.142
G1 X137.066Y104.965
G1 X136.977Y104.799
G1 X136.864Y104.65
G1 X136.729Y104.518
G1 X136.346Y104.249
G1 X135.94Y104.019
G1 X135.513Y103.831
G1 X135.069Y103.687
G1 X134.027Y103.414
G1 X132.971Y103.211
G1 X131.905Y103.077
G1 X130.831Y103.013
G1 X128.515Y102.973
G1 X126.199Y102.957
G1 X123.882
G1 X121.566Y102.997
G1 X114.539Y103.181
G1 X112.607
G1 X110.677Y103.088
G1 X110.399Y103.049
G1 X110.124Y102.991
G1 X109.855Y102.914
G1 X109.591Y102.817
G1 X109.394Y102.687
G1 X109.223Y102.523
G1 X109.093Y102.325
G1 X108.999Y102.107
G1 X108.799Y101.488
G1 X108.655Y100.854
G1 X108.515Y99.966
G1 X108.446Y99.07
G1 Y98.172
G1 X108.522Y97.276
G1 X108.572Y96.982
G1 X108.642Y96.693
G1 X108.733Y96.409
G1 X108.843Y96.133
G1 X108.938Y95.991
G1 X109.051Y95.868
G1 X109.181Y95.766
G1 X109.325Y95.687
G1 X109.479Y95.631
G1 X109.64Y95.6
G1 X109.807
G1 X110.185Y95.64
G1 X110.334
G1 X111.889
G1 X113.443Y95.621
G1 X116.261
G1 X119.079Y95.642
G1 X119.022Y95.619
G1 X118.08Y95.203
G1 X117.167Y94.729
G1 X116.287Y94.2
G1 X115.441Y93.617
G1 X114.634Y92.982
G1 X113.866Y92.296
G1 X113.14Y91.562
G1 X112.459Y90.782
G1 X112.072Y90.273
G1 X111.71Y89.747
G1 X111.374Y89.205
G1 X111.064Y88.648
G1 X110.78Y88.076
G1 X110.523Y87.491
G1 X110.294Y86.894
G1 X110.093Y86.285
G1 X109.857Y85.317
G1 X109.696Y84.336
G1 X109.61Y83.344
G1 Y82.347
G1 X109.592Y81.892
G1 X109.521Y81.216
G1 X109.382Y80.55
G1 X109.113Y79.659
G1 X109.069Y79.694
G1 X108.4Y79.967
G1 X107.722Y80.212
G1 X107.034Y80.427
G1 X106.339Y80.612
G1 X105.636Y80.768
G1 X104.928Y80.893
G1 X104.214Y80.988
G1 X103.495Y81.052
G1 X102.871Y81.039
G1 X102.252Y80.967
G1 X101.643Y80.837
G1 X101.046Y80.65
G1 X100.819Y80.529
G1 X100.612Y80.382
G1 X100.427Y80.211
G1 X100.264Y80.019
G1 X100.127Y79.807
G1 X100.018Y79.578
G1 X99.937Y79.335
G1 X99.887Y79.081
G1 X99.811Y78.616
G1 X99.788Y78.149
G1 X99.817Y77.685
G1 X99.897Y77.229
G1 X100.026Y76.785
G1 X100.204Y76.356
G1 X100.43Y75.949
G1 X100.702Y75.565
G1 X101.014Y75.187
G1 X101.351Y74.835
G1 X101.712Y74.509
G1 X102.095Y74.212
G1 X102.498Y73.944
G1 X102.921Y73.707
G1 X103.361Y73.502
G1 X103.816Y73.33
G1 X104.618Y73.081
G1 X105.435Y72.92
G1 X106.259Y72.846
G1 X107.084Y72.857
G1 X107.904Y72.954
G1 X108.711Y73.137
G1 X109.5Y73.404
G1 X110.263Y73.756
G1 X110.603Y73.959
G1 X110.928Y74.182
G1 X111.239Y74.426
G1 X111.532Y74.689
G1 X111.809Y74.971
G1 X112.068Y75.27
G1 X112.308Y75.585
G1 X112.528Y75.917
G1 X112.658Y76.171
G1 X113.287Y76.005
G1 X114.241Y75.8
G1 X115.206Y75.65
G1 X115.804Y75.54
G1 X118.13Y75.053
G1 X120.454Y74.551
G1 X120.687Y74.517
G1 X120.911Y74.501
G1 X121.132Y74.515
G1 X121.347Y74.558
G1 X121.554Y74.63
G1 X121.75Y74.727
G1 X121.932Y74.851
G1 X122.098Y75
G1 X122.245Y75.172
G1 X122.422Y75.407
G1 X122.572Y75.661
G1 X122.691Y75.931
G1 X122.78Y76.213
G1 X123.229Y75.839
G1 X123.652Y75.438
G1 X124.047Y75.01
G1 X124.414Y74.559
G1 X124.751Y74.084
G1 X125.058Y73.588
G1 X125.333Y73.071
G1 X125.576Y72.536
G1 X124.453
G1 X123.333Y72.504
G1 X122.217Y72.411
G1 X121.107Y72.267
G1 X120.004Y72.073
G1 X118.911Y71.828
G1 X117.828Y71.533
G1 X116.758Y71.188
G1 X116.123Y70.941
G1 X115.499Y70.67
G1 X114.886Y70.375
G1 X114.284Y70.056
G1 X113.695Y69.715
G1 X113.119Y69.35
G1 X112.557Y68.964
G1 X112.009Y68.556
G1 X111.427Y68.056
G1 X110.877Y67.524
G1 X110.361Y66.96
G1 X109.88Y66.366
G1 X109.435Y65.743
G1 X109.028Y65.095
G1 X108.659Y64.421
G1 X108.331Y63.724
G1 X108.134Y63.211
G1 X107.965Y62.689
G1 X107.821Y62.16
G1 X107.705Y61.625
G1 X107.616Y61.084
G1 X107.554Y60.539
G1 X107.519Y59.991
G1 Y59.44
G1 Y58.909
G1 X107.546Y58.381
G1 X107.604Y57.858
G1 X107.689Y57.34
G1 X107.8Y56.829
G1 X107.937Y56.325
G1 X108.1Y55.83
G1 X108.289Y55.345
G1 X108.502Y54.87
G1 X108.739Y54.407
G1 X109Y53.956
G1 X109.285Y53.519
G1 X109.593Y53.097
G1 X109.923Y52.69
G1 X110.276Y52.3
G1 X110.651Y51.928
G1 X111.107Y51.516
G1 X111.587Y51.136
G1 X112.088Y50.788
G1 X112.61Y50.472
G1 X113.15Y50.19
G1 X113.707Y49.943
G1 X114.28Y49.731
G1 X114.866Y49.556
G1 X115.492Y49.389
G1 X116.13Y49.282
G1 X116.774Y49.236
G1 X117.422Y49.25
G1 X117.553Y48.986
G1 X117.718Y48.744
G1 X117.915Y48.527
G1 X118.141Y48.341
G1 X118.972Y47.774
G1 X119.851Y47.293
G1 X120.772Y46.902
G1 X121.729Y46.603
G1 X122.952Y46.295
G1 X124.191Y46.069
G1 X125.442Y45.927
G1 X126.701Y45.868
G1 X126.917Y45.565
G1 X127.465Y44.691
G1 X127.96Y43.787
G1 X128.402Y42.856
G1 X128.79Y41.898
G1 X129.167Y40.911
G1 X129.631Y39.715
G1 X130.107Y38.524
G1 X128.556Y38.553
G1 X127.006Y38.593
G1 X126.591
G1 X120.677Y38.556
G1 X114.764Y38.474
G1 X112.585Y38.462
G1 X110.356
G1 X108.31Y38.56
G1 X108.135Y39.213
G1 X107.923Y39.853
G1 X107.673Y40.477
G1 X107.385Y41.083
G1 X107.061Y41.669
G1 X106.7Y42.233
G1 X106.306Y42.773
G1 X105.877Y43.288
G1 X105.416Y43.776
G1 X105.026Y44.089
G1 X104.614Y44.369
G1 X104.184Y44.615
G1 X103.736Y44.826
G1 X103.274Y45.001
G1 X102.799Y45.14
G1 X102.313Y45.24
G1 X101.819Y45.302
G1 X101.347Y45.351
G1 X100.874Y45.374
G1 X100.402
G1 X99.93Y45.34
G1 X99.462Y45.284
G1 X98.996Y45.203
G1 X98.535Y45.095
G1 X98.079Y44.962
G1 X97.612Y44.772
G1 X97.17Y44.537
G1 X96.756Y44.26
G1 X96.373Y43.942
G1 X96.024Y43.586
G1 X95.711Y43.195
G1 X95.438Y42.772
G1 X95.208Y42.32
G1 X95.065Y41.942
G1 X94.958Y41.552
G1 X94.921Y41.696
G1 X94.748Y42.285
G1 X94.547Y42.861
G1 X94.317Y43.424
G1 X94.06Y43.972
G1 X93.777Y44.506
G1 X93.468Y45.023
G1 X93.134Y45.522
G1 X92.775Y46.004
G1 X92.393Y46.467
G1 X91.988Y46.91
G1 X91.561Y47.332
G1 X91.113Y47.732
G1 X90.643Y48.11
G1 X90.154Y48.464
G1 X89.645Y48.794
G1 X89.118Y49.098
G1 X88.602Y49.354
G1 X88.075Y49.582
G1 X87.537Y49.782
G1 X86.99Y49.954
G1 X86.435Y50.098
G1 X85.874Y50.212
G1 X85.306Y50.297
G1 X84.734Y50.353
G1 X85.244Y50.386
G1 X86.066Y50.453
G1 X86.883Y50.563
G1 X87.691Y50.715
G1 X88.49Y50.909
G1 X89.278Y51.145
G1 X90.054Y51.422
G1 X90.815Y51.74
G1 X91.561Y52.098
G1 X92.261Y52.525
G1 X92.918Y53.013
G1 X93.528Y53.561
G1 X94.087Y54.164
G1 X94.445Y54.662
G1 X94.756Y55.186
G1 X95.02Y55.734
G1 X95.235Y56.302
G1 X95.4Y56.887
G1 X95.515Y57.485
G1 X95.578Y58.093
G1 Y58.708
G1 Y59.42
G1 X95.491Y60.122
G1 X95.344Y60.81
G1 X95.135Y61.479
G1 X94.865Y62.126
G1 X94.535Y62.746
G1 X94.148Y63.333
G1 X93.703Y63.885
G1 X93.152Y64.472
G1 X92.576Y65.033
G1 X91.976Y65.567
G1 X91.354Y66.073
G1 X90.711Y66.551
G1 X90.046Y67
G1 X89.363Y67.418
G1 X88.66Y67.807
G1 X87.929Y68.2
G1 X87.187Y68.57
G1 X86.433Y68.915
G1 X85.67Y69.236
G1 X84.897Y69.532
G1 X84.114Y69.803
G1 X83.324Y70.049
G1 X82.525Y70.269
G1 X82.578
G1 X83.704Y70.382
G1 X84.824Y70.533
G1 X85.937Y70.727
G1 X87.042Y70.963
G1 X88.137Y71.241
G1 X89.222Y71.56
G1 X90.294Y71.921
G1 X91.354Y72.323
G1 X92.178Y72.728
G1 X92.964Y73.202
G1 X93.707Y73.741
G1 X94.404Y74.343
G1 X94.711Y74.699
G1 X94.978Y75.083
G1 X95.203Y75.49
G1 X95.385Y75.918
G1 X95.523Y76.362
G1 X95.614Y76.82
G1 X95.658Y77.287
G1 Y77.76
G1 X95.616Y78.225
G1 X95.535Y78.681
G1 X95.411Y79.124
G1 X95.246Y79.553
G1 X95.04Y79.963
G1 X94.795Y80.352
G1 X94.513Y80.717
G1 X94.195Y81.054
G1 X93.733Y81.494
G1 X93.253Y81.912
G1 X92.756Y82.307
G1 X92.242Y82.679
G1 X91.712Y83.028
G1 X91.167Y83.353
G1 X90.607Y83.653
G1 X90.034Y83.928
G1 X89.572Y84.132
G1 X89.904Y84.295
G1 X90.493Y84.608
G1 X91.065Y84.95
G1 X91.62Y85.319
G1 X92.156Y85.715
G1 X92.672Y86.137
G1 X93.167Y86.584
G1 X93.641Y87.055
G1 X94.092Y87.551
G1 X94.502Y88.134
G1 X94.853Y88.75
G1 X95.143Y89.395
G1 X95.371Y90.063
G1 X95.536Y90.75
G1 X95.635Y91.451
G1 X95.668Y92.161
G1 X95.634Y92.877
G1 X95.559Y93.498
G1 X95.431Y94.107
G1 X95.252Y94.7
G1 X95.022Y95.273
G1 X94.742Y95.824
G1 X94.416Y96.349
G1 X94.044Y96.844
G1 X93.627Y97.307
G1 X92.874Y98.047
G1 X92.056Y98.71
G1 X91.181Y99.293
G1 X90.254Y99.79
G1 X89.499Y100.153
G1 X88.733Y100.489
G1 X87.957Y100.797
G1 X87.17Y101.078
G1 X86.375Y101.331
G1 X85.571Y101.556
G1 X84.76Y101.753
G1 X83.941Y101.922
G1 Y102.91
; Layer Corte Pass 3 of 10
G1 X83.834Y103.89
G1 X83.642Y104.856
G1 X83.361Y105.802
G1 X84.103Y105.909
G1 X85.479Y106.138
G1 X86.841Y106.436
G1 X88.187Y106.802
G1 X89.514Y107.237
G1 X90.391Y107.604
G1 X91.242Y108.026
G1 X92.065Y108.501
G1 X92.858Y109.029
G1 X93.371Y109.455
G1 X93.852Y109.918
G1 X94.297Y110.415
G1 X94.705Y110.945
G1 X94.941Y111.351
G1 X95.144Y111.772
G1 X95.315Y112.206
G1 X95.452Y112.652
G1 X95.556Y113.107
G1 X95.625Y113.569
G1 X95.66Y114.036
G1 Y114.507
G1 X95.623Y115.126
G1 X95.534Y115.738
G1 X95.392Y116.339
G1 X95.197Y116.926
G1 X95.683Y116.362
G1 X96.22Y115.769
G1 X96.778Y115.196
G1 X97.356Y114.644
G1 X97.953Y114.115
G1 X98.569Y113.607
G1 X99.203Y113.123
G1 X99.854Y112.662
G1 X100.522Y112.225
G1 X101.384Y111.752
G1 X102.28Y111.355
G1 X103.206Y111.033
G1 X104.156Y110.79
G1 X104.704Y110.705
G1 X105.254Y110.654
G1 X105.805Y110.637
G1 X106.356Y110.653
G1 X106.905Y110.702
G1 X107.451Y110.785
G1 X107.991Y110.901
G1 X108.526Y111.05
G1 X108.866Y111.183
G1 X109.195Y111.34
G1 X109.512Y111.518
G1 X109.816Y111.718
G1 X110.38Y112.177
G1 X110.881Y112.713
G1 X110.934Y112.482
G1 X110.985Y112.288
G1 X111.066Y112.11
G1 X111.175Y111.952
G1 X111.308Y111.815
G1 X111.462Y111.703
G1 X111.634Y111.618
G1 X111.82Y111.565
G1 X112.017Y111.544
G1 X112.22
G1 X112.42Y111.587
G1 X113.004Y111.604
G1 X113.881
G1 X114.757Y111.579
G1 X116.871Y111.556
G1 X119.042Y111.581
G1 X121.213Y111.63
G1 X122.697Y111.403
G1 X124.879Y111.032
G1 X127.046Y110.589
G1 X129.199Y110.075
G1 X131.334Y109.491
G1 X132.163Y109.233
G1 X132.976Y108.933
G1 X133.775Y108.593
G1 X134.555Y108.213
G1 X135.291Y107.793
G1 X136Y107.329
G1 X136.318Y107.07
G1 X136.605Y106.778
G1 X136.859Y106.456
G1 X137.079Y106.107
G1 X137.14Y105.932
G1 X137.178Y105.751
G1 X137.192Y105.567
G1 X137.181Y105.382
G1 X137.13Y105.142
G1 X137.066Y104.965
G1 X136.977Y104.799
G1 X136.864Y104.65
G1 X136.729Y104.518
G1 X136.346Y104.249
G1 X135.94Y104.019
G1 X135.513Y103.831
G1 X135.069Y103.687
G1 X134.027Y103.414
G1 X132.971Y103.211
G1 X131.905Y103.077
G1 X130.831Y103.013
G1 X128.515Y102.973
G1 X126.199Y102.957
G1 X123.882
G1 X121.566Y102.997
G1 X114.539Y103.181
G1 X112.607
G1 X110.677Y103.088
G1 X110.399Y103.049
G1 X110.124Y102.991
G1 X109.855Y102.914
G1 X109.591Y102.817
G1 X109.394Y102.687
G1 X109.223Y102.523
G1 X109.093Y102.325
G1 X108.999Y102.107
G1 X108.799Y101.488
G1 X108.655Y100.854
G1 X108.515Y99.966
G1 X108.446Y99.07
G1 Y98.172
G1 X108.522Y97.276
G1 X108.572Y96.982
G1 X108.642Y96.693
G1 X108.733Y96.409
G1 X108.843Y96.133
G1 X108.938Y95.991
G1 X109.051Y95.868
G1 X109.181Y95.766
G1 X109.325Y95.687
G1 X109.479Y95.631
G1 X109.64Y95.6
G1 X109.807
G1 X110.185Y95.64
G1 X110.334
G1 X111.889
G1 X113.443Y95.621
G1 X116.261
G1 X119.079Y95.642
G1 X119.022Y95.619
G1 X118.08Y95.203
G1 X117.167Y94.729
G1 X116.287Y94.2
G1 X115.441Y93.617
G1 X114.634Y92.982
G1 X113.866Y92.296
G1 X113.14Y91.562
G1 X112.459Y90.782
G1 X112.072Y90.273
G1 X111.71Y89.747
G1 X111.374Y89.205
G1 X111.064Y88.648
G1 X110.78Y88.076
G1 X110.523Y87.491
G1 X110.294Y86.894
G1 X110.093Y86.285
G1 X109.857Y85.317
G1 X109.696Y84.336
G1 X109.61Y83.344
G1 Y82.347
G1 X109.592Y81.892
G1 X109.521Y81.216
G1 X109.382Y80.55
G1 X109.113Y79.659
G1 X109.069Y79.694
G1 X108.4Y79.967
G1 X107.722Y80.212
G1 X107.034Y80.427
G1 X106.339Y80.612
G1 X105.636Y80.768
G1 X104.928Y80.893
G1 X104.214Y80.988
G1 X103.495Y81.052
G1 X102.871Y81.039
G1 X102.252Y80.967
G1 X101.643Y80.837
G1 X101.046Y80.65
G1 X100.819Y80.529
G1 X100.612Y80.382
G1 X100.427Y80.211
G1 X100.264Y80.019
G1 X100.127Y79.807
G1 X100.018Y79.578
G1 X99.937Y79.335
G1 X99.887Y79.081
G1 X99.811Y78.616
G1 X99.788Y78.149
G1 X99.817Y77.685
G1 X99.897Y77.229
G1 X100.026Y76.785
G1 X100.204Y76.356
G1 X100.43Y75.949
G1 X100.702Y75.565
G1 X101.014Y75.187
G1 X101.351Y74.835
G1 X101.712Y74.509
G1 X102.095Y74.212
G1 X102.498Y73.944
G1 X102.921Y73.707
G1 X103.361Y73.502
G1 X103.816Y73.33
G1 X104.618Y73.081
G1 X105.435Y72.92
G1 X106.259Y72.846
G1 X107.084Y72.857
G1 X107.904Y72.954
G1 X108.711Y73.137
G1 X109.5Y73.404
G1 X110.263Y73.756
G1 X110.603Y73.959
G1 X110.928Y74.182
G1 X111.239Y74.426
G1 X111.532Y74.689
G1 X111.809Y74.971
G1 X112.068Y75.27
G1 X112.308Y75.585
G1 X112.528Y75.917
G1 X112.658Y76.171
G1 X113.287Y76.005
G1 X114.241Y75.8
G1 X115.206Y75.65
G1 X115.804Y75.54
G1 X118.13Y75.053
G1 X120.454Y74.551
G1 X120.687Y74.517
G1 X120.911Y74.501
G1 X121.132Y74.515
G1 X121.347Y74.558
G1 X121.554Y74.63
G1 X121.75Y74.727
G1 X121.932Y74.851
G1 X122.098Y75
G1 X122.245Y75.172
G1 X122.422Y75.407
G1 X122.572Y75.661
G1 X122.691Y75.931
G1 X122.78Y76.213
G1 X123.229Y75.839
G1 X123.652Y75.438
G1 X124.047Y75.01
G1 X124.414Y74.559
G1 X124.751Y74.084
G1 X125.058Y73.588
G1 X125.333Y73.071
G1 X125.576Y72.536
G1 X124.453
G1 X123.333Y72.504
G1 X122.217Y72.411
G1 X121.107Y72.267
G1 X120.004Y72.073
G1 X118.911Y71.828
G1 X117.828Y71.533
G1 X116.758Y71.188
G1 X116.123Y70.941
G1 X115.499Y70.67
G1 X114.886Y70.375
G1 X114.284Y70.056
G1 X113.695Y69.715
G1 X113.119Y69.35
G1 X112.557Y68.964
G1 X112.009Y68.556
G1 X111.427Y68.056
G1 X110.877Y67.524
G1 X110.361Y66.96
G1 X109.88Y66.366
G1 X109.435Y65.743
G1 X109.028Y65.095
G1 X108.659Y64.421
G1 X108.331Y63.724
G1 X108.134Y63.211
G1 X107.965Y62.689
G1 X107.821Y62.16
G1 X107.705Y61.625
G1 X107.616Y61.084
G1 X107.554Y60.539
G1 X107.519Y59.991
G1 Y59.44
G1 Y58.909
G1 X107.546Y58.381
G1 X107.604Y57.858
G1 X107.689Y57.34
G1 X107.8Y56.829
G1 X107.937Y56.325
G1 X108.1Y55.83
G1 X108.289Y55.345
G1 X108.502Y54.87
G1 X108.739Y54.407
G1 X109Y53.956
G1 X109.285Y53.519
G1 X109.593Y53.097
G1 X109.923Y52.69
G1 X110.276Y52.3
G1 X110.651Y51.928
G1 X111.107Y51.516
G1 X111.587Y51.136
G1 X112.088Y50.788
G1 X112.61Y50.472
G1 X113.15Y50.19
G1 X113.707Y49.943
G1 X114.28Y49.731
G1 X114.866Y49.556
G1 X115.492Y49.389
G1 X116.13Y49.282
G1 X116.774Y49.236
G1 X117.422Y49.25
G1 X117.553Y48.986
G1 X117.718Y48.744
G1 X117.915Y48.527
G1 X118.141Y48.341
G1 X118.972Y47.774
G1 X119.851Y47.293
G1 X120.772Y46.902
G1 X121.729Y46.603
G1 X122.952Y46.295
G1 X124.191Y46.069
G1 X125.442Y45.927
G1 X126.701Y45.868
G1 X126.917Y45.565
G1 X127.465Y44.691
G1 X127.96Y43.787
G1 X128.402Y42.856
G1 X128.79Y41.898
G1 X129.167Y40.911
G1 X129.631Y39.715
G1 X130.107Y38.524
G1 X128.556Y38.553
G1 X127.006Y38.593
G1 X126.591
G1 X120.677Y38.556
G1 X114.764Y38.474
G1 X112.585Y38.462
G1 X110.356
G1 X108.31Y38.56
G1 X108.135Y39.213
G1 X107.923Y39.853
G1 X107.673Y40.477
G1 X107.385Y41.083
G1 X107.061Y41.669
G1 X106.7Y42.233
G1 X106.306Y42.773
G1 X105.877Y43.288
G1 X105.416Y43.776
G1 X105.026Y44.089
G1 X104.614Y44.369
G1 X104.184Y44.615
G1 X103.736Y44.826
G1 X103.274Y45.001
G1 X102.799Y45.14
G1 X102.313Y45.24
G1 X101.819Y45.302
G1 X101.347Y45.351
G1 X100.874Y45.374
G1 X100.402
G1 X99.93Y45.34
G1 X99.462Y45.284
G1 X98.996Y45.203
G1 X98.535Y45.095
G1 X98.079Y44.962
G1 X97.612Y44.772
G1 X97.17Y44.537
G1 X96.756Y44.26
G1 X96.373Y43.942
G1 X96.024Y43.586
G1 X95.711Y43.195
G1 X95.438Y42.772
G1 X95.208Y42.32
G1 X95.065Y41.942
G1 X94.958Y41.552
G1 X94.921Y41.696
G1 X94.748Y42.285
G1 X94.547Y42.861
G1 X94.317Y43.424
G1 X94.06Y43.972
G1 X93.777Y44.506
G1 X93.468Y45.023
G1 X93.134Y45.522
G1 X92.775Y46.004
G1 X92.393Y46.467
G1 X91.988Y46.91
G1 X91.561Y47.332
G1 X91.113Y47.732
G1 X90.643Y48.11
G1 X90.154Y48.464
G1 X89.645Y48.794
G1 X89.118Y49.098
G1 X88.602Y49.354
G1 X88.075Y49.582
G1 X87.537Y49.782
G1 X86.99Y49.954
G1 X86.435Y50.098
G1 X85.874Y50.212
G1 X85.306Y50.297
G1 X84.734Y50.353
G1 X85.244Y50.386
G1 X86.066Y50.453
G1 X86.883Y50.563
G1 X87.691Y50.715
G1 X88.49Y50.909
G1 X89.278Y51.145
G1 X90.054Y51.422
G1 X90.815Y51.74
G1 X91.561Y52.098
G1 X92.261Y52.525
G1 X92.918Y53.013
G1 X93.528Y53.561
G1 X94.087Y54.164
G1 X94.445Y54.662
G1 X94.756Y55.186
G1 X95.02Y55.734
G1 X95.235Y56.302
G1 X95.4Y56.887
G1 X95.515Y57.485
G1 X95.578Y58.093
G1 Y58.708
G1 Y59.42
G1 X95.491Y60.122
G1 X95.344Y60.81
G1 X95.135Y61.479
G1 X94.865Y62.126
G1 X94.535Y62.746
G1 X94.148Y63.333
G1 X93.703Y63.885
G1 X93.152Y64.472
G1 X92.576Y65.033
G1 X91.976Y65.567
G1 X91.354Y66.073
G1 X90.711Y66.551
G1 X90.046Y67
G1 X89.363Y67.418
G1 X88.66Y67.807
G1 X87.929Y68.2
G1 X87.187Y68.57
G1 X86.433Y68.915
G1 X85.67Y69.236
G1 X84.897Y69.532
G1 X84.114Y69.803
G1 X83.324Y70.049
G1 X82.525Y70.269
G1 X82.578
G1 X83.704Y70.382
G1 X84.824Y70.533
G1 X85.937Y70.727
G1 X87.042Y70.963
G1 X88.137Y71.241
G1 X89.222Y71.56
G1 X90.294Y71.921
G1 X91.354Y72.323
G1 X92.178Y72.728
G1 X92.964Y73.202
G1 X93.707Y73.741
G1 X94.404Y74.343
G1 X94.711Y74.699
G1 X94.978Y75.083
G1 X95.203Y75.49
G1 X95.385Y75.918
G1 X95.523Y76.362
G1 X95.614Y76.82
G1 X95.658Y77.287
G1 Y77.76
G1 X95.616Y78.225
G1 X95.535Y78.681
G1 X95.411Y79.124
G1 X95.246Y79.553
G1 X95.04Y79.963
G1 X94.795Y80.352
G1 X94.513Y80.717
G1 X94.195Y81.054
G1 X93.733Y81.494
G1 X93.253Y81.912
G1 X92.756Y82.307
G1 X92.242Y82.679
G1 X91.712Y83.028
G1 X91.167Y83.353
G1 X90.607Y83.653
G1 X90.034Y83.928
G1 X89.572Y84.132
G1 X89.904Y84.295
G1 X90.493Y84.608
G1 X91.065Y84.95
G1 X91.62Y85.319
G1 X92.156Y85.715
G1 X92.672Y86.137
G1 X93.167Y86.584
G1 X93.641Y87.055
G1 X94.092Y87.551
G1 X94.502Y88.134
G1 X94.853Y88.75
G1 X95.143Y89.395
G1 X95.371Y90.063
G1 X95.536Y90.75
G1 X95.635Y91.451
G1 X95.668Y92.161
G1 X95.634Y92.877
G1 X95.559Y93.498
G1 X95.431Y94.107
G1 X95.252Y94.7
G1 X95.022Y95.273
G1 X94.742Y95.824
G1 X94.416Y96.349
G1 X94.044Y96.844
G1 X93.627Y97.307
G1 X92.874Y98.047
G1 X92.056Y98.71
G1 X91.181Y99.293
G1 X90.254Y99.79
G1 X89.499Y100.153
G1 X88.733Y100.489
G1 X87.957Y100.797
G1 X87.17Y101.078
G1 X86.375Y101.331
G1 X85.571Y101.556
G1 X84.76Y101.753
G1 X83.941Y101.922
G1 Y102.91
; Layer Corte Pass 4 of 10
G1 X83.834Y103.89
G1 X83.642Y104.856
G1 X83.361Y105.802
G1 X84.103Y105.909
G1 X85.479Y106.138
G1 X86.841Y106.436
G1 X88.187Y106.802
G1 X89.514Y107.237
G1 X90.391Y107.604
G1 X91.242Y108.026
G1 X92.065Y108.501
G1 X92.858Y109.029
G1 X93.371Y109.455
G1 X93.852Y109.918
G1 X94.297Y110.415
G1 X94.705Y110.945
G1 X94.941Y111.351
G1 X95.144Y111.772
G1 X95.315Y112.206
G1 X95.452Y112.652
G1 X95.556Y113.107
G1 X95.625Y113.569
G1 X95.66Y114.036
G1 Y114.507
G1 X95.623Y115.126
G1 X95.534Y115.738
G1 X95.392Y116.339
G1 X95.197Y116.926
G1 X95.683Y116.362
G1 X96.22Y115.769
G1 X96.778Y115.196
G1 X97.356Y114.644
G1 X97.953Y114.115
G1 X98.569Y113.607
G1 X99.203Y113.123
G1 X99.854Y112.662
G1 X100.522Y112.225
G1 X101.384Y111.752
G1 X102.28Y111.355
G1 X103.206Y111.033
G1 X104.156Y110.79
G1 X104.704Y110.705
G1 X105.254Y110.654
G1 X105.805Y110.637
G1 X106.356Y110.653
G1 X106.905Y110.702
G1 X107.451Y110.785
G1 X107.991Y110.901
G1 X108.526Y111.05
G1 X108.866Y111.183
G1 X109.195Y111.34
G1 X109.512Y111.518
G1 X109.816Y111.718
G1 X110.38Y112.177
G1 X110.881Y112.713
G1 X110.934Y112.482
G1 X110.985Y112.288
G1 X111.066Y112.11
G1 X111.175Y111.952
G1 X111.308Y111.815
G1 X111.462Y111.703
G1 X111.634Y111.618
G1 X111.82Y111.565
G1 X112.017Y111.544
G1 X112.22
G1 X112.42Y111.587
G1 X113.004Y111.604
G1 X113.881
G1 X114.757Y111.579
G1 X116.871Y111.556
G1 X119.042Y111.581
G1 X121.213Y111.63
G1 X122.697Y111.403
G1 X124.879Y111.032
G1 X127.046Y110.589
G1 X129.199Y110.075
G1 X131.334Y109.491
G1 X132.163Y109.233
G1 X132.976Y108.933
G1 X133.775Y108.593
G1 X134.555Y108.213
G1 X135.291Y107.793
G1 X136Y107.329
G1 X136.318Y107.07
G1 X136.605Y106.778
G1 X136.859Y106.456
G1 X137.079Y106.107
G1 X137.14Y105.932
G1 X137.178Y105.751
G1 X137.192Y105.567
G1 X137.181Y105.382
G1 X137.13Y105.142
G1 X137.066Y104.965
G1 X136.977Y104.799
G1 X136.864Y104.65
G1 X136.729Y104.518
G1 X136.346Y104.249
G1 X135.94Y104.019
G1 X135.513Y103.831
G1 X135.069Y103.687
G1 X134.027Y103.414
G1 X132.971Y103.211
G1 X131.905Y103.077
G1 X130.831Y103.013
G1 X128.515Y102.973
G1 X126.199Y102.957
G1 X123.882
G1 X121.566Y102.997
G1 X114.539Y103.181
G1 X112.607
G1 X110.677Y103.088
G1 X110.399Y103.049
G1 X110.124Y102.991
G1 X109.855Y102.914
G1 X109.591Y102.817
G1 X109.394Y102.687
G1 X109.223Y102.523
G1 X109.093Y102.325
G1 X108.999Y102.107
G1 X108.799Y101.488
G1 X108.655Y100.854
G1 X108.515Y99.966
G1 X108.446Y99.07
G1 Y98.172
G1 X108.522Y97.276
G1 X108.572Y96.982
G1 X108.642Y96.693
G1 X108.733Y96.409
G1 X108.843Y96.133
G1 X108.938Y95.991
G1 X109.051Y95.868
G1 X109.181Y95.766
G1 X109.325Y95.687
G1 X109.479Y95.631
G1 X109.64Y95.6
G1 X109.807
G1 X110.185Y95.64
G1 X110.334
G1 X111.889
G1 X113.443Y95.621
G1 X116.261
G1 X119.079Y95.642
G1 X119.022Y95.619
G1 X118.08Y95.203
G1 X117.167Y94.729
G1 X116.287Y94.2
G1 X115.441Y93.617
G1 X114.634Y92.982
G1 X113.866Y92.296
G1 X113.14Y91.562
G1 X112.459Y90.782
G1 X112.072Y90.273
G1 X111.71Y89.747
G1 X111.374Y89.205
G1 X111.064Y88.648
G1 X110.78Y88.076
G1 X110.523Y87.491
G1 X110.294Y86.894
G1 X110.093Y86.285
G1 X109.857Y85.317
G1 X109.696Y84.336
G1 X109.61Y83.344
G1 Y82.347
G1 X109.592Y81.892
G1 X109.521Y81.216
G1 X109.382Y80.55
G1 X109.113Y79.659
G1 X109.069Y79.694
G1 X108.4Y79.967
G1 X107.722Y80.212
G1 X107.034Y80.427
G1 X106.339Y80.612
G1 X105.636Y80.768
G1 X104.928Y80.893
G1 X104.214Y80.988
G1 X103.495Y81.052
G1 X102.871Y81.039
G1 X102.252Y80.967
G1 X101.643Y80.837
G1 X101.046Y80.65
G1 X100.819Y80.529
G1 X100.612Y80.382
G1 X100.427Y80.211
G1 X100.264Y80.019
G1 X100.127Y79.807
G1 X100.018Y79.578
G1 X99.937Y79.335
G1 X99.887Y79.081
G1 X99.811Y78.616
G1 X99.788Y78.149
G1 X99.817Y77.685
G1 X99.897Y77.229
G1 X100.026Y76.785
G1 X100.204Y76.356
G1 X100.43Y75.949
G1 X100.702Y75.565
G1 X101.014Y75.187
G1 X101.351Y74.835
G1 X101.712Y74.509
G1 X102.095Y74.212
G1 X102.498Y73.944
G1 X102.921Y73.707
G1 X103.361Y73.502
G1 X103.816Y73.33
G1 X104.618Y73.081
G1 X105.435Y72.92
G1 X106.259Y72.846
G1 X107.084Y72.857
G1 X107.904Y72.954
G1 X108.711Y73.137
G1 X109.5Y73.404
G1 X110.263Y73.756
G1 X110.603Y73.959
G1 X110.928Y74.182
G1 X111.239Y74.426
G1 X111.532Y74.689
G1 X111.809Y74.971
G1 X112.068Y75.27
G1 X112.308Y75.585
G1 X112.528Y75.917
G1 X112.658Y76.171
G1 X113.287Y76.005
G1 X114.241Y75.8
G1 X115.206Y75.65
G1 X115.804Y75.54
G1 X118.13Y75.053
G1 X120.454Y74.551
G1 X120.687Y74.517
G1 X120.911Y74.501
G1 X121.132Y74.515
G1 X121.347Y74.558
G1 X121.554Y74.63
G1 X121.75Y74.727
G1 X121.932Y74.851
G1 X122.098Y75
G1 X122.245Y75.172
G1 X122.422Y75.407
G1 X122.572Y75.661
G1 X122.691Y75.931
G1 X122.78Y76.213
G1 X123.229Y75.839
G1 X123.652Y75.438
G1 X124.047Y75.01
G1 X124.414Y74.559
G1 X124.751Y74.084
G1 X125.058Y73.588
G1 X125.333Y73.071
G1 X125.576Y72.536
G1 X124.453
G1 X123.333Y72.504
G1 X122.217Y72.411
G1 X121.107Y72.267
G1 X120.004Y72.073
G1 X118.911Y71.828
G1 X117.828Y71.533
G1 X116.758Y71.188
G1 X116.123Y70.941
G1 X115.499Y70.67
G1 X114.886Y70.375
G1 X114.284Y70.056
G1 X113.695Y69.715
G1 X113.119Y69.35
G1 X112.557Y68.964
G1 X112.009Y68.556
G1 X111.427Y68.056
G1 X110.877Y67.524
G1 X110.361Y66.96
G1 X109.88Y66.366
G1 X109.435Y65.743
G1 X109.028Y65.095
G1 X108.659Y64.421
G1 X108.331Y63.724
G1 X108.134Y63.211
G1 X107.965Y62.689
G1 X107.821Y62.16
G1 X107.705Y61.625
G1 X107.616Y61.084
G1 X107.554Y60.539
G1 X107.519Y59.991
G1 Y59.44
G1 Y58.909
G1 X107.546Y58.381
G1 X107.604Y57.858
G1 X107.689Y57.34
G1 X107.8Y56.829
G1 X107.937Y56.325
G1 X108.1Y55.83
G1 X108.289Y55.345
G1 X108.502Y54.87
G1 X108.739Y54.407
G1 X109Y53.956
G1 X109.285Y53.519
G1 X109.593Y53.097
G1 X109.923Y52.69
G1 X110.276Y52.3
G1 X110.651Y51.928
G1 X111.107Y51.516
G1 X111.587Y51.136
G1 X112.088Y50.788
G1 X112.61Y50.472
G1 X113.15Y50.19
G1 X113.707Y49.943
G1 X114.28Y49.731
G1 X114.866Y49.556
G1 X115.492Y49.389
G1 X116.13Y49.282
G1 X116.774Y49.236
G1 X117.422Y49.25
G1 X117.553Y48.986
G1 X117.718Y48.744
G1 X117.915Y48.527
G1 X118.141Y48.341
G1 X118.972Y47.774
G1 X119.851Y47.293
G1 X120.772Y46.902
G1 X121.729Y46.603
G1 X122.952Y46.295
G1 X124.191Y46.069
G1 X125.442Y45.927
G1 X126.701Y45.868
G1 X126.917Y45.565
G1 X127.465Y44.691
G1 X127.96Y43.787
G1 X128.402Y42.856
G1 X128.79Y41.898
G1 X129.167Y40.911
G1 X129.631Y39.715
G1 X130.107Y38.524
G1 X128.556Y38.553
G1 X127.006Y38.593
G1 X126.591
G1 X120.677Y38.556
G1 X114.764Y38.474
G1 X112.585Y38.462
G1 X110.356
G1 X108.31Y38.56
G1 X108.135Y39.213
G1 X107.923Y39.853
G1 X107.673Y40.477
G1 X107.385Y41.083
G1 X107.061Y41.669
G1 X106.7Y42.233
G1 X106.306Y42.773
G1 X105.877Y43.288
G1 X105.416Y43.776
G1 X105.026Y44.089
G1 X104.614Y44.369
G1 X104.184Y44.615
G1 X103.736Y44.826
G1 X103.274Y45.001
G1 X102.799Y45.14
G1 X102.313Y45.24
G1 X101.819Y45.302
G1 X101.347Y45.351
G1 X100.874Y45.374
G1 X100.402
G1 X99.93Y45.34
G1 X99.462Y45.284
G1 X98.996Y45.203
G1 X98.535Y45.095
G1 X98.079Y44.962
G1 X97.612Y44.772
G1 X97.17Y44.537
G1 X96.756Y44.26
G1 X96.373Y43.942
G1 X96.024Y43.586
G1 X95.711Y43.195
G1 X95.438Y42.772
G1 X95.208Y42.32
G1 X95.065Y41.942
G1 X94.958Y41.552
G1 X94.921Y41.696
G1 X94.748Y42.285
G1 X94.547Y42.861
G1 X94.317Y43.424
G1 X94.06Y43.972
G1 X93.777Y44.506
G1 X93.468Y45.023
G1 X93.134Y45.522
G1 X92.775Y46.004
G1 X92.393Y46.467
G1 X91.988Y46.91
G1 X91.561Y47.332
G1 X91.113Y47.732
G1 X90.643Y48.11
G1 X90.154Y48.464
G1 X89.645Y48.794
G1 X89.118Y49.098
G1 X88.602Y49.354
G1 X88.075Y49.582
G1 X87.537Y49.782
G1 X86.99Y49.954
G1 X86.435Y50.098
G1 X85.874Y50.212
G1 X85.306Y50.297
G1 X84.734Y50.353
G1 X85.244Y50.386
G1 X86.066Y50.453
G1 X86.883Y50.563
G1 X87.691Y50.715
G1 X88.49Y50.909
G1 X89.278Y51.145
G1 X90.054Y51.422
G1 X90.815Y51.74
G1 X91.561Y52.098
G1 X92.261Y52.525
G1 X92.918Y53.013
G1 X93.528Y53.561
G1 X94.087Y54.164
G1 X94.445Y54.662
G1 X94.756Y55.186
G1 X95.02Y55.734
G1 X95.235Y56.302
G1 X95.4Y56.887
G1 X95.515Y57.485
G1 X95.578Y58.093
G1 Y58.708
G1 Y59.42
G1 X95.491Y60.122
G1 X95.344Y60.81
G1 X95.135Y61.479
G1 X94.865Y62.126
G1 X94.535Y62.746
G1 X94.148Y63.333
G1 X93.703Y63.885
G1 X93.152Y64.472
G1 X92.576Y65.033
G1 X91.976Y65.567
G1 X91.354Y66.073
G1 X90.711Y66.551
G1 X90.046Y67
G1 X89.363Y67.418
G1 X88.66Y67.807
G1 X87.929Y68.2
G1 X87.187Y68.57
G1 X86.433Y68.915
G1 X85.67Y69.236
G1 X84.897Y69.532
G1 X84.114Y69.803
G1 X83.324Y70.049
G1 X82.525Y70.269
G1 X82.578
G1 X83.704Y70.382
G1 X84.824Y70.533
G1 X85.937Y70.727
G1 X87.042Y70.963
G1 X88.137Y71.241
G1 X89.222Y71.56
G1 X90.294Y71.921
G1 X91.354Y72.323
G1 X92.178Y72.728
G1 X92.964Y73.202
G1 X93.707Y73.741
G1 X94.404Y74.343
G1 X94.711Y74.699
G1 X94.978Y75.083
G1 X95.203Y75.49
G1 X95.385Y75.918
G1 X95.523Y76.362
G1 X95.614Y76.82
G1 X95.658Y77.287
G1 Y77.76
G1 X95.616Y78.225
G1 X95.535Y78.681
G1 X95.411Y79.124
G1 X95.246Y79.553
G1 X95.04Y79.963
G1 X94.795Y80.352
G1 X94.513Y80.717
G1 X94.195Y81.054
G1 X93.733Y81.494
G1 X93.253Y81.912
G1 X92.756Y82.307
G1 X92.242Y82.679
G1 X91.712Y83.028
G1 X91.167Y83.353
G1 X90.607Y83.653
G1 X90.034Y83.928
G1 X89.572Y84.132
G1 X89.904Y84.295
G1 X90.493Y84.608
G1 X91.065Y84.95
G1 X91.62Y85.319
G1 X92.156Y85.715
G1 X92.672Y86.137
G1 X93.167Y86.584
G1 X93.641Y87.055
G1 X94.092Y87.551
G1 X94.502Y88.134
G1 X94.853Y88.75
G1 X95.143Y89.395
G1 X95.371Y90.063
G1 X95.536Y90.75
G1 X95.635Y91.451
G1 X95.668Y92.161
G1 X95.634Y92.877
G1 X95.559Y93.498
G1 X95.431Y94.107
G1 X95.252Y94.7
G1 X95.022Y95.273
G1 X94.742Y95.824
G1 X94.416Y96.349
G1 X94.044Y96.844
G1 X93.627Y97.307
G1 X92.874Y98.047
G1 X92.056Y98.71
G1 X91.181Y99.293
G1 X90.254Y99.79
G1 X89.499Y100.153
G1 X88.733Y100.489
G1 X87.957Y100.797
G1 X87.17Y101.078
G1 X86.375Y101.331
G1 X85.571Y101.556
G1 X84.76Y101.753
G1 X83.941Y101.922
G1 Y102.91
; Layer Corte Pass 5 of 10
G1 X83.834Y103.89
G1 X83.642Y104.856
G1 X83.361Y105.802
G1 X84.103Y105.909
G1 X85.479Y106.138
G1 X86.841Y106.436
G1 X88.187Y106.802
G1 X89.514Y107.237
G1 X90.391Y107.604
G1 X91.242Y108.026
G1 X92.065Y108.501
G1 X92.858Y109.029
G1 X93.371Y109.455
G1 X93.852Y109.918
G1 X94.297Y110.415
G1 X94.705Y110.945
G1 X94.941Y111.351
G1 X95.144Y111.772
G1 X95.315Y112.206
G1 X95.452Y112.652
G1 X95.556Y113.107
G1 X95.625Y113.569
G1 X95.66Y114.036
G1 Y114.507
G1 X95.623Y115.126
G1 X95.534Y115.738
G1 X95.392Y116.339
G1 X95.197Y116.926
G1 X95.683Y116.362
G1 X96.22Y115.769
G1 X96.778Y115.196
G1 X97.356Y114.644
G1 X97.953Y114.115
G1 X98.569Y113.607
G1 X99.203Y113.123
G1 X99.854Y112.662
G1 X100.522Y112.225
G1 X101.384Y111.752
G1 X102.28Y111.355
G1 X103.206Y111.033
G1 X104.156Y110.79
G1 X104.704Y110.705
G1 X105.254Y110.654
G1 X105.805Y110.637
G1 X106.356Y110.653
G1 X106.905Y110.702
G1 X107.451Y110.785
G1 X107.991Y110.901
G1 X108.526Y111.05
G1 X108.866Y111.183
G1 X109.195Y111.34
G1 X109.512Y111.518
G1 X109.816Y111.718
G1 X110.38Y112.177
G1 X110.881Y112.713
G1 X110.934Y112.482
G1 X110.985Y112.288
G1 X111.066Y112.11
G1 X111.175Y111.952
G1 X111.308Y111.815
G1 X111.462Y111.703
G1 X111.634Y111.618
G1 X111.82Y111.565
G1 X112.017Y111.544
G1 X112.22
G1 X112.42Y111.587
G1 X113.004Y111.604
G1 X113.881
G1 X114.757Y111.579
G1 X116.871Y111.556
G1 X119.042Y111.581
G1 X121.213Y111.63
G1 X122.697Y111.403
G1 X124.879Y111.032
G1 X127.046Y110.589
G1 X129.199Y110.075
G1 X131.334Y109.491
G1 X132.163Y109.233
G1 X132.976Y108.933
G1 X133.775Y108.593
G1 X134.555Y108.213
G1 X135.291Y107.793
G1 X136Y107.329
G1 X136.318Y107.07
G1 X136.605Y106.778
G1 X136.859Y106.456
G1 X137.079Y106.107
G1 X137.14Y105.932
G1 X137.178Y105.751
G1 X137.192Y105.567
G1 X137.181Y105.382
G1 X137.13Y105.142
G1 X137.066Y104.965
G1 X136.977Y104.799
G1 X136.864Y104.65
G1 X136.729Y104.518
G1 X136.346Y104.249
G1 X135.94Y104.019
G1 X135.513Y103.831
G1 X135.069Y103.687
G1 X134.027Y103.414
G1 X132.971Y103.211
G1 X131.905Y103.077
G1 X130.831Y103.013
G1 X128.515Y102.973
G1 X126.199Y102.957
G1 X123.882
G1 X121.566Y102.997
G1 X114.539Y103.181
G1 X112.607
G1 X110.677Y103.088
G1 X110.399Y103.049
G1 X110.124Y102.991
G1 X109.855Y102.914
G1 X109.591Y102.817
G1 X109.394Y102.687
G1 X109.223Y102.523
G1 X109.093Y102.325
G1 X108.999Y102.107
G1 X108.799Y101.488
G1 X108.655Y100.854
G1 X108.515Y99.966
G1 X108.446Y99.07
G1 Y98.172
G1 X108.522Y97.276
G1 X108.572Y96.982
G1 X108.642Y96.693
G1 X108.733Y96.409
G1 X108.843Y96.133
G1 X108.938Y95.991
G1 X109.051Y95.868
G1 X109.181Y95.766
G1 X109.325Y95.687
G1 X109.479Y95.631
G1 X109.64Y95.6
G1 X109.807
G1 X110.185Y95.64
G1 X110.334
G1 X111.889
G1 X113.443Y95.621
G1 X116.261
G1 X119.079Y95.642
G1 X119.022Y95.619
G1 X118.08Y95.203
G1 X117.167Y94.729
G1 X116.287Y94.2
G1 X115.441Y93.617
G1 X114.634Y92.982
G1 X113.866Y92.296
G1 X113.14Y91.562
G1 X112.459Y90.782
G1 X112.072Y90.273
G1 X111.71Y89.747
G1 X111.374Y89.205
G1 X111.064Y88.648
G1 X110.78Y88.076
G1 X110.523Y87.491
G1 X110.294Y86.894
G1 X110.093Y86.285
G1 X109.857Y85.317
G1 X109.696Y84.336
G1 X109.61Y83.344
G1 Y82.347
G1 X109.592Y81.892
G1 X109.521Y81.216
G1 X109.382Y80.55
G1 X109.113Y79.659
G1 X109.069Y79.694
G1 X108.4Y79.967
G1 X107.722Y80.212
G1 X107.034Y80.427
G1 X106.339Y80.612
G1 X105.636Y80.768
G1 X104.928Y80.893
G1 X104.214Y80.988
G1 X103.495Y81.052
G1 X102.871Y81.039
G1 X102.252Y80.967
G1 X101.643Y80.837
G1 X101.046Y80.65
G1 X100.819Y80.529
G1 X100.612Y80.382
G1 X100.427Y80.211
G1 X100.264Y80.019
G1 X100.127Y79.807
G1 X100.018Y79.578
G1 X99.937Y79.335
G1 X99.887Y79.081
G1 X99.811Y78.616
G1 X99.788Y78.149
G1 X99.817Y77.685
G1 X99.897Y77.229
G1 X100.026Y76.785
G1 X100.204Y76.356
G1 X100.43Y75.949
G1 X100.702Y75.565
G1 X101.014Y75.187
G1 X101.351Y74.835
G1 X101.712Y74.509
G1 X102.095Y74.212
G1 X102.498Y73.944
G1 X102.921Y73.707
G1 X103.361Y73.502
G1 X103.816Y73.33
G1 X104.618Y73.081
G1 X105.435Y72.92
G1 X106.259Y72.846
G1 X107.084Y72.857
G1 X107.904Y72.954
G1 X108.711Y73.137
G1 X109.5Y73.404
G1 X110.263Y73.756
G1 X110.603Y73.959
G1 X110.928Y74.182
G1 X111.239Y74.426
G1 X111.532Y74.689
G1 X111.809Y74.971
G1 X112.068Y75.27
G1 X112.308Y75.585
G1 X112.528Y75.917
G1 X112.658Y76.171
G1 X113.287Y76.005
G1 X114.241Y75.8
G1 X115.206Y75.65
G1 X115.804Y75.54
G1 X118.13Y75.053
G1 X120.454Y74.551
G1 X120.687Y74.517
G1 X120.911Y74.501
G1 X121.132Y74.515
G1 X121.347Y74.558
G1 X121.554Y74.63
G1 X121.75Y74.727
G1 X121.932Y74.851
G1 X122.098Y75
G1 X122.245Y75.172
G1 X122.422Y75.407
G1 X122.572Y75.661
G1 X122.691Y75.931
G1 X122.78Y76.213
G1 X123.229Y75.839
G1 X123.652Y75.438
G1 X124.047Y75.01
G1 X124.414Y74.559
G1 X124.751Y74.084
G1 X125.058Y73.588
G1 X125.333Y73.071
G1 X125.576Y72.536
G1 X124.453
G1 X123.333Y72.504
G1 X122.217Y72.411
G1 X121.107Y72.267
G1 X120.004Y72.073
G1 X118.911Y71.828
G1 X117.828Y71.533
G1 X116.758Y71.188
G1 X116.123Y70.941
G1 X115.499Y70.67
G1 X114.886Y70.375
G1 X114.284Y70.056
G1 X113.695Y69.715
G1 X113.119Y69.35
G1 X112.557Y68.964
G1 X112.009Y68.556
G1 X111.427Y68.056
G1 X110.877Y67.524
G1 X110.361Y66.96
G1 X109.88Y66.366
G1 X109.435Y65.743
G1 X109.028Y65.095
G1 X108.659Y64.421
G1 X108.331Y63.724
G1 X108.134Y63.211
G1 X107.965Y62.689
G1 X107.821Y62.16
G1 X107.705Y61.625
G1 X107.616Y61.084
G1 X107.554Y60.539
G1 X107.519Y59.991
G1 Y59.44
G1 Y58.909
G1 X107.546Y58.381
G1 X107.604Y57.858
G1 X107.689Y57.34
G1 X107.8Y56.829
G1 X107.937Y56.325
G1 X108.1Y55.83
G1 X108.289Y55.345
G1 X108.502Y54.87
G1 X108.739Y54.407
G1 X109Y53.956
G1 X109.285Y53.519
G1 X109.593Y53.097
G1 X109.923Y52.69
G1 X110.276Y52.3
G1 X110.651Y51.928
G1 X111.107Y51.516
G1 X111.587Y51.136
G1 X112.088Y50.788
G1 X112.61Y50.472
G1 X113.15Y50.19
G1 X113.707Y49.943
G1 X114.28Y49.731
G1 X114.866Y49.556
G1 X115.492Y49.389
G1 X116.13Y49.282
G1 X116.774Y49.236
G1 X117.422Y49.25
G1 X117.553Y48.986
G1 X117.718Y48.744
G1 X117.915Y48.527
G1 X118.141Y48.341
G1 X118.972Y47.774
G1 X119.851Y47.293
G1 X120.772Y46.902
G1 X121.729Y46.603
G1 X122.952Y46.295
G1 X124.191Y46.069
G1 X125.442Y45.927
G1 X126.701Y45.868
G1 X126.917Y45.565
G1 X127.465Y44.691
G1 X127.96Y43.787
G1 X128.402Y42.856
G1 X128.79Y41.898
G1 X129.167Y40.911
G1 X129.631Y39.715
G1 X130.107Y38.524
G1 X128.556Y38.553
G1 X127.006Y38.593
G1 X126.591
G1 X120.677Y38.556
G1 X114.764Y38.474
G1 X112.585Y38.462
G1 X110.356
G1 X108.31Y38.56
G1 X108.135Y39.213
G1 X107.923Y39.853
G1 X107.673Y40.477
G1 X107.385Y41.083
G1 X107.061Y41.669
G1 X106.7Y42.233
G1 X106.306Y42.773
G1 X105.877Y43.288
G1 X105.416Y43.776
G1 X105.026Y44.089
G1 X104.614Y44.369
G1 X104.184Y44.615
G1 X103.736Y44.826
G1 X103.274Y45.001
G1 X102.799Y45.14
G1 X102.313Y45.24
G1 X101.819Y45.302
G1 X101.347Y45.351
G1 X100.874Y45.374
G1 X100.402
G1 X99.93Y45.34
G1 X99.462Y45.284
G1 X98.996Y45.203
G1 X98.535Y45.095
G1 X98.079Y44.962
G1 X97.612Y44.772
G1 X97.17Y44.537
G1 X96.756Y44.26
G1 X96.373Y43.942
G1 X96.024Y43.586
G1 X95.711Y43.195
G1 X95.438Y42.772
G1 X95.208Y42.32
G1 X95.065Y41.942
G1 X94.958Y41.552
G1 X94.921Y41.696
G1 X94.748Y42.285
G1 X94.547Y42.861
G1 X94.317Y43.424
G1 X94.06Y43.972
G1 X93.777Y44.506
G1 X93.468Y45.023
G1 X93.134Y45.522
G1 X92.775Y46.004
G1 X92.393Y46.467
G1 X91.988Y46.91
G1 X91.561Y47.332
G1 X91.113Y47.732
G1 X90.643Y48.11
G1 X90.154Y48.464
G1 X89.645Y48.794
G1 X89.118Y49.098
G1 X88.602Y49.354
G1 X88.075Y49.582
G1 X87.537Y49.782
G1 X86.99Y49.954
G1 X86.435Y50.098
G1 X85.874Y50.212
G1 X85.306Y50.297
G1 X84.734Y50.353
G1 X85.244Y50.386
G1 X86.066Y50.453
G1 X86.883Y50.563
G1 X87.691Y50.715
G1 X88.49Y50.909
G1 X89.278Y51.145
G1 X90.054Y51.422
G1 X90.815Y51.74
G1 X91.561Y52.098
G1 X92.261Y52.525
G1 X92.918Y53.013
G1 X93.528Y53.561
G1 X94.087Y54.164
G1 X94.445Y54.662
G1 X94.756Y55.186
G1 X95.02Y55.734
G1 X95.235Y56.302
G1 X95.4Y56.887
G1 X95.515Y57.485
G1 X95.578Y58.093
G1 Y58.708
G1 Y59.42
G1 X95.491Y60.122
G1 X95.344Y60.81
G1 X95.135Y61.479
G1 X94.865Y62.126
G1 X94.535Y62.746
G1 X94.148Y63.333
G1 X93.703Y63.885
G1 X93.152Y64.472
G1 X92.576Y65.033
G1 X91.976Y65.567
G1 X91.354Y66.073
G1 X90.711Y66.551
G1 X90.046Y67
G1 X89.363Y67.418
G1 X88.66Y67.807
G1 X87.929Y68.2
G1 X87.187Y68.57
G1 X86.433Y68.915
G1 X85.67Y69.236
G1 X84.897Y69.532
G1 X84.114Y69.803
G1 X83.324Y70.049
G1 X82.525Y70.269
G1 X82.578
G1 X83.704Y70.382
G1 X84.824Y70.533
G1 X85.937Y70.727
G1 X87.042Y70.963
G1 X88.137Y71.241
G1 X89.222Y71.56
G1 X90.294Y71.921
G1 X91.354Y72.323
G1 X92.178Y72.728
G1 X92.964Y73.202
G1 X93.707Y73.741
G1 X94.404Y74.343
G1 X94.711Y74.699
G1 X94.978Y75.083
G1 X95.203Y75.49
G1 X95.385Y75.918
G1 X95.523Y76.362
G1 X95.614Y76.82
G1 X95.658Y77.287
G1 Y77.76
G1 X95.616Y78.225
G1 X95.535Y78.681
G1 X95.411Y79.124
G1 X95.246Y79.553
G1 X95.04Y79.963
G1 X94.795Y80.352
G1 X94.513Y80.717
G1 X94.195Y81.054
G1 X93.733Y81.494
G1 X93.253Y81.912
G1 X92.756Y82.307
G1 X92.242Y82.679
G1 X91.712Y83.028
G1 X91.167Y83.353
G1 X90.607Y83.653
G1 X90.034Y83.928
G1 X89.572Y84.132
G1 X89.904Y84.295
G1 X90.493Y84.608
G1 X91.065Y84.95
G1 X91.62Y85.319
G1 X92.156Y85.715
G1 X92.672Y86.137
G1 X93.167Y86.584
G1 X93.641Y87.055
G1 X94.092Y87.551
G1 X94.502Y88.134
G1 X94.853Y88.75
G1 X95.143Y89.395
G1 X95.371Y90.063
G1 X95.536Y90.75
G1 X95.635Y91.451
G1 X95.668Y92.161
G1 X95.634Y92.877
G1 X95.559Y93.498
G1 X95.431Y94.107
G1 X95.252Y94.7
G1 X95.022Y95.273
G1 X94.742Y95.824
G1 X94.416Y96.349
G1 X94.044Y96.844
G1 X93.627Y97.307
G1 X92.874Y98.047
G1 X92.056Y98.71
G1 X91.181Y99.293
G1 X90.254Y99.79
G1 X89.499Y100.153
G1 X88.733Y100.489
G1 X87.957Y100.797
G1 X87.17Y101.078
G1 X86.375Y101.331
G1 X85.571Y101.556
G1 X84.76Y101.753
G1 X83.941Y101.922
G1 Y102.91
; Layer Corte Pass 6 of 10
G1 X83.834Y103.89
G1 X83.642Y104.856
G1 X83.361Y105.802
G1 X84.103Y105.909
G1 X85.479Y106.138
G1 X86.841Y106.436
G1 X88.187Y106.802
G1 X89.514Y107.237
G1 X90.391Y107.604
G1 X91.242Y108.026
G1 X92.065Y108.501
G1 X92.858Y109.029
G1 X93.371Y109.455
G1 X93.852Y109.918
G1 X94.297Y110.415
G1 X94.705Y110.945
G1 X94.941Y111.351
G1 X95.144Y111.772
G1 X95.315Y112.206
G1 X95.452Y112.652
G1 X95.556Y113.107
G1 X95.625Y113.569
G1 X95.66Y114.036
G1 Y114.507
G1 X95.623Y115.126
G1 X95.534Y115.738
G1 X95.392Y116.339
G1 X95.197Y116.926
G1 X95.683Y116.362
G1 X96.22Y115.769
G1 X96.778Y115.196
G1 X97.356Y114.644
G1 X97.953Y114.115
G1 X98.569Y113.607
G1 X99.203Y113.123
G1 X99.854Y112.662
G1 X100.522Y112.225
G1 X101.384Y111.752
G1 X102.28Y111.355
G1 X103.206Y111.033
G1 X104.156Y110.79
G1 X104.704Y110.705
G1 X105.254Y110.654
G1 X105.805Y110.637
G1 X106.356Y110.653
G1 X106.905Y110.702
G1 X107.451Y110.785
G1 X107.991Y110.901
G1 X108.526Y111.05
G1 X108.866Y111.183
G1 X109.195Y111.34
G1 X109.512Y111.518
G1 X109.816Y111.718
G1 X110.38Y112.177
G1 X110.881Y112.713
G1 X110.934Y112.482
G1 X110.985Y112.288
G1 X111.066Y112.11
G1 X111.175Y111.952
G1 X111.308Y111.815
G1 X111.462Y111.703
G1 X111.634Y111.618
G1 X111.82Y111.565
G1 X112.017Y111.544
G1 X112.22
G1 X112.42Y111.587
G1 X113.004Y111.604
G1 X113.881
G1 X114.757Y111.579
G1 X116.871Y111.556
G1 X119.042Y111.581
G1 X121.213Y111.63
G1 X122.697Y111.403
G1 X124.879Y111.032
G1 X127.046Y110.589
G1 X129.199Y110.075
G1 X131.334Y109.491
G1 X132.163Y109.233
G1 X132.976Y108.933
G1 X133.775Y108.593
G1 X134.555Y108.213
G1 X135.291Y107.793
G1 X136Y107.329
G1 X136.318Y107.07
G1 X136.605Y106.778
G1 X136.859Y106.456
G1 X137.079Y106.107
G1 X137.14Y105.932
G1 X137.178Y105.751
G1 X137.192Y105.567
G1 X137.181Y105.382
G1 X137.13Y105.142
G1 X137.066Y104.965
G1 X136.977Y104.799
G1 X136.864Y104.65
G1 X136.729Y104.518
G1 X136.346Y104.249
G1 X135.94Y104.019
G1 X135.513Y103.831
G1 X135.069Y103.687
G1 X134.027Y103.414
G1 X132.971Y103.211
G1 X131.905Y103.077
G1 X130.831Y103.013
G1 X128.515Y102.973
G1 X126.199Y102.957
G1 X123.882
G1 X121.566Y102.997
G1 X114.539Y103.181
G1 X112.607
G1 X110.677Y103.088
G1 X110.399Y103.049
G1 X110.124Y102.991
G1 X109.855Y102.914
G1 X109.591Y102.817
G1 X109.394Y102.687
G1 X109.223Y102.523
G1 X109.093Y102.325
G1 X108.999Y102.107
G1 X108.799Y101.488
G1 X108.655Y100.854
G1 X108.515Y99.966
G1 X108.446Y99.07
G1 Y98.172
G1 X108.522Y97.276
G1 X108.572Y96.982
G1 X108.642Y96.693
G1 X108.733Y96.409
G1 X108.843Y96.133
G1 X108.938Y95.991
G1 X109.051Y95.868
G1 X109.181Y95.766
G1 X109.325Y95.687
G1 X109.479Y95.631
G1 X109.64Y95.6
G1 X109.807
G1 X110.185Y95.64
G1 X110.334
G1 X111.889
G1 X113.443Y95.621
G1 X116.261
G1 X119.079Y95.642
G1 X119.022Y95.619
G1 X118.08Y95.203
G1 X117.167Y94.729
G1 X116.287Y94.2
G1 X115.441Y93.617
G1 X114.634Y92.982
G1 X113.866Y92.296
G1 X113.14Y91.562
G1 X112.459Y90.782
G1 X112.072Y90.273
G1 X111.71Y89.747
G1 X111.374Y89.205
G1 X111.064Y88.648
G1 X110.78Y88.076
G1 X110.523Y87.491
G1 X110.294Y86.894
G1 X110.093Y86.285
G1 X109.857Y85.317
G1 X109.696Y84.336
G1 X109.61Y83.344
G1 Y82.347
G1 X109.592Y81.892
G1 X109.521Y81.216
G1 X109.382Y80.55
G1 X109.113Y79.659
G1 X109.069Y79.694
G1 X108.4Y79.967
G1 X107.722Y80.212
G1 X107.034Y80.427
G1 X106.339Y80.612
G1 X105.636Y80.768
G1 X104.928Y80.893
G1 X104.214Y80.988
G1 X103.495Y81.052
G1 X102.871Y81.039
G1 X102.252Y80.967
G1 X101.643Y80.837
G1 X101.046Y80.65
G1 X100.819Y80.529
G1 X100.612Y80.382
G1 X100.427Y80.211
G1 X100.264Y80.019
G1 X100.127Y79.807
G1 X100.018Y79.578
G1 X99.937Y79.335
G1 X99.887Y79.081
G1 X99.811Y78.616
G1 X99.788Y78.149
G1 X99.817Y77.685
G1 X99.897Y77.229
G1 X100.026Y76.785
G1 X100.204Y76.356
G1 X100.43Y75.949
G1 X100.702Y75.565
G1 X101.014Y75.187
G1 X101.351Y74.835
G1 X101.712Y74.509
G1 X102.095Y74.212
G1 X102.498Y73.944
G1 X102.921Y73.707
G1 X103.361Y73.502
G1 X103.816Y73.33
G1 X104.618Y73.081
G1 X105.435Y72.92
G1 X106.259Y72.846
G1 X107.084Y72.857
G1 X107.904Y72.954
G1 X108.711Y73.137
G1 X109.5Y73.404
G1 X110.263Y73.756
G1 X110.603Y73.959
G1 X110.928Y74.182
G1 X111.239Y74.426
G1 X111.532Y74.689
G1 X111.809Y74.971
G1 X112.068Y75.27
G1 X112.308Y75.585
G1 X112.528Y75.917
G1 X112.658Y76.171
G1 X113.287Y76.005
G1 X114.241Y75.8
G1 X115.206Y75.65
G1 X115.804Y75.54
G1 X118.13Y75.053
G1 X120.454Y74.551
G1 X120.687Y74.517
G1 X120.911Y74.501
G1 X121.132Y74.515
G1 X121.347Y74.558
G1 X121.554Y74.63
G1 X121.75Y74.727
G1 X121.932Y74.851
G1 X122.098Y75
G1 X122.245Y75.172
G1 X122.422Y75.407
G1 X122.572Y75.661
G1 X122.691Y75.931
G1 X122.78Y76.213
G1 X123.229Y75.839
G1 X123.652Y75.438
G1 X124.047Y75.01
G1 X124.414Y74.559
G1 X124.751Y74.084
G1 X125.058Y73.588
G1 X125.333Y73.071
G1 X125.576Y72.536
G1 X124.453
G1 X123.333Y72.504
G1 X122.217Y72.411
G1 X121.107Y72.267
G1 X120.004Y72.073
G1 X118.911Y71.828
G1 X117.828Y71.533
G1 X116.758Y71.188
G1 X116.123Y70.941
G1 X115.499Y70.67
G1 X114.886Y70.375
G1 X114.284Y70.056
G1 X113.695Y69.715
G1 X113.119Y69.35
G1 X112.557Y68.964
G1 X112.009Y68.556
G1 X111.427Y68.056
G1 X110.877Y67.524
G1 X110.361Y66.96
G1 X109.88Y66.366
G1 X109.435Y65.743
G1 X109.028Y65.095
G1 X108.659Y64.421
G1 X108.331Y63.724
G1 X108.134Y63.211
G1 X107.965Y62.689
G1 X107.821Y62.16
G1 X107.705Y61.625
G1 X107.616Y61.084
G1 X107.554Y60.539
G1 X107.519Y59.991
G1 Y59.44
G1 Y58.909
G1 X107.546Y58.381
G1 X107.604Y57.858
G1 X107.689Y57.34
G1 X107.8Y56.829
G1 X107.937Y56.325
G1 X108.1Y55.83
G1 X108.289Y55.345
G1 X108.502Y54.87
G1 X108.739Y54.407
G1 X109Y53.956
G1 X109.285Y53.519
G1 X109.593Y53.097
G1 X109.923Y52.69
G1 X110.276Y52.3
G1 X110.651Y51.928
G1 X111.107Y51.516
G1 X111.587Y51.136
G1 X112.088Y50.788
G1 X112.61Y50.472
G1 X113.15Y50.19
G1 X113.707Y49.943
G1 X114.28Y49.731
G1 X114.866Y49.556
G1 X115.492Y49.389
G1 X116.13Y49.282
G1 X116.774Y49.236
G1 X117.422Y49.25
G1 X117.553Y48.986
G1 X117.718Y48.744
G1 X117.915Y48.527
G1 X118.141Y48.341
G1 X118.972Y47.774
G1 X119.851Y47.293
G1 X120.772Y46.902
G1 X121.729Y46.603
G1 X122.952Y46.295
G1 X124.191Y46.069
G1 X125.442Y45.927
G1 X126.701Y45.868
G1 X126.917Y45.565
G1 X127.465Y44.691
G1 X127.96Y43.787
G1 X128.402Y42.856
G1 X128.79Y41.898
G1 X129.167Y40.911
G1 X129.631Y39.715
G1 X130.107Y38.524
G1 X128.556Y38.553
G1 X127.006Y38.593
G1 X126.591
G1 X120.677Y38.556
G1 X114.764Y38.474
G1 X112.585Y38.462
G1 X110.356
G1 X108.31Y38.56
G1 X108.135Y39.213
G1 X107.923Y39.853
G1 X107.673Y40.477
G1 X107.385Y41.083
G1 X107.061Y41.669
G1 X106.7Y42.233
G1 X106.306Y42.773
G1 X105.877Y43.288
G1 X105.416Y43.776
G1 X105.026Y44.089
G1 X104.614Y44.369
G1 X104.184Y44.615
G1 X103.736Y44.826
G1 X103.274Y45.001
G1 X102.799Y45.14
G1 X102.313Y45.24
G1 X101.819Y45.302
G1 X101.347Y45.351
G1 X100.874Y45.374
G1 X100.402
G1 X99.93Y45.34
G1 X99.462Y45.284
G1 X98.996Y45.203
G1 X98.535Y45.095
G1 X98.079Y44.962
G1 X97.612Y44.772
G1 X97.17Y44.537
G1 X96.756Y44.26
G1 X96.373Y43.942
G1 X96.024Y43.586
G1 X95.711Y43.195
G1 X95.438Y42.772
G1 X95.208Y42.32
G1 X95.065Y41.942
G1 X94.958Y41.552
G1 X94.921Y41.696
G1 X94.748Y42.285
G1 X94.547Y42.861
G1 X94.317Y43.424
G1 X94.06Y43.972
G1 X93.777Y44.506
G1 X93.468Y45.023
G1 X93.134Y45.522
G1 X92.775Y46.004
G1 X92.393Y46.467
G1 X91.988Y46.91
G1 X91.561Y47.332
G1 X91.113Y47.732
G1 X90.643Y48.11
G1 X90.154Y48.464
G1 X89.645Y48.794
G1 X89.118Y49.098
G1 X88.602Y49.354
G1 X88.075Y49.582
G1 X87.537Y49.782
G1 X86.99Y49.954
G1 X86.435Y50.098
G1 X85.874Y50.212
G1 X85.306Y50.297
G1 X84.734Y50.353
G1 X85.244Y50.386
G1 X86.066Y50.453
G1 X86.883Y50.563
G1 X87.691Y50.715
G1 X88.49Y50.909
G1 X89.278Y51.145
G1 X90.054Y51.422
G1 X90.815Y51.74
G1 X91.561Y52.098
G1 X92.261Y52.525
G1 X92.918Y53.013
G1 X93.528Y53.561
G1 X94.087Y54.164
G1 X94.445Y54.662
G1 X94.756Y55.186
G1 X95.02Y55.734
G1 X95.235Y56.302
G1 X95.4Y56.887
G1 X95.515Y57.485
G1 X95.578Y58.093
G1 Y58.708
G1 Y59.42
G1 X95.491Y60.122
G1 X95.344Y60.81
G1 X95.135Y61.479
G1 X94.865Y62.126
G1 X94.535Y62.746
G1 X94.148Y63.333
G1 X93.703Y63.885
G1 X93.152Y64.472
G1 X92.576Y65.033
G1 X91.976Y65.567
G1 X91.354Y66.073
G1 X90.711Y66.551
G1 X90.046Y67
G1 X89.363Y67.418
G1 X88.66Y67.807
G1 X87.929Y68.2
G1 X87.187Y68.57
G1 X86.433Y68.915
G1 X85.67Y69.236
G1 X84.897Y69.532
G1 X84.114Y69.803
G1 X83.324Y70.049
G1 X82.525Y70.269
G1 X82.578
G1 X83.704Y70.382
G1 X84.824Y70.533
G1 X85.937Y70.727
G1 X87.042Y70.963
G1 X88.137Y71.241
G1 X89.222Y71.56
G1 X90.294Y71.921
G1 X91.354Y72.323
G1 X92.178Y72.728
G1 X92.964Y73.202
G1 X93.707Y73.741
G1 X94.404Y74.343
G1 X94.711Y74.699
G1 X94.978Y75.083
G1 X95.203Y75.49
G1 X95.385Y75.918
G1 X95.523Y76.362
G1 X95.614Y76.82
G1 X95.658Y77.287
G1 Y77.76
G1 X95.616Y78.225
G1 X95.535Y78.681
G1 X95.411Y79.124
G1 X95.246Y79.553
G1 X95.04Y79.963
G1 X94.795Y80.352
G1 X94.513Y80.717
G1 X94.195Y81.054
G1 X93.733Y81.494
G1 X93.253Y81.912
G1 X92.756Y82.307
G1 X92.242Y82.679
G1 X91.712Y83.028
G1 X91.167Y83.353
G1 X90.607Y83.653
G1 X90.034Y83.928
G1 X89.572Y84.132
G1 X89.904Y84.295
G1 X90.493Y84.608
G1 X91.065Y84.95
G1 X91.62Y85.319
G1 X92.156Y85.715
G1 X92.672Y86.137
G1 X93.167Y86.584
G1 X93.641Y87.055
G1 X94.092Y87.551
G1 X94.502Y88.134
G1 X94.853Y88.75
G1 X95.143Y89.395
G1 X95.371Y90.063
G1 X95.536Y90.75
G1 X95.635Y91.451
G1 X95.668Y92.161
G1 X95.634Y92.877
G1 X95.559Y93.498
G1 X95.431Y94.107
G1 X95.252Y94.7
G1 X95.022Y95.273
G1 X94.742Y95.824
G1 X94.416Y96.349
G1 X94.044Y96.844
G1 X93.627Y97.307
G1 X92.874Y98.047
G1 X92.056Y98.71
G1 X91.181Y99.293
G1 X90.254Y99.79
G1 X89.499Y100.153
G1 X88.733Y100.489
G1 X87.957Y100.797
G1 X87.17Y101.078
G1 X86.375Y101.331
G1 X85.571Y101.556
G1 X84.76Y101.753
G1 X83.941Y101.922
G1 Y102.91
; Layer Corte Pass 7 of 10
G1 X83.834Y103.89
G1 X83.642Y104.856
G1 X83.361Y105.802
G1 X84.103Y105.909
G1 X85.479Y106.138
G1 X86.841Y106.436
G1 X88.187Y106.802
G1 X89.514Y107.237
G1 X90.391Y107.604
G1 X91.242Y108.026
G1 X92.065Y108.501
G1 X92.858Y109.029
G1 X93.371Y109.455
G1 X93.852Y109.918
G1 X94.297Y110.415
G1 X94.705Y110.945
G1 X94.941Y111.351
G1 X95.144Y111.772
G1 X95.315Y112.206
G1 X95.452Y112.652
G1 X95.556Y113.107
G1 X95.625Y113.569
G1 X95.66Y114.036
G1 Y114.507
G1 X95.623Y115.126
G1 X95.534Y115.738
G1 X95.392Y116.339
G1 X95.197Y116.926
G1 X95.683Y116.362
G1 X96.22Y115.769
G1 X96.778Y115.196
G1 X97.356Y114.644
G1 X97.953Y114.115
G1 X98.569Y113.607
G1 X99.203Y113.123
G1 X99.854Y112.662
G1 X100.522Y112.225
G1 X101.384Y111.752
G1 X102.28Y111.355
G1 X103.206Y111.033
G1 X104.156Y110.79
G1 X104.704Y110.705
G1 X105.254Y110.654
G1 X105.805Y110.637
G1 X106.356Y110.653
G1 X106.905Y110.702
G1 X107.451Y110.785
G1 X107.991Y110.901
G1 X108.526Y111.05
G1 X108.866Y111.183
G1 X109.195Y111.34
G1 X109.512Y111.518
G1 X109.816Y111.718
G1 X110.38Y112.177
G1 X110.881Y112.713
G1 X110.934Y112.482
G1 X110.985Y112.288
G1 X111.066Y112.11
G1 X111.175Y111.952
G1 X111.308Y111.815
G1 X111.462Y111.703
G1 X111.634Y111.618
G1 X111.82Y111.565
G1 X112.017Y111.544
G1 X112.22
G1 X112.42Y111.587
G1 X113.004Y111.604
G1 X113.881
G1 X114.757Y111.579
G1 X116.871Y111.556
G1 X119.042Y111.581
G1 X121.213Y111.63
G1 X122.697Y111.403
G1 X124.879Y111.032
G1 X127.046Y110.589
G1 X129.199Y110.075
G1 X131.334Y109.491
G1 X132.163Y109.233
G1 X132.976Y108.933
G1 X133.775Y108.593
G1 X134.555Y108.213
G1 X135.291Y107.793
G1 X136Y107.329
G1 X136.318Y107.07
G1 X136.605Y106.778
G1 X136.859Y106.456
G1 X137.079Y106.107
G1 X137.14Y105.932
G1 X137.178Y105.751
G1 X137.192Y105.567
G1 X137.181Y105.382
G1 X137.13Y105.142
G1 X137.066Y104.965
G1 X136.977Y104.799
G1 X136.864Y104.65
G1 X136.729Y104.518
G1 X136.346Y104.249
G1 X135.94Y104.019
G1 X135.513Y103.831
G1 X135.069Y103.687
G1 X134.027Y103.414
