; LightBurn 1.3.01
; GRBL device profile, absolute coords
; Bounds: X25.45 Y113.06 to X407.95 Y176.56
G00 G17 G40 G21 G54
G90
M4
; Scan @ 3000 mm/min, 100% power
M8
G0 X158.588Y113.064
; Layer Grabado etapa1
G91
G0 X1.25
G1 X0.258F3000S1000
G1 X185.724F5000S0
G1 X0.259F3000S1000
G0 X1.25
G0 X0.808Y0.1
G0 X-1.25
G1 X-1.884
G1 X-184.1F5000S0
G1 X-1.883F3000S1000
G0 X-1.25
G0 X-0.298Y0.1
G0 X1.25
G1 X2.566
G1 X183.417F5000S0
G1 X2.566F3000S1000
G0 X1.25
G0 X0.301Y0.1
G0 X-1.25
G1 X-3.086
G1 X-182.897F5000S0
G1 X-3.086F3000S1000
G0 X-1.25
G0 X-0.184Y0.1
G0 X1.25
G1 X3.521
G1 X182.462F5000S0
G1 X3.521F3000S1000
G0 X1.25
G0 X0.209Y0.1
G0 X-1.25
G1 X-3.878
G1 X-182.105F5000S0
G1 X-3.878F3000S1000
G0 X-1.25
G0 X-0.133Y0.1
G0 X1.25
G1 X4.203
G1 X181.78F5000S0
G1 X4.203F3000S1000
G0 X1.25
G0 X0.174Y0.1
G0 X-1.25
G1 X-4.494
G1 X-181.489F5000S0
G1 X-4.494F3000S1000
G0 X-1.25
G0 X-0.105Y0.1
G0 X1.25
G1 X4.751
G1 X181.232F5000S0
G1 X4.751F3000S1000
G0 X1.25
G0 X0.152Y0.1
G0 X-1.25
G1 X-4.996
G1 X-180.987F5000S0
G1 X-4.996F3000S1000
G0 X-1.25
G0 X-0.089Y0.1
G0 X1.25
G1 X5.214
G1 X180.769F5000S0
G1 X5.214F3000S1000
G0 X1.25
G0 X0.122Y0.1
G0 X-1.25
G1 X-5.409
G1 X-180.574F5000S0
G1 X-5.409F3000S1000
G0 X-1.25
G0 X-0.073Y0.1
G0 X1.25
G1 X5.605
G1 X180.378F5000S0
G1 X5.605F3000S1000
G0 X1.25
G0 X0.112Y0.1
G0 X-1.25
G1 X-5.778
G1 X-180.205F5000S0
G1 X-5.778F3000S1000
G0 X-1.25
G0 X-0.054Y0.1
G0 X1.25
G1 X5.939
G1 X180.044F5000S0
G1 X5.939F3000S1000
G0 X1.25
G0 X0.106Y0.1
G0 X-1.25
G1 X-6.099
G1 X-179.883F5000S0
G1 X-6.1F3000S1000
G0 X-1.25
G0 X-0.054Y0.1
G0 X1.25
G1 X6.259
G1 X179.724F5000S0
G1 X6.259F3000S1000
G0 X1.25
G0 X0.095Y0.1
G0 X-1.25
G1 X-6.408
G1 X-179.575F5000S0
G1 X-6.408F3000S1000
G0 X-1.25
G0 X-0.044Y0.1
G0 X1.25
G1 X6.546
G1 X179.437F5000S0
G1 X6.546F3000S1000
G0 X1.25
G0 X0.095Y0.1
G0 X-1.25
G1 X-6.681
G1 X-179.302F5000S0
G1 X-6.681F3000S1000
G0 X-1.25
G0 X-0.041Y0.1
G0 X1.25
G1 X6.813
G1 X179.17F5000S0
G1 X6.813F3000S1000
G0 X1.25
G0 X0.084Y0.1
G0 X-1.25
G1 X-6.938
G1 X-179.045F5000S0
G1 X-6.938F3000S1000
G0 X-1.25
G0 X-0.04Y0.1
G0 X1.25
G1 X7.062
G1 X178.921F5000S0
G1 X7.062F3000S1000
G0 X1.25
G0 X0.084Y0.1
G0 X-1.25
G1 X-7.178
G1 X-178.805F5000S0
G1 X-7.178F3000S1000
G0 X-1.25
G0 X-0.028Y0.1
G0 X1.25
G1 X7.286
G1 X178.696F5000S0
G1 X7.287F3000S1000
G0 X1.25
G0 X0.074Y0.1
G0 X-1.25
G1 X-7.389
G1 X-178.594F5000S0
G1 X-7.389F3000S1000
G0 X-1.25
G0 X-0.028Y0.1
G0 X1.25
G1 X2.895
G1 X0.606S0
G1 X3.991S1000
G1 X178.49F5000S0
G1 X2.896F3000S1000
G1 X0.606S0
G1 X3.991S1000
G0 X1.25
G0 X0.074Y0.1
G0 X-1.25
G1 X-3.917
G1 X-0.875S0
G1 X-2.803S1000
G1 X-178.388F5000S0
G1 X-3.917F3000S1000
G1 X-0.875S0
G1 X-2.803S1000
G0 X-1.25
G0 X-0.023Y0.1
G0 X1.25
G1 X2.737
G1 X1.084F5000S0
G1 X3.869F3000S1000
G1 X178.293F5000S0
G1 X2.737F3000S1000
G1 X1.084F5000S0
G1 X3.869F3000S1000
G0 X1.25
G0 X0.066Y0.1
G0 X-1.25
G1 X-3.83
G1 X-1.241F5000S0
G1 X-2.702F3000S1000
G1 X-178.21F5000S0
G1 X-3.83F3000S1000
G1 X-1.239F5000S0
G1 X-2.703F3000S1000
G0 X-1.25
G0 X-0.017Y0.1
G0 X1.25
G1 X2.668
G1 X1.374F5000S0
G1 X3.813F3000S1000
G1 X178.128F5000S0
G1 X2.668F3000S1000
G1 X1.374F5000S0
G1 X3.813F3000S1000
G0 X1.25
G0 X0.066Y0.1
G0 X-1.25
G1 X-3.806
G1 X-1.492F5000S0
G1 X-2.64F3000S1000
G1 X-178.046F5000S0
G1 X-3.805F3000S1000
G1 X-1.492F5000S0
G1 X-2.64F3000S1000
G0 X-1.25
G0 X-0.017Y0.1
G0 X1.25
G1 X2.621
G1 X1.589F5000S0
G1 X3.81F3000S1000
G1 X177.963F5000S0
G1 X2.621F3000S1000
G1 X1.589F5000S0
G1 X3.81F3000S1000
G0 X1.25
G0 X0.065Y0.1
G0 X-1.25
G1 X-3.821
G1 X-1.68F5000S0
G1 X-2.6F3000S1000
G1 X-177.882F5000S0
G1 X-3.821F3000S1000
G1 X-1.68F5000S0
G1 X-2.6F3000S1000
G0 X-1.25
G0 X-0.009Y0.1
G0 X1.25
G1 X2.578
G1 X1.759F5000S0
G1 X3.839F3000S1000
G1 X177.807F5000S0
G1 X2.578F3000S1000
G1 X1.759F5000S0
G1 X3.839F3000S1000
G0 X1.25
G0 X0.065Y0.1
G0 X-1.25
G1 X-3.857
G1 X-1.83F5000S0
G1 X-2.564F3000S1000
G1 X-177.732F5000S0
G1 X-3.857F3000S1000
G1 X-1.83F5000S0
G1 X-2.564F3000S1000
G0 X-1.25
G0 X-0.009Y0.1
G0 X1.25
G1 X2.55
G1 X1.9F5000S0
G1 X3.876F3000S1000
G1 X177.657F5000S0
G1 X2.55F3000S1000
G1 X1.9F5000S0
G1 X3.876F3000S1000
G1 X33.512F5000S0
G1 X0.658F3000S1000
G0 X1.25
G0 X0.954Y0.1
G0 X-1.25
G1 X-2.602
G1 X-32.457F5000S0
G1 X-3.893F3000S1000
G1 X-1.967F5000S0
G1 X-2.541F3000S1000
G1 X-177.582F5000S0
G1 X-3.893F3000S1000
G1 X-1.967F5000S0
G1 X-2.541F3000S1000
G0 X-1.25
G0 X-0.009Y0.1
G0 X1.25
G1 X2.538
G1 X2.026F5000S0
G1 X3.911F3000S1000
G1 X177.508F5000S0
G1 X2.538F3000S1000
G1 X2.026F5000S0
G1 X3.911F3000S1000
G1 X31.883F5000S0
G1 X3.605F3000S1000
G0 X1.25
G0 X0.388Y0.1
G0 X-1.25
G1 X-4.352
G1 X-31.466F5000S0
G1 X-3.926F3000S1000
G1 X-2.08F5000S0
G1 X-2.537F3000S1000
G1 X-177.44F5000S0
G1 X-3.926F3000S1000
G1 X-2.08F5000S0
G1 X-2.537F3000S1000
G0 X-1.25
G0 X-0.009Y0.1
G0 X1.25
G1 X2.536
G1 X2.131F5000S0
G1 X3.941F3000S1000
G1 X177.375F5000S0
G1 X2.536F3000S1000
G1 X2.131F5000S0
G1 X3.941F3000S1000
G1 X31.122F5000S0
G1 X4.948F3000S1000
G0 X1.25
G0 X0.278Y0.1
G0 X-1.25
G1 X-5.479
G1 X-30.812F5000S0
G1 X-3.958F3000S1000
G1 X-2.175F5000S0
G1 X-2.542F3000S1000
G1 X-177.308F5000S0
G1 X-3.958F3000S1000
G1 X-2.175F5000S0
G1 X-2.542F3000S1000
G0 X-1.25
G0 X-0.008Y0.1
G0 X1.25
G1 X2.545
G1 X2.22F5000S0
G1 X3.974F3000S1000
G1 X177.244F5000S0
G1 X2.545F3000S1000
G1 X2.22F5000S0
G1 X3.974F3000S1000
G1 X30.525F5000S0
G1 X5.958F3000S1000
G0 X1.25
G0 X0.217Y0.1
G0 X-1.25
G1 X-6.374
G1 X-30.269F5000S0
G1 X-3.991F3000S1000
G1 X-2.265F5000S0
G1 X-2.544F3000S1000
G1 X-177.183F5000S0
G1 X-3.991F3000S1000
G1 X-2.265F5000S0
G1 X-2.544F3000S1000
G0 X-1.25
G0 Y0.1
G0 X1.247
G1 X2.543
G1 X2.31F5000S0
G1 X4.006F3000S1000
G1 X177.124F5000S0
G1 X2.543F3000S1000
G1 X2.31F5000S0
G1 X4.006F3000S1000
G1 X30.024F5000S0
G1 X6.751F3000S1000
G0 X1.25
G0 X0.187Y0.1
G0 X-1.25
G1 X-7.108
G1 X-29.797F5000S0
G1 X-4.027F3000S1000
G1 X-2.351F5000S0
G1 X-2.542F3000S1000
G1 X-177.064F5000S0
G1 X-4.026F3000S1000
G1 X-2.351F5000S0
G1 X-2.542F3000S1000
G0 X-1.25
G0 Y0.1
G0 X1.247
G1 X2.54
G1 X2.39F5000S0
G1 X4.049F3000S1000
G1 X177.004F5000S0
G1 X2.54F3000S1000
G1 X2.39F5000S0
G1 X4.049F3000S1000
G1 X29.578F5000S0
G1 X7.437F3000S1000
G0 X1.25
G0 X0.162Y0.1
G0 X-1.25
G1 X-7.746
G1 X-29.375F5000S0
G1 X-4.072F3000S1000
G1 X-2.427F5000S0
G1 X-2.54F3000S1000
G1 X-176.944F5000S0
G1 X-4.072F3000S1000
G1 X-2.427F5000S0
G1 X-2.54F3000S1000
G0 X-1.25
G0 Y0.1
G0 X1.246
G1 X2.539
G1 X2.466F5000S0
G1 X4.095F3000S1000
G1 X176.883F5000S0
G1 X2.539F3000S1000
G1 X2.466F5000S0
G1 X4.095F3000S1000
G1 X29.173F5000S0
G1 X8.052F3000S1000
G0 X1.25
G0 X0.144Y0.1
G0 X-1.25
G1 X-8.325
G1 X-28.989F5000S0
G1 X-4.117F3000S1000
G1 X-2.504F5000S0
G1 X-2.537F3000S1000
G1 X-176.825F5000S0
G1 X-4.117F3000S1000
G1 X-2.504F5000S0
G1 X-2.537F3000S1000
G0 X-1.25
G0 Y0.1
G0 X1.246
G1 X2.537
G1 X2.542F5000S0
G1 X4.131F3000S1000
G1 X176.773F5000S0
G1 X2.537F3000S1000
G1 X2.542F5000S0
G1 X4.131F3000S1000
G1 X28.812F5000S0
G1 X8.594F3000S1000
G0 X1.25
G0 X0.141Y0.1
G0 X-1.25
G1 X-8.852
G1 X-28.647F5000S0
G1 X-4.148F3000S1000
G1 X-2.573F5000S0
G1 X-2.539F3000S1000
G1 X-176.723F5000S0
G1 X-4.148F3000S1000
G1 X-2.573F5000S0
G1 X-2.539F3000S1000
G0 X-1.25
G0 Y0.1
G0 X1.252
G1 X2.538
G1 X2.599F5000S0
G1 X4.169F3000S1000
G1 X176.677F5000S0
G1 X2.538F3000S1000
G1 X2.599F5000S0
G1 X4.169F3000S1000
G1 X28.485F5000S0
G1 X9.097F3000S1000
G0 X1.25
G0 X0.123Y0.1
G0 X-1.25
G1 X-9.331
G1 X-28.326F5000S0
G1 X-4.19F3000S1000
G1 X-2.624F5000S0
G1 X-2.538F3000S1000
G1 X-176.631F5000S0
G1 X-4.19F3000S1000
G1 X-2.624F5000S0
G1 X-2.538F3000S1000
G0 X-1.25
G0 Y0.1
G0 X1.253
G1 X2.536
G1 X2.65F5000S0
G1 X4.211F3000S1000
G1 X176.586F5000S0
G1 X2.536F3000S1000
G1 X2.65F5000S0
G1 X4.211F3000S1000
G1 X28.179F5000S0
G1 X9.552F3000S1000
G0 X1.25
G0 X0.123Y0.1
G0 X-1.25
G1 X-9.775
G1 X-28.031F5000S0
G1 X-4.232F3000S1000
G1 X-2.676F5000S0
G1 X-2.535F3000S1000
G1 X-176.54F5000S0
G1 X-4.232F3000S1000
G1 X-2.676F5000S0
G1 X-2.535F3000S1000
G0 X-1.25
G0 Y0.1
G0 X1.252
G1 X2.534
G1 X2.701F5000S0
G1 X4.254F3000S1000
G1 X176.494F5000S0
G1 X2.534F3000S1000
G1 X2.702F5000S0
G1 X4.254F3000S1000
G1 X27.887F5000S0
G1 X9.979F3000S1000
G0 X1.25
G0 X0.108Y0.1
G0 X-1.25
G1 X-10.174
G1 X-27.752F5000S0
G1 X-4.275F3000S1000
G1 X-2.727F5000S0
G1 X-2.533F3000S1000
G1 X-176.448F5000S0
G1 X-4.276F3000S1000
G1 X-2.726F5000S0
G1 X-2.533F3000S1000
G0 X-1.25
G0 Y0.1
G0 X1.252
G1 X2.532
G1 X2.749F5000S0
G1 X4.3F3000S1000
G1 X176.402F5000S0
G1 X2.532F3000S1000
G1 X2.749F5000S0
G1 X4.3F3000S1000
G1 X27.616F5000S0
G1 X10.369F3000S1000
G0 X1.25
G0 X0.107Y0.1
G0 X-1.25
G1 X-10.559
G1 X-27.485F5000S0
G1 X-4.324F3000S1000
G1 X-2.772F5000S0
G1 X-2.531F3000S1000
G1 X-176.356F5000S0
G1 X-4.324F3000S1000
G1 X-2.772F5000S0
G1 X-2.531F3000S1000
G0 X-1.25
G0 Y0.1
G0 X1.254
G1 X2.529
G1 X2.794F5000S0
G1 X4.348F3000S1000
G1 X176.312F5000S0
G1 X2.529F3000S1000
G1 X2.794F5000S0
G1 X4.348F3000S1000
G1 X27.361F5000S0
G1 X10.73F3000S1000
G0 X1.25
G0 X0.095Y0.1
G0 X-1.25
G1 X-10.902
G1 X-27.244F5000S0
G1 X-4.364F3000S1000
G1 X-2.814F5000S0
G1 X-2.525F3000S1000
G1 X-176.28F5000S0
G1 X-4.364F3000S1000
G1 X-2.814F5000S0
G1 X-2.525F3000S1000
G0 X-1.25
G0 X0.008Y0.1
G0 X1.25
G1 X2.524
G1 X2.831F5000S0
G1 X4.38F3000S1000
G1 X176.248F5000S0
G1 X2.524F3000S1000
G1 X2.831F5000S0
G1 X4.38F3000S1000
G1 X27.13F5000S0
G1 X3.627F3000S1000
G1 X1.165F5000S0
G1 X6.278F3000S1000
G0 X1.25
G0 X15.168Y0.1
G0 X-1.25
G1 X-0.63
G1 X-14.443F5000S0
G1 X-6.089F3000S1000
G1 X-1.764F5000S0
G1 X-3.378F3000S1000
G1 X-27.024F5000S0
G1 X-4.396F3000S1000
G1 X-2.848F5000S0
G1 X-2.523F3000S1000
G1 X-176.216F5000S0
G1 X-4.396F3000S1000
G1 X-2.848F5000S0
G1 X-2.523F3000S1000
G0 X-1.25
G0 X0.009Y0.1
G0 X1.25
G1 X2.521
G1 X2.865F5000S0
G1 X4.412F3000S1000
G1 X176.185F5000S0
G1 X2.521F3000S1000
G1 X2.865F5000S0
G1 X4.413F3000S1000
G1 X26.916F5000S0
G1 X3.229F3000S1000
G1 X2.209F5000S0
G1 X5.944F3000S1000
G1 X14.1F5000S0
G1 X1.138F3000S1000
G0 X1.25
G0 X0.16Y0.1
G0 X-1.25
G1 X-1.466
G1 X-13.849F5000S0
G1 X-5.854F3000S1000
G1 X-2.563F5000S0
G1 X-3.115F3000S1000
G1 X-26.809F5000S0
G1 X-4.429F3000S1000
G1 X-2.881F5000S0
G1 X-2.521F3000S1000
G1 X-176.152F5000S0
G1 X-4.429F3000S1000
G1 X-2.881F5000S0
G1 X-2.521F3000S1000
G0 X-1.25
G0 X0.008Y0.1
G0 X1.25
G1 X2.52
G1 X2.898F5000S0
G1 X4.445F3000S1000
G1 X169.019F5000S0
G1 X0.996F3000S1000
G1 X6.105F5000S0
G1 X2.52F3000S1000
G1 X2.898F5000S0
G1 X4.445F3000S1000
G1 X26.711F5000S0
G1 X3.025F3000S1000
G1 X2.865F5000S0
G1 X5.783F3000S1000
G1 X13.643F5000S0
G1 X1.711F3000S1000
G0 X1.25
G0 X0.097Y0.1
G0 X-1.25
G1 X-1.901
G1 X-13.467F5000S0
G1 X-5.713F3000S1000
G1 X-3.147F5000S0
G1 X-2.954F3000S1000
G1 X-26.613F5000S0
G1 X-4.461F3000S1000
G1 X-2.915F5000S0
G1 X-2.519F3000S1000
G1 X-5.647F5000S0
G1 X-1.954F3000S1000
G1 X-168.487F5000S0
G1 X-4.461F3000S1000
G1 X-2.915F5000S0
G1 X-2.519F3000S1000
G0 X-1.25
G0 X0.009Y0.1
G0 X1.25
G1 X2.517
G1 X2.932F5000S0
G1 X4.477F3000S1000
G1 X168.172F5000S0
G1 X2.537F3000S1000
G1 X5.347F5000S0
G1 X2.518F3000S1000
G1 X2.932F5000S0
G1 X4.477F3000S1000
G1 X26.516F5000S0
G1 X2.9F3000S1000
G1 X3.368F5000S0
G1 X5.68F3000S1000
G1 X13.306F5000S0
G1 X2.06F3000S1000
G0 X1.25
G0 X0.068Y0.1
G0 X-1.25
G1 X-2.187
G1 X-13.174F5000S0
G1 X-5.643F3000S1000
G1 X-3.584F5000S0
G1 X-2.848F3000S1000
G1 X-26.421F5000S0
G1 X-4.496F3000S1000
G1 X-2.946F5000S0
G1 X-2.516F3000S1000
G1 X-5.153F5000S0
G1 X-2.946F3000S1000
G1 X-167.926F5000S0
G1 X-4.496F3000S1000
G1 X-2.946F5000S0
G1 X-2.516F3000S1000
G0 X-1.25
G0 X0.012Y0.1
G0 X1.25
G1 X2.511
G1 X2.96F5000S0
G1 X4.515F3000S1000
G1 X167.718F5000S0
G1 X3.318F3000S1000
G1 X4.961F5000S0
G1 X2.511F3000S1000
G1 X2.96F5000S0
G1 X4.515F3000S1000
G1 X26.332F5000S0
G1 X2.809F3000S1000
G1 X3.783F5000S0
G1 X5.605F3000S1000
G1 X13.046F5000S0
G1 X2.289F3000S1000
G0 X1.25
G0 X0.045Y0.1
G0 X-1.25
G1 X-2.373
G1 X-12.935F5000S0
G1 X-5.588F3000S1000
G1 X-3.96F5000S0
G1 X-2.77F3000S1000
G1 X-26.243F5000S0
G1 X-4.534F3000S1000
G1 X-2.973F5000S0
G1 X-2.507F3000S1000
G1 X-4.831F5000S0
G1 X-3.614F3000S1000
G1 X-167.524F5000S0
G1 X-4.535F3000S1000
G1 X-2.972F5000S0
G1 X-2.507F3000S1000
G0 X-1.25
G0 X0.013Y0.1
G0 X1.25
G1 X2.507
G1 X2.98F5000S0
G1 X4.551F3000S1000
G1 X167.366F5000S0
G1 X3.869F3000S1000
G1 X4.71F5000S0
G1 X2.507F3000S1000
G1 X2.981F5000S0
G1 X4.55F3000S1000
G1 X26.157F5000S0
G1 X2.731F3000S1000
G1 X4.127F5000S0
G1 X5.582F3000S1000
G1 X12.83F5000S0
G1 X2.433F3000S1000
G0 X1.25
G0 X0.028Y0.1
G0 X-1.25
G1 X-2.487
G1 X-12.737F5000S0
G1 X-5.569F3000S1000
G1 X-4.287F5000S0
G1 X-2.691F3000S1000
G1 X-26.081F5000S0
G1 X-4.564F3000S1000
G1 X-2.989F5000S0
G1 X-2.508F3000S1000
G1 X-4.616F5000S0
G1 X-4.097F3000S1000
G1 X-167.209F5000S0
G1 X-4.565F3000S1000
G1 X-2.988F5000S0
G1 X-2.508F3000S1000
G0 X-1.25
G0 X0.012Y0.1
G0 X1.25
G1 X2.51
G1 X2.995F5000S0
G1 X4.579F3000S1000
G1 X167.079F5000S0
G1 X4.297F3000S1000
G1 X4.523F5000S0
G1 X2.51F3000S1000
G1 X2.996F5000S0
G1 X4.579F3000S1000
G1 X26.008F5000S0
G1 X2.666F3000S1000
G1 X4.43F5000S0
G1 X5.554F3000S1000
G1 X12.662F5000S0
G1 X2.507F3000S1000
G0 X1.25
G0 X0.011Y0.1
G0 X-1.25
G1 X-2.527
G1 X-12.587F5000S0
G1 X-5.553F3000S1000
G1 X-4.561F5000S0
G1 X-2.64F3000S1000
G1 X-25.935F5000S0
G1 X-4.594F3000S1000
G1 X-3.003F5000S0
G1 X-2.51F3000S1000
G1 X-4.447F5000S0
G1 X-4.482F3000S1000
G1 X-166.948F5000S0
G1 X-4.593F3000S1000
G1 X-3.003F5000S0
G1 X-2.51F3000S1000
G0 X-1.25
G0 X0.012Y0.1
G0 X1.25
G1 X2.511
G1 X3.011F5000S0
G1 X4.608F3000S1000
G1 X166.831F5000S0
G1 X4.645F3000S1000
G1 X4.377F5000S0
G1 X2.511F3000S1000
G1 X3.011F5000S0
G1 X4.608F3000S1000
G1 X25.862F5000S0
G1 X2.615F3000S1000
G1 X4.688F5000S0
G1 X5.555F3000S1000
G1 X12.516F5000S0
G1 X2.53F3000S1000
G0 X1.25
G0 Y0.1
G0 X-1.254
G1 X-2.531
G1 X-12.445F5000S0
G1 X-5.558F3000S1000
G1 X-4.814F5000S0
G1 X-2.586F3000S1000
G1 X-25.793F5000S0
G1 X-4.622F3000S1000
G1 X-3.019F5000S0
G1 X-2.512F3000S1000
G1 X-4.311F5000S0
G1 X-4.798F3000S1000
G1 X-166.721F5000S0
G1 X-4.622F3000S1000
G1 X-3.019F5000S0
G1 X-2.512F3000S1000
G0 X-1.25
G0 X0.013Y0.1
G0 X1.25
G1 X2.513
G1 X3.026F5000S0
G1 X4.636F3000S1000
G1 X166.614F5000S0
G1 X4.934F3000S1000
G1 X4.26F5000S0
G1 X2.513F3000S1000
G1 X3.026F5000S0
G1 X4.636F3000S1000
G1 X25.727F5000S0
G1 X2.573F3000S1000
G1 X4.922F5000S0
G1 X5.557F3000S1000
G1 X12.378F5000S0
G1 X2.53F3000S1000
G0 X1.25
G0 Y0.1
G0 X-1.254
G1 X-2.537
G1 X-12.306F5000S0
G1 X-5.555F3000S1000
G1 X-5.029F5000S0
G1 X-2.561F3000S1000
G1 X-25.66F5000S0
G1 X-4.65F3000S1000
G1 X-3.034F5000S0
G1 X-2.514F3000S1000
G1 X-4.208F5000S0
G1 X-5.047F3000S1000
G1 X-9.919F5000S0
G1 X-1.222F3000S1000
G1 X-155.389F5000S0
G1 X-4.65F3000S1000
G1 X-3.034F5000S0
G1 X-2.514F3000S1000
G1 X-112.799F5000S0
G1 X-1.221F3000S1000
G0 X-1.25
G0 X-0.321Y0.1
G0 X1.25
G1 X1.884
G1 X112.469F5000S0
G1 X2.515F3000S1000
G1 X3.041F5000S0
G1 X4.665F3000S1000
G1 X155.033F5000S0
G1 X1.885F3000S1000
G1 X9.528F5000S0
G1 X5.151F3000S1000
G1 X4.165F5000S0
G1 X2.515F3000S1000
G1 X3.041F5000S0
G1 X4.665F3000S1000
G1 X25.594F5000S0
G1 X2.549F3000S1000
G1 X5.134F5000S0
G1 X5.553F3000S1000
G1 X12.234F5000S0
G1 X2.541F3000S1000
G0 X1.25
G0 X-0.011Y0.1
G0 X-1.25
G1 X-2.543
G1 X-12.161F5000S0
G1 X-5.56F3000S1000
G1 X-5.231F5000S0
G1 X-2.534F3000S1000
G1 X-25.53F5000S0
G1 X-4.682F3000S1000
G1 X-3.046F5000S0
G1 X-2.515F3000S1000
G1 X-4.129F5000S0
G1 X-5.249F3000S1000
G1 X-9.234F5000S0
G1 X-2.311F3000S1000
G1 X-154.817F5000S0
G1 X-4.682F3000S1000
G1 X-3.046F5000S0
G1 X-2.515F3000S1000
G1 X-112.237F5000S0
G1 X-2.31F3000S1000
G0 X-1.25
G0 X-0.156Y0.1
G0 X1.25
G1 X2.665
G1 X112.052F5000S0
G1 X2.518F3000S1000
G1 X3.047F5000S0
G1 X4.696F3000S1000
G1 X154.629F5000S0
G1 X2.665F3000S1000
G1 X8.987F5000S0
G1 X5.347F3000S1000
G1 X4.094F5000S0
G1 X2.518F3000S1000
G1 X3.047F5000S0
G1 X4.697F3000S1000
G1 X25.471F5000S0
G1 X2.522F3000S1000
G1 X5.322F5000S0
G1 X5.567F3000S1000
G1 X12.076F5000S0
G1 X2.556F3000S1000
G0 X1.25
G0 X-0.011Y0.1
G0 X-1.25
G1 X-2.572
G1 X-11.988F5000S0
G1 X-5.575F3000S1000
G1 X-5.401F5000S0
G1 X-2.521F3000S1000
G1 X-25.414F5000S0
G1 X-4.711F3000S1000
G1 X-3.048F5000S0
G1 X-2.519F3000S1000
G1 X-4.072F5000S0
G1 X-5.427F3000S1000
G1 X-8.788F5000S0
G1 X-2.926F3000S1000
G1 X-154.492F5000S0
G1 X-4.711F3000S1000
G1 X-3.047F5000S0
G1 X-2.52F3000S1000
G1 X-111.911F5000S0
G1 X-2.926F3000S1000
G0 X-1.25
G0 X-0.103Y0.1
G0 X1.25
G1 X3.173
G1 X111.783F5000S0
G1 X2.521F3000S1000
G1 X3.048F5000S0
G1 X4.725F3000S1000
G1 X154.357F5000S0
G1 X3.173F3000S1000
G1 X8.614F5000S0
G1 X5.492F3000S1000
G1 X4.053F5000S0
G1 X2.521F3000S1000
G1 X3.048F5000S0
G1 X4.725F3000S1000
G1 X25.357F5000S0
G1 X2.52F3000S1000
G1 X5.48F5000S0
G1 X5.578F3000S1000
G1 X11.905F5000S0
G1 X2.586F3000S1000
G0 X1.25
G0 X-0.018Y0.1
G0 X-1.25
G1 X-2.595
G1 X-11.823F5000S0
G1 X-5.58F3000S1000
G1 X-5.559F5000S0
G1 X-2.519F3000S1000
G1 X-25.3F5000S0
G1 X-4.739F3000S1000
G1 X-3.049F5000S0
G1 X-2.521F3000S1000
G1 X-4.035F5000S0
G1 X-5.557F3000S1000
G1 X-8.466F5000S0
G1 X-3.363F3000S1000
G1 X-154.253F5000S0
G1 X-4.739F3000S1000
G1 X-3.049F5000S0
G1 X-2.521F3000S1000
G1 X-111.682F5000S0
G1 X-3.363F3000S1000
G0 X-1.25
G0 X-0.064Y0.1
G0 X1.25
G1 X3.545
G1 X111.58F5000S0
G1 X2.523F3000S1000
G1 X3.049F5000S0
G1 X4.753F3000S1000
G1 X154.157F5000S0
G1 X3.546F3000S1000
G1 X8.317F5000S0
G1 X5.612F3000S1000
G1 X4.026F5000S0
G1 X2.523F3000S1000
G1 X3.049F5000S0
G1 X4.754F3000S1000
G1 X25.248F5000S0
G1 X2.512F3000S1000
G1 X5.635F5000S0
G1 X5.585F3000S1000
G1 X11.741F5000S0
G1 X2.603F3000S1000
G0 X1.25
G0 X-0.019Y0.1
G0 X-1.25
G1 X-2.611
G1 X-11.659F5000S0
G1 X-5.597F3000S1000
G1 X-5.701F5000S0
G1 X-2.508F3000S1000
G1 X-25.197F5000S0
G1 X-4.768F3000S1000
G1 X-3.05F5000S0
G1 X-2.524F3000S1000
G1 X-4.019F5000S0
G1 X-5.666F3000S1000
G1 X-8.168F5000S0
G1 X-3.729F3000S1000
G1 X-154.059F5000S0
G1 X-4.768F3000S1000
G1 X-3.05F5000S0
G1 X-2.524F3000S1000
G1 X-111.477F5000S0
G1 X-3.729F3000S1000
G0 X-1.25
G0 X-0.035Y0.1
G0 X1.25
G1 X3.882
G1 X111.375F5000S0
G1 X2.526F3000S1000
G1 X3.05F5000S0
G1 X4.782F3000S1000
G1 X153.992F5000S0
G1 X3.882F3000S1000
G1 X8.027F5000S0
G1 X5.711F3000S1000
G1 X4.013F5000S0
G1 X2.526F3000S1000
G1 X3.05F5000S0
G1 X4.782F3000S1000
G1 X25.146F5000S0
G1 X2.51F3000S1000
G1 X5.761F5000S0
G1 X5.609F3000S1000
G1 X11.568F5000S0
G1 X2.628F3000S1000
G0 X1.25
G0 X-0.025Y0.1
G0 X-1.25
G1 X-2.645
G1 X-11.471F5000S0
G1 X-5.621F3000S1000
G1 X-5.821F5000S0
G1 X-2.513F3000S1000
G1 X-25.094F5000S0
G1 X-4.796F3000S1000
G1 X-3.051F5000S0
G1 X-2.526F3000S1000
G1 X-4.016F5000S0
G1 X-5.738F3000S1000
G1 X-7.909F5000S0
G1 X-4.02F3000S1000
G1 X-153.927F5000S0
G1 X-4.796F3000S1000
G1 X-3.051F5000S0
G1 X-2.526F3000S1000
G1 X-111.287F5000S0
G1 X-4.02F3000S1000
G0 X-1.25
G0 X-0.034Y0.1
G0 X1.25
G1 X4.145
G1 X111.212F5000S0
G1 X2.528F3000S1000
G1 X3.051F5000S0
G1 X4.811F3000S1000
G1 X153.86F5000S0
G1 X4.145F3000S1000
G1 X7.805F5000S0
G1 X5.761F3000S1000
G1 X4.022F5000S0
G1 X2.528F3000S1000
G1 X3.051F5000S0
G1 X4.811F3000S1000
G1 X25.046F5000S0
G1 X2.511F3000S1000
G1 X5.881F5000S0
G1 X5.629F3000S1000
G1 X11.377F5000S0
G1 X2.662F3000S1000
G0 X1.25
G0 X-0.026Y0.1
G0 X-1.25
G1 X-2.678
G1 X-11.285F5000S0
G1 X-5.635F3000S1000
G1 X-5.942F5000S0
G1 X-2.507F3000S1000
G1 X-25.001F5000S0
G1 X-4.825F3000S1000
G1 X-3.052F5000S0
G1 X-2.529F3000S1000
G1 X-4.028F5000S0
G1 X-5.784F3000S1000
G1 X-7.701F5000S0
G1 X-4.269F3000S1000
G1 X-153.796F5000S0
G1 X-4.824F3000S1000
G1 X-3.052F5000S0
G1 X-2.529F3000S1000
G1 X-63.373F5000S0
G1 X-1.33F3000S1000
G1 X-46.434F5000S0
G1 X-4.269F3000S1000
G0 X-1.25
G0 X-0.029Y0.1
G0 X1.25
G1 X4.389
G1 X46.018F5000S0
G1 X2.032F3000S1000
G1 X63.013F5000S0
G1 X2.529F3000S1000
G1 X3.051F5000S0
G1 X4.838F3000S1000
G1 X153.737F5000S0
G1 X4.389F3000S1000
G1 X7.597F5000S0
G1 X5.804F3000S1000
G1 X4.038F5000S0
G1 X2.529F3000S1000
G1 X3.051F5000S0
G1 X4.838F3000S1000
G1 X24.959F5000S0
G1 X2.51F3000S1000
G1 X5.992F5000S0
G1 X5.645F3000S1000
G1 X11.192F5000S0
G1 X2.695F3000S1000
G0 X1.25
G0 X-0.032Y0.1
G0 X-1.25
G1 X-2.705
G1 X-11.1F5000S0
G1 X-5.661F3000S1000
G1 X-6.036F5000S0
G1 X-2.514F3000S1000
G1 X-24.915F5000S0
G1 X-4.853F3000S1000
G1 X-3.048F5000S0
G1 X-2.531F3000S1000
G1 X-4.051F5000S0
G1 X-5.817F3000S1000
G1 X-7.496F5000S0
G1 X-4.503F3000S1000
G1 X-153.685F5000S0
G1 X-4.852F3000S1000
G1 X-3.048F5000S0
G1 X-2.531F3000S1000
G1 X-62.768F5000S0
G1 X-2.52F3000S1000
G1 X-45.7F5000S0
G1 X-4.503F3000S1000
G0 X-1.25
G0 X-0.024Y0.1
G0 X1.25
G1 X4.618
G1 X45.451F5000S0
G1 X2.886F3000S1000
G1 X62.576F5000S0
G1 X2.532F3000S1000
G1 X3.046F5000S0
G1 X4.867F3000S1000
G1 X153.631F5000S0
G1 X4.618F3000S1000
G1 X7.409F5000S0
G1 X5.817F3000S1000
G1 X4.063F5000S0
G1 X2.532F3000S1000
G1 X3.046F5000S0
G1 X4.867F3000S1000
G1 X24.874F5000S0
G1 X2.516F3000S1000
G1 X6.08F5000S0
G1 X5.677F3000S1000
G1 X10.998F5000S0
G1 X2.724F3000S1000
G0 X1.25
G0 X-0.034Y0.1
G0 X-1.25
G1 X-2.75
G1 X-10.888F5000S0
G1 X-5.693F3000S1000
G1 X-6.123F5000S0
G1 X-2.514F3000S1000
G1 X-24.837F5000S0
G1 X-4.882F3000S1000
G1 X-3.043F5000S0
G1 X-2.531F3000S1000
G1 X-4.079F5000S0
G1 X-5.817F3000S1000
G1 X-7.342F5000S0
G1 X-4.711F3000S1000
G1 X-153.579F5000S0
G1 X-4.881F3000S1000
G1 X-3.043F5000S0
G1 X-2.531F3000S1000
G1 X-62.415F5000S0
G1 X-3.213F3000S1000
G1 X-45.234F5000S0
G1 X-4.711F3000S1000
G0 X-1.25
G0 X-0.024Y0.1
G0 X1.25
G1 X4.805
G1 X42F5000S0
G1 X0.917F3000S1000
G1 X2.132F5000S0
G1 X3.481F3000S1000
G1 X62.282F5000S0
G1 X2.528F3000S1000
G1 X3.041F5000S0
G1 X4.896F3000S1000
G1 X153.525F5000S0
G1 X4.805F3000S1000
G1 X7.275F5000S0
G1 X5.817F3000S1000
G1 X4.097F5000S0
G1 X2.527F3000S1000
G1 X3.041F5000S0
G1 X4.896F3000S1000
G1 X24.801F5000S0
G1 X2.515F3000S1000
G1 X6.164F5000S0
G1 X5.703F3000S1000
G1 X10.783F5000S0
G1 X2.776F3000S1000
G0 X1.25
G0 X-0.039Y0.1
G0 X-1.25
G1 X-2.797
G1 X-10.678F5000S0
G1 X-5.714F3000S1000
G1 X-6.2F5000S0
G1 X-2.521F3000S1000
G1 X-24.763F5000S0
G1 X-4.911F3000S1000
G1 X-3.038F5000S0
G1 X-2.525F3000S1000
G1 X-4.117F5000S0
G1 X-5.813F3000S1000
G1 X-7.21F5000S0
G1 X-4.888F3000S1000
G1 X-153.482F5000S0
G1 X-4.91F3000S1000
G1 X-3.038F5000S0
G1 X-2.525F3000S1000
G1 X-62.167F5000S0
G1 X-3.706F3000S1000
G1 X-1.818F5000S0
G1 X-1.389F3000S1000
G1 X-41.684F5000S0
G1 X-4.888F3000S1000
G0 X-1.25
G0 X-0.014Y0.1
G0 X1.25
G1 X4.972
G1 X41.453F5000S0
G1 X1.703F3000S1000
G1 X1.577F5000S0
G1 X3.92F3000S1000
G1 X62.061F5000S0
G1 X2.522F3000S1000
G1 X3.036F5000S0
G1 X4.925F3000S1000
G1 X153.438F5000S0
G1 X4.972F3000S1000
G1 X7.143F5000S0
G1 X5.797F3000S1000
G1 X4.15F5000S0
G1 X2.522F3000S1000
G1 X3.036F5000S0
G1 X4.925F3000S1000
G1 X24.727F5000S0
G1 X2.525F3000S1000
G1 X6.237F5000S0
G1 X5.725F3000S1000
G1 X10.573F5000S0
G1 X2.815F3000S1000
G0 X1.25
G0 X-0.041Y0.1
G0 X-1.25
G1 X-2.834
G1 X-10.468F5000S0
G1 X-5.742F3000S1000
G1 X-6.267F5000S0
G1 X-2.526F3000S1000
G1 X-24.694F5000S0
G1 X-4.94F3000S1000
G1 X-3.032F5000S0
G1 X-2.521F3000S1000
G1 X-4.183F5000S0
G1 X-5.772F3000S1000
G1 X-7.086F5000S0
G1 X-5.055F3000S1000
G1 X-153.395F5000S0
G1 X-4.939F3000S1000
G1 X-3.033F5000S0
G1 X-2.52F3000S1000
G1 X-61.973F5000S0
G1 X-4.117F3000S1000
G1 X-1.408F5000S0
G1 X-1.891F3000S1000
G1 X-41.276F5000S0
G1 X-5.055F3000S1000
G0 X-1.25
G0 X-0.014Y0.1
G0 X1.25
G1 X5.139
G1 X41.104F5000S0
G1 X2.06F3000S1000
G1 X1.265F5000S0
G1 X4.298F3000S1000
G1 X61.889F5000S0
G1 X2.521F3000S1000
G1 X3.026F5000S0
G1 X4.954F3000S1000
G1 X153.351F5000S0
G1 X5.139F3000S1000
G1 X7.028F5000S0
G1 X5.747F3000S1000
G1 X4.217F5000S0
G1 X2.521F3000S1000
G1 X3.026F5000S0
G1 X4.954F3000S1000
G1 X24.663F5000S0
G1 X2.527F3000S1000
G1 X6.297F5000S0
G1 X5.758F3000S1000
G1 X10.344F5000S0
G1 X2.871F3000S1000
G0 X1.25
G0 X-0.047Y0.1
G0 X-1.25
G1 X-2.905
G1 X-10.217F5000S0
G1 X-5.775F3000S1000
G1 X-6.321F5000S0
G1 X-2.533F3000S1000
G1 X-24.633F5000S0
G1 X-4.968F3000S1000
G1 X-3.019F5000S0
G1 X-2.523F3000S1000
G1 X-4.25F5000S0
G1 X-5.721F3000S1000
G1 X-6.987F5000S0
G1 X-5.203F3000S1000
G1 X-153.312F5000S0
G1 X-4.968F3000S1000
G1 X-3.019F5000S0
G1 X-2.523F3000S1000
G1 X-61.818F5000S0
G1 X-4.461F3000S1000
G1 X-1.15F5000S0
G1 X-2.155F3000S1000
G1 X-40.999F5000S0
G1 X-5.203F3000S1000
G0 X-1.25
G0 Y0.1
G0 X1.246
G1 X5.259
G1 X40.896F5000S0
G1 X2.246F3000S1000
G1 X1.038F5000S0
G1 X4.62F3000S1000
G1 X61.751F5000S0
G1 X2.524F3000S1000
G1 X3.014F5000S0
G1 X4.978F3000S1000
G1 X153.281F5000S0
G1 X5.259F3000S1000
G1 X6.948F5000S0
G1 X5.695F3000S1000
G1 X4.284F5000S0
G1 X2.524F3000S1000
G1 X3.013F5000S0
G1 X4.979F3000S1000
G1 X24.605F5000S0
G1 X2.539F3000S1000
G1 X6.346F5000S0
G1 X5.787F3000S1000
G1 X10.096F5000S0
G1 X2.934F3000S1000
G0 X1.25
G0 X-0.05Y0.1
G0 X-1.25
G1 X-2.965
G1 X-9.975F5000S0
G1 X-5.798F3000S1000
G1 X-6.37F5000S0
G1 X-2.544F3000S1000
G1 X-24.578F5000S0
G1 X-4.991F3000S1000
G1 X-3.006F5000S0
G1 X-2.525F3000S1000
G1 X-4.335F5000S0
G1 X-5.648F3000S1000
G1 X-6.913F5000S0
G1 X-5.316F3000S1000
G1 X-153.249F5000S0
G1 X-4.991F3000S1000
G1 X-3.006F5000S0
G1 X-2.525F3000S1000
G1 X-61.693F5000S0
G1 X-4.771F3000S1000
G1 X-0.937S0
G1 X-2.324S1000
G1 X-40.795F5000S0
G1 X-5.316F3000S1000
G0 X-1.25
G0 Y0.1
G0 X1.245
G1 X5.372
G1 X40.714F5000S0
G1 X2.383F3000S1000
G1 X0.846S0
G1 X4.905S1000
G1 X61.641F5000S0
G1 X2.526F3000S1000
G1 X2.997F5000S0
G1 X5.006F3000S1000
G1 X153.217F5000S0
G1 X5.373F3000S1000
G1 X6.892F5000S0
G1 X5.587F3000S1000
G1 X4.385F5000S0
G1 X2.527F3000S1000
G1 X2.996F5000S0
G1 X5.006F3000S1000
G1 X24.555F5000S0
G1 X2.545F3000S1000
G1 X6.394F5000S0
G1 X5.809F3000S1000
G1 X9.855F5000S0
G1 X2.994F3000S1000
G0 X1.25
G0 X-0.057Y0.1
G0 X-1.25
G1 X-3.03
G1 X-9.721F5000S0
G1 X-5.821F3000S1000
G1 X-6.412F5000S0
G1 X-2.551F3000S1000
G1 X-24.533F5000S0
G1 X-5.02F3000S1000
G1 X-2.988F5000S0
G1 X-2.528F3000S1000
G1 X-4.435F5000S0
G1 X-5.526F3000S1000
G1 X-6.872F5000S0
G1 X-5.428F3000S1000
G1 X-153.186F5000S0
G1 X-5.02F3000S1000
G1 X-2.988F5000S0
G1 X-2.528F3000S1000
G1 X-61.592F5000S0
G1 X-5.032F3000S1000
G1 X-0.758S0
G1 X-2.443S1000
G1 X-40.632F5000S0
G1 X-5.428F3000S1000
G0 X-1.25
G0 Y0.1
G0 X1.25
G1 X5.48
G1 X40.551F5000S0
G1 X2.501F3000S1000
G1 X0.671S0
G1 X5.149S1000
G1 X61.554F5000S0
G1 X2.529F3000S1000
G1 X2.978F5000S0
G1 X5.035F3000S1000
G1 X153.159F5000S0
G1 X5.48F3000S1000
G1 X6.851F5000S0
G1 X5.465F3000S1000
G1 X4.486F5000S0
G1 X2.529F3000S1000
G1 X2.978F5000S0
G1 X5.035F3000S1000
G1 X24.51F5000S0
G1 X2.559F3000S1000
G1 X6.429F5000S0
G1 X5.832F3000S1000
G1 X9.585F5000S0
G1 X3.067F3000S1000
G0 X1.25
G0 X-0.06Y0.1
G0 X-1.25
G1 X-3.102
G1 X-9.449F5000S0
G1 X-5.844F3000S1000
G1 X-6.447F5000S0
G1 X-2.565F3000S1000
G1 X-24.489F5000S0
G1 X-5.048F3000S1000
G1 X-2.97F5000S0
G1 X-2.53F3000S1000
G1 X-4.537F5000S0
G1 X-5.403F3000S1000
G1 X-6.834F5000S0
G1 X-5.526F3000S1000
G1 X-153.135F5000S0
G1 X-5.048F3000S1000
G1 X-2.97F5000S0
G1 X-2.53F3000S1000
G1 X-61.515F5000S0
G1 X-5.266F3000S1000
G1 X-0.584S0
G1 X-2.542S1000
G1 X-40.491F5000S0
G1 X-5.526F3000S1000
G0 X-1.25
G0 Y0.1
G0 X1.252
G1 X5.563
G1 X40.441F5000S0
G1 X2.582F3000S1000
G1 X0.502S0
G1 X5.37S1000
G1 X61.488F5000S0
G1 X2.528F3000S1000
G1 X2.96F5000S0
G1 X5.063F3000S1000
G1 X153.11F5000S0
G1 X5.563F3000S1000
G1 X6.843F5000S0
G1 X5.306F3000S1000
G1 X4.61F5000S0
G1 X2.528F3000S1000
G1 X2.961F5000S0
G1 X5.062F3000S1000
G1 X24.467F5000S0
G1 X2.572F3000S1000
G1 X6.464F5000S0
G1 X5.852F3000S1000
G1 X9.316F5000S0
G1 X3.138F3000S1000
G0 X1.25
G0 X-0.068Y0.1
G0 X-1.25
G1 X-3.166
G1 X-9.184F5000S0
G1 X-5.859F3000S1000
G1 X-6.477F5000S0
G1 X-2.582F3000S1000
G1 X-24.446F5000S0
G1 X-5.077F3000S1000
G1 X-2.952F5000S0
G1 X-2.524F3000S1000
G1 X-4.684F5000S0
G1 X-5.206F3000S1000
G1 X-6.854F5000S0
G1 X-5.601F3000S1000
G1 X-153.085F5000S0
G1 X-5.077F3000S1000
G1 X-2.952F5000S0
G1 X-2.524F3000S1000
G1 X-61.466F5000S0
G1 X-5.462F3000S1000
G1 X-0.428S0
G1 X-2.623S1000
G1 X-40.39F5000S0
G1 X-5.6F3000S1000
G0 X-1.25
G0 Y0.1
G0 X1.252
G1 X5.638
G1 X40.354F5000S0
G1 X2.647F3000S1000
G1 X0.355S0
G1 X5.554S1000
G1 X61.443F5000S0
G1 X2.522F3000S1000
G1 X2.942F5000S0
G1 X5.092F3000S1000
G1 X153.061F5000S0
G1 X5.637F3000S1000
G1 X6.866F5000S0
G1 X5.106F3000S1000
G1 X4.757F5000S0
G1 X2.522F3000S1000
G1 X2.943F5000S0
G1 X5.091F3000S1000
G1 X24.425F5000S0
G1 X2.595F3000S1000
G1 X6.485F5000S0
G1 X5.868F3000S1000
G1 X9.051F5000S0
G1 X3.195F3000S1000
G0 X1.25
G0 X-0.068Y0.1
G0 X-1.25
G1 X-3.24
G1 X-8.902F5000S0
G1 X-5.88F3000S1000
G1 X-6.49F5000S0
G1 X-2.608F3000S1000
G1 X-24.406F5000S0
G1 X-5.104F3000S1000
G1 X-2.933F5000S0
G1 X-2.519F3000S1000
G1 X-4.831F5000S0
G1 X-5.006F3000S1000
G1 X-6.878F5000S0
G1 X-5.674F3000S1000
G1 X-153.038F5000S0
G1 X-5.104F3000S1000
G1 X-2.933F5000S0
G1 X-2.52F3000S1000
G1 X-61.43F5000S0
G1 X-5.636F3000S1000
G1 X-0.282S0
G1 X-2.668S1000
G1 X-40.322F5000S0
G1 X-5.674F3000S1000
G0 X-1.25
G0 Y0.1
G0 X1.253
G1 X5.71
G1 X40.289F5000S0
G1 X2.69F3000S1000
G1 X0.209S0
G1 X5.717S1000
G1 X61.419F5000S0
G1 X2.516F3000S1000
G1 X2.924F5000S0
G1 X5.116F3000S1000
G1 X153.018F5000S0
G1 X5.709F3000S1000
G1 X6.91F5000S0
G1 X4.877F3000S1000
G1 X4.913F5000S0
G1 X2.516F3000S1000
G1 X2.925F5000S0
G1 X5.116F3000S1000
G1 X24.389F5000S0
G1 X2.62F3000S1000
G1 X6.494F5000S0
G1 X5.892F3000S1000
G1 X8.754F5000S0
G1 X3.284F3000S1000
G0 X1.25
G0 X-0.071Y0.1
G0 X-1.25
G1 X-3.325
G1 X-8.607F5000S0
G1 X-5.904F3000S1000
G1 X-6.497F5000S0
G1 X-2.627F3000S1000
G1 X-24.378F5000S0
G1 X-5.128F3000S1000
G1 X-2.915F5000S0
G1 X-2.514F3000S1000
G1 X-5.012F5000S0
G1 X-4.727F3000S1000
G1 X-6.946F5000S0
G1 X-5.741F3000S1000
G1 X-153F5000S0
G1 X-5.128F3000S1000
G1 X-2.915F5000S0
G1 X-2.514F3000S1000
G1 X-61.409F5000S0
G1 X-5.793F3000S1000
G1 X-0.14S0
G1 X-2.7S1000
G1 X-40.267F5000S0
G1 X-5.741F3000S1000
G0 X-1.25
G0 X0.008Y0.1
G0 X1.25
G1 X5.772
G1 X40.25F5000S0
G1 X2.706F3000S1000
G1 X0.071S0
G1 X5.86S1000
G1 X61.408F5000S0
G1 X2.51F3000S1000
G1 X2.907F5000S0
G1 X5.139F3000S1000
G1 X152.984F5000S0
G1 X5.771F3000S1000
G1 X6.983F5000S0
G1 X4.577F3000S1000
G1 X5.112F5000S0
G1 X2.51F3000S1000
G1 X2.907F5000S0
G1 X5.139F3000S1000
G1 X24.368F5000S0
G1 X2.64F3000S1000
G1 X6.494F5000S0
G1 X5.914F3000S1000
G1 X8.461F5000S0
G1 X3.361F3000S1000
G0 X1.25
G0 X-0.075Y0.1
G0 X-1.25
G1 X-3.398
G1 X-8.317F5000S0
G1 X-5.923F3000S1000
G1 X-6.49F5000S0
G1 X-2.654F3000S1000
G1 X-24.357F5000S0
G1 X-5.15F3000S1000
G1 X-2.898F5000S0
G1 X-2.508F3000S1000
G1 X-5.226F5000S0
G1 X-4.407F3000S1000
G1 X-7.034F5000S0
G1 X-5.792F3000S1000
G1 X-152.968F5000S0
G1 X-5.151F3000S1000
G1 X-2.897F5000S0
G1 X-2.508F3000S1000
G1 X-61.407F5000S0
G1 X-5.926F3000S1000
G1 X-2.714
G1 X-40.239F5000S0
G1 X-5.797F3000S1000
G0 X-1.25
G0 X0.008Y0.1
G0 X1.25
G1 X5.816
G1 X40.235F5000S0
G1 X5.677F3000S1000
G1 X0.23S0
G1 X2.734S1000
G1 X61.407F5000S0
G1 X2.506F3000S1000
G1 X2.888F5000S0
G1 X5.162F3000S1000
G1 X152.952F5000S0
G1 X5.812F3000S1000
G1 X7.113F5000S0
G1 X4.205F3000S1000
G1 X5.345F5000S0
G1 X2.506F3000S1000
G1 X2.888F5000S0
G1 X5.162F3000S1000
G1 X24.346F5000S0
G1 X2.668F3000S1000
G1 X6.487F5000S0
G1 X5.93F3000S1000
G1 X8.155F5000S0
G1 X3.453F3000S1000
G0 X1.25
G0 X-0.076Y0.1
G0 X-1.25
G1 X-3.509
G1 X-7.991F5000S0
G1 X-5.938F3000S1000
G1 X-6.485F5000S0
G1 X-2.675F3000S1000
G1 X-24.341F5000S0
G1 X-5.173F3000S1000
G1 X-2.876F5000S0
G1 X-2.506F3000S1000
G1 X-5.477F5000S0
G1 X-3.992F3000S1000
G1 X-7.19F5000S0
G1 X-5.833F3000S1000
G1 X-152.936F5000S0
G1 X-5.174F3000S1000
G1 X-2.875F5000S0
G1 X-2.506F3000S1000
G1 X-61.417F5000S0
G1 X-2.666F3000S1000
G1 X-0.442S0
G1 X-5.526S1000
G1 X-40.229F5000S0
G1 X-5.836F3000S1000
G0 X-1.25
G0 X0.008Y0.1
G0 X1.25
G1 X5.855
G1 X40.225F5000S0
G1 X5.389F3000S1000
G1 X0.608S0
G1 X2.629S1000
G1 X61.425F5000S0
G1 X2.508F3000S1000
G1 X2.862F5000S0
G1 X5.185F3000S1000
G1 X152.92F5000S0
G1 X5.853F3000S1000
G1 X7.271F5000S0
G1 X3.762F3000S1000
G1 X5.622F5000S0
G1 X2.508F3000S1000
G1 X2.862F5000S0
G1 X5.185F3000S1000
G1 X24.337F5000S0
G1 X2.69F3000S1000
G1 X6.473F5000S0
G1 X5.946F3000S1000
G1 X7.828F5000S0
G1 X3.558F3000S1000
G0 X1.25
G0 X-0.085Y0.1
G0 X-1.25
G1 X-3.605
G1 X-7.664F5000S0
G1 X-5.954F3000S1000
G1 X-6.463F5000S0
G1 X-2.703F3000S1000
G1 X-24.334F5000S0
G1 X-5.196F3000S1000
G1 X-2.85F5000S0
G1 X-2.508F3000S1000
G1 X-5.782F5000S0
G1 X-3.476F3000S1000
G1 X-7.393F5000S0
G1 X-5.869F3000S1000
G1 X-152.909F5000S0
G1 X-5.197F3000S1000
G1 X-2.849F5000S0
G1 X-2.509F3000S1000
G1 X-61.435F5000S0
G1 X-2.596F3000S1000
G1 X-0.74S0
G1 X-5.267S1000
G1 X-40.235F5000S0
G1 X-5.87F3000S1000
G0 X-1.25
G0 X0.014Y0.1
G0 X1.25
G1 X5.883
G1 X40.246F5000S0
G1 X5.145F3000S1000
G1 X0.847S0
G1 X2.578S1000
G1 X61.456F5000S0
G1 X2.509F3000S1000
G1 X2.836F5000S0
G1 X5.208F3000S1000
G1 X152.899F5000S0
G1 X5.883F3000S1000
G1 X7.516F5000S0
G1 X3.17F3000S1000
G1 X5.962F5000S0
G1 X2.509F3000S1000
G1 X2.836F5000S0
G1 X5.209F3000S1000
G1 X24.329F5000S0
G1 X2.718F3000S1000
G1 X6.451F5000S0
G1 X5.962F3000S1000
G1 X7.497F5000S0
G1 X3.657F3000S1000
G0 X1.25
G0 X-0.084Y0.1
G0 X-1.25
G1 X-3.73
G1 X-7.311F5000S0
G1 X-5.967F3000S1000
G1 X-6.44F5000S0
G1 X-2.729F3000S1000
G1 X-24.331F5000S0
G1 X-5.218F3000S1000
G1 X-2.823F5000S0
G1 X-2.507F3000S1000
G1 X-6.18F5000S0
G1 X-2.786F3000S1000
G1 X-7.681F5000S0
G1 X-5.898F3000S1000
G1 X-152.89F5000S0
G1 X-5.219F3000S1000
G1 X-2.822F5000S0
G1 X-2.507F3000S1000
G1 X-61.478F5000S0
G1 X-2.561F3000S1000
G1 X-0.95S0
G1 X-5.027S1000
G1 X-40.256F5000S0
G1 X-5.897F3000S1000
G0 X-1.25
G0 X0.014Y0.1
G0 X1.25
G1 X5.911
G1 X40.266F5000S0
G1 X4.909F3000S1000
G1 X1.046F5000S0
G1 X2.55F3000S1000
G1 X61.5F5000S0
G1 X2.506F3000S1000
G1 X2.809F5000S0
G1 X5.228F3000S1000
G1 X152.882F5000S0
G1 X5.904F3000S1000
G1 X7.89F5000S0
G1 X2.328F3000S1000
G1 X6.437F5000S0
G1 X2.505F3000S1000
G1 X2.81F5000S0
G1 X5.227F3000S1000
G1 X24.337F5000S0
G1 X2.745F3000S1000
G1 X6.417F5000S0
G1 X5.975F3000S1000
G1 X7.125F5000S0
G1 X3.797F3000S1000
G0 X1.25
G0 X-0.093Y0.1
G0 X-1.25
G1 X-3.861
G1 X-6.938F5000S0
G1 X-5.986F3000S1000
G1 X-6.388F5000S0
G1 X-2.766F3000S1000
G1 X-24.343F5000S0
G1 X-5.236F3000S1000
G1 X-2.796F5000S0
G1 X-2.504F3000S1000
G1 X-6.791F5000S0
G1 X-1.637F3000S1000
G1 X-8.235F5000S0
G1 X-5.909F3000S1000
G1 X-152.875F5000S0
G1 X-5.237F3000S1000
G1 X-2.795F5000S0
G1 X-2.504F3000S1000
G1 X-61.526F5000S0
G1 X-2.541F3000S1000
G1 X-1.136F5000S0
G1 X-4.792F3000S1000
G1 X-40.285F5000S0
G1 X-5.917F3000S1000
G0 X-1.25
G0 X0.014Y0.1
G0 X1.25
G1 X5.92
G1 X40.319F5000S0
G1 X4.661F3000S1000
G1 X1.221F5000S0
G1 X2.525F3000S1000
G1 X61.565F5000S0
G1 X2.502F3000S1000
G1 X2.782F5000S0
G1 X5.246F3000S1000
G1 X152.866F5000S0
G1 X5.914F3000S1000
G1 X16.673F5000S0
G1 X2.502F3000S1000
G1 X2.783F5000S0
G1 X5.245F3000S1000
G1 X24.348F5000S0
G1 X2.786F3000S1000
G1 X6.359F5000S0
G1 X5.997F3000S1000
G1 X6.752F5000S0
G1 X3.925F3000S1000
G0 X1.25
G0 X-0.094Y0.1
G0 X-1.25
G1 X-4.004
G1 X-6.55F5000S0
G1 X-6.008F3000S1000
G1 X-6.322F5000S0
G1 X-2.81F3000S1000
G1 X-24.358F5000S0
G1 X-5.254F3000S1000
G1 X-2.77F5000S0
G1 X-2.5F3000S1000
G1 X-16.681F5000S0
G1 X-5.916F3000S1000
G1 X-152.862F5000S0
G1 X-5.255F3000S1000
G1 X-2.769F5000S0
G1 X-2.5F3000S1000
G1 X-61.604F5000S0
G1 X-2.509F3000S1000
G1 X-1.306F5000S0
G1 X-4.525F3000S1000
G1 X-40.358F5000S0
G1 X-5.919F3000S1000
G0 X-1.25
G0 X0.02Y0.1
G0 X1.25
G1 X5.916
G1 X40.397F5000S0
G1 X4.388F3000S1000
G1 X1.392F5000S0
G1 X2.493F3000S1000
G1 X61.643F5000S0
G1 X2.498F3000S1000
G1 X2.756F5000S0
G1 X5.264F3000S1000
G1 X152.86F5000S0
G1 X5.914F3000S1000
G1 X16.691F5000S0
G1 X2.498F3000S1000
G1 X2.757F5000S0
G1 X5.263F3000S1000
G1 X24.371F5000S0
G1 X2.833F3000S1000
G1 X6.283F5000S0
G1 X6.018F3000S1000
G1 X6.346F5000S0
G1 X4.08F3000S1000
G0 X1.25
G0 X-0.103Y0.1
G0 X-1.25
G1 X-4.151
G1 X-6.142F5000S0
G1 X-6.03F3000S1000
G1 X-6.244F5000S0
G1 X-2.855F3000S1000
G1 X-24.385F5000S0
G1 X-5.271F3000S1000
G1 X-2.744F5000S0
G1 X-2.497F3000S1000
G1 X-16.7F5000S0
G1 X-5.912F3000S1000
G1 X-152.859F5000S0
G1 X-5.273F3000S1000
G1 X-2.742F5000S0
G1 X-2.497F3000S1000
G1 X-61.687F5000S0
G1 X-2.47F3000S1000
G1 X-1.478F5000S0
G1 X-4.253F3000S1000
G1 X-40.435F5000S0
G1 X-5.913F3000S1000
G0 X-1.25
G0 X0.019Y0.1
G0 X1.25
G1 X5.911
G1 X40.473F5000S0
G1 X4.113F3000S1000
G1 X1.569F5000S0
G1 X2.435F3000S1000
G1 X61.744F5000S0
G1 X2.495F3000S1000
G1 X2.729F5000S0
G1 X5.282F3000S1000
G1 X152.856F5000S0
G1 X5.912F3000S1000
G1 X16.709F5000S0
G1 X2.495F3000S1000
G1 X2.73F5000S0
G1 X5.281F3000S1000
G1 X24.397F5000S0
G1 X2.888F3000S1000
G1 X6.195F5000S0
G1 X6.037F3000S1000
G1 X5.941F5000S0
G1 X4.223F3000S1000
G0 X1.25
G0 X-0.103Y0.1
G0 X-1.25
G1 X-4.308
G1 X-5.727F5000S0
G1 X-6.045F3000S1000
G1 X-6.146F5000S0
G1 X-2.918F3000S1000
G1 X-24.414F5000S0
G1 X-5.289F3000S1000
G1 X-2.717F5000S0
G1 X-2.493F3000S1000
G1 X-16.722F5000S0
G1 X-5.907F3000S1000
G1 X-152.855F5000S0
G1 X-5.29F3000S1000
G1 X-2.716F5000S0
G1 X-2.493F3000S1000
G1 X-61.8F5000S0
G1 X-2.392F3000S1000
G1 X-1.677F5000S0
G1 X-3.948F3000S1000
G1 X-40.529F5000S0
G1 X-5.907F3000S1000
G0 X-1.25
G0 X0.02Y0.1
G0 X1.25
G1 X5.904
G1 X40.587F5000S0
G1 X3.78F3000S1000
G1 X1.787F5000S0
G1 X2.346F3000S1000
G1 X61.856F5000S0
G1 X2.492F3000S1000
G1 X2.702F5000S0
G1 X5.3F3000S1000
G1 X152.853F5000S0
G1 X5.896F3000S1000
G1 X16.74F5000S0
G1 X2.492F3000S1000
G1 X2.703F5000S0
G1 X5.299F3000S1000
G1 X24.435F5000S0
G1 X2.945F3000S1000
G1 X6.094F5000S0
G1 X6.053F3000S1000
G1 X5.509F5000S0
G1 X4.389F3000S1000
G0 X1.25
G0 X-0.115Y0.1
G0 X-1.25
G1 X-4.466
G1 X-5.291F5000S0
G1 X-6.06F3000S1000
G1 X-6.032F5000S0
G1 X-2.984F3000S1000
G1 X-24.457F5000S0
G1 X-5.306F3000S1000
G1 X-2.691F5000S0
G1 X-2.489F3000S1000
G1 X-16.759F5000S0
G1 X-5.885F3000S1000
G1 X-152.853F5000S0
G1 X-5.307F3000S1000
G1 X-2.69F5000S0
G1 X-2.489F3000S1000
G1 X-61.924F5000S0
G1 X-2.276F3000S1000
G1 X-1.91F5000S0
G1 X-3.611F3000S1000
G1 X-40.654F5000S0
G1 X-5.893F3000S1000
G0 X-1.25
G0 X0.023Y0.1
G0 X1.25
G1 X5.876
G1 X40.723F5000S0
G1 X3.43F3000S1000
G1 X2.047F5000S0
G1 X2.198F3000S1000
G1 X61.998F5000S0
G1 X2.488F3000S1000
G1 X2.676F5000S0
G1 X5.314F3000S1000
G1 X152.857F5000S0
G1 X5.87F3000S1000
G1 X16.778F5000S0
G1 X2.488F3000S1000
G1 X2.677F5000S0
G1 X5.313F3000S1000
G1 X24.481F5000S0
G1 X3.021F3000S1000
G1 X5.97F5000S0
G1 X6.068F3000S1000
G1 X5.073F5000S0
G1 X4.544F3000S1000
G0 X1.25
G0 X-0.115Y0.1
G0 X-1.25
G1 X-4.641
G1 X-4.835F5000S0
G1 X-6.076F3000S1000
G1 X-5.9F5000S0
G1 X-3.064F3000S1000
G1 X-24.508F5000S0
G1 X-5.319F3000S1000
G1 X-2.663F5000S0
G1 X-2.486F3000S1000
G1 X-16.797F5000S0
G1 X-5.856F3000S1000
G1 X-152.862F5000S0
G1 X-5.321F3000S1000
G1 X-2.661F5000S0
G1 X-2.486F3000S1000
G1 X-62.074F5000S0
G1 X-2.104F3000S1000
G1 X-2.199F5000S0
G1 X-3.243F3000S1000
G1 X-40.798F5000S0
G1 X-5.859F3000S1000
G0 X-1.25
G0 X0.023Y0.1
G0 X1.25
G1 X5.843
G1 X40.885F5000S0
G1 X3.043F3000S1000
G1 X2.356F5000S0
G1 X2.005F3000S1000
G1 X62.149F5000S0
G1 X2.487F3000S1000
G1 X2.643F5000S0
G1 X5.33F3000S1000
G1 X152.866F5000S0
G1 X5.842F3000S1000
G1 X16.816F5000S0
G1 X2.486F3000S1000
G1 X2.646F5000S0
G1 X5.327F3000S1000
G1 X24.54F5000S0
G1 X3.107F3000S1000
G1 X5.822F5000S0
G1 X6.086F3000S1000
G1 X4.597F5000S0
G1 X4.727F3000S1000
G0 X1.25
G0 X-0.127Y0.1
G0 X-1.25
G1 X-4.813
G1 X-4.361F5000S0
G1 X-6.095F3000S1000
G1 X-5.74F5000S0
G1 X-3.152F3000S1000
G1 X-24.572F5000S0
G1 X-5.336F3000S1000
G1 X-2.626F5000S0
G1 X-2.489F3000S1000
G1 X-16.834F5000S0
G1 X-5.828F3000S1000
G1 X-152.87F5000S0
G1 X-5.338F3000S1000
G1 X-2.624F5000S0
G1 X-2.489F3000S1000
G1 X-62.263F5000S0
G1 X-1.856F3000S1000
G1 X-2.538F5000S0
G1 X-2.829F3000S1000
G1 X-40.974F5000S0
G1 X-5.826F3000S1000
G0 X-1.25
G0 X0.023Y0.1
G0 X1.25
G1 X5.809
G1 X41.075F5000S0
G1 X2.6F3000S1000
G1 X2.752F5000S0
G1 X1.679F3000S1000
G1 X62.376F5000S0
G1 X2.492F3000S1000
G1 X2.603F5000S0
G1 X5.347F3000S1000
G1 X152.874F5000S0
G1 X5.813F3000S1000
G1 X16.854F5000S0
G1 X2.492F3000S1000
G1 X2.605F5000S0
G1 X5.345F3000S1000
G1 X24.604F5000S0
G1 X3.21F3000S1000
G1 X5.644F5000S0
G1 X6.105F3000S1000
G1 X4.115F5000S0
G1 X4.909F3000S1000
G0 X1.25
G0 X-0.135Y0.1
G0 X-1.25
G1 X-5.011
G1 X-3.855F5000S0
G1 X-6.115F3000S1000
G1 X-5.547F5000S0
G1 X-3.265F3000S1000
G1 X-24.64F5000S0
G1 X-5.353F3000S1000
G1 X-2.586F5000S0
G1 X-2.495F3000S1000
G1 X-16.879F5000S0
G1 X-5.792F3000S1000
G1 X-152.878F5000S0
G1 X-5.356F3000S1000
G1 X-2.583F5000S0
G1 X-2.495F3000S1000
G1 X-62.533F5000S0
G1 X-1.436F3000S1000
G1 X-2.988F5000S0
G1 X-2.338F3000S1000
G1 X-41.208F5000S0
G1 X-5.792F3000S1000
G0 X-1.25
G0 X0.023Y0.1
G0 X1.25
G1 X5.775
G1 X41.341F5000S0
G1 X2.043F3000S1000
G1 X3.321F5000S0
G1 X1.1F3000S1000
G1 X62.72F5000S0
G1 X2.497F3000S1000
G1 X2.564F5000S0
G1 X5.364F3000S1000
G1 X152.882F5000S0
G1 X5.768F3000S1000
G1 X16.908F5000S0
G1 X2.497F3000S1000
G1 X2.566F5000S0
G1 X5.362F3000S1000
G1 X24.681F5000S0
G1 X3.331F3000S1000
G1 X5.434F5000S0
G1 X6.125F3000S1000
G1 X3.594F5000S0
G1 X5.108F3000S1000
G0 X1.25
G0 X-0.141Y0.1
G0 X-1.25
G1 X-5.209
G1 X-3.329F5000S0
G1 X-6.134F3000S1000
G1 X-5.319F5000S0
G1 X-3.4F3000S1000
G1 X-24.722F5000S0
G1 X-5.371F3000S1000
G1 X-2.546F5000S0
G1 X-2.5F3000S1000
G1 X-16.936F5000S0
G1 X-5.739F3000S1000
G1 X-152.891F5000S0
G1 X-5.373F3000S1000
G1 X-2.544F5000S0
G1 X-2.5F3000S1000
G1 X-63.194F5000S0
G1 X-0.264F3000S1000
G1 X-3.874F5000S0
G1 X-1.671F3000S1000
G1 X-41.549F5000S0
G1 X-5.747F3000S1000
G0 X-1.25
G0 X0.029Y0.1
G0 X1.25
G1 X5.714
G1 X41.805F5000S0
G1 X1.157F3000S1000
G1 X67.624F5000S0
G1 X2.5F3000S1000
G1 X2.525F5000S0
G1 X5.381F3000S1000
G1 X152.902F5000S0
G1 X5.708F3000S1000
G1 X16.967F5000S0
G1 X2.5F3000S1000
G1 X2.527F5000S0
G1 X5.379F3000S1000
G1 X24.763F5000S0
G1 X3.488F3000S1000
G1 X5.184F5000S0
G1 X6.143F3000S1000
G1 X3.039F5000S0
G1 X5.331F3000S1000
G0 X1.25
G0 X-0.154Y0.1
G0 X-1.25
G1 X-5.444
G1 X-2.749F5000S0
G1 X-6.153F3000S1000
G1 X-5.045F5000S0
G1 X-3.572F3000S1000
G1 X-24.814F5000S0
G1 X-5.386F3000S1000
G1 X-2.507F5000S0
G1 X-2.5F3000S1000
G1 X-16.998F5000S0
G1 X-5.678F3000S1000
G1 X-152.914F5000S0
G1 X-5.388F3000S1000
G1 X-2.505F5000S0
G1 X-2.5F3000S1000
G1 X-110.62F5000S0
G1 X-5.681F3000S1000
G0 X-1.25
G0 X0.03Y0.1
G0 X1.25
G1 X5.647
G1 X110.655F5000S0
G1 X2.5F3000S1000
G1 X2.484F5000S0
G1 X5.394F3000S1000
G1 X152.927F5000S0
G1 X5.649F3000S1000
G1 X17.029F5000S0
G1 X2.5F3000S1000
G1 X2.486F5000S0
G1 X5.393F3000S1000
G1 X24.869F5000S0
G1 X3.675F3000S1000
G1 X4.883F5000S0
G1 X6.161F3000S1000
G1 X2.451F5000S0
G1 X5.566F3000S1000
G0 X1.25
G0 X-0.155Y0.1
G0 X-1.25
G1 X-5.715
G1 X-2.127F5000S0
G1 X-6.167F3000S1000
G1 X-4.723F5000S0
G1 X-3.777F3000S1000
G1 X-24.925F5000S0
G1 X-5.398F3000S1000
G1 X-2.467F5000S0
G1 X-2.499F3000S1000
G1 X-17.061F5000S0
G1 X-5.619F3000S1000
G1 X-152.939F5000S0
G1 X-5.4F3000S1000
G1 X-2.465F5000S0
G1 X-2.499F3000S1000
G1 X-110.69F5000S0
G1 X-5.614F3000S1000
G0 X-1.25
G0 X0.029Y0.1
G0 X1.25
G1 X5.581
G1 X110.724F5000S0
G1 X2.499F3000S1000
G1 X2.445F5000S0
G1 X5.406F3000S1000
G1 X152.952F5000S0
G1 X5.587F3000S1000
G1 X17.094F5000S0
G1 X2.499F3000S1000
G1 X2.447F5000S0
G1 X5.404F3000S1000
G1 X24.982F5000S0
G1 X3.891F3000S1000
G1 X4.549F5000S0
G1 X6.174F3000S1000
G1 X1.802F5000S0
G1 X5.865F3000S1000
G0 X1.25
G0 X-0.155Y0.1
G0 X-1.25
G1 X-6.046
G1 X-1.447F5000S0
G1 X-6.18F3000S1000
G1 X-4.364F5000S0
G1 X-4.017F3000S1000
G1 X-25.038F5000S0
G1 X-5.41F3000S1000
G1 X-2.427F5000S0
G1 X-2.498F3000S1000
G1 X-17.135F5000S0
G1 X-5.548F3000S1000
G1 X-152.965F5000S0
G1 X-5.411F3000S1000
G1 X-2.426F5000S0
G1 X-2.498F3000S1000
G1 X-110.76F5000S0
G1 X-5.547F3000S1000
G0 X-1.25
G0 X0.029Y0.1
G0 X1.25
G1 X5.514
G1 X110.795F5000S0
G1 X2.497F3000S1000
G1 X2.406F5000S0
G1 X5.418F3000S1000
G1 X152.977F5000S0
G1 X5.509F3000S1000
G1 X17.176F5000S0
G1 X2.497F3000S1000
G1 X2.408F5000S0
G1 X5.416F3000S1000
G1 X25.105F5000S0
G1 X4.139F3000S1000
G1 X4.17F5000S0
G1 X6.188F3000S1000
G1 X1.075F5000S0
G1 X6.243F3000S1000
G0 X1.25
G0 X-0.165Y0.1
G0 X-1.25
G1 X-6.456
G1 X-0.677S0
G1 X-6.197S1000
G1 X-3.955F5000S0
G1 X-4.282F3000S1000
G1 X-25.172F5000S0
G1 X-5.422F3000S1000
G1 X-2.388F5000S0
G1 X-2.497F3000S1000
G1 X-17.217F5000S0
G1 X-5.469F3000S1000
G1 X-152.99F5000S0
G1 X-5.424F3000S1000
G1 X-2.386F5000S0
G1 X-2.497F3000S1000
G1 X-110.835F5000S0
G1 X-5.475F3000S1000
G0 X-1.25
G0 X0.029Y0.1
G0 X1.25
G1 X5.432
G1 X110.88F5000S0
G1 X2.497F3000S1000
G1 X2.366F5000S0
G1 X5.429F3000S1000
G1 X153.004F5000S0
G1 X5.429F3000S1000
G1 X17.258F5000S0
G1 X2.497F3000S1000
G1 X2.367F5000S0
G1 X5.428F3000S1000
G1 X25.24F5000S0
G1 X4.434F3000S1000
G1 X3.73F5000S0
G1 X6.206F3000S1000
G1 X0.242S0
G1 X6.693S1000
G0 X1.25
G0 X-0.178Y0.1
G0 X-1.25
G1 X-12.952
G1 X-3.479F5000S0
G1 X-4.612F3000S1000
G1 X-25.307F5000S0
G1 X-5.434F3000S1000
G1 X-2.348F5000S0
G1 X-2.496F3000S1000
G1 X-17.3F5000S0
G1 X-5.389F3000S1000
G1 X-153.017F5000S0
G1 X-5.435F3000S1000
G1 X-2.346F5000S0
G1 X-2.496F3000S1000
G1 X-110.926F5000S0
G1 X-5.387F3000S1000
G0 X-1.25
G0 X0.029Y0.1
G0 X1.25
G1 X5.344
G1 X110.97F5000S0
G1 X2.496F3000S1000
G1 X2.327F5000S0
G1 X5.441F3000S1000
G1 X153.029F5000S0
G1 X5.35F3000S1000
G1 X17.34F5000S0
G1 X2.496F3000S1000
G1 X2.328F5000S0
G1 X5.44F3000S1000
G1 X25.384F5000S0
G1 X4.805F3000S1000
G1 X3.203F5000S0
G1 X12.764F3000S1000
G0 X1.25
G0 X-0.178Y0.1
G0 X-1.25
G1 X-12.575
G1 X-2.906F5000S0
G1 X-5.017F3000S1000
G1 X-25.465F5000S0
G1 X-5.445F3000S1000
G1 X-2.307F5000S0
G1 X-2.496F3000S1000
G1 X-17.381F5000S0
G1 X-5.311F3000S1000
G1 X-153.043F5000S0
G1 X-5.446F3000S1000
G1 X-2.305F5000S0
G1 X-2.497F3000S1000
G1 X-111.016F5000S0
G1 X-5.3F3000S1000
G0 X-1.25
G0 X0.029Y0.1
G0 X1.25
G1 X5.257
G1 X111.061F5000S0
G1 X2.499F3000S1000
G1 X2.282F5000S0
G1 X5.45F3000S1000
G1 X153.058F5000S0
G1 X5.265F3000S1000
G1 X17.429F5000S0
G1 X2.499F3000S1000
G1 X2.284F5000S0
G1 X5.449F3000S1000
G1 X25.547F5000S0
G1 X5.292F3000S1000
G1 X2.545F5000S0
G1 X12.386F3000S1000
G0 X1.25
G0 X-0.184Y0.1
G0 X-1.25
G1 X-12.191
G1 X-2.116F5000S0
G1 X-5.635F3000S1000
G1 X-25.63F5000S0
G1 X-5.453F3000S1000
G1 X-2.261F5000S0
G1 X-2.501F3000S1000
G1 X-17.48F5000S0
G1 X-5.216F3000S1000
G1 X-153.073F5000S0
G1 X-5.453F3000S1000
G1 X-2.26F5000S0
G1 X-2.502F3000S1000
G1 X-111.106F5000S0
G1 X-5.213F3000S1000
G0 X-1.25
G0 X0.029Y0.1
G0 X1.25
G1 X5.17
G1 X111.151F5000S0
G1 X2.504F3000S1000
G1 X2.237F5000S0
G1 X5.457F3000S1000
G1 X153.088F5000S0
G1 X5.167F3000S1000
G1 X17.53F5000S0
G1 X2.504F3000S1000
G1 X2.238F5000S0
G1 X5.458F3000S1000
G1 X25.721F5000S0
G1 X6.101F3000S1000
G1 X1.554F5000S0
G1 X11.974F3000S1000
G0 X1.25
G0 X-0.207Y0.1
G0 X-1.25
G1 X-11.756
G1 X-0.759S0
G1 X-6.795S1000
G1 X-25.819F5000S0
G1 X-5.461F3000S1000
G1 X-2.216F5000S0
G1 X-2.506F3000S1000
G1 X-17.581F5000S0
G1 X-5.118F3000S1000
G1 X-141.128F5000S0
G1 X-0.862F3000S1000
G1 X-11.113F5000S0
G1 X-5.46F3000S1000
G1 X-2.215F5000S0
G1 X-2.506F3000S1000
G1 X-38.778F5000S0
G1 X-0.5F3000S1000
G1 X-55.088F5000S0
G1 X-2.32F3000S1000
G1 X-14.516F5000S0
G1 X-5.121F3000S1000
G0 X-1.25
G0 X0.029Y0.1
G0 X1.25
G1 X5.066
G1 X13.962F5000S0
G1 X3.514F3000S1000
G1 X53.588F5000S0
G1 X2.454F3000S1000
G1 X37.741F5000S0
G1 X2.509F3000S1000
G1 X2.191F5000S0
G1 X5.464F3000S1000
G1 X10.378F5000S0
G1 X2.397F3000S1000
G1 X140.343F5000S0
G1 X5.069F3000S1000
G1 X17.632F5000S0
G1 X2.509F3000S1000
G1 X2.192F5000S0
G1 X5.466F3000S1000
G1 X25.916F5000S0
G1 X18.991F3000S1000
G0 X1.25
G0 X-0.207Y0.1
G0 X-1.25
G1 X-18.672
G1 X-15.104F5000S0
G1 X-2.171F3000S1000
G1 X-8.739F5000S0
G1 X-5.47F3000S1000
G1 X-2.169F5000S0
G1 X-2.512F3000S1000
G1 X-17.683F5000S0
G1 X-5.019F3000S1000
G1 X-46.694F5000S0
G1 X-2.174F3000S1000
G1 X-50.41F5000S0
G1 X-1.967F3000S1000
G1 X-8.226F5000S0
G1 X-2.651F3000S1000
G1 X-27.804F5000S0
G1 X-3.254F3000S1000
G1 X-9.953F5000S0
G1 X-5.467F3000S1000
G1 X-2.169F5000S0
G1 X-2.512F3000S1000
G1 X-16.895F5000S0
G1 X-2.17F3000S1000
G1 X-18.218F5000S0
G1 X-3.472F3000S1000
G1 X-29.79F5000S0
G1 X-2.062F3000S1000
G1 X-20.719F5000S0
G1 X-4.445F3000S1000
G1 X-13.543F5000S0
G1 X-5.012F3000S1000
G0 X-1.25
G0 X0.029Y0.1
G0 X1.25
G1 X4.958
G1 X13.198F5000S0
G1 X5.148F3000S1000
G1 X19.918F5000S0
G1 X3.036F3000S1000
G1 X28.847F5000S0
G1 X4.291F3000S1000
G1 X17.28F5000S0
G1 X3.284F3000S1000
G1 X16.368F5000S0
G1 X2.514F3000S1000
G1 X2.146F5000S0
G1 X5.472F3000S1000
G1 X9.621F5000S0
G1 X3.92F3000S1000
G1 X26.885F5000S0
G1 X3.818F3000S1000
G1 X7.137F5000S0
G1 X2.953F3000S1000
G1 X49.41F5000S0
G1 X3.234F3000S1000
G1 X46.169F5000S0
G1 X4.97F3000S1000
G1 X17.734F5000S0
G1 X2.514F3000S1000
G1 X2.147F5000S0
G1 X5.474F3000S1000
G1 X8.169F5000S0
G1 X3.284F3000S1000
G1 X14.673F5000S0
G1 X18.338F3000S1000
G0 X1.25
G0 X-0.231Y0.1
G0 X-1.25
G1 X-17.977
G1 X-14.394F5000S0
G1 X-4.008F3000S1000
G1 X-7.84F5000S0
G1 X-5.478F3000S1000
G1 X-2.124F5000S0
G1 X-2.516F3000S1000
G1 X-17.786F5000S0
G1 X-4.92F3000S1000
G1 X-45.77F5000S0
G1 X-4.025F3000S1000
G1 X-48.761F5000S0
G1 X-3.588F3000S1000
G1 X-6.345F5000S0
G1 X-4.663F3000S1000
G1 X-26.212F5000S0
G1 X-4.466F3000S1000
G1 X-9.332F5000S0
G1 X-5.476F3000S1000
G1 X-2.123F5000S0
G1 X-2.516F3000S1000
G1 X-15.99F5000S0
G1 X-4.008F3000S1000
G1 X-16.64F5000S0
G1 X-4.938F3000S1000
G1 X-28.176F5000S0
G1 X-3.714F3000S1000
G1 X-19.257F5000S0
G1 X-5.806F3000S1000
G1 X-12.898F5000S0
G1 X-4.903F3000S1000
G0 X-1.25
G0 X0.028Y0.1
G0 X1.25
G1 X4.85
G1 X12.655F5000S0
G1 X6.344F3000S1000
G1 X18.719F5000S0
G1 X4.28F3000S1000
G1 X27.612F5000S0
G1 X5.502F3000S1000
G1 X16.06F5000S0
G1 X4.639F3000S1000
G1 X15.674F5000S0
G1 X2.516F3000S1000
G1 X2.101F5000S0
G1 X5.479F3000S1000
G1 X9.087F5000S0
G1 X4.946F3000S1000
G1 X25.62F5000S0
G1 X5.384F3000S1000
G1 X5.699F5000S0
G1 X4.123F3000S1000
G1 X48.207F5000S0
G1 X4.657F3000S1000
G1 X45.454F5000S0
G1 X4.86F3000S1000
G1 X17.85F5000S0
G1 X2.516F3000S1000
G1 X2.101F5000S0
G1 X5.483F3000S1000
G1 X7.543F5000S0
G1 X4.639F3000S1000
G1 X14.174F5000S0
G1 X17.603F3000S1000
G0 X1.25
G0 X-0.244Y0.1
G0 X-1.25
G1 X-17.221
G1 X-13.997F5000S0
G1 X-5.162F3000S1000
G1 X-7.321F5000S0
G1 X-5.486F3000S1000
G1 X-2.078F5000S0
G1 X-2.516F3000S1000
G1 X-17.914F5000S0
G1 X-4.801F3000S1000
G1 X-45.179F5000S0
G1 X-5.199F3000S1000
G1 X-47.759F5000S0
G1 X-4.584F3000S1000
G1 X-5.132F5000S0
G1 X-5.971F3000S1000
G1 X-25.134F5000S0
G1 X-5.373F3000S1000
G1 X-8.861F5000S0
G1 X-5.483F3000S1000
G1 X-2.077F5000S0
G1 X-2.516F3000S1000
G1 X-15.393F5000S0
G1 X-5.161F3000S1000
G1 X-15.597F5000S0
G1 X-5.974F3000S1000
G1 X-27.147F5000S0
G1 X-4.765F3000S1000
G1 X-18.256F5000S0
G1 X-6.84F3000S1000
G1 X-12.411F5000S0
G1 X-4.796F3000S1000
G0 X-1.25
G0 X0.029Y0.1
G0 X1.25
G1 X4.741
G1 X12.2F5000S0
G1 X7.288F3000S1000
G1 X17.845F5000S0
G1 X5.207F3000S1000
G1 X26.702F5000S0
G1 X6.421F3000S1000
G1 X15.145F5000S0
G1 X5.637F3000S1000
G1 X15.158F5000S0
G1 X2.516F3000S1000
G1 X2.054F5000S0
G1 X5.487F3000S1000
G1 X8.658F5000S0
G1 X5.766F3000S1000
G1 X24.689F5000S0
G1 X6.493F3000S1000
G1 X4.601F5000S0
G1 X5.03F3000S1000
G1 X47.375F5000S0
G1 X5.67F3000S1000
G1 X44.925F5000S0
G1 X4.742F3000S1000
G1 X17.977F5000S0
G1 X2.516F3000S1000
G1 X2.055F5000S0
G1 X5.491F3000S1000
G1 X7.099F5000S0
G1 X5.637F3000S1000
G1 X13.88F5000S0
G1 X16.825F3000S1000
G0 X1.25
G0 X-0.244Y0.1
G0 X-1.25
G1 X-16.429
G1 X-13.776F5000S0
G1 X-6.052F3000S1000
G1 X-6.926F5000S0
G1 X-5.495F3000S1000
G1 X-2.032F5000S0
G1 X-2.515F3000S1000
G1 X-18.042F5000S0
G1 X-4.683F3000S1000
G1 X-6.729F5000S0
G1 X-1.34F3000S1000
G1 X-36.643F5000S0
G1 X-6.088F3000S1000
G1 X-47.006F5000S0
G1 X-5.421F3000S1000
G1 X-4.16F5000S0
G1 X-6.976F3000S1000
G1 X-24.271F5000S0
G1 X-6.114F3000S1000
G1 X-8.473F5000S0
G1 X-5.493F3000S1000
G1 X-2.029F5000S0
G1 X-2.515F3000S1000
G1 X-14.936F5000S0
G1 X-6.052F3000S1000
G1 X-14.767F5000S0
G1 X-6.815F3000S1000
G1 X-26.338F5000S0
G1 X-5.579F3000S1000
G1 X-17.466F5000S0
G1 X-7.683F3000S1000
G1 X-12.033F5000S0
G1 X-4.68F3000S1000
G0 X-1.25
G0 X0.029Y0.1
G0 X1.25
G1 X4.614
G1 X11.87F5000S0
G1 X8.074F3000S1000
G1 X17.107F5000S0
G1 X5.937F3000S1000
G1 X8.6F5000S0
G1 X1.925F3000S1000
G1 X10.485F5000S0
G1 X2.771F3000S1000
G1 X2.202F5000S0
G1 X7.191F3000S1000
G1 X14.407F5000S0
G1 X6.431F3000S1000
G1 X14.74F5000S0
G1 X2.514F3000S1000
G1 X2.004F5000S0
G1 X5.499F3000S1000
G1 X8.32F5000S0
G1 X6.429F3000S1000
G1 X23.909F5000S0
G1 X7.404F3000S1000
G1 X3.734F5000S0
G1 X5.756F3000S1000
G1 X9.625F5000S0
G1 X1.81F3000S1000
G1 X35.266F5000S0
G1 X6.479F3000S1000
G1 X35.618F5000S0
G1 X2.91F3000S1000
G1 X5.976F5000S0
G1 X4.624F3000S1000
G1 X18.106F5000S0
G1 X2.514F3000S1000
G1 X2.007F5000S0
G1 X5.502F3000S1000
G1 X6.761F5000S0
G1 X6.432F3000S1000
G1 X13.703F5000S0
G1 X16.004F3000S1000
G0 X1.25
G0 X-0.272Y0.1
G0 X-1.25
G1 X-15.554
G1 X-13.66F5000S0
G1 X-6.802F3000S1000
G1 X-6.598F5000S0
G1 X-5.508F3000S1000
G1 X-1.981F5000S0
G1 X-2.514F3000S1000
G1 X-6.763F5000S0
G1 X-2.532F3000S1000
G1 X-8.876F5000S0
G1 X-4.564F3000S1000
G1 X-5.548F5000S0
G1 X-3.853F3000S1000
G1 X-34.925F5000S0
G1 X-6.823F3000S1000
G1 X-6.892F5000S0
G1 X-2.431F3000S1000
G1 X-25.184F5000S0
G1 X-3.183F3000S1000
G1 X-8.724F5000S0
G1 X-6.09F3000S1000
G1 X-3.333F5000S0
G1 X-7.802F3000S1000
G1 X-23.577F5000S0
G1 X-6.72F3000S1000
G1 X-8.166F5000S0
G1 X-5.504F3000S1000
G1 X-1.98F5000S0
G1 X-2.513F3000S1000
G1 X-14.553F5000S0
G1 X-6.802F3000S1000
G1 X-14.067F5000S0
G1 X-7.528F3000S1000
G1 X-1.548F5000S0
G1 X-3.938F3000S1000
G1 X-9.284F5000S0
G1 X-3.206F3000S1000
G1 X-7.676F5000S0
G1 X-6.274F3000S1000
G1 X-16.783F5000S0
G1 X-8.427F3000S1000
G1 X-11.724F5000S0
G1 X-4.549F3000S1000
G0 X-1.25
G0 X0.029Y0.1
G0 X1.25
G1 X4.483
G1 X11.587F5000S0
G1 X8.772F3000S1000
G1 X16.47F5000S0
G1 X6.566F3000S1000
G1 X7.056F5000S0
G1 X3.929F3000S1000
G1 X8.564F5000S0
G1 X4.657F3000S1000
G1 X1.153F5000S0
G1 X7.86F3000S1000
G1 X13.755F5000S0
G1 X7.124F3000S1000
G1 X14.388F5000S0
G1 X2.513F3000S1000
G1 X1.954F5000S0
G1 X5.51F3000S1000
G1 X8.013F5000S0
G1 X7.007F3000S1000
G1 X23.247F5000S0
G1 X8.181F3000S1000
G1 X2.952F5000S0
G1 X6.425F3000S1000
G1 X8.108F5000S0
G1 X3.901F3000S1000
G1 X24.287F5000S0
G1 X3.45F3000S1000
G1 X6.381F5000S0
G1 X7.166F3000S1000
G1 X34.358F5000S0
G1 X4.41F3000S1000
G1 X5.38F5000S0
G1 X4.505F3000S1000
G1 X8.353F5000S0
G1 X3.461F3000S1000
G1 X6.421F5000S0
G1 X2.513F3000S1000
G1 X1.956F5000S0
G1 X5.514F3000S1000
G1 X6.46F5000S0
G1 X7.125F3000S1000
G1 X13.639F5000S0
G1 X15.103F3000S1000
G0 X1.25
G0 X-0.294Y0.1
G0 X-1.25
G1 X-14.615
G1 X-13.634F5000S0
G1 X-7.435F3000S1000
G1 X-6.335F5000S0
G1 X-5.52F3000S1000
G1 X-1.931F5000S0
G1 X-2.512F3000S1000
G1 X-6.226F5000S0
G1 X-4.199F3000S1000
G1 X-7.884F5000S0
G1 X-4.457F3000S1000
G1 X-5.256F5000S0
G1 X-4.764F3000S1000
G1 X-33.954F5000S0
G1 X-7.46F3000S1000
G1 X-6.04F5000S0
G1 X-4.107F3000S1000
G1 X-23.702F5000S0
G1 X-4.498F3000S1000
G1 X-7.542F5000S0
G1 X-6.699F3000S1000
G1 X-2.608F5000S0
G1 X-8.54F3000S1000
G1 X-22.939F5000S0
G1 X-7.292F3000S1000
G1 X-7.859F5000S0
G1 X-5.516F3000S1000
G1 X-1.929F5000S0
G1 X-2.512F3000S1000
G1 X-14.223F5000S0
G1 X-7.435F3000S1000
G1 X-13.474F5000S0
G1 X-8.153F3000S1000
G1 X-0.863S0
G1 X-5.194S1000
G1 X-8.037F5000S0
G1 X-4.455F3000S1000
G1 X-6.537F5000S0
G1 X-6.845F3000S1000
G1 X-16.181F5000S0
G1 X-9.105F3000S1000
G1 X-11.45F5000S0
G1 X-4.437F3000S1000
G0 X-1.25
G0 X-0.18Y0.1
G0 X1.25
G1 X4.58
G1 X11.325F5000S0
G1 X9.418F3000S1000
G1 X15.918F5000S0
G1 X7.107F3000S1000
G1 X6.082F5000S0
G1 X4.846F3000S1000
G1 X7.66F5000S0
G1 X5.566F3000S1000
G1 X0.658S0
G1 X8.443S1000
G1 X13.197F5000S0
G1 X7.721F3000S1000
G1 X14.081F5000S0
G1 X2.512F3000S1000
G1 X1.905F5000S0
G1 X5.521F3000S1000
G1 X7.725F5000S0
G1 X7.536F3000S1000
G1 X22.678F5000S0
G1 X8.87F3000S1000
G1 X2.274F5000S0
G1 X6.959F3000S1000
G1 X7.137F5000S0
G1 X4.869F3000S1000
G1 X23.205F5000S0
G1 X4.652F3000S1000
G1 X5.799F5000S0
G1 X7.748F3000S1000
G1 X33.605F5000S0
G1 X5.026F3000S1000
G1 X4.972F5000S0
G1 X4.605F3000S1000
G1 X7.61F5000S0
G1 X4.649F3000S1000
G1 X6.126F5000S0
G1 X2.512F3000S1000
G1 X1.906F5000S0
G1 X5.524F3000S1000
G1 X6.211F5000S0
G1 X7.722F3000S1000
G1 X13.672F5000S0
G1 X14.098F3000S1000
G0 X1.25
G0 X-0.303Y0.1
G0 X-1.25
G1 X-13.581
G1 X-13.711F5000S0
G1 X-8.008F3000S1000
G1 X-6.088F5000S0
G1 X-5.527F3000S1000
G1 X-1.882F5000S0
G1 X-2.511F3000S1000
G1 X-6.096F5000S0
G1 X-4.952F3000S1000
G1 X-7.414F5000S0
G1 X-4.757F3000S1000
G1 X-4.733F5000S0
G1 X-5.205F3000S1000
G1 X-33.301F5000S0
G1 X-8.024F3000S1000
G1 X-5.628F5000S0
G1 X-4.984F3000S1000
G1 X-22.879F5000S0
G1 X-5.117F3000S1000
G1 X-6.828F5000S0
G1 X-7.22F3000S1000
G1 X-1.968F5000S0
G1 X-9.17F3000S1000
G1 X-22.417F5000S0
G1 X-7.769F3000S1000
G1 X-7.603F5000S0
G1 X-5.527F3000S1000
G1 X-1.88F5000S0
G1 X-2.511F3000S1000
G1 X-13.939F5000S0
G1 X-8.009F3000S1000
G1 X-12.924F5000S0
G1 X-8.716F3000S1000
G1 X-0.495S0
G1 X-5.784S1000
G1 X-7.435F5000S0
G1 X-5.158F3000S1000
G1 X-5.694F5000S0
G1 X-7.353F3000S1000
G1 X-15.656F5000S0
G1 X-9.72F3000S1000
G1 X-11.21F5000S0
G1 X-4.727F3000S1000
G0 X-1.25
G0 X-0.215Y0.1
G0 X1.25
G1 X4.906
G1 X11.093F5000S0
G1 X10.011F3000S1000
G1 X15.411F5000S0
G1 X7.58F3000S1000
G1 X5.448F5000S0
G1 X5.303F3000S1000
G1 X7.296F5000S0
G1 X5.93F3000S1000
G1 X0.364S0
G1 X8.967S1000
G1 X12.694F5000S0
G1 X8.258F3000S1000
G1 X13.808F5000S0
G1 X2.512F3000S1000
G1 X1.853F5000S0
G1 X5.533F3000S1000
G1 X7.48F5000S0
G1 X8.002F3000S1000
G1 X22.164F5000S0
G1 X9.462F3000S1000
G1 X1.664F5000S0
G1 X7.48F3000S1000
G1 X6.559F5000S0
G1 X5.287F3000S1000
G1 X22.69F5000S0
G1 X5.195F3000S1000
G1 X5.494F5000S0
G1 X8.274F3000S1000
G1 X33.064F5000S0
G1 X5.433F3000S1000
G1 X4.364F5000S0
G1 X4.934F3000S1000
G1 X7.268F5000S0
G1 X5.183F3000S1000
G1 X6.088F5000S0
G1 X2.512F3000S1000
G1 X1.855F5000S0
G1 X5.531F3000S1000
G1 X5.992F5000S0
G1 X8.258F3000S1000
G1 X13.794F5000S0
G1 X12.996F3000S1000
G0 X1.25
G0 X-0.341Y0.1
G0 X-1.25
G1 X-12.406
G1 X-13.888F5000S0
G1 X-8.494F3000S1000
G1 X-5.899F5000S0
G1 X-5.535F3000S1000
G1 X-1.826F5000S0
G1 X-2.515F3000S1000
G1 X-6.103F5000S0
G1 X-5.35F3000S1000
G1 X-7.164F5000S0
G1 X-5.129F3000S1000
G1 X-3.887F5000S0
G1 X-5.728F3000S1000
G1 X-32.849F5000S0
G1 X-8.517F3000S1000
G1 X-5.39F5000S0
G1 X-5.341F3000S1000
G1 X-22.554F5000S0
G1 X-5.405F3000S1000
G1 X-6.351F5000S0
G1 X-7.717F3000S1000
G1 X-1.363F5000S0
G1 X-9.746F3000S1000
G1 X-21.931F5000S0
G1 X-8.222F3000S1000
G1 X-7.358F5000S0
G1 X-5.539F3000S1000
G1 X-1.824F5000S0
G1 X-2.515F3000S1000
G1 X-13.687F5000S0
G1 X-8.493F3000S1000
G1 X-12.469F5000S0
G1 X-9.218F3000S1000
G1 X-0.261S0
G1 X-6.008S1000
G1 X-7.205F5000S0
G1 X-5.398F3000S1000
G1 X-5.243F5000S0
G1 X-7.801F3000S1000
G1 X-15.176F5000S0
G1 X-10.294F3000S1000
G1 X-10.993F5000S0
G1 X-5.091F3000S1000
G0 X-1.25
G0 X-0.261Y0.1
G0 X1.25
G1 X5.301
G1 X10.909F5000S0
G1 X10.562F3000S1000
G1 X14.943F5000S0
G1 X8.021F3000S1000
G1 X5.06F5000S0
G1 X5.441F3000S1000
G1 X7.198F5000S0
G1 X6.025F3000S1000
G1 X0.176S0
G1 X9.454S1000
G1 X12.247F5000S0
G1 X8.729F3000S1000
G1 X13.566F5000S0
G1 X2.518F3000S1000
G1 X1.796F5000S0
G1 X5.544F3000S1000
G1 X7.235F5000S0
G1 X8.442F3000S1000
G1 X21.699F5000S0
G1 X10.028F3000S1000
G1 X1.091F5000S0
G1 X7.925F3000S1000
G1 X6.208F5000S0
G1 X5.431F3000S1000
G1 X22.505F5000S0
G1 X5.405F3000S1000
G1 X5.31F5000S0
G1 X8.76F3000S1000
G1 X32.634F5000S0
G1 X6.044F3000S1000
G1 X3.37F5000S0
G1 X5.333F3000S1000
G1 X7.153F5000S0
G1 X5.41F3000S1000
G1 X6.142F5000S0
G1 X2.518F3000S1000
G1 X1.797F5000S0
G1 X5.539F3000S1000
G1 X5.807F5000S0
G1 X8.729F3000S1000
G1 X14.003F5000S0
G1 X11.778F3000S1000
G0 X1.25
G0 X-0.386Y0.1
G0 X-1.25
G1 X-11.106
G1 X-14.145F5000S0
G1 X-8.953F3000S1000
G1 X-5.715F5000S0
G1 X-5.543F3000S1000
G1 X-1.768F5000S0
G1 X-2.521F3000S1000
G1 X-6.196F5000S0
G1 X-5.435F3000S1000
G1 X-7.162F5000S0
G1 X-5.588F3000S1000
G1 X-2.792F5000S0
G1 X-6.364F3000S1000
G1 X-32.432F5000S0
G1 X-8.991F3000S1000
G1 X-5.249F5000S0
G1 X-5.42F3000S1000
G1 X-22.487F5000S0
G1 X-5.454F3000S1000
G1 X-6.072F5000S0
G1 X-8.133F3000S1000
G1 X-0.843S0
G1 X-10.28S1000
G1 X-21.473F5000S0
G1 X-8.658F3000S1000
G1 X-7.116F5000S0
G1 X-5.55F3000S1000
G1 X-1.768F5000S0
G1 X-2.52F3000S1000
G1 X-13.455F5000S0
G1 X-8.954F3000S1000
G1 X-12.035F5000S0
G1 X-9.68F3000S1000
G1 X-0.082S0
G1 X-6.052S1000
G1 X-7.187F5000S0
G1 X-5.456F3000S1000
G1 X-4.916F5000S0
G1 X-8.232F3000S1000
G1 X-14.721F5000S0
G1 X-10.821F3000S1000
G1 X-10.825F5000S0
G1 X-5.577F3000S1000
G0 X-1.25
G0 X-0.417Y0.1
G0 X1.25
G1 X5.943
G1 X10.741F5000S0
G1 X11.074F3000S1000
G1 X14.514F5000S0
G1 X8.42F3000S1000
G1 X4.79F5000S0
G1 X5.475F3000S1000
G1 X7.17F5000S0
G1 X15.97F3000S1000
G1 X11.829F5000S0
G1 X9.169F3000S1000
G1 X13.348F5000S0
G1 X2.524F3000S1000
G1 X1.739F5000S0
G1 X5.556F3000S1000
G1 X7.017F5000S0
G1 X8.854F3000S1000
G1 X21.254F5000S0
G1 X10.526F3000S1000
G1 X0.594S0
G1 X8.341S1000
G1 X5.944F5000S0
G1 X5.477F3000S1000
G1 X22.46F5000S0
G1 X5.442F3000S1000
G1 X5.195F5000S0
G1 X9.199F3000S1000
G1 X32.253F5000S0
G1 X6.769F3000S1000
G1 X2.105F5000S0
G1 X5.854F3000S1000
G1 X7.181F5000S0
G1 X5.457F3000S1000
G1 X6.242F5000S0
G1 X2.524F3000S1000
G1 X1.74F5000S0
G1 X5.547F3000S1000
G1 X5.628F5000S0
G1 X9.169F3000S1000
G1 X14.308F5000S0
G1 X10.471F3000S1000
G0 X1.25
G0 X0.009Y0.1
G0 X-1.25
G1 X-10.146
G1 X-14.502F5000S0
G1 X-9.369F3000S1000
G1 X-5.556F5000S0
G1 X-5.551F3000S1000
G1 X-1.711F5000S0
G1 X-2.527F3000S1000
G1 X-6.281F5000S0
G1 X-5.476F3000S1000
G1 X-7.211F5000S0
G1 X-6.253F3000S1000
G1 X-1.134F5000S0
G1 X-7.325F3000S1000
G1 X-32.073F5000S0
G1 X-9.408F3000S1000
G1 X-5.133F5000S0
G1 X-5.471F3000S1000
G1 X-22.429F5000S0
G1 X-5.499F3000S1000
G1 X-5.821F5000S0
G1 X-8.55F3000S1000
G1 X-0.346S0
G1 X-10.771S1000
G1 X-21.035F5000S0
G1 X-9.05F3000S1000
G1 X-6.919F5000S0
G1 X-5.56F3000S1000
G1 X-1.711F5000S0
G1 X-2.527F3000S1000
G1 X-13.241F5000S0
G1 X-9.37F3000S1000
G1 X-11.638F5000S0
G1 X-16.111F3000S1000
G1 X-7.163F5000S0
G1 X-5.487F3000S1000
G1 X-4.676F5000S0
G1 X-8.609F3000S1000
G1 X-14.305F5000S0
G1 X-11.32F3000S1000
G1 X-10.674F5000S0
G1 X-6.676F3000S1000
G0 X-1.25
G0 X-2.224Y0.1
G0 X1.25
G1 X8.838
G1 X10.616F5000S0
G1 X11.554F3000S1000
G1 X14.101F5000S0
G1 X8.798F3000S1000
G1 X4.563F5000S0
G1 X5.498F3000S1000
G1 X7.156F5000S0
G1 X16.252F3000S1000
G1 X11.447F5000S0
G1 X9.57F3000S1000
G1 X13.135F5000S0
G1 X2.529F3000S1000
G1 X1.683F5000S0
G1 X5.563F3000S1000
G1 X6.823F5000S0
G1 X9.246F3000S1000
G1 X20.819F5000S0
G1 X11.014F3000S1000
G1 X0.097S0
G1 X8.758S1000
G1 X5.706F5000S0
G1 X5.514F3000S1000
G1 X22.416F5000S0
G1 X5.485F3000S1000
G1 X5.069F5000S0
G1 X9.616F3000S1000
G1 X31.894F5000S0
G1 X14.687F3000S1000
G1 X7.26F5000S0
G1 X5.488F3000S1000
G1 X6.316F5000S0
G1 X2.53F3000S1000
G1 X1.682F5000S0
G1 X5.555F3000S1000
G1 X5.484F5000S0
G1 X9.57F3000S1000
G1 X14.727F5000S0
G1 X9.79F3000S1000
G0 X1.25
G0 X0.01Y0.1
G0 X-1.25
G1 X-9.402
G1 X-14.988F5000S0
G1 X-9.767F3000S1000
G1 X-5.412F5000S0
G1 X-5.559F3000S1000
G1 X-1.654F5000S0
G1 X-2.532F3000S1000
G1 X-6.352F5000S0
G1 X-5.496F3000S1000
G1 X-7.315F5000S0
G1 X-14.651F3000S1000
G1 X-31.724F5000S0
G1 X-9.817F3000S1000
G1 X-5.011F5000S0
G1 X-5.498F3000S1000
G1 X-22.403F5000S0
G1 X-5.525F3000S1000
G1 X-5.596F5000S0
G1 X-20.062F3000S1000
G1 X-20.625F5000S0
G1 X-9.428F3000S1000
G1 X-6.729F5000S0
G1 X-5.565F3000S1000
G1 X-1.654F5000S0
G1 X-2.532F3000S1000
G1 X-13.032F5000S0
G1 X-9.767F3000S1000
G1 X-11.264F5000S0
G1 X-16.386F3000S1000
G1 X-7.147F5000S0
G1 X-5.51F3000S1000
G1 X-4.45F5000S0
G1 X-8.978F3000S1000
G1 X-13.914F5000S0
G1 X-11.78F3000S1000
G1 X-10.557F5000S0
G1 X-9.394F3000S1000
G0 X-1.25
G0 X-0.428Y0.1
G0 X1.25
G1 X9.76
G1 X10.499F5000S0
G1 X12.006F3000S1000
G1 X13.728F5000S0
G1 X9.157F3000S1000
G1 X4.338F5000S0
G1 X5.52F3000S1000
G1 X7.147F5000S0
G1 X16.507F3000S1000
G1 X11.087F5000S0
G1 X9.953F3000S1000
G1 X12.939F5000S0
G1 X2.535F3000S1000
G1 X1.625F5000S0
G1 X5.567F3000S1000
G1 X6.634F5000S0
G1 X9.609F3000S1000
G1 X7.623F5000S0
G1 X1.989F3000S1000
G1 X10.821F5000S0
G1 X20.256F3000S1000
G1 X5.492F5000S0
G1 X5.528F3000S1000
G1 X22.391F5000S0
G1 X5.512F3000S1000
G1 X4.961F5000S0
G1 X9.996F3000S1000
G1 X31.572F5000S0
G1 X14.609F3000S1000
G1 X7.371F5000S0
G1 X5.504F3000S1000
G1 X6.388F5000S0
G1 X2.535F3000S1000
G1 X1.625F5000S0
G1 X5.563F3000S1000
G1 X5.34F5000S0
G1 X9.954F3000S1000
G1 X15.342F5000S0
G1 X8.93F3000S1000
G0 X1.25
G0 X0.01Y0.1
G0 X-1.25
G1 X-8.363
G1 X-15.792F5000S0
G1 X-10.137F3000S1000
G1 X-5.272F5000S0
G1 X-5.566F3000S1000
G1 X-1.597F5000S0
G1 X-2.538F3000S1000
G1 X-6.423F5000S0
G1 X-5.512F3000S1000
G1 X-7.428F5000S0
G1 X-14.567F3000S1000
G1 X-31.42F5000S0
G1 X-10.175F3000S1000
G1 X-4.912F5000S0
G1 X-5.523F3000S1000
G1 X-22.381F5000S0
G1 X-5.53F3000S1000
G1 X-5.401F5000S0
G1 X-20.438F3000S1000
G1 X-10.189F5000S0
G1 X-3.243F3000S1000
G1 X-6.81F5000S0
G1 X-9.789F3000S1000
G1 X-6.539F5000S0
G1 X-5.568F3000S1000
G1 X-1.597F5000S0
G1 X-2.538F3000S1000
G1 X-12.846F5000S0
G1 X-10.137F3000S1000
G1 X-10.911F5000S0
G1 X-16.628F3000S1000
G1 X-7.148F5000S0
G1 X-5.531F3000S1000
G1 X-4.225F5000S0
G1 X-9.336F3000S1000
G1 X-13.542F5000S0
G1 X-12.225F3000S1000
G1 X-10.459F5000S0
G1 X-10.069F3000S1000
G0 X-1.25
G0 X-0.324Y0.1
G0 X1.25
G1 X10.32
G1 X10.426F5000S0
G1 X5.273F3000S1000
G1 X1.558F5000S0
G1 X5.596F3000S1000
G1 X13.37F5000S0
G1 X9.507F3000S1000
G1 X4.121F5000S0
G1 X5.537F3000S1000
G1 X7.149F5000S0
G1 X16.749F3000S1000
G1 X10.75F5000S0
G1 X10.306F3000S1000
G1 X12.756F5000S0
G1 X2.537F3000S1000
G1 X1.569F5000S0
G1 X5.57F3000S1000
G1 X6.462F5000S0
G1 X9.951F3000S1000
G1 X6.251F5000S0
G1 X3.96F3000S1000
G1 X9.847F5000S0
G1 X20.61F3000S1000
G1 X5.315F5000S0
G1 X5.53F3000S1000
G1 X22.378F5000S0
G1 X5.527F3000S1000
G1 X4.863F5000S0
G1 X10.354F3000S1000
G1 X31.268F5000S0
G1 X14.518F3000S1000
G1 X7.491F5000S0
G1 X5.52F3000S1000
G1 X6.462F5000S0
G1 X2.537F3000S1000
G1 X1.569F5000S0
G1 X5.57F3000S1000
G1 X5.218F5000S0
G1 X10.306F3000S1000
G1 X16.453F5000S0
G1 X7.584F3000S1000
G0 X1.25
G0 X0.01Y0.1
G0 X-1.25
G1 X-6.267
G1 X-17.653F5000S0
G1 X-10.476F3000S1000
G1 X-5.164F5000S0
G1 X-5.573F3000S1000
G1 X-1.54F5000S0
G1 X-2.537F3000S1000
G1 X-6.501F5000S0
G1 X-5.527F3000S1000
G1 X-7.561F5000S0
G1 X-14.462F3000S1000
G1 X-31.117F5000S0
G1 X-10.528F3000S1000
G1 X-4.818F5000S0
G1 X-5.532F3000S1000
G1 X-22.371F5000S0
G1 X-5.534F3000S1000
G1 X-5.23F5000S0
G1 X-20.778F3000S1000
G1 X-9.606F5000S0
G1 X-4.547F3000S1000
G1 X-5.724F5000S0
G1 X-2.794F3000S1000
G1 X-0.778S0
G1 X-6.539S1000
G1 X-6.386F5000S0
G1 X-5.573F3000S1000
G1 X-1.54F5000S0
G1 X-2.537F3000S1000
G1 X-12.666F5000S0
G1 X-10.476F3000S1000
G1 X-10.588F5000S0
G1 X-6.795F3000S1000
G1 X-1.116F5000S0
G1 X-8.96F3000S1000
G1 X-7.145F5000S0
G1 X-5.546F3000S1000
G1 X-4.028F5000S0
G1 X-9.663F3000S1000
G1 X-13.205F5000S0
G1 X-5.081F3000S1000
G1 X-2.786F5000S0
G1 X-4.761F3000S1000
G1 X-10.392F5000S0
G1 X-10.545F3000S1000
G0 X-1.25
G0 X-0.259Y0.1
G0 X1.25
G1 X10.726
G1 X10.364F5000S0
G1 X4.471F3000S1000
G1 X3.566F5000S0
G1 X4.792F3000S1000
G1 X13.039F5000S0
G1 X5.121F3000S1000
G1 X0.8S0
G1 X3.898S1000
G1 X3.935F5000S0
G1 X5.555F3000S1000
G1 X7.142F5000S0
G1 X8.667F3000S1000
G1 X1.699F5000S0
G1 X6.617F3000S1000
G1 X10.435F5000S0
G1 X3.601F3000S1000
G1 X1.074F5000S0
G1 X5.965F3000S1000
G1 X12.582F5000S0
G1 X2.537F3000S1000
G1 X1.512F5000S0
G1 X5.574F3000S1000
G1 X6.31F5000S0
G1 X6.393F3000S1000
G1 X1.242F5000S0
G1 X2.637F3000S1000
G1 X5.353F5000S0
G1 X4.906F3000S1000
G1 X9.438F5000S0
G1 X5.864F3000S1000
G1 X1.271F5000S0
G1 X8.85F3000S1000
G1 X0.976S0
G1 X3.985S1000
G1 X5.144F5000S0
G1 X5.538F3000S1000
G1 X22.364F5000S0
G1 X5.536F3000S1000
G1 X4.783F5000S0
G1 X3.628F3000S1000
G1 X0.927S0
G1 X6.132S1000
G1 X30.979F5000S0
G1 X14.399F3000S1000
G1 X7.63F5000S0
G1 X5.536F3000S1000
G1 X6.539F5000S0
G1 X2.537F3000S1000
G1 X1.511F5000S0
G1 X5.577F3000S1000
G1 X5.109F5000S0
G1 X3.632F3000S1000
G1 X1.058F5000S0
G1 X5.95F3000S1000
G1 X17.54F5000S0
G1 X6.269F3000S1000
G0 X1.25
G0 X0.009Y0.1
G0 X-1.25
G1 X-6.27
G1 X-17.433F5000S0
G1 X-5.702F3000S1000
G1 X-1.756F5000S0
G1 X-3.339F3000S1000
G1 X-5.056F5000S0
G1 X-5.58F3000S1000
G1 X-1.483F5000S0
G1 X-2.536F3000S1000
G1 X-6.578F5000S0
G1 X-5.544F3000S1000
G1 X-7.699F5000S0
G1 X-14.334F3000S1000
G1 X-30.849F5000S0
G1 X-5.908F3000S1000
G1 X-1.603F5000S0
G1 X-3.329F3000S1000
G1 X-4.748F5000S0
G1 X-5.54F3000S1000
G1 X-22.357F5000S0
G1 X-5.542F3000S1000
G1 X-5.058F5000S0
G1 X-3.694F3000S1000
G1 X-1.73F5000S0
G1 X-8.017F3000S1000
G1 X-2.128F5000S0
G1 X-5.546F3000S1000
G1 X-9.308F5000S0
G1 X-5.139F3000S1000
G1 X-5.071F5000S0
G1 X-2.566F3000S1000
G1 X-1.559F5000S0
G1 X-6.306F3000S1000
G1 X-6.234F5000S0
G1 X-5.576F3000S1000
G1 X-1.484F5000S0
G1 X-2.536F3000S1000
G1 X-12.503F5000S0
G1 X-5.683F3000S1000
G1 X-1.776F5000S0
G1 X-3.339F3000S1000
G1 X-10.286F5000S0
G1 X-6.505F3000S1000
G1 X-2.132F5000S0
G1 X-8.455F3000S1000
G1 X-7.139F5000S0
G1 X-5.564F3000S1000
G1 X-3.842F5000S0
G1 X-3.73F3000S1000
G1 X-1.298F5000S0
G1 X-4.948F3000S1000
G1 X-12.875F5000S0
G1 X-4.585F3000S1000
G1 X-4.203F5000S0
G1 X-4.237F3000S1000
G1 X-10.346F5000S0
G1 X-10.899F3000S1000
G0 X-1.25
G0 X-0.217Y0.1
G0 X1.25
G1 X11.03
G1 X10.337F5000S0
G1 X4.062F3000S1000
G1 X4.683F5000S0
G1 X4.46F3000S1000
G1 X12.725F5000S0
G1 X4.856F3000S1000
G1 X1.643F5000S0
G1 X3.628F3000S1000
G1 X3.748F5000S0
G1 X5.572F3000S1000
G1 X7.137F5000S0
G1 X8.306F3000S1000
G1 X2.445F5000S0
G1 X6.451F3000S1000
G1 X10.135F5000S0
G1 X3.176F3000S1000
G1 X2.252F5000S0
G1 X5.528F3000S1000
G1 X12.426F5000S0
G1 X2.535F3000S1000
G1 X1.455F5000S0
G1 X5.578F3000S1000
G1 X6.159F5000S0
G1 X6.269F3000S1000
G1 X1.797F5000S0
G1 X2.512F3000S1000
G1 X4.84F5000S0
G1 X5.307F3000S1000
G1 X9.214F5000S0
G1 X5.363F3000S1000
G1 X2.731F5000S0
G1 X7.444F3000S1000
G1 X2.229F5000S0
G1 X3.506F3000S1000
G1 X4.972F5000S0
G1 X5.545F3000S1000
G1 X22.351F5000S0
G1 X5.545F3000S1000
G1 X4.712F5000S0
G1 X3.177F3000S1000
G1 X2.038F5000S0
G1 X5.778F3000S1000
G1 X30.718F5000S0
G1 X14.261F3000S1000
G1 X7.778F5000S0
G1 X5.551F3000S1000
G1 X6.618F5000S0
G1 X2.535F3000S1000
G1 X1.454F5000S0
G1 X5.582F3000S1000
G1 X5.003F5000S0
G1 X3.167F3000S1000
G1 X2.242F5000S0
G1 X5.547F3000S1000
G1 X17.325F5000S0
G1 X6.272F3000S1000
G0 X1.25
G0 X0.01Y0.1
G0 X-1.25
G1 X-6.274
G1 X-17.218F5000S0
G1 X-5.456F3000S1000
G1 X-2.582F5000S0
G1 X-3.063F3000S1000
G1 X-4.964F5000S0
G1 X-5.583F3000S1000
G1 X-1.425F5000S0
G1 X-2.535F3000S1000
G1 X-6.656F5000S0
G1 X-5.557F3000S1000
G1 X-7.866F5000S0
G1 X-14.181F3000S1000
G1 X-30.587F5000S0
G1 X-5.695F3000S1000
G1 X-2.387F5000S0
G1 X-3.064F3000S1000
G1 X-4.677F5000S0
G1 X-5.549F3000S1000
G1 X-22.344F5000S0
G1 X-5.549F3000S1000
G1 X-4.886F5000S0
G1 X-3.396F3000S1000
G1 X-2.595F5000S0
G1 X-7.011F3000S1000
G1 X-3.197F5000S0
G1 X-5.233F3000S1000
G1 X-9.136F5000S0
G1 X-5.396F3000S1000
G1 X-4.672F5000S0
G1 X-2.484F3000S1000
G1 X-2.002F5000S0
G1 X-6.239F3000S1000
G1 X-6.083F5000S0
G1 X-5.58F3000S1000
G1 X-1.426F5000S0
G1 X-2.535F3000S1000
G1 X-12.348F5000S0
G1 X-5.428F3000S1000
G1 X-2.619F5000S0
G1 X-3.054F3000S1000
G1 X-9.997F5000S0
G1 X-6.397F3000S1000
G1 X-2.751F5000S0
G1 X-8.164F3000S1000
G1 X-7.134F5000S0
G1 X-5.578F3000S1000
G1 X-3.658F5000S0
G1 X-3.542F3000S1000
G1 X-1.942F5000S0
G1 X-4.791F3000S1000
G1 X-12.577F5000S0
G1 X-4.335F3000S1000
G1 X-5.142F5000S0
G1 X-3.907F3000S1000
G1 X-10.329F5000S0
G1 X-11.157F3000S1000
G0 X-1.25
G0 X-0.214Y0.1
G0 X1.25
G1 X11.27
G1 X10.335F5000S0
G1 X3.815F3000S1000
G1 X5.497F5000S0
G1 X4.251F3000S1000
G1 X12.43F5000S0
G1 X4.755F3000S1000
G1 X2.186F5000S0
G1 X3.482F3000S1000
G1 X3.571F5000S0
G1 X5.581F3000S1000
G1 X7.131F5000S0
G1 X8.056F3000S1000
G1 X2.998F5000S0
G1 X6.367F3000S1000
G1 X9.863F5000S0
G1 X2.961F3000S1000
G1 X2.914F5000S0
G1 X5.369F3000S1000
G1 X12.269F5000S0
G1 X2.534F3000S1000
G1 X1.399F5000S0
G1 X5.581F3000S1000
G1 X6.009F5000S0
G1 X6.229F3000S1000
G1 X2.178F5000S0
G1 X2.464F3000S1000
G1 X4.548F5000S0
G1 X5.422F3000S1000
G1 X9.076F5000S0
G1 X5.148F3000S1000
G1 X3.603F5000S0
G1 X6.605F3000S1000
G1 X2.941F5000S0
G1 X3.294F3000S1000
G1 X4.8F5000S0
G1 X5.553F3000S1000
G1 X22.337F5000S0
G1 X5.553F3000S1000
G1 X4.654F5000S0
G1 X2.963F3000S1000
G1 X2.688F5000S0
G1 X5.636F3000S1000
G1 X30.458F5000S0
G1 X14.1F3000S1000
G1 X7.954F5000S0
G1 X5.561F3000S1000
G1 X6.695F5000S0
G1 X2.535F3000S1000
G1 X1.396F5000S0
G1 X5.585F3000S1000
G1 X4.926F5000S0
G1 X2.963F3000S1000
G1 X2.893F5000S0
G1 X5.389F3000S1000
G1 X17.11F5000S0
G1 X6.275F3000S1000
G0 X1.25
G0 X0.01Y0.1
G0 X-1.25
G1 X-6.278
G1 X-17.008F5000S0
G1 X-5.327F3000S1000
G1 X-3.161F5000S0
G1 X-2.893F3000S1000
G1 X-4.89F5000S0
G1 X-5.586F3000S1000
G1 X-1.368F5000S0
G1 X-2.534F3000S1000
G1 X-6.731F5000S0
G1 X-5.569F3000S1000
G1 X-8.041F5000S0
G1 X-14.012F3000S1000
G1 X-30.343F5000S0
G1 X-5.584F3000S1000
G1 X-2.949F5000S0
G1 X-2.888F3000S1000
G1 X-4.628F5000S0
G1 X-5.56F3000S1000
G1 X-9.861F5000S0
G1 X-2.274F3000S1000
G1 X-10.195F5000S0
G1 X-5.557F3000S1000
G1 X-4.715F5000S0
G1 X-3.225F3000S1000
G1 X-3.223F5000S0
G1 X-6.258F3000S1000
G1 X-3.962F5000S0
G1 X-5.08F3000S1000
G1 X-9.015F5000S0
G1 X-5.443F3000S1000
G1 X-4.432F5000S0
G1 X-2.459F3000S1000
G1 X-2.338F5000S0
G1 X-6.21F3000S1000
G1 X-5.943F5000S0
G1 X-5.584F3000S1000
G1 X-1.37F5000S0
G1 X-2.534F3000S1000
G1 X-12.196F5000S0
G1 X-5.32F3000S1000
G1 X-3.156F5000S0
G1 X-2.906F3000S1000
G1 X-9.733F5000S0
G1 X-6.338F3000S1000
G1 X-3.23F5000S0
G1 X-7.957F3000S1000
G1 X-7.128F5000S0
G1 X-5.584F3000S1000
G1 X-3.484F5000S0
G1 X-3.425F3000S1000
G1 X-2.41F5000S0
G1 X-4.736F3000S1000
G1 X-12.286F5000S0
G1 X-4.182F3000S1000
G1 X-5.835F5000S0
G1 X-3.722F3000S1000
G1 X-10.34F5000S0
G1 X-11.349F3000S1000
G0 X-1.25
G0 X-0.18Y0.1
G0 X1.25
G1 X11.428
G1 X10.354F5000S0
G1 X3.629F3000S1000
G1 X6.165F5000S0
G1 X4.108F3000S1000
G1 X12.154F5000S0
G1 X4.725F3000S1000
G1 X2.59F5000S0
G1 X3.389F3000S1000
G1 X3.405F5000S0
G1 X5.588F3000S1000
G1 X7.127F5000S0
G1 X7.858F3000S1000
G1 X3.459F5000S0
G1 X6.305F3000S1000
G1 X9.608F5000S0
G1 X2.85F3000S1000
G1 X3.378F5000S0
G1 X5.285F3000S1000
G1 X12.129F5000S0
G1 X2.534F3000S1000
G1 X1.341F5000S0
G1 X5.586F3000S1000
G1 X5.878F5000S0
G1 X6.191F3000S1000
G1 X2.498F5000S0
G1 X2.454F3000S1000
G1 X4.331F5000S0
G1 X5.457F3000S1000
G1 X8.954F5000S0
G1 X5.007F3000S1000
G1 X4.288F5000S0
G1 X5.953F3000S1000
G1 X3.492F5000S0
G1 X3.146F3000S1000
G1 X4.641F5000S0
G1 X5.562F3000S1000
G1 X9.53F5000S0
G1 X3.346F3000S1000
G1 X9.446F5000S0
G1 X5.569F3000S1000
G1 X4.599F5000S0
G1 X2.822F3000S1000
G1 X3.189F5000S0
G1 X5.541F3000S1000
G1 X30.232F5000S0
G1 X13.906F3000S1000
G1 X8.147F5000S0
G1 X5.577F3000S1000
G1 X6.766F5000S0
G1 X2.534F3000S1000
G1 X1.339F5000S0
G1 X5.588F3000S1000
G1 X4.853F5000S0
G1 X2.838F3000S1000
G1 X3.376F5000S0
G1 X5.299F3000S1000
G1 X16.911F5000S0
G1 X6.279F3000S1000
G0 X1.25
G0 X0.007Y0.1
G0 X-1.25
G1 X-6.278
G1 X-16.814F5000S0
G1 X-5.27F3000S1000
G1 X-3.591F5000S0
G1 X-2.785F3000S1000
G1 X-4.816F5000S0
G1 X-5.588F3000S1000
G1 X-1.309F5000S0
G1 X-2.536F3000S1000
G1 X-6.8F5000S0
G1 X-5.586F3000S1000
G1 X-8.254F5000S0
G1 X-13.799F3000S1000
G1 X-30.121F5000S0
G1 X-5.515F3000S1000
G1 X-3.396F5000S0
G1 X-2.771F3000S1000
G1 X-4.572F5000S0
G1 X-5.578F3000S1000
G1 X-9.195F5000S0
G1 X-4.054F3000S1000
G1 X-9.064F5000S0
G1 X-5.567F3000S1000
G1 X-4.568F5000S0
G1 X-3.088F3000S1000
G1 X-3.734F5000S0
G1 X-5.654F3000S1000
G1 X-4.577F5000S0
G1 X-4.97F3000S1000
G1 X-8.893F5000S0
G1 X-5.47F3000S1000
G1 X-4.23F5000S0
G1 X-2.45F3000S1000
G1 X-2.657F5000S0
G1 X-6.173F3000S1000
G1 X-5.813F5000S0
G1 X-5.588F3000S1000
G1 X-1.31F5000S0
G1 X-2.536F3000S1000
G1 X-12.061F5000S0
G1 X-5.266F3000S1000
G1 X-3.575F5000S0
G1 X-2.804F3000S1000
G1 X-9.484F5000S0
G1 X-6.295F3000S1000
G1 X-3.641F5000S0
G1 X-7.783F3000S1000
G1 X-7.125F5000S0
G1 X-5.592F3000S1000
G1 X-3.33F5000S0
G1 X-3.348F3000S1000
G1 X-2.767F5000S0
G1 X-4.717F3000S1000
G1 X-12.024F5000S0
G1 X-4.038F3000S1000
G1 X-6.461F5000S0
G1 X-3.563F3000S1000
G1 X-10.385F5000S0
G1 X-11.492F3000S1000
G0 X-1.25
G0 X-0.162Y0.1
G0 X1.25
G1 X11.536
G1 X10.419F5000S0
G1 X3.496F3000S1000
G1 X6.723F5000S0
G1 X4.003F3000S1000
G1 X11.892F5000S0
G1 X4.722F3000S1000
G1 X2.921F5000S0
G1 X3.318F3000S1000
G1 X3.256F5000S0
G1 X5.594F3000S1000
G1 X7.125F5000S0
G1 X7.706F3000S1000
G1 X3.824F5000S0
G1 X6.286F3000S1000
G1 X9.359F5000S0
G1 X2.771F3000S1000
G1 X3.749F5000S0
G1 X5.257F3000S1000
G1 X11.993F5000S0
G1 X2.539F3000S1000
G1 X1.279F5000S0
G1 X5.589F3000S1000
G1 X5.748F5000S0
G1 X6.168F3000S1000
G1 X2.803F5000S0
G1 X2.445F3000S1000
G1 X4.139F5000S0
G1 X5.473F3000S1000
G1 X8.833F5000S0
G1 X4.933F3000S1000
G1 X4.847F5000S0
G1 X5.399F3000S1000
G1 X3.943F5000S0
G1 X3.038F3000S1000
G1 X4.495F5000S0
G1 X5.571F3000S1000
G1 X8.638F5000S0
G1 X4.619F3000S1000
G1 X9.049F5000S0
G1 X5.586F3000S1000
G1 X4.545F5000S0
G1 X2.727F3000S1000
G1 X3.597F5000S0
G1 X5.488F3000S1000
G1 X30.01F5000S0
G1 X13.693F3000S1000
G1 X8.36F5000S0
G1 X5.594F3000S1000
G1 X6.835F5000S0
G1 X2.54F3000S1000
G1 X1.276F5000S0
G1 X5.59F3000S1000
G1 X4.78F5000S0
G1 X2.754F3000S1000
G1 X3.776F5000S0
G1 X5.247F3000S1000
G1 X16.717F5000S0
G1 X6.277F3000S1000
G0 X1.25
G0 X0.007Y0.1
G0 X-1.25
G1 X-6.276
G1 X-16.62F5000S0
G1 X-5.252F3000S1000
G1 X-3.925F5000S0
G1 X-2.721F3000S1000
G1 X-4.755F5000S0
G1 X-5.591F3000S1000
G1 X-1.244F5000S0
G1 X-2.543F3000S1000
G1 X-6.87F5000S0
G1 X-5.602F3000S1000
G1 X-8.481F5000S0
G1 X-13.568F3000S1000
G1 X-29.903F5000S0
G1 X-5.483F3000S1000
G1 X-3.765F5000S0
G1 X-2.689F3000S1000
G1 X-4.522F5000S0
G1 X-5.593F3000S1000
G1 X-8.977F5000S0
G1 X-4.933F3000S1000
G1 X-8.39F5000S0
G1 X-5.573F3000S1000
G1 X-4.425F5000S0
G1 X-2.988F3000S1000
G1 X-4.153F5000S0
G1 X-5.163F3000S1000
G1 X-5.096F5000S0
G1 X-4.896F3000S1000
G1 X-8.773F5000S0
G1 X-5.476F3000S1000
G1 X-4.061F5000S0
G1 X-2.437F3000S1000
G1 X-2.941F5000S0
G1 X-6.161F3000S1000
G1 X-5.684F5000S0
G1 X-5.591F3000S1000
G1 X-1.246F5000S0
G1 X-2.543F3000S1000
G1 X-11.925F5000S0
G1 X-5.26F3000S1000
G1 X-3.91F5000S0
G1 X-2.728F3000S1000
G1 X-9.246F5000S0
G1 X-6.276F3000S1000
G1 X-4.006F5000S0
G1 X-7.631F3000S1000
G1 X-7.123F5000S0
G1 X-5.592F3000S1000
G1 X-3.187F5000S0
G1 X-3.301F3000S1000
G1 X-3.061F5000S0
G1 X-4.727F3000S1000
G1 X-11.765F5000S0
G1 X-3.963F3000S1000
G1 X-6.986F5000S0
G1 X-3.429F3000S1000
G1 X-10.453F5000S0
G1 X-11.57F3000S1000
G0 X-1.25
G0 X-0.152Y0.1
G0 X1.25
G1 X11.584
G1 X10.506F5000S0
G1 X3.381F3000S1000
G1 X7.231F5000S0
G1 X3.918F3000S1000
G1 X11.65F5000S0
G1 X4.724F3000S1000
G1 X3.202F5000S0
G1 X3.284F3000S1000
G1 X3.117F5000S0
G1 X5.591F3000S1000
G1 X7.122F5000S0
G1 X7.555F3000S1000
G1 X4.17F5000S0
G1 X6.284F3000S1000
G1 X9.133F5000S0
G1 X2.686F3000S1000
G1 X4.064F5000S0
G1 X5.266F3000S1000
G1 X11.86F5000S0
G1 X2.546F3000S1000
G1 X1.213F5000S0
G1 X5.594F3000S1000
G1 X5.624F5000S0
G1 X6.15F3000S1000
G1 X3.078F5000S0
G1 X2.431F3000S1000
G1 X3.982F5000S0
G1 X5.479F3000S1000
G1 X8.72F5000S0
G1 X4.876F3000S1000
G1 X5.321F5000S0
G1 X4.931F3000S1000
G1 X4.338F5000S0
G1 X2.959F3000S1000
G1 X4.354F5000S0
G1 X5.576F3000S1000
G1 X8.207F5000S0
G1 X5.162F3000S1000
G1 X8.926F5000S0
G1 X5.598F3000S1000
G1 X4.503F5000S0
G1 X2.654F3000S1000
G1 X3.927F5000S0
G1 X5.474F3000S1000
G1 X29.804F5000S0
G1 X13.431F3000S1000
G1 X8.61F5000S0
G1 X5.611F3000S1000
G1 X6.904F5000S0
G1 X2.546F3000S1000
G1 X1.212F5000S0
G1 X5.593F3000S1000
G1 X4.728F5000S0
G1 X2.689F3000S1000
G1 X4.073F5000S0
G1 X5.255F3000S1000
G1 X16.526F5000S0
G1 X6.275F3000S1000
G0 X1.25
G0 X0.007Y0.1
G0 X-1.25
G1 X-6.275
G1 X-16.438F5000S0
G1 X-5.25F3000S1000
G1 X-4.215F5000S0
G1 X-2.663F3000S1000
G1 X-4.703F5000S0
G1 X-5.594F3000S1000
G1 X-1.18F5000S0
G1 X-2.549F3000S1000
G1 X-6.939F5000S0
G1 X-5.617F3000S1000
G1 X-8.74F5000S0
G1 X-13.294F3000S1000
G1 X-29.712F5000S0
G1 X-5.463F3000S1000
G1 X-4.075F5000S0
G1 X-2.628F3000S1000
G1 X-4.485F5000S0
G1 X-5.603F3000S1000
G1 X-8.903F5000S0
G1 X-5.321F3000S1000
G1 X-8.067F5000S0
G1 X-5.577F3000S1000
G1 X-4.284F5000S0
G1 X-2.932F3000S1000
G1 X-4.509F5000S0
G1 X-4.711F3000S1000
G1 X-5.542F5000S0
G1 X-4.861F3000S1000
G1 X-8.666F5000S0
G1 X-5.482F3000S1000
G1 X-3.904F5000S0
G1 X-2.424F3000S1000
G1 X-3.214F5000S0
G1 X-6.139F3000S1000
G1 X-5.564F5000S0
G1 X-5.599F3000S1000
G1 X-1.179F5000S0
G1 X-2.549F3000S1000
G1 X-11.801F5000S0
G1 X-5.267F3000S1000
G1 X-4.199F5000S0
G1 X-2.663F3000S1000
G1 X-9.027F5000S0
G1 X-6.285F3000S1000
G1 X-4.33F5000S0
G1 X-7.483F3000S1000
G1 X-7.121F5000S0
G1 X-5.588F3000S1000
G1 X-3.048F5000S0
G1 X-3.271F3000S1000
G1 X-3.339F5000S0
G1 X-4.721F3000S1000
G1 X-11.535F5000S0
G1 X-3.874F3000S1000
G1 X-7.466F5000S0
G1 X-3.333F3000S1000
G1 X-10.569F5000S0
G1 X-11.597F3000S1000
G0 X-1.25
G0 X-0.152Y0.1
G0 X1.25
G1 X11.601
G1 X10.642F5000S0
G1 X3.284F3000S1000
G1 X7.678F5000S0
G1 X3.853F3000S1000
G1 X11.419F5000S0
G1 X4.727F3000S1000
G1 X3.461F5000S0
G1 X3.265F3000S1000
G1 X2.979F5000S0
G1 X5.586F3000S1000
G1 X7.12F5000S0
G1 X7.419F3000S1000
G1 X4.481F5000S0
G1 X6.285F3000S1000
G1 X8.923F5000S0
G1 X2.639F3000S1000
G1 X4.334F5000S0
G1 X5.267F3000S1000
G1 X11.743F5000S0
G1 X2.552F3000S1000
G1 X1.145F5000S0
G1 X5.603F3000S1000
G1 X5.505F5000S0
G1 X6.136F3000S1000
G1 X3.342F5000S0
G1 X2.417F3000S1000
G1 X3.827F5000S0
G1 X5.483F3000S1000
G1 X8.614F5000S0
G1 X4.845F3000S1000
G1 X5.747F5000S0
G1 X4.507F3000S1000
G1 X4.68F5000S0
G1 X2.906F3000S1000
G1 X4.212F5000S0
G1 X5.58F3000S1000
G1 X7.978F5000S0
G1 X5.408F3000S1000
G1 X8.899F5000S0
G1 X5.61F3000S1000
G1 X4.465F5000S0
G1 X2.605F3000S1000
G1 X4.206F5000S0
G1 X5.468F3000S1000
G1 X29.619F5000S0
G1 X13.138F3000S1000
G1 X8.89F5000S0
G1 X5.622F3000S1000
G1 X6.974F5000S0
G1 X2.553F3000S1000
G1 X1.145F5000S0
G1 X5.598F3000S1000
G1 X4.677F5000S0
G1 X2.647F3000S1000
G1 X4.338F5000S0
G1 X5.255F3000S1000
G1 X16.345F5000S0
G1 X6.279F3000S1000
G0 X1.25
G0 X0.007Y0.1
G0 X-1.25
G1 X-6.284
G1 X-16.252F5000S0
G1 X-5.27F3000S1000
G1 X-4.45F5000S0
G1 X-2.632F3000S1000
G1 X-4.651F5000S0
G1 X-5.601F3000S1000
G1 X-1.111F5000S0
G1 X-2.556F3000S1000
G1 X-7.008F5000S0
G1 X-5.627F3000S1000
G1 X-9.051F5000S0
G1 X-12.972F3000S1000
G1 X-29.527F5000S0
G1 X-5.472F3000S1000
G1 X-4.324F5000S0
G1 X-2.595F3000S1000
G1 X-4.446F5000S0
G1 X-5.615F3000S1000
G1 X-8.915F5000S0
G1 X-5.43F3000S1000
G1 X-7.935F5000S0
G1 X-5.582F3000S1000
G1 X-4.142F5000S0
G1 X-2.893F3000S1000
G1 X-4.837F5000S0
G1 X-4.305F3000S1000
G1 X-5.947F5000S0
G1 X-4.832F3000S1000
G1 X-8.561F5000S0
G1 X-5.486F3000S1000
G1 X-3.749F5000S0
G1 X-2.413F3000S1000
G1 X-3.464F5000S0
G1 X-6.137F3000S1000
G1 X-5.445F5000S0
G1 X-5.607F3000S1000
G1 X-1.11F5000S0
G1 X-2.556F3000S1000
G1 X-11.685F5000S0
G1 X-5.268F3000S1000
G1 X-4.467F5000S0
G1 X-2.616F3000S1000
G1 X-8.818F5000S0
G1 X-6.292F3000S1000
G1 X-4.625F5000S0
G1 X-7.357F3000S1000
G1 X-7.118F5000S0
G1 X-5.585F3000S1000
G1 X-2.909F5000S0
G1 X-3.259F3000S1000
G1 X-3.58F5000S0
G1 X-4.735F3000S1000
G1 X-11.305F5000S0
G1 X-3.835F3000S1000
G1 X-7.886F5000S0
G1 X-3.236F3000S1000
G1 X-10.731F5000S0
G1 X-11.571F3000S1000
G0 X-1.25
G0 X-0.133Y0.1
G0 X1.25
G1 X11.538
G1 X10.821F5000S0
G1 X3.202F3000S1000
G1 X8.08F5000S0
G1 X3.81F3000S1000
G1 X11.206F5000S0
G1 X4.735F3000S1000
G1 X3.698F5000S0
G1 X3.247F3000S1000
G1 X2.847F5000S0
G1 X5.582F3000S1000
G1 X7.118F5000S0
G1 X7.294F3000S1000
G1 X4.762F5000S0
G1 X6.305F3000S1000
G1 X8.716F5000S0
G1 X2.597F3000S1000
G1 X4.583F5000S0
G1 X5.281F3000S1000
G1 X11.626F5000S0
G1 X2.559F3000S1000
G1 X1.077F5000S0
G1 X5.61F3000S1000
G1 X5.387F5000S0
G1 X6.136F3000S1000
G1 X3.579F5000S0
G1 X2.416F3000S1000
G1 X3.671F5000S0
G1 X5.489F3000S1000
G1 X8.519F5000S0
G1 X4.82F3000S1000
G1 X6.136F5000S0
G1 X4.106F3000S1000
G1 X4.986F5000S0
G1 X2.884F3000S1000
G1 X4.071F5000S0
G1 X5.584F3000S1000
G1 X7.893F5000S0
G1 X5.456F3000S1000
G1 X8.927F5000S0
G1 X5.62F3000S1000
G1 X4.43F5000S0
G1 X2.582F3000S1000
G1 X4.443F5000S0
G1 X5.475F3000S1000
G1 X29.437F5000S0
G1 X12.804F3000S1000
G1 X9.211F5000S0
G1 X5.632F3000S1000
G1 X7.043F5000S0
G1 X2.559F3000S1000
G1 X1.077F5000S0
G1 X5.605F3000S1000
G1 X4.628F5000S0
G1 X2.613F3000S1000
G1 X4.562F5000S0
G1 X5.285F3000S1000
G1 X16.16F5000S0
G1 X6.288F3000S1000
G0 X1.25
G0 X0.007Y0.1
G0 X-1.25
G1 X-6.292
G1 X-16.067F5000S0
G1 X-5.3F3000S1000
G1 X-4.674F5000S0
G1 X-2.592F3000S1000
G1 X-4.609F5000S0
G1 X-5.609F3000S1000
G1 X-1.042F5000S0
G1 X-2.562F3000S1000
G1 X-7.078F5000S0
G1 X-5.637F3000S1000
G1 X-9.191F5000S0
G1 X-12.813F3000S1000
G1 X-29.35F5000S0
G1 X-5.479F3000S1000
G1 X-4.553F5000S0
G1 X-2.571F3000S1000
G1 X-4.419F5000S0
G1 X-5.627F3000S1000
G1 X-8.929F5000S0
G1 X-5.48F3000S1000
G1 X-7.861F5000S0
G1 X-5.586F3000S1000
G1 X-4.009F5000S0
G1 X-2.867F3000S1000
G1 X-5.125F5000S0
G1 X-3.984F3000S1000
G1 X-6.258F5000S0
G1 X-4.808F3000S1000
G1 X-8.477F5000S0
G1 X-5.49F3000S1000
G1 X-3.594F5000S0
G1 X-2.419F3000S1000
G1 X-3.695F5000S0
G1 X-6.131F3000S1000
G1 X-5.333F5000S0
G1 X-5.614F3000S1000
G1 X-1.043F5000S0
G1 X-2.562F3000S1000
G1 X-11.568F5000S0
G1 X-5.294F3000S1000
G1 X-4.687F5000S0
G1 X-2.585F3000S1000
G1 X-8.618F5000S0
G1 X-6.318F3000S1000
G1 X-4.899F5000S0
G1 X-7.229F3000S1000
G1 X-7.119F5000S0
G1 X-5.58F3000S1000
G1 X-2.789F5000S0
G1 X-3.23F3000S1000
G1 X-3.817F5000S0
G1 X-4.735F3000S1000
G1 X-11.107F5000S0
G1 X-3.786F3000S1000
G1 X-8.266F5000S0
G1 X-3.175F3000S1000
G1 X-10.728F5000S0
G1 X-11.687F3000S1000
G0 X-1.25
G0 X-0.133Y0.1
G0 X1.25
G1 X11.837
G1 X10.639F5000S0
G1 X3.145F3000S1000
G1 X8.452F5000S0
G1 X3.761F3000S1000
G1 X11.008F5000S0
G1 X4.736F3000S1000
G1 X3.935F5000S0
G1 X3.213F3000S1000
G1 X2.73F5000S0
G1 X5.579F3000S1000
G1 X7.12F5000S0
G1 X7.164F3000S1000
G1 X5.036F5000S0
G1 X6.329F3000S1000
G1 X8.522F5000S0
G1 X2.573F3000S1000
G1 X4.792F5000S0
G1 X5.3F3000S1000
G1 X11.516F5000S0
G1 X2.565F3000S1000
G1 X1.009F5000S0
G1 X5.619F3000S1000
G1 X5.278F5000S0
G1 X6.128F3000S1000
G1 X3.808F5000S0
G1 X2.418F3000S1000
G1 X3.524F5000S0
G1 X5.488F3000S1000
G1 X8.436F5000S0
G1 X4.797F3000S1000
G1 X6.264F5000S0
G1 X3.977F3000S1000
G1 X5.264F5000S0
G1 X2.847F3000S1000
G1 X3.95F5000S0
G1 X5.588F3000S1000
G1 X7.841F5000S0
G1 X5.496F3000S1000
G1 X8.928F5000S0
G1 X5.632F3000S1000
G1 X4.409F5000S0
G1 X2.563F3000S1000
G1 X4.66F5000S0
G1 X5.475F3000S1000
G1 X29.27F5000S0
G1 X5.769F3000S1000
G1 X0.028S0
G1 X7.027S1000
G1 X9.17F5000S0
G1 X5.643F3000S1000
G1 X7.112F5000S0
G1 X2.566F3000S1000
G1 X1.007F5000S0
G1 X5.613F3000S1000
G1 X4.589F5000S0
G1 X2.579F3000S1000
G1 X4.777F5000S0
G1 X5.309F3000S1000
G1 X15.98F5000S0
G1 X6.297F3000S1000
G0 X1.25
G0 X0.007Y0.1
G0 X-1.25
G1 X-6.301
G1 X-15.897F5000S0
G1 X-5.32F3000S1000
G1 X-4.871F5000S0
G1 X-2.57F3000S1000
G1 X-4.571F5000S0
G1 X-5.615F3000S1000
G1 X-0.973S0
G1 X-2.566S1000
G1 X-7.151F5000S0
G1 X-5.647F3000S1000
G1 X-9.15F5000S0
G1 X-6.749F3000S1000
G1 X-0.302S0
G1 X-5.783S1000
G1 X-29.191F5000S0
G1 X-5.469F3000S1000
G1 X-4.768F5000S0
G1 X-2.556F3000S1000
G1 X-4.399F5000S0
G1 X-5.636F3000S1000
G1 X-8.926F5000S0
G1 X-5.514F3000S1000
G1 X-7.821F5000S0
G1 X-5.59F3000S1000
G1 X-3.89F5000S0
G1 X-2.827F3000S1000
G1 X-5.404F5000S0
G1 X-3.969F3000S1000
G1 X-6.271F5000S0
G1 X-4.785F3000S1000
G1 X-8.392F5000S0
G1 X-5.49F3000S1000
G1 X-3.459F5000S0
G1 X-2.411F3000S1000
G1 X-3.911F5000S0
G1 X-6.135F3000S1000
G1 X-5.224F5000S0
G1 X-5.623F3000S1000
G1 X-0.974S0
G1 X-2.566S1000
G1 X-11.469F5000S0
G1 X-5.304F3000S1000
G1 X-4.898F5000S0
G1 X-2.56F3000S1000
G1 X-8.432F5000S0
G1 X-6.333F3000S1000
G1 X-5.163F5000S0
G1 X-7.11F3000S1000
G1 X-7.122F5000S0
G1 X-5.576F3000S1000
G1 X-2.672F5000S0
G1 X-3.196F3000S1000
G1 X-4.044F5000S0
G1 X-4.746F3000S1000
G1 X-10.908F5000S0
G1 X-3.753F3000S1000
G1 X-8.622F5000S0
G1 X-3.112F3000S1000
G1 X-10.552F5000S0
G1 X-11.988F3000S1000
G0 X-1.25
G0 X-0.121Y0.1
G0 X1.25
G1 X12.126
G1 X10.466F5000S0
G1 X3.08F3000S1000
G1 X8.79F5000S0
G1 X3.739F3000S1000
G1 X10.815F5000S0
G1 X4.756F3000S1000
G1 X4.149F5000S0
G1 X3.184F3000S1000
G1 X2.612F5000S0
G1 X5.575F3000S1000
G1 X7.123F5000S0
G1 X7.057F3000S1000
G1 X5.288F5000S0
G1 X6.338F3000S1000
G1 X8.342F5000S0
G1 X2.555F3000S1000
G1 X4.992F5000S0
G1 X5.311F3000S1000
G1 X11.423F5000S0
G1 X2.566F3000S1000
G1 X0.94S0
G1 X5.623S1000
G1 X5.175F5000S0
G1 X6.14F3000S1000
G1 X4.012F5000S0
G1 X2.408F3000S1000
G1 X3.393F5000S0
G1 X5.494F3000S1000
G1 X8.346F5000S0
G1 X4.782F3000S1000
G1 X6.268F5000S0
G1 X3.99F3000S1000
G1 X5.516F5000S0
G1 X2.807F3000S1000
G1 X3.831F5000S0
G1 X5.592F3000S1000
G1 X7.804F5000S0
G1 X5.527F3000S1000
G1 X8.925F5000S0
G1 X5.64F3000S1000
G1 X4.39F5000S0
G1 X2.551F3000S1000
G1 X4.87F5000S0
G1 X5.466F3000S1000
G1 X29.113F5000S0
G1 X5.796F3000S1000
G1 X0.581S0
G1 X6.466S1000
G1 X9.131F5000S0
G1 X5.65F3000S1000
G1 X7.19F5000S0
G1 X2.566F3000S1000
G1 X0.939S0
G1 X5.616S1000
G1 X4.554F5000S0
G1 X2.561F3000S1000
G1 X4.964F5000S0
G1 X5.333F3000S1000
G1 X15.812F5000S0
G1 X6.306F3000S1000
G0 X1.25
G0 X0.007Y0.1
G0 X-1.25
G1 X-6.31
G1 X-15.728F5000S0
G1 X-5.346F3000S1000
G1 X-5.058F5000S0
G1 X-2.551F3000S1000
G1 X-4.537F5000S0
G1 X-5.617F3000S1000
G1 X-0.905S0
G1 X-2.565S1000
G1 X-7.23F5000S0
G1 X-5.651F3000S1000
G1 X-9.114F5000S0
G1 X-6.119F3000S1000
G1 X-0.924S0
G1 X-5.81S1000
G1 X-29.034F5000S0
G1 X-5.474F3000S1000
G1 X-4.958F5000S0
G1 X-2.549F3000S1000
G1 X-4.381F5000S0
G1 X-5.645F3000S1000
G1 X-8.922F5000S0
G1 X-5.535F3000S1000
G1 X-7.793F5000S0
G1 X-5.595F3000S1000
G1 X-3.771F5000S0
G1 X-2.787F3000S1000
G1 X-5.523F5000S0
G1 X-4.115F3000S1000
G1 X-6.262F5000S0
G1 X-4.783F3000S1000
G1 X-8.299F5000S0
G1 X-5.499F3000S1000
G1 X-3.328F5000S0
G1 X-2.409F3000S1000
G1 X-4.108F5000S0
G1 X-6.146F3000S1000
G1 X-5.125F5000S0
G1 X-5.623F3000S1000
G1 X-0.906S0
G1 X-2.565S1000
G1 X-11.377F5000S0
G1 X-5.327F3000S1000
G1 X-5.072F5000S0
G1 X-2.556F3000S1000
G1 X-8.252F5000S0
G1 X-6.343F3000S1000
G1 X-5.414F5000S0
G1 X-7.003F3000S1000
G1 X-7.124F5000S0
G1 X-5.573F3000S1000
G1 X-2.554F5000S0
G1 X-3.177F3000S1000
G1 X-4.248F5000S0
G1 X-4.765F3000S1000
G1 X-10.724F5000S0
G1 X-3.724F3000S1000
G1 X-8.948F5000S0
G1 X-3.058F3000S1000
G1 X-10.38F5000S0
G1 X-12.26F3000S1000
G0 X-1.25
G0 X-0.117Y0.1
G0 X1.25
G1 X12.394
G1 X10.293F5000S0
G1 X3.038F3000S1000
G1 X9.104F5000S0
G1 X3.709F3000S1000
G1 X10.633F5000S0
G1 X4.775F3000S1000
G1 X4.348F5000S0
G1 X3.169F3000S1000
G1 X2.496F5000S0
G1 X5.57F3000S1000
G1 X7.126F5000S0
G1 X6.949F3000S1000
G1 X5.54F5000S0
G1 X6.348F3000S1000
G1 X8.166F5000S0
G1 X2.552F3000S1000
G1 X5.154F5000S0
G1 X5.342F3000S1000
G1 X11.33F5000S0
G1 X2.566F3000S1000
G1 X0.872S0
G1 X5.623S1000
G1 X5.079F5000S0
G1 X6.147F3000S1000
G1 X4.203F5000S0
G1 X2.412F3000S1000
G1 X3.262F5000S0
G1 X5.503F3000S1000
G1 X8.253F5000S0
G1 X4.783F3000S1000
G1 X6.257F5000S0
G1 X4.241F3000S1000
G1 X5.519F5000S0
G1 X2.777F3000S1000
G1 X3.713F5000S0
G1 X5.596F3000S1000
G1 X7.782F5000S0
G1 X5.542F3000S1000
G1 X8.921F5000S0
G1 X5.65F3000S1000
G1 X4.377F5000S0
G1 X2.541F3000S1000
G1 X5.046F5000S0
G1 X5.482F3000S1000
G1 X28.955F5000S0
G1 X5.824F3000S1000
G1 X1.266F5000S0
G1 X5.774F3000S1000
G1 X9.096F5000S0
G1 X5.652F3000S1000
G1 X7.269F5000S0
G1 X2.566F3000S1000
G1 X0.87S0
G1 X5.618S1000
G1 X4.524F5000S0
G1 X2.538F3000S1000
G1 X5.15F5000S0
G1 X5.359F3000S1000
G1 X15.645F5000S0
G1 X6.313F3000S1000
G0 X1.25
G0 Y0.1
G0 X-1.246
G1 X-6.315
G1 X-15.56F5000S0
G1 X-5.372F3000S1000
G1 X-5.231F5000S0
G1 X-2.535F3000S1000
G1 X-4.513F5000S0
G1 X-5.619F3000S1000
G1 X-0.836S0
G1 X-2.566S1000
G1 X-7.308F5000S0
G1 X-5.652F3000S1000
G1 X-9.08F5000S0
G1 X-5.281F3000S1000
G1 X-1.755F5000S0
G1 X-5.837F3000S1000
G1 X-28.878F5000S0
G1 X-5.49F3000S1000
G1 X-5.131F5000S0
G1 X-2.533F3000S1000
G1 X-4.376F5000S0
G1 X-5.651F3000S1000
G1 X-8.923F5000S0
G1 X-5.548F3000S1000
G1 X-7.773F5000S0
G1 X-5.595F3000S1000
G1 X-3.656F5000S0
G1 X-2.767F3000S1000
G1 X-5.516F5000S0
G1 X-4.361F3000S1000
G1 X-6.256F5000S0
G1 X-4.784F3000S1000
G1 X-8.207F5000S0
G1 X-5.507F3000S1000
G1 X-3.197F5000S0
G1 X-2.413F3000S1000
G1 X-4.296F5000S0
G1 X-6.15F3000S1000
G1 X-5.035F5000S0
G1 X-5.623F3000S1000
G1 X-0.838S0
G1 X-2.566S1000
G1 X-11.284F5000S0
G1 X-5.356F3000S1000
G1 X-5.235F5000S0
G1 X-2.547F3000S1000
G1 X-8.082F5000S0
G1 X-6.362F3000S1000
G1 X-5.656F5000S0
G1 X-6.896F3000S1000
G1 X-7.127F5000S0
G1 X-5.569F3000S1000
G1 X-2.437F5000S0
G1 X-3.162F3000S1000
G1 X-4.445F5000S0
G1 X-4.787F3000S1000
G1 X-10.541F5000S0
G1 X-3.698F3000S1000
G1 X-9.257F5000S0
G1 X-3.017F3000S1000
G1 X-10.206F5000S0
G1 X-12.528F3000S1000
G0 X-1.25
G0 X-0.117Y0.1
G0 X1.25
G1 X12.662
G1 X10.125F5000S0
G1 X2.991F3000S1000
G1 X9.401F5000S0
G1 X3.694F3000S1000
G1 X10.451F5000S0
G1 X4.806F3000S1000
G1 X4.535F5000S0
G1 X3.154F3000S1000
G1 X2.38F5000S0
G1 X5.567F3000S1000
G1 X7.128F5000S0
G1 X6.848F3000S1000
G1 X5.768F5000S0
G1 X6.373F3000S1000
G1 X8.001F5000S0
G1 X2.54F3000S1000
G1 X5.316F5000S0
G1 X5.364F3000S1000
G1 X11.246F5000S0
G1 X2.565F3000S1000
G1 X0.804S0
G1 X5.623S1000
G1 X4.99F5000S0
G1 X6.158F3000S1000
G1 X4.385F5000S0
G1 X2.414F3000S1000
G1 X3.134F5000S0
G1 X5.51F3000S1000
G1 X8.16F5000S0
G1 X4.785F3000S1000
G1 X6.257F5000S0
G1 X4.479F3000S1000
G1 X5.514F5000S0
G1 X2.755F3000S1000
G1 X3.6F5000S0
G1 X5.595F3000S1000
G1 X7.762F5000S0
G1 X5.556F3000S1000
G1 X8.923F5000S0
G1 X5.653F3000S1000
G1 X4.376F5000S0
G1 X2.527F3000S1000
G1 X5.214F5000S0
G1 X5.49F3000S1000
G1 X28.807F5000S0
G1 X5.851F3000S1000
G1 X2.429F5000S0
G1 X1.82F3000S1000
G1 X0.312S0
G1 X2.471S1000
G1 X9.063F5000S0
G1 X5.653F3000S1000
G1 X7.348F5000S0
G1 X2.565F3000S1000
G1 X0.802S0
G1 X5.62S1000
G1 X4.502F5000S0
G1 X2.532F3000S1000
G1 X5.305F5000S0
G1 X5.384F3000S1000
G1 X15.484F5000S0
G1 X6.316F3000S1000
G0 X1.25
G0 Y0.1
G0 X-1.245
G1 X-6.319
G1 X-15.407F5000S0
G1 X-5.395F3000S1000
G1 X-5.381F5000S0
G1 X-2.527F3000S1000
G1 X-4.492F5000S0
G1 X-5.622F3000S1000
G1 X-0.767S0
G1 X-2.565S1000
G1 X-7.387F5000S0
G1 X-5.653F3000S1000
G1 X-9.047F5000S0
G1 X-2.468F3000S1000
G1 X-4.56F5000S0
G1 X-5.862F3000S1000
G1 X-28.739F5000S0
G1 X-5.49F3000S1000
G1 X-5.296F5000S0
G1 X-2.523F3000S1000
G1 X-4.375F5000S0
G1 X-5.654F3000S1000
G1 X-8.925F5000S0
G1 X-5.562F3000S1000
G1 X-7.752F5000S0
G1 X-5.595F3000S1000
G1 X-3.543F5000S0
G1 X-2.745F3000S1000
G1 X-5.51F5000S0
G1 X-4.599F3000S1000
G1 X-6.246F5000S0
G1 X-4.797F3000S1000
G1 X-8.114F5000S0
G1 X-5.511F3000S1000
G1 X-3.071F5000S0
G1 X-2.418F3000S1000
G1 X-4.471F5000S0
G1 X-6.167F3000S1000
G1 X-4.944F5000S0
G1 X-5.624F3000S1000
G1 X-0.77S0
G1 X-2.565S1000
G1 X-11.207F5000S0
G1 X-5.374F3000S1000
G1 X-5.392F5000S0
G1 X-2.537F3000S1000
G1 X-7.925F5000S0
G1 X-6.379F3000S1000
G1 X-5.874F5000S0
G1 X-6.805F3000S1000
G1 X-7.13F5000S0
G1 X-5.564F3000S1000
G1 X-2.329F5000S0
G1 X-3.139F3000S1000
G1 X-4.625F5000S0
G1 X-4.826F3000S1000
G1 X-10.366F5000S0
G1 X-3.684F3000S1000
G1 X-9.538F5000S0
G1 X-2.972F3000S1000
G1 X-10.045F5000S0
G1 X-2.481F3000S1000
G1 X-1.631F5000S0
G1 X-8.681F3000S1000
G0 X-1.25
G0 X-0.103Y0.1
G0 X1.25
G1 X7.895
G1 X2.54F5000S0
G1 X2.479F3000S1000
G1 X9.965F5000S0
G1 X2.952F3000S1000
G1 X9.674F5000S0
G1 X3.674F3000S1000
G1 X10.283F5000S0
G1 X4.844F3000S1000
G1 X4.715F5000S0
G1 X3.125F3000S1000
G1 X2.277F5000S0
G1 X5.563F3000S1000
G1 X7.133F5000S0
G1 X6.76F3000S1000
G1 X5.981F5000S0
G1 X6.384F3000S1000
G1 X7.849F5000S0
G1 X2.54F3000S1000
G1 X5.454F5000S0
G1 X5.391F3000S1000
G1 X11.169F5000S0
G1 X2.566F3000S1000
G1 X0.735S0
G1 X5.624S1000
G1 X4.9F5000S0
G1 X6.175F3000S1000
G1 X4.554F5000S0
G1 X2.424F3000S1000
G1 X3.009F5000S0
G1 X5.512F3000S1000
G1 X8.068F5000S0
G1 X4.808F3000S1000
G1 X6.236F5000S0
G1 X4.712F3000S1000
G1 X5.513F5000S0
G1 X2.735F3000S1000
G1 X3.486F5000S0
G1 X5.594F3000S1000
G1 X7.742F5000S0
G1 X5.569F3000S1000
G1 X8.926F5000S0
G1 X5.656F3000S1000
G1 X4.374F5000S0
G1 X2.52F3000S1000
G1 X5.377F5000S0
G1 X5.49F3000S1000
G1 X28.673F5000S0
G1 X5.871F3000S1000
G1 X4.558F5000S0
G1 X2.467F3000S1000
G1 X9.029F5000S0
G1 X5.654F3000S1000
G1 X7.426F5000S0
G1 X2.566F3000S1000
G1 X0.732S0
G1 X5.624S1000
G1 X4.48F5000S0
G1 X2.524F3000S1000
G1 X5.455F5000S0
G1 X5.406F3000S1000
G1 X15.329F5000S0
G1 X6.323F3000S1000
G0 X1.25
G0 Y0.1
G0 X-1.245
G1 X-6.328
G1 X-15.25F5000S0
G1 X-5.418F3000S1000
G1 X-5.527F5000S0
G1 X-2.523F3000S1000
G1 X-4.469F5000S0
G1 X-5.625F3000S1000
G1 X-0.697S0
G1 X-2.566S1000
G1 X-7.465F5000S0
G1 X-5.655F3000S1000
G1 X-9.013F5000S0
G1 X-2.465F3000S1000
G1 X-4.556F5000S0
G1 X-5.88F3000S1000
G1 X-28.607F5000S0
G1 X-5.491F3000S1000
G1 X-5.453F5000S0
G1 X-2.519F3000S1000
G1 X-4.375F5000S0
G1 X-5.657F3000S1000
G1 X-8.927F5000S0
G1 X-5.575F3000S1000
G1 X-7.733F5000S0
G1 X-5.594F3000S1000
G1 X-3.435F5000S0
G1 X-2.718F3000S1000
G1 X-5.518F5000S0
G1 X-4.824F3000S1000
G1 X-6.225F5000S0
G1 X-4.814F3000S1000
G1 X-8.028F5000S0
G1 X-5.513F3000S1000
G1 X-2.946F5000S0
G1 X-2.431F3000S1000
G1 X-4.638F5000S0
G1 X-6.179F3000S1000
G1 X-4.859F5000S0
G1 X-5.624F3000S1000
G1 X-0.7S0
G1 X-2.566S1000
G1 X-11.131F5000S0
G1 X-5.408F3000S1000
G1 X-5.517F5000S0
G1 X-2.542F3000S1000
G1 X-7.773F5000S0
G1 X-6.391F3000S1000
G1 X-6.087F5000S0
G1 X-6.715F3000S1000
G1 X-7.136F5000S0
G1 X-5.561F3000S1000
G1 X-2.225F5000S0
G1 X-3.113F3000S1000
G1 X-4.804F5000S0
G1 X-4.859F3000S1000
G1 X-10.202F5000S0
G1 X-3.665F3000S1000
G1 X-9.81F5000S0
G1 X-2.933F3000S1000
G1 X-9.885F5000S0
G1 X-2.477F3000S1000
G1 X-3.027F5000S0
G1 X-7.53F3000S1000
G0 X-1.25
G0 X-0.103Y0.1
G0 X1.25
G1 X7.28
G1 X3.399F5000S0
G1 X2.475F3000S1000
G1 X9.805F5000S0
G1 X2.914F3000S1000
G1 X9.942F5000S0
G1 X3.66F3000S1000
G1 X10.124F5000S0
G1 X4.874F3000S1000
G1 X4.883F5000S0
G1 X3.107F3000S1000
G1 X2.173F5000S0
G1 X5.559F3000S1000
G1 X7.141F5000S0
G1 X6.669F3000S1000
G1 X6.194F5000S0
G1 X6.396F3000S1000
G1 X7.703F5000S0
G1 X2.539F3000S1000
G1 X5.579F5000S0
G1 X5.426F3000S1000
G1 X11.092F5000S0
G1 X2.569F3000S1000
G1 X0.664S0
G1 X5.624S1000
G1 X4.819F5000S0
G1 X6.182F3000S1000
G1 X4.721F5000S0
G1 X2.437F3000S1000
G1 X2.884F5000S0
G1 X5.515F3000S1000
G1 X7.991F5000S0
G1 X4.815F3000S1000
G1 X6.216F5000S0
G1 X4.935F3000S1000
G1 X5.522F5000S0
G1 X2.701F3000S1000
G1 X3.385F5000S0
G1 X5.594F3000S1000
G1 X7.725F5000S0
G1 X5.579F3000S1000
G1 X8.928F5000S0
G1 X5.659F3000S1000
G1 X4.381F5000S0
G1 X2.514F3000S1000
G1 X5.521F5000S0
G1 X5.498F3000S1000
G1 X28.542F5000S0
G1 X5.889F3000S1000
G1 X4.555F5000S0
G1 X2.462F3000S1000
G1 X8.996F5000S0
G1 X5.655F3000S1000
G1 X7.505F5000S0
G1 X2.57F3000S1000
G1 X0.659S0
G1 X5.626S1000
G1 X4.464F5000S0
G1 X2.525F3000S1000
G1 X5.591F5000S0
G1 X5.428F3000S1000
G1 X15.172F5000S0
G1 X6.332F3000S1000
G0 X1.25
G0 Y0.1
G0 X-1.245
G1 X-6.337
G1 X-15.093F5000S0
G1 X-5.446F3000S1000
G1 X-5.648F5000S0
G1 X-2.526F3000S1000
G1 X-4.46F5000S0
G1 X-5.627F3000S1000
G1 X-0.622S0
G1 X-2.573S1000
G1 X-7.544F5000S0
G1 X-5.655F3000S1000
G1 X-8.981F5000S0
G1 X-2.459F3000S1000
G1 X-4.553F5000S0
G1 X-5.897F3000S1000
G1 X-28.478F5000S0
G1 X-5.509F3000S1000
G1 X-5.585F5000S0
G1 X-2.51F3000S1000
G1 X-4.387F5000S0
G1 X-5.659F3000S1000
G1 X-8.928F5000S0
G1 X-5.584F3000S1000
G1 X-7.719F5000S0
G1 X-5.593F3000S1000
G1 X-3.335F5000S0
G1 X-2.692F3000S1000
G1 X-5.518F5000S0
G1 X-5.04F3000S1000
G1 X-6.21F5000S0
G1 X-4.82F3000S1000
G1 X-7.954F5000S0
G1 X-5.516F3000S1000
G1 X-2.821F5000S0
G1 X-2.444F3000S1000
G1 X-4.805F5000S0
G1 X-6.185F3000S1000
G1 X-4.779F5000S0
G1 X-5.624F3000S1000
G1 X-0.626S0
G1 X-2.573S1000
G1 X-11.054F5000S0
G1 X-5.442F3000S1000
G1 X-5.642F5000S0
G1 X-2.536F3000S1000
G1 X-7.633F5000S0
G1 X-6.402F3000S1000
G1 X-6.3F5000S0
G1 X-6.623F3000S1000
G1 X-7.145F5000S0
G1 X-5.557F3000S1000
G1 X-2.122F5000S0
G1 X-3.102F3000S1000
G1 X-4.958F5000S0
G1 X-4.891F3000S1000
G1 X-10.051F5000S0
G1 X-3.658F3000S1000
G1 X-10.06F5000S0
G1 X-2.902F3000S1000
G1 X-9.726F5000S0
G1 X-2.471F3000S1000
G1 X-3.697F5000S0
G1 X-7.105F3000S1000
G0 X-1.25
G0 X-0.103Y0.1
G0 X1.25
G1 X6.949
G1 X3.975F5000S0
G1 X2.469F3000S1000
G1 X9.652F5000S0
G1 X2.885F3000S1000
G1 X10.177F5000S0
G1 X3.653F3000S1000
G1 X9.981F5000S0
G1 X4.909F3000S1000
G1 X5.033F5000S0
G1 X3.097F3000S1000
G1 X2.07F5000S0
G1 X5.555F3000S1000
G1 X7.148F5000S0
G1 X6.584F3000S1000
G1 X6.398F5000S0
G1 X6.409F3000S1000
G1 X7.565F5000S0
G1 X2.532F3000S1000
G1 X5.704F5000S0
G1 X5.453F3000S1000
G1 X11.023F5000S0
G1 X2.576F3000S1000
G1 X0.588S0
G1 X5.624S1000
G1 X4.74F5000S0
G1 X6.188F3000S1000
G1 X4.889F5000S0
G1 X2.448F3000S1000
G1 X2.76F5000S0
G1 X5.517F3000S1000
G1 X7.918F5000S0
G1 X4.832F3000S1000
G1 X6.195F5000S0
G1 X5.146F3000S1000
G1 X5.514F5000S0
G1 X2.684F3000S1000
G1 X3.284F5000S0
G1 X5.593F3000S1000
G1 X7.712F5000S0
G1 X5.592F3000S1000
G1 X8.924F5000S0
G1 X5.66F3000S1000
G1 X4.394F5000S0
G1 X2.492F3000S1000
G1 X5.662F5000S0
G1 X5.513F3000S1000
G1 X28.42F5000S0
G1 X5.906F3000S1000
G1 X4.551F5000S0
G1 X2.457F3000S1000
G1 X8.964F5000S0
G1 X5.655F3000S1000
G1 X7.585F5000S0
G1 X2.576F3000S1000
G1 X0.584S0
G1 X5.628S1000
G1 X4.455F5000S0
G1 X2.529F3000S1000
G1 X5.704F5000S0
G1 X5.457F3000S1000
G1 X15.021F5000S0
G1 X6.341F3000S1000
G0 X1.25
G0 Y0.1
G0 X-1.245
G1 X-6.346
G1 X-14.95F5000S0
G1 X-5.466F3000S1000
G1 X-5.762F5000S0
G1 X-2.53F3000S1000
G1 X-4.451F5000S0
G1 X-5.629F3000S1000
G1 X-0.546S0
G1 X-2.58S1000
G1 X-7.624F5000S0
G1 X-5.655F3000S1000
G1 X-8.949F5000S0
G1 X-2.453F3000S1000
G1 X-4.549F5000S0
G1 X-5.916F3000S1000
G1 X-28.361F5000S0
G1 X-5.519F3000S1000
G1 X-5.742F5000S0
G1 X-2.454F3000S1000
G1 X-4.417F5000S0
G1 X-5.661F3000S1000
G1 X-8.921F5000S0
G1 X-5.6F3000S1000
G1 X-7.704F5000S0
G1 X-5.593F3000S1000
G1 X-3.234F5000S0
G1 X-2.675F3000S1000
G1 X-5.51F5000S0
G1 X-5.251F3000S1000
G1 X-6.181F5000S0
G1 X-4.845F3000S1000
G1 X-7.88F5000S0
G1 X-5.519F3000S1000
G1 X-2.705F5000S0
G1 X-2.447F3000S1000
G1 X-4.969F5000S0
G1 X-6.195F3000S1000
G1 X-4.699F5000S0
G1 X-5.625F3000S1000
G1 X-0.55S0
G1 X-2.58S1000
G1 X-10.992F5000S0
G1 X-5.468F3000S1000
G1 X-5.753F5000S0
G1 X-2.537F3000S1000
G1 X-7.501F5000S0
G1 X-6.416F3000S1000
G1 X-6.49F5000S0
G1 X-6.545F3000S1000
G1 X-7.153F5000S0
G1 X-5.553F3000S1000
G1 X-2.018F5000S0
G1 X-3.092F3000S1000
G1 X-5.107F5000S0
G1 X-4.928F3000S1000
