; LightBurn 1.3.01
; GRBL device profile, absolute coords
; Bounds: X10 Y10 to X419.02 Y303
G00 G17 G40 G21 G54
G90
M4
; Cut @ 600 mm/min, 95% power
M8
G0 X30.604Y295.884
; Layer WorkSpace Pass 1 of 10
G1 X30.854Y296.296S950F600
G1 X31.142Y296.681
G1 X31.465Y297.036
G1 X31.82Y297.359
G1 X32.205Y297.646
G1 X32.617Y297.897
G1 X33.054Y298.107
G1 X33.513Y298.276
G1 X33.993Y298.399
G1 X34.489Y298.474
G1 X35Y298.5
G1 X35.511Y298.474
G1 X36.008Y298.399
G1 X36.487Y298.276
G1 X36.946Y298.107
G1 X37.384Y297.897
G1 X37.796Y297.646
G1 X38.181Y297.359
G1 X38.536Y297.036
G1 X38.858Y296.681
G1 X39.146Y296.296
G1 X39.397Y295.884
G1 X39.607Y295.447
G1 X39.775Y294.987
G1 X39.899Y294.508
G1 X39.974Y294.012
G1 X40Y293.5
G1 X39.974Y292.989
G1 X39.899Y292.493
G1 X39.775Y292.013
G1 X39.607Y291.554
G1 X39.397Y291.117
G1 X39.146Y290.705
G1 X38.858Y290.32
G1 X38.536Y289.965
G1 X38.181Y289.642
G1 X37.796Y289.354
G1 X37.384Y289.104
G1 X36.946Y288.893
G1 X36.487Y288.725
G1 X36.008Y288.602
G1 X35.511Y288.526
G1 X35Y288.5
G1 X34.489Y288.526
G1 X33.993Y288.602
G1 X33.513Y288.725
G1 X33.054Y288.893
G1 X32.617Y289.104
G1 X32.205Y289.354
G1 X31.82Y289.642
G1 X31.465Y289.965
G1 X31.142Y290.32
G1 X30.854Y290.705
G1 X30.604Y291.117
G1 X30.393Y291.554
G1 X30.225Y292.013
G1 X30.102Y292.493
G1 X30.026Y292.989
G1 X30Y293.5
G1 X30.026Y294.012
G1 X30.102Y294.508
G1 X30.225Y294.987
G1 X30.393Y295.447
G1 X30.604Y295.884
; Layer WorkSpace Pass 2 of 10
G1 X30.854Y296.296
G1 X31.142Y296.681
G1 X31.465Y297.036
G1 X31.82Y297.359
G1 X32.205Y297.646
G1 X32.617Y297.897
G1 X33.054Y298.107
G1 X33.513Y298.276
G1 X33.993Y298.399
G1 X34.489Y298.474
G1 X35Y298.5
G1 X35.511Y298.474
G1 X36.008Y298.399
G1 X36.487Y298.276
G1 X36.946Y298.107
G1 X37.384Y297.897
G1 X37.796Y297.646
G1 X38.181Y297.359
G1 X38.536Y297.036
G1 X38.858Y296.681
G1 X39.146Y296.296
G1 X39.397Y295.884
G1 X39.607Y295.447
G1 X39.775Y294.987
G1 X39.899Y294.508
G1 X39.974Y294.012
G1 X40Y293.5
G1 X39.974Y292.989
G1 X39.899Y292.493
G1 X39.775Y292.013
G1 X39.607Y291.554
G1 X39.397Y291.117
G1 X39.146Y290.705
G1 X38.858Y290.32
G1 X38.536Y289.965
G1 X38.181Y289.642
G1 X37.796Y289.354
G1 X37.384Y289.104
G1 X36.946Y288.893
G1 X36.487Y288.725
G1 X36.008Y288.602
G1 X35.511Y288.526
G1 X35Y288.5
G1 X34.489Y288.526
G1 X33.993Y288.602
G1 X33.513Y288.725
G1 X33.054Y288.893
G1 X32.617Y289.104
G1 X32.205Y289.354
G1 X31.82Y289.642
G1 X31.465Y289.965
G1 X31.142Y290.32
G1 X30.854Y290.705
G1 X30.604Y291.117
G1 X30.393Y291.554
G1 X30.225Y292.013
G1 X30.102Y292.493
G1 X30.026Y292.989
G1 X30Y293.5
G1 X30.026Y294.012
G1 X30.102Y294.508
G1 X30.225Y294.987
G1 X30.393Y295.447
G1 X30.604Y295.884
; Layer WorkSpace Pass 3 of 10
G1 X30.854Y296.296
G1 X31.142Y296.681
G1 X31.465Y297.036
G1 X31.82Y297.359
G1 X32.205Y297.646
G1 X32.617Y297.897
G1 X33.054Y298.107
G1 X33.513Y298.276
G1 X33.993Y298.399
G1 X34.489Y298.474
G1 X35Y298.5
G1 X35.511Y298.474
G1 X36.008Y298.399
G1 X36.487Y298.276
G1 X36.946Y298.107
G1 X37.384Y297.897
G1 X37.796Y297.646
G1 X38.181Y297.359
G1 X38.536Y297.036
G1 X38.858Y296.681
G1 X39.146Y296.296
G1 X39.397Y295.884
G1 X39.607Y295.447
G1 X39.775Y294.987
G1 X39.899Y294.508
G1 X39.974Y294.012
G1 X40Y293.5
G1 X39.974Y292.989
G1 X39.899Y292.493
G1 X39.775Y292.013
G1 X39.607Y291.554
G1 X39.397Y291.117
G1 X39.146Y290.705
G1 X38.858Y290.32
G1 X38.536Y289.965
G1 X38.181Y289.642
G1 X37.796Y289.354
G1 X37.384Y289.104
G1 X36.946Y288.893
G1 X36.487Y288.725
G1 X36.008Y288.602
G1 X35.511Y288.526
G1 X35Y288.5
G1 X34.489Y288.526
G1 X33.993Y288.602
G1 X33.513Y288.725
G1 X33.054Y288.893
G1 X32.617Y289.104
G1 X32.205Y289.354
G1 X31.82Y289.642
G1 X31.465Y289.965
G1 X31.142Y290.32
G1 X30.854Y290.705
G1 X30.604Y291.117
G1 X30.393Y291.554
G1 X30.225Y292.013
G1 X30.102Y292.493
G1 X30.026Y292.989
G1 X30Y293.5
G1 X30.026Y294.012
G1 X30.102Y294.508
G1 X30.225Y294.987
G1 X30.393Y295.447
G1 X30.604Y295.884
; Layer WorkSpace Pass 4 of 10
G1 X30.854Y296.296
G1 X31.142Y296.681
G1 X31.465Y297.036
G1 X31.82Y297.359
G1 X32.205Y297.646
G1 X32.617Y297.897
G1 X33.054Y298.107
G1 X33.513Y298.276
G1 X33.993Y298.399
G1 X34.489Y298.474
G1 X35Y298.5
G1 X35.511Y298.474
G1 X36.008Y298.399
G1 X36.487Y298.276
G1 X36.946Y298.107
G1 X37.384Y297.897
G1 X37.796Y297.646
G1 X38.181Y297.359
G1 X38.536Y297.036
G1 X38.858Y296.681
G1 X39.146Y296.296
G1 X39.397Y295.884
G1 X39.607Y295.447
G1 X39.775Y294.987
G1 X39.899Y294.508
G1 X39.974Y294.012
G1 X40Y293.5
G1 X39.974Y292.989
G1 X39.899Y292.493
G1 X39.775Y292.013
G1 X39.607Y291.554
G1 X39.397Y291.117
G1 X39.146Y290.705
G1 X38.858Y290.32
G1 X38.536Y289.965
G1 X38.181Y289.642
G1 X37.796Y289.354
G1 X37.384Y289.104
G1 X36.946Y288.893
G1 X36.487Y288.725
G1 X36.008Y288.602
G1 X35.511Y288.526
G1 X35Y288.5
G1 X34.489Y288.526
G1 X33.993Y288.602
G1 X33.513Y288.725
G1 X33.054Y288.893
G1 X32.617Y289.104
G1 X32.205Y289.354
G1 X31.82Y289.642
G1 X31.465Y289.965
G1 X31.142Y290.32
G1 X30.854Y290.705
G1 X30.604Y291.117
G1 X30.393Y291.554
G1 X30.225Y292.013
G1 X30.102Y292.493
G1 X30.026Y292.989
G1 X30Y293.5
G1 X30.026Y294.012
G1 X30.102Y294.508
G1 X30.225Y294.987
G1 X30.393Y295.447
G1 X30.604Y295.884
; Layer WorkSpace Pass 5 of 10
G1 X30.854Y296.296
G1 X31.142Y296.681
G1 X31.465Y297.036
G1 X31.82Y297.359
G1 X32.205Y297.646
G1 X32.617Y297.897
G1 X33.054Y298.107
G1 X33.513Y298.276
G1 X33.993Y298.399
G1 X34.489Y298.474
G1 X35Y298.5
G1 X35.511Y298.474
G1 X36.008Y298.399
G1 X36.487Y298.276
G1 X36.946Y298.107
G1 X37.384Y297.897
G1 X37.796Y297.646
G1 X38.181Y297.359
G1 X38.536Y297.036
G1 X38.858Y296.681
G1 X39.146Y296.296
G1 X39.397Y295.884
G1 X39.607Y295.447
G1 X39.775Y294.987
G1 X39.899Y294.508
G1 X39.974Y294.012
G1 X40Y293.5
G1 X39.974Y292.989
G1 X39.899Y292.493
G1 X39.775Y292.013
G1 X39.607Y291.554
G1 X39.397Y291.117
G1 X39.146Y290.705
G1 X38.858Y290.32
G1 X38.536Y289.965
G1 X38.181Y289.642
G1 X37.796Y289.354
G1 X37.384Y289.104
G1 X36.946Y288.893
G1 X36.487Y288.725
G1 X36.008Y288.602
G1 X35.511Y288.526
G1 X35Y288.5
G1 X34.489Y288.526
G1 X33.993Y288.602
G1 X33.513Y288.725
G1 X33.054Y288.893
G1 X32.617Y289.104
G1 X32.205Y289.354
G1 X31.82Y289.642
G1 X31.465Y289.965
G1 X31.142Y290.32
G1 X30.854Y290.705
G1 X30.604Y291.117
G1 X30.393Y291.554
G1 X30.225Y292.013
G1 X30.102Y292.493
G1 X30.026Y292.989
G1 X30Y293.5
G1 X30.026Y294.012
G1 X30.102Y294.508
G1 X30.225Y294.987
G1 X30.393Y295.447
G1 X30.604Y295.884
; Layer WorkSpace Pass 6 of 10
G1 X30.854Y296.296
G1 X31.142Y296.681
G1 X31.465Y297.036
G1 X31.82Y297.359
G1 X32.205Y297.646
G1 X32.617Y297.897
G1 X33.054Y298.107
G1 X33.513Y298.276
G1 X33.993Y298.399
G1 X34.489Y298.474
G1 X35Y298.5
G1 X35.511Y298.474
G1 X36.008Y298.399
G1 X36.487Y298.276
G1 X36.946Y298.107
G1 X37.384Y297.897
G1 X37.796Y297.646
G1 X38.181Y297.359
G1 X38.536Y297.036
G1 X38.858Y296.681
G1 X39.146Y296.296
G1 X39.397Y295.884
G1 X39.607Y295.447
G1 X39.775Y294.987
G1 X39.899Y294.508
G1 X39.974Y294.012
G1 X40Y293.5
G1 X39.974Y292.989
G1 X39.899Y292.493
G1 X39.775Y292.013
G1 X39.607Y291.554
G1 X39.397Y291.117
G1 X39.146Y290.705
G1 X38.858Y290.32
G1 X38.536Y289.965
G1 X38.181Y289.642
G1 X37.796Y289.354
G1 X37.384Y289.104
G1 X36.946Y288.893
G1 X36.487Y288.725
G1 X36.008Y288.602
G1 X35.511Y288.526
G1 X35Y288.5
G1 X34.489Y288.526
G1 X33.993Y288.602
G1 X33.513Y288.725
G1 X33.054Y288.893
G1 X32.617Y289.104
G1 X32.205Y289.354
G1 X31.82Y289.642
G1 X31.465Y289.965
G1 X31.142Y290.32
G1 X30.854Y290.705
G1 X30.604Y291.117
G1 X30.393Y291.554
G1 X30.225Y292.013
G1 X30.102Y292.493
G1 X30.026Y292.989
G1 X30Y293.5
G1 X30.026Y294.012
G1 X30.102Y294.508
G1 X30.225Y294.987
G1 X30.393Y295.447
G1 X30.604Y295.884
; Layer WorkSpace Pass 7 of 10
G1 X30.854Y296.296
G1 X31.142Y296.681
G1 X31.465Y297.036
G1 X31.82Y297.359
G1 X32.205Y297.646
G1 X32.617Y297.897
G1 X33.054Y298.107
G1 X33.513Y298.276
G1 X33.993Y298.399
G1 X34.489Y298.474
G1 X35Y298.5
G1 X35.511Y298.474
G1 X36.008Y298.399
G1 X36.487Y298.276
G1 X36.946Y298.107
G1 X37.384Y297.897
G1 X37.796Y297.646
G1 X38.181Y297.359
G1 X38.536Y297.036
G1 X38.858Y296.681
G1 X39.146Y296.296
G1 X39.397Y295.884
G1 X39.607Y295.447
G1 X39.775Y294.987
G1 X39.899Y294.508
G1 X39.974Y294.012
G1 X40Y293.5
G1 X39.974Y292.989
G1 X39.899Y292.493
G1 X39.775Y292.013
G1 X39.607Y291.554
G1 X39.397Y291.117
G1 X39.146Y290.705
G1 X38.858Y290.32
G1 X38.536Y289.965
G1 X38.181Y289.642
G1 X37.796Y289.354
G1 X37.384Y289.104
G1 X36.946Y288.893
G1 X36.487Y288.725
G1 X36.008Y288.602
G1 X35.511Y288.526
G1 X35Y288.5
G1 X34.489Y288.526
G1 X33.993Y288.602
G1 X33.513Y288.725
G1 X33.054Y288.893
G1 X32.617Y289.104
G1 X32.205Y289.354
G1 X31.82Y289.642
G1 X31.465Y289.965
G1 X31.142Y290.32
G1 X30.854Y290.705
G1 X30.604Y291.117
G1 X30.393Y291.554
G1 X30.225Y292.013
G1 X30.102Y292.493
G1 X30.026Y292.989
G1 X30Y293.5
G1 X30.026Y294.012
G1 X30.102Y294.508
G1 X30.225Y294.987
G1 X30.393Y295.447
G1 X30.604Y295.884
; Layer WorkSpace Pass 8 of 10
G1 X30.854Y296.296
G1 X31.142Y296.681
G1 X31.465Y297.036
G1 X31.82Y297.359
G1 X32.205Y297.646
G1 X32.617Y297.897
G1 X33.054Y298.107
G1 X33.513Y298.276
G1 X33.993Y298.399
G1 X34.489Y298.474
G1 X35Y298.5
G1 X35.511Y298.474
G1 X36.008Y298.399
G1 X36.487Y298.276
G1 X36.946Y298.107
G1 X37.384Y297.897
G1 X37.796Y297.646
G1 X38.181Y297.359
G1 X38.536Y297.036
G1 X38.858Y296.681
G1 X39.146Y296.296
G1 X39.397Y295.884
G1 X39.607Y295.447
G1 X39.775Y294.987
G1 X39.899Y294.508
G1 X39.974Y294.012
G1 X40Y293.5
G1 X39.974Y292.989
G1 X39.899Y292.493
G1 X39.775Y292.013
G1 X39.607Y291.554
G1 X39.397Y291.117
G1 X39.146Y290.705
G1 X38.858Y290.32
G1 X38.536Y289.965
G1 X38.181Y289.642
G1 X37.796Y289.354
G1 X37.384Y289.104
G1 X36.946Y288.893
G1 X36.487Y288.725
G1 X36.008Y288.602
G1 X35.511Y288.526
G1 X35Y288.5
G1 X34.489Y288.526
G1 X33.993Y288.602
G1 X33.513Y288.725
G1 X33.054Y288.893
G1 X32.617Y289.104
G1 X32.205Y289.354
G1 X31.82Y289.642
G1 X31.465Y289.965
G1 X31.142Y290.32
G1 X30.854Y290.705
G1 X30.604Y291.117
G1 X30.393Y291.554
G1 X30.225Y292.013
G1 X30.102Y292.493
G1 X30.026Y292.989
G1 X30Y293.5
G1 X30.026Y294.012
G1 X30.102Y294.508
G1 X30.225Y294.987
G1 X30.393Y295.447
G1 X30.604Y295.884
; Layer WorkSpace Pass 9 of 10
G1 X30.854Y296.296
G1 X31.142Y296.681
G1 X31.465Y297.036
G1 X31.82Y297.359
G1 X32.205Y297.646
G1 X32.617Y297.897
G1 X33.054Y298.107
G1 X33.513Y298.276
G1 X33.993Y298.399
G1 X34.489Y298.474
G1 X35Y298.5
G1 X35.511Y298.474
G1 X36.008Y298.399
G1 X36.487Y298.276
G1 X36.946Y298.107
G1 X37.384Y297.897
G1 X37.796Y297.646
G1 X38.181Y297.359
G1 X38.536Y297.036
G1 X38.858Y296.681
G1 X39.146Y296.296
G1 X39.397Y295.884
G1 X39.607Y295.447
G1 X39.775Y294.987
G1 X39.899Y294.508
G1 X39.974Y294.012
G1 X40Y293.5
G1 X39.974Y292.989
G1 X39.899Y292.493
G1 X39.775Y292.013
G1 X39.607Y291.554
G1 X39.397Y291.117
G1 X39.146Y290.705
G1 X38.858Y290.32
G1 X38.536Y289.965
G1 X38.181Y289.642
G1 X37.796Y289.354
G1 X37.384Y289.104
G1 X36.946Y288.893
G1 X36.487Y288.725
G1 X36.008Y288.602
G1 X35.511Y288.526
G1 X35Y288.5
G1 X34.489Y288.526
G1 X33.993Y288.602
G1 X33.513Y288.725
G1 X33.054Y288.893
G1 X32.617Y289.104
G1 X32.205Y289.354
G1 X31.82Y289.642
G1 X31.465Y289.965
G1 X31.142Y290.32
G1 X30.854Y290.705
G1 X30.604Y291.117
G1 X30.393Y291.554
G1 X30.225Y292.013
G1 X30.102Y292.493
G1 X30.026Y292.989
G1 X30Y293.5
G1 X30.026Y294.012
G1 X30.102Y294.508
G1 X30.225Y294.987
G1 X30.393Y295.447
G1 X30.604Y295.884
; Layer WorkSpace Pass 10 of 10
G1 X30.854Y296.296
G1 X31.142Y296.681
G1 X31.465Y297.036
G1 X31.82Y297.359
G1 X32.205Y297.646
G1 X32.617Y297.897
G1 X33.054Y298.107
G1 X33.513Y298.276
G1 X33.993Y298.399
G1 X34.489Y298.474
G1 X35Y298.5
G1 X35.511Y298.474
G1 X36.008Y298.399
G1 X36.487Y298.276
G1 X36.946Y298.107
G1 X37.384Y297.897
G1 X37.796Y297.646
G1 X38.181Y297.359
G1 X38.536Y297.036
G1 X38.858Y296.681
G1 X39.146Y296.296
G1 X39.397Y295.884
G1 X39.607Y295.447
G1 X39.775Y294.987
G1 X39.899Y294.508
G1 X39.974Y294.012
G1 X40Y293.5
G1 X39.974Y292.989
G1 X39.899Y292.493
G1 X39.775Y292.013
G1 X39.607Y291.554
G1 X39.397Y291.117
G1 X39.146Y290.705
G1 X38.858Y290.32
G1 X38.536Y289.965
G1 X38.181Y289.642
G1 X37.796Y289.354
G1 X37.384Y289.104
G1 X36.946Y288.893
G1 X36.487Y288.725
G1 X36.008Y288.602
G1 X35.511Y288.526
G1 X35Y288.5
G1 X34.489Y288.526
G1 X33.993Y288.602
G1 X33.513Y288.725
G1 X33.054Y288.893
G1 X32.617Y289.104
G1 X32.205Y289.354
G1 X31.82Y289.642
G1 X31.465Y289.965
G1 X31.142Y290.32
G1 X30.854Y290.705
G1 X30.604Y291.117
G1 X30.393Y291.554
G1 X30.225Y292.013
G1 X30.102Y292.493
G1 X30.026Y292.989
G1 X30Y293.5
G1 X30.026Y294.012
G1 X30.102Y294.508
G1 X30.225Y294.987
G1 X30.393Y295.447
G1 X30.604Y295.884
G0 X25.991Y296.519
; Layer WorkSpace Pass 1 of 10
G1 X25.779Y295.787
G1 X25.038Y295.93
G1 X24.3Y295.998
G1 X23.57
G1 X22.851Y295.917
G1 X22.149Y295.773
G1 X21.468Y295.565
G1 X20.812Y295.294
G1 X20.186Y294.963
G1 X19.593Y294.574
G1 X19.038Y294.13
G1 X18.527Y293.635
G1 X18.062Y293.089
G1 X17.649Y292.497
G1 X17.291Y291.86
G1 X16.994Y291.181
G1 X16.761Y290.463
G1 X16.053Y290.36
G1 X15.368Y290.193
G1 X14.711Y289.966
G1 X14.085Y289.681
G1 X13.491Y289.343
G1 X12.934Y288.954
G1 X12.416Y288.518
G1 X11.94Y288.037
G1 X11.509Y287.516
G1 X11.126Y286.958
G1 X10.794Y286.365
G1 X10.515Y285.741
G1 X10.294Y285.089
G1 X10.133Y284.413
G1 X10.034Y283.715
G1 X10Y283
G1 Y233
G1 X60
G1 Y283
G1 X59.966Y283.715
G1 X59.867Y284.412
G1 X59.705Y285.089
G1 X59.484Y285.74
G1 X59.206Y286.364
G1 X58.873Y286.957
G1 X58.491Y287.515
G1 X58.06Y288.036
G1 X57.584Y288.517
G1 X57.066Y288.953
G1 X56.509Y289.342
G1 X55.915Y289.68
G1 X55.289Y289.965
G1 X54.632Y290.192
G1 X53.948Y290.359
G1 X53.24Y290.463
G1 X53.007Y291.181
G1 X52.709Y291.859
G1 X52.352Y292.496
G1 X51.938Y293.088
G1 X51.474Y293.633
G1 X50.962Y294.128
G1 X50.407Y294.572
G1 X49.815Y294.96
G1 X49.188Y295.291
G1 X48.532Y295.563
G1 X47.851Y295.771
G1 X47.15Y295.915
G1 X46.431Y295.991
G1 X45.701
G1 X44.964Y295.929
G1 X44.223Y295.786
G1 Y295.819
G1 X43.968Y296.644
G1 X43.653Y297.432
G1 X43.273Y298.179
G1 X42.833Y298.884
G1 X42.337Y299.543
G1 X41.788Y300.154
G1 X41.19Y300.713
G1 X40.547Y301.218
G1 X39.863Y301.666
G1 X39.143Y302.055
G1 X38.389Y302.38
G1 X37.606Y302.641
G1 X36.798Y302.833
G1 X35.968Y302.955
G1 X35.121Y303.002
G1 X34.261Y302.973
G1 X33.504Y302.884
G1 X32.765Y302.736
G1 X32.047Y302.533
G1 X31.352Y302.275
G1 X30.683Y301.966
G1 X30.043Y301.608
G1 X29.434Y301.202
G1 X28.858Y300.751
G1 X28.319Y300.257
G1 X27.819Y299.723
G1 X27.36Y299.15
G1 X26.945Y298.541
G1 X26.577Y297.898
G1 X26.258Y297.223
G1 X25.991Y296.519
; Layer WorkSpace Pass 2 of 10
G1 X25.779Y295.787
G1 X25.038Y295.93
G1 X24.3Y295.998
G1 X23.57
G1 X22.851Y295.917
G1 X22.149Y295.773
G1 X21.468Y295.565
G1 X20.812Y295.294
G1 X20.186Y294.963
G1 X19.593Y294.574
G1 X19.038Y294.13
G1 X18.527Y293.635
G1 X18.062Y293.089
G1 X17.649Y292.497
G1 X17.291Y291.86
G1 X16.994Y291.181
G1 X16.761Y290.463
G1 X16.053Y290.36
G1 X15.368Y290.193
G1 X14.711Y289.966
G1 X14.085Y289.681
G1 X13.491Y289.343
G1 X12.934Y288.954
G1 X12.416Y288.518
G1 X11.94Y288.037
G1 X11.509Y287.516
G1 X11.126Y286.958
G1 X10.794Y286.365
G1 X10.515Y285.741
G1 X10.294Y285.089
G1 X10.133Y284.413
G1 X10.034Y283.715
G1 X10Y283
G1 Y233
G1 X60
G1 Y283
G1 X59.966Y283.715
G1 X59.867Y284.412
G1 X59.705Y285.089
G1 X59.484Y285.74
G1 X59.206Y286.364
G1 X58.873Y286.957
G1 X58.491Y287.515
G1 X58.06Y288.036
G1 X57.584Y288.517
G1 X57.066Y288.953
G1 X56.509Y289.342
G1 X55.915Y289.68
G1 X55.289Y289.965
G1 X54.632Y290.192
G1 X53.948Y290.359
G1 X53.24Y290.463
G1 X53.007Y291.181
G1 X52.709Y291.859
G1 X52.352Y292.496
G1 X51.938Y293.088
G1 X51.474Y293.633
G1 X50.962Y294.128
G1 X50.407Y294.572
G1 X49.815Y294.96
G1 X49.188Y295.291
G1 X48.532Y295.563
G1 X47.851Y295.771
G1 X47.15Y295.915
G1 X46.431Y295.991
G1 X45.701
G1 X44.964Y295.929
G1 X44.223Y295.786
G1 Y295.819
G1 X43.968Y296.644
G1 X43.653Y297.432
G1 X43.273Y298.179
G1 X42.833Y298.884
G1 X42.337Y299.543
G1 X41.788Y300.154
G1 X41.19Y300.713
G1 X40.547Y301.218
G1 X39.863Y301.666
G1 X39.143Y302.055
G1 X38.389Y302.38
G1 X37.606Y302.641
G1 X36.798Y302.833
G1 X35.968Y302.955
G1 X35.121Y303.002
G1 X34.261Y302.973
G1 X33.504Y302.884
G1 X32.765Y302.736
G1 X32.047Y302.533
G1 X31.352Y302.275
G1 X30.683Y301.966
G1 X30.043Y301.608
G1 X29.434Y301.202
G1 X28.858Y300.751
G1 X28.319Y300.257
G1 X27.819Y299.723
G1 X27.36Y299.15
G1 X26.945Y298.541
G1 X26.577Y297.898
G1 X26.258Y297.223
G1 X25.991Y296.519
; Layer WorkSpace Pass 3 of 10
G1 X25.779Y295.787
G1 X25.038Y295.93
G1 X24.3Y295.998
G1 X23.57
G1 X22.851Y295.917
G1 X22.149Y295.773
G1 X21.468Y295.565
G1 X20.812Y295.294
G1 X20.186Y294.963
G1 X19.593Y294.574
G1 X19.038Y294.13
G1 X18.527Y293.635
G1 X18.062Y293.089
G1 X17.649Y292.497
G1 X17.291Y291.86
G1 X16.994Y291.181
G1 X16.761Y290.463
G1 X16.053Y290.36
G1 X15.368Y290.193
G1 X14.711Y289.966
G1 X14.085Y289.681
G1 X13.491Y289.343
G1 X12.934Y288.954
G1 X12.416Y288.518
G1 X11.94Y288.037
G1 X11.509Y287.516
G1 X11.126Y286.958
G1 X10.794Y286.365
G1 X10.515Y285.741
G1 X10.294Y285.089
G1 X10.133Y284.413
G1 X10.034Y283.715
G1 X10Y283
G1 Y233
G1 X60
G1 Y283
G1 X59.966Y283.715
G1 X59.867Y284.412
G1 X59.705Y285.089
G1 X59.484Y285.74
G1 X59.206Y286.364
G1 X58.873Y286.957
G1 X58.491Y287.515
G1 X58.06Y288.036
G1 X57.584Y288.517
G1 X57.066Y288.953
G1 X56.509Y289.342
G1 X55.915Y289.68
G1 X55.289Y289.965
G1 X54.632Y290.192
G1 X53.948Y290.359
G1 X53.24Y290.463
G1 X53.007Y291.181
G1 X52.709Y291.859
G1 X52.352Y292.496
G1 X51.938Y293.088
G1 X51.474Y293.633
G1 X50.962Y294.128
G1 X50.407Y294.572
G1 X49.815Y294.96
G1 X49.188Y295.291
G1 X48.532Y295.563
G1 X47.851Y295.771
G1 X47.15Y295.915
G1 X46.431Y295.991
G1 X45.701
G1 X44.964Y295.929
G1 X44.223Y295.786
G1 Y295.819
G1 X43.968Y296.644
G1 X43.653Y297.432
G1 X43.273Y298.179
G1 X42.833Y298.884
G1 X42.337Y299.543
G1 X41.788Y300.154
G1 X41.19Y300.713
G1 X40.547Y301.218
G1 X39.863Y301.666
G1 X39.143Y302.055
G1 X38.389Y302.38
G1 X37.606Y302.641
G1 X36.798Y302.833
G1 X35.968Y302.955
G1 X35.121Y303.002
G1 X34.261Y302.973
G1 X33.504Y302.884
G1 X32.765Y302.736
G1 X32.047Y302.533
G1 X31.352Y302.275
G1 X30.683Y301.966
G1 X30.043Y301.608
G1 X29.434Y301.202
G1 X28.858Y300.751
G1 X28.319Y300.257
G1 X27.819Y299.723
G1 X27.36Y299.15
G1 X26.945Y298.541
G1 X26.577Y297.898
G1 X26.258Y297.223
G1 X25.991Y296.519
; Layer WorkSpace Pass 4 of 10
G1 X25.779Y295.787
G1 X25.038Y295.93
G1 X24.3Y295.998
G1 X23.57
G1 X22.851Y295.917
G1 X22.149Y295.773
G1 X21.468Y295.565
G1 X20.812Y295.294
G1 X20.186Y294.963
G1 X19.593Y294.574
G1 X19.038Y294.13
G1 X18.527Y293.635
G1 X18.062Y293.089
G1 X17.649Y292.497
G1 X17.291Y291.86
G1 X16.994Y291.181
G1 X16.761Y290.463
G1 X16.053Y290.36
G1 X15.368Y290.193
G1 X14.711Y289.966
G1 X14.085Y289.681
G1 X13.491Y289.343
G1 X12.934Y288.954
G1 X12.416Y288.518
G1 X11.94Y288.037
G1 X11.509Y287.516
G1 X11.126Y286.958
G1 X10.794Y286.365
G1 X10.515Y285.741
G1 X10.294Y285.089
G1 X10.133Y284.413
G1 X10.034Y283.715
G1 X10Y283
G1 Y233
G1 X60
G1 Y283
G1 X59.966Y283.715
G1 X59.867Y284.412
G1 X59.705Y285.089
G1 X59.484Y285.74
G1 X59.206Y286.364
G1 X58.873Y286.957
G1 X58.491Y287.515
G1 X58.06Y288.036
G1 X57.584Y288.517
G1 X57.066Y288.953
G1 X56.509Y289.342
G1 X55.915Y289.68
G1 X55.289Y289.965
G1 X54.632Y290.192
G1 X53.948Y290.359
G1 X53.24Y290.463
G1 X53.007Y291.181
G1 X52.709Y291.859
G1 X52.352Y292.496
G1 X51.938Y293.088
G1 X51.474Y293.633
G1 X50.962Y294.128
G1 X50.407Y294.572
G1 X49.815Y294.96
G1 X49.188Y295.291
G1 X48.532Y295.563
G1 X47.851Y295.771
G1 X47.15Y295.915
G1 X46.431Y295.991
G1 X45.701
G1 X44.964Y295.929
G1 X44.223Y295.786
G1 Y295.819
G1 X43.968Y296.644
G1 X43.653Y297.432
G1 X43.273Y298.179
G1 X42.833Y298.884
G1 X42.337Y299.543
G1 X41.788Y300.154
G1 X41.19Y300.713
G1 X40.547Y301.218
G1 X39.863Y301.666
G1 X39.143Y302.055
G1 X38.389Y302.38
G1 X37.606Y302.641
G1 X36.798Y302.833
G1 X35.968Y302.955
G1 X35.121Y303.002
G1 X34.261Y302.973
G1 X33.504Y302.884
G1 X32.765Y302.736
G1 X32.047Y302.533
G1 X31.352Y302.275
G1 X30.683Y301.966
G1 X30.043Y301.608
G1 X29.434Y301.202
G1 X28.858Y300.751
G1 X28.319Y300.257
G1 X27.819Y299.723
G1 X27.36Y299.15
G1 X26.945Y298.541
G1 X26.577Y297.898
G1 X26.258Y297.223
G1 X25.991Y296.519
; Layer WorkSpace Pass 5 of 10
G1 X25.779Y295.787
G1 X25.038Y295.93
G1 X24.3Y295.998
G1 X23.57
G1 X22.851Y295.917
G1 X22.149Y295.773
G1 X21.468Y295.565
G1 X20.812Y295.294
G1 X20.186Y294.963
G1 X19.593Y294.574
G1 X19.038Y294.13
G1 X18.527Y293.635
G1 X18.062Y293.089
G1 X17.649Y292.497
G1 X17.291Y291.86
G1 X16.994Y291.181
G1 X16.761Y290.463
G1 X16.053Y290.36
G1 X15.368Y290.193
G1 X14.711Y289.966
G1 X14.085Y289.681
G1 X13.491Y289.343
G1 X12.934Y288.954
G1 X12.416Y288.518
G1 X11.94Y288.037
G1 X11.509Y287.516
G1 X11.126Y286.958
G1 X10.794Y286.365
G1 X10.515Y285.741
G1 X10.294Y285.089
G1 X10.133Y284.413
G1 X10.034Y283.715
G1 X10Y283
G1 Y233
G1 X60
G1 Y283
G1 X59.966Y283.715
G1 X59.867Y284.412
G1 X59.705Y285.089
G1 X59.484Y285.74
G1 X59.206Y286.364
G1 X58.873Y286.957
G1 X58.491Y287.515
G1 X58.06Y288.036
G1 X57.584Y288.517
G1 X57.066Y288.953
G1 X56.509Y289.342
G1 X55.915Y289.68
G1 X55.289Y289.965
G1 X54.632Y290.192
G1 X53.948Y290.359
G1 X53.24Y290.463
G1 X53.007Y291.181
G1 X52.709Y291.859
G1 X52.352Y292.496
G1 X51.938Y293.088
G1 X51.474Y293.633
G1 X50.962Y294.128
G1 X50.407Y294.572
G1 X49.815Y294.96
G1 X49.188Y295.291
G1 X48.532Y295.563
G1 X47.851Y295.771
G1 X47.15Y295.915
G1 X46.431Y295.991
G1 X45.701
G1 X44.964Y295.929
G1 X44.223Y295.786
G1 Y295.819
G1 X43.968Y296.644
G1 X43.653Y297.432
G1 X43.273Y298.179
G1 X42.833Y298.884
G1 X42.337Y299.543
G1 X41.788Y300.154
G1 X41.19Y300.713
G1 X40.547Y301.218
G1 X39.863Y301.666
G1 X39.143Y302.055
G1 X38.389Y302.38
G1 X37.606Y302.641
G1 X36.798Y302.833
G1 X35.968Y302.955
G1 X35.121Y303.002
G1 X34.261Y302.973
G1 X33.504Y302.884
G1 X32.765Y302.736
G1 X32.047Y302.533
G1 X31.352Y302.275
G1 X30.683Y301.966
G1 X30.043Y301.608
G1 X29.434Y301.202
G1 X28.858Y300.751
G1 X28.319Y300.257
G1 X27.819Y299.723
G1 X27.36Y299.15
G1 X26.945Y298.541
G1 X26.577Y297.898
G1 X26.258Y297.223
G1 X25.991Y296.519
; Layer WorkSpace Pass 6 of 10
G1 X25.779Y295.787
G1 X25.038Y295.93
G1 X24.3Y295.998
G1 X23.57
G1 X22.851Y295.917
G1 X22.149Y295.773
G1 X21.468Y295.565
G1 X20.812Y295.294
G1 X20.186Y294.963
G1 X19.593Y294.574
G1 X19.038Y294.13
G1 X18.527Y293.635
G1 X18.062Y293.089
G1 X17.649Y292.497
G1 X17.291Y291.86
G1 X16.994Y291.181
G1 X16.761Y290.463
G1 X16.053Y290.36
G1 X15.368Y290.193
G1 X14.711Y289.966
G1 X14.085Y289.681
G1 X13.491Y289.343
G1 X12.934Y288.954
G1 X12.416Y288.518
G1 X11.94Y288.037
G1 X11.509Y287.516
G1 X11.126Y286.958
G1 X10.794Y286.365
G1 X10.515Y285.741
G1 X10.294Y285.089
G1 X10.133Y284.413
G1 X10.034Y283.715
G1 X10Y283
G1 Y233
G1 X60
G1 Y283
G1 X59.966Y283.715
G1 X59.867Y284.412
G1 X59.705Y285.089
G1 X59.484Y285.74
G1 X59.206Y286.364
G1 X58.873Y286.957
G1 X58.491Y287.515
G1 X58.06Y288.036
G1 X57.584Y288.517
G1 X57.066Y288.953
G1 X56.509Y289.342
G1 X55.915Y289.68
G1 X55.289Y289.965
G1 X54.632Y290.192
G1 X53.948Y290.359
G1 X53.24Y290.463
G1 X53.007Y291.181
G1 X52.709Y291.859
G1 X52.352Y292.496
G1 X51.938Y293.088
G1 X51.474Y293.633
G1 X50.962Y294.128
G1 X50.407Y294.572
G1 X49.815Y294.96
G1 X49.188Y295.291
G1 X48.532Y295.563
G1 X47.851Y295.771
G1 X47.15Y295.915
G1 X46.431Y295.991
G1 X45.701
G1 X44.964Y295.929
G1 X44.223Y295.786
G1 Y295.819
G1 X43.968Y296.644
G1 X43.653Y297.432
G1 X43.273Y298.179
G1 X42.833Y298.884
G1 X42.337Y299.543
G1 X41.788Y300.154
G1 X41.19Y300.713
G1 X40.547Y301.218
G1 X39.863Y301.666
G1 X39.143Y302.055
G1 X38.389Y302.38
G1 X37.606Y302.641
G1 X36.798Y302.833
G1 X35.968Y302.955
G1 X35.121Y303.002
G1 X34.261Y302.973
G1 X33.504Y302.884
G1 X32.765Y302.736
G1 X32.047Y302.533
G1 X31.352Y302.275
G1 X30.683Y301.966
G1 X30.043Y301.608
G1 X29.434Y301.202
G1 X28.858Y300.751
G1 X28.319Y300.257
G1 X27.819Y299.723
G1 X27.36Y299.15
G1 X26.945Y298.541
G1 X26.577Y297.898
G1 X26.258Y297.223
G1 X25.991Y296.519
; Layer WorkSpace Pass 7 of 10
G1 X25.779Y295.787
G1 X25.038Y295.93
G1 X24.3Y295.998
G1 X23.57
G1 X22.851Y295.917
G1 X22.149Y295.773
G1 X21.468Y295.565
G1 X20.812Y295.294
G1 X20.186Y294.963
G1 X19.593Y294.574
G1 X19.038Y294.13
G1 X18.527Y293.635
G1 X18.062Y293.089
G1 X17.649Y292.497
G1 X17.291Y291.86
G1 X16.994Y291.181
G1 X16.761Y290.463
G1 X16.053Y290.36
G1 X15.368Y290.193
G1 X14.711Y289.966
G1 X14.085Y289.681
G1 X13.491Y289.343
G1 X12.934Y288.954
G1 X12.416Y288.518
G1 X11.94Y288.037
G1 X11.509Y287.516
G1 X11.126Y286.958
G1 X10.794Y286.365
G1 X10.515Y285.741
G1 X10.294Y285.089
G1 X10.133Y284.413
G1 X10.034Y283.715
G1 X10Y283
G1 Y233
G1 X60
G1 Y283
G1 X59.966Y283.715
G1 X59.867Y284.412
G1 X59.705Y285.089
G1 X59.484Y285.74
G1 X59.206Y286.364
G1 X58.873Y286.957
G1 X58.491Y287.515
G1 X58.06Y288.036
G1 X57.584Y288.517
G1 X57.066Y288.953
G1 X56.509Y289.342
G1 X55.915Y289.68
G1 X55.289Y289.965
G1 X54.632Y290.192
G1 X53.948Y290.359
G1 X53.24Y290.463
G1 X53.007Y291.181
G1 X52.709Y291.859
G1 X52.352Y292.496
G1 X51.938Y293.088
G1 X51.474Y293.633
G1 X50.962Y294.128
G1 X50.407Y294.572
G1 X49.815Y294.96
G1 X49.188Y295.291
G1 X48.532Y295.563
G1 X47.851Y295.771
G1 X47.15Y295.915
G1 X46.431Y295.991
G1 X45.701
G1 X44.964Y295.929
G1 X44.223Y295.786
G1 Y295.819
G1 X43.968Y296.644
G1 X43.653Y297.432
G1 X43.273Y298.179
G1 X42.833Y298.884
G1 X42.337Y299.543
G1 X41.788Y300.154
G1 X41.19Y300.713
G1 X40.547Y301.218
G1 X39.863Y301.666
G1 X39.143Y302.055
G1 X38.389Y302.38
G1 X37.606Y302.641
G1 X36.798Y302.833
G1 X35.968Y302.955
G1 X35.121Y303.002
G1 X34.261Y302.973
G1 X33.504Y302.884
G1 X32.765Y302.736
G1 X32.047Y302.533
G1 X31.352Y302.275
G1 X30.683Y301.966
G1 X30.043Y301.608
G1 X29.434Y301.202
G1 X28.858Y300.751
G1 X28.319Y300.257
G1 X27.819Y299.723
G1 X27.36Y299.15
G1 X26.945Y298.541
G1 X26.577Y297.898
G1 X26.258Y297.223
G1 X25.991Y296.519
; Layer WorkSpace Pass 8 of 10
G1 X25.779Y295.787
G1 X25.038Y295.93
G1 X24.3Y295.998
G1 X23.57
G1 X22.851Y295.917
G1 X22.149Y295.773
G1 X21.468Y295.565
G1 X20.812Y295.294
G1 X20.186Y294.963
G1 X19.593Y294.574
G1 X19.038Y294.13
G1 X18.527Y293.635
G1 X18.062Y293.089
G1 X17.649Y292.497
G1 X17.291Y291.86
G1 X16.994Y291.181
G1 X16.761Y290.463
G1 X16.053Y290.36
G1 X15.368Y290.193
G1 X14.711Y289.966
G1 X14.085Y289.681
G1 X13.491Y289.343
G1 X12.934Y288.954
G1 X12.416Y288.518
G1 X11.94Y288.037
G1 X11.509Y287.516
G1 X11.126Y286.958
G1 X10.794Y286.365
G1 X10.515Y285.741
G1 X10.294Y285.089
G1 X10.133Y284.413
G1 X10.034Y283.715
G1 X10Y283
G1 Y233
G1 X60
G1 Y283
G1 X59.966Y283.715
G1 X59.867Y284.412
G1 X59.705Y285.089
G1 X59.484Y285.74
G1 X59.206Y286.364
G1 X58.873Y286.957
G1 X58.491Y287.515
G1 X58.06Y288.036
G1 X57.584Y288.517
G1 X57.066Y288.953
G1 X56.509Y289.342
G1 X55.915Y289.68
G1 X55.289Y289.965
G1 X54.632Y290.192
G1 X53.948Y290.359
G1 X53.24Y290.463
G1 X53.007Y291.181
G1 X52.709Y291.859
G1 X52.352Y292.496
G1 X51.938Y293.088
G1 X51.474Y293.633
G1 X50.962Y294.128
G1 X50.407Y294.572
G1 X49.815Y294.96
G1 X49.188Y295.291
G1 X48.532Y295.563
G1 X47.851Y295.771
G1 X47.15Y295.915
G1 X46.431Y295.991
G1 X45.701
G1 X44.964Y295.929
G1 X44.223Y295.786
G1 Y295.819
G1 X43.968Y296.644
G1 X43.653Y297.432
G1 X43.273Y298.179
G1 X42.833Y298.884
G1 X42.337Y299.543
G1 X41.788Y300.154
G1 X41.19Y300.713
G1 X40.547Y301.218
G1 X39.863Y301.666
G1 X39.143Y302.055
G1 X38.389Y302.38
G1 X37.606Y302.641
G1 X36.798Y302.833
G1 X35.968Y302.955
G1 X35.121Y303.002
G1 X34.261Y302.973
G1 X33.504Y302.884
G1 X32.765Y302.736
G1 X32.047Y302.533
G1 X31.352Y302.275
G1 X30.683Y301.966
G1 X30.043Y301.608
G1 X29.434Y301.202
G1 X28.858Y300.751
G1 X28.319Y300.257
G1 X27.819Y299.723
G1 X27.36Y299.15
G1 X26.945Y298.541
G1 X26.577Y297.898
G1 X26.258Y297.223
G1 X25.991Y296.519
; Layer WorkSpace Pass 9 of 10
G1 X25.779Y295.787
G1 X25.038Y295.93
G1 X24.3Y295.998
G1 X23.57
G1 X22.851Y295.917
G1 X22.149Y295.773
G1 X21.468Y295.565
G1 X20.812Y295.294
G1 X20.186Y294.963
G1 X19.593Y294.574
G1 X19.038Y294.13
G1 X18.527Y293.635
G1 X18.062Y293.089
G1 X17.649Y292.497
G1 X17.291Y291.86
G1 X16.994Y291.181
G1 X16.761Y290.463
G1 X16.053Y290.36
G1 X15.368Y290.193
G1 X14.711Y289.966
G1 X14.085Y289.681
G1 X13.491Y289.343
G1 X12.934Y288.954
G1 X12.416Y288.518
G1 X11.94Y288.037
G1 X11.509Y287.516
G1 X11.126Y286.958
G1 X10.794Y286.365
G1 X10.515Y285.741
G1 X10.294Y285.089
G1 X10.133Y284.413
G1 X10.034Y283.715
G1 X10Y283
G1 Y233
G1 X60
G1 Y283
G1 X59.966Y283.715
G1 X59.867Y284.412
G1 X59.705Y285.089
G1 X59.484Y285.74
G1 X59.206Y286.364
G1 X58.873Y286.957
G1 X58.491Y287.515
G1 X58.06Y288.036
G1 X57.584Y288.517
G1 X57.066Y288.953
G1 X56.509Y289.342
G1 X55.915Y289.68
G1 X55.289Y289.965
G1 X54.632Y290.192
G1 X53.948Y290.359
G1 X53.24Y290.463
G1 X53.007Y291.181
G1 X52.709Y291.859
G1 X52.352Y292.496
G1 X51.938Y293.088
G1 X51.474Y293.633
G1 X50.962Y294.128
G1 X50.407Y294.572
G1 X49.815Y294.96
G1 X49.188Y295.291
G1 X48.532Y295.563
G1 X47.851Y295.771
G1 X47.15Y295.915
G1 X46.431Y295.991
G1 X45.701
G1 X44.964Y295.929
G1 X44.223Y295.786
G1 Y295.819
G1 X43.968Y296.644
G1 X43.653Y297.432
G1 X43.273Y298.179
G1 X42.833Y298.884
G1 X42.337Y299.543
G1 X41.788Y300.154
G1 X41.19Y300.713
G1 X40.547Y301.218
G1 X39.863Y301.666
G1 X39.143Y302.055
G1 X38.389Y302.38
G1 X37.606Y302.641
G1 X36.798Y302.833
G1 X35.968Y302.955
G1 X35.121Y303.002
G1 X34.261Y302.973
G1 X33.504Y302.884
G1 X32.765Y302.736
G1 X32.047Y302.533
G1 X31.352Y302.275
G1 X30.683Y301.966
G1 X30.043Y301.608
G1 X29.434Y301.202
G1 X28.858Y300.751
G1 X28.319Y300.257
G1 X27.819Y299.723
G1 X27.36Y299.15
G1 X26.945Y298.541
G1 X26.577Y297.898
G1 X26.258Y297.223
G1 X25.991Y296.519
; Layer WorkSpace Pass 10 of 10
G1 X25.779Y295.787
G1 X25.038Y295.93
G1 X24.3Y295.998
G1 X23.57
G1 X22.851Y295.917
G1 X22.149Y295.773
G1 X21.468Y295.565
G1 X20.812Y295.294
G1 X20.186Y294.963
G1 X19.593Y294.574
G1 X19.038Y294.13
G1 X18.527Y293.635
G1 X18.062Y293.089
G1 X17.649Y292.497
G1 X17.291Y291.86
G1 X16.994Y291.181
G1 X16.761Y290.463
G1 X16.053Y290.36
G1 X15.368Y290.193
G1 X14.711Y289.966
G1 X14.085Y289.681
G1 X13.491Y289.343
G1 X12.934Y288.954
G1 X12.416Y288.518
G1 X11.94Y288.037
G1 X11.509Y287.516
G1 X11.126Y286.958
G1 X10.794Y286.365
G1 X10.515Y285.741
G1 X10.294Y285.089
G1 X10.133Y284.413
G1 X10.034Y283.715
G1 X10Y283
G1 Y233
G1 X60
G1 Y283
G1 X59.966Y283.715
G1 X59.867Y284.412
G1 X59.705Y285.089
G1 X59.484Y285.74
G1 X59.206Y286.364
G1 X58.873Y286.957
G1 X58.491Y287.515
G1 X58.06Y288.036
G1 X57.584Y288.517
G1 X57.066Y288.953
G1 X56.509Y289.342
G1 X55.915Y289.68
G1 X55.289Y289.965
G1 X54.632Y290.192
G1 X53.948Y290.359
G1 X53.24Y290.463
G1 X53.007Y291.181
G1 X52.709Y291.859
G1 X52.352Y292.496
G1 X51.938Y293.088
G1 X51.474Y293.633
G1 X50.962Y294.128
G1 X50.407Y294.572
G1 X49.815Y294.96
G1 X49.188Y295.291
G1 X48.532Y295.563
G1 X47.851Y295.771
G1 X47.15Y295.915
G1 X46.431Y295.991
G1 X45.701
G1 X44.964Y295.929
G1 X44.223Y295.786
G1 Y295.819
G1 X43.968Y296.644
G1 X43.653Y297.432
G1 X43.273Y298.179
G1 X42.833Y298.884
G1 X42.337Y299.543
G1 X41.788Y300.154
G1 X41.19Y300.713
G1 X40.547Y301.218
G1 X39.863Y301.666
G1 X39.143Y302.055
G1 X38.389Y302.38
G1 X37.606Y302.641
G1 X36.798Y302.833
G1 X35.968Y302.955
G1 X35.121Y303.002
G1 X34.261Y302.973
G1 X33.504Y302.884
G1 X32.765Y302.736
G1 X32.047Y302.533
G1 X31.352Y302.275
G1 X30.683Y301.966
G1 X30.043Y301.608
G1 X29.434Y301.202
G1 X28.858Y300.751
G1 X28.319Y300.257
G1 X27.819Y299.723
G1 X27.36Y299.15
G1 X26.945Y298.541
G1 X26.577Y297.898
G1 X26.258Y297.223
G1 X25.991Y296.519
G0 X83.026Y294.012
; Layer WorkSpace Pass 1 of 10
G1 X83.102Y294.508
G1 X83.225Y294.987
G1 X83.393Y295.447
G1 X83.604Y295.884
G1 X83.854Y296.296
G1 X84.142Y296.681
G1 X84.465Y297.036
G1 X84.82Y297.359
G1 X85.205Y297.646
G1 X85.617Y297.897
G1 X86.054Y298.107
G1 X86.513Y298.276
G1 X86.993Y298.399
G1 X87.489Y298.474
G1 X88Y298.5
G1 X88.511Y298.474
G1 X89.008Y298.399
G1 X89.487Y298.276
G1 X89.946Y298.107
G1 X90.384Y297.897
G1 X90.796Y297.646
G1 X91.181Y297.359
G1 X91.536Y297.036
G1 X91.858Y296.681
G1 X92.146Y296.296
G1 X92.397Y295.884
G1 X92.607Y295.447
G1 X92.775Y294.987
G1 X92.899Y294.508
G1 X92.974Y294.012
G1 X93Y293.5
G1 X92.974Y292.989
G1 X92.899Y292.493
G1 X92.775Y292.013
G1 X92.607Y291.554
G1 X92.397Y291.117
G1 X92.146Y290.705
G1 X91.858Y290.32
G1 X91.536Y289.965
G1 X91.181Y289.642
G1 X90.796Y289.354
G1 X90.384Y289.104
G1 X89.946Y288.893
G1 X89.487Y288.725
G1 X89.008Y288.602
G1 X88.511Y288.526
G1 X88Y288.5
G1 X87.489Y288.526
G1 X86.993Y288.602
G1 X86.513Y288.725
G1 X86.054Y288.893
G1 X85.617Y289.104
G1 X85.205Y289.354
G1 X84.82Y289.642
G1 X84.465Y289.965
G1 X84.142Y290.32
G1 X83.854Y290.705
G1 X83.604Y291.117
G1 X83.393Y291.554
G1 X83.225Y292.013
G1 X83.102Y292.493
G1 X83.026Y292.989
G1 X83Y293.5
G1 X83.026Y294.012
; Layer WorkSpace Pass 2 of 10
G1 X83.102Y294.508
G1 X83.225Y294.987
G1 X83.393Y295.447
G1 X83.604Y295.884
G1 X83.854Y296.296
G1 X84.142Y296.681
G1 X84.465Y297.036
G1 X84.82Y297.359
G1 X85.205Y297.646
G1 X85.617Y297.897
G1 X86.054Y298.107
G1 X86.513Y298.276
G1 X86.993Y298.399
G1 X87.489Y298.474
G1 X88Y298.5
G1 X88.511Y298.474
G1 X89.008Y298.399
G1 X89.487Y298.276
G1 X89.946Y298.107
G1 X90.384Y297.897
G1 X90.796Y297.646
G1 X91.181Y297.359
G1 X91.536Y297.036
G1 X91.858Y296.681
G1 X92.146Y296.296
G1 X92.397Y295.884
G1 X92.607Y295.447
G1 X92.775Y294.987
G1 X92.899Y294.508
G1 X92.974Y294.012
G1 X93Y293.5
G1 X92.974Y292.989
G1 X92.899Y292.493
G1 X92.775Y292.013
G1 X92.607Y291.554
G1 X92.397Y291.117
G1 X92.146Y290.705
G1 X91.858Y290.32
G1 X91.536Y289.965
G1 X91.181Y289.642
G1 X90.796Y289.354
G1 X90.384Y289.104
G1 X89.946Y288.893
G1 X89.487Y288.725
G1 X89.008Y288.602
G1 X88.511Y288.526
G1 X88Y288.5
G1 X87.489Y288.526
G1 X86.993Y288.602
G1 X86.513Y288.725
G1 X86.054Y288.893
G1 X85.617Y289.104
G1 X85.205Y289.354
G1 X84.82Y289.642
G1 X84.465Y289.965
G1 X84.142Y290.32
G1 X83.854Y290.705
G1 X83.604Y291.117
G1 X83.393Y291.554
G1 X83.225Y292.013
G1 X83.102Y292.493
G1 X83.026Y292.989
G1 X83Y293.5
G1 X83.026Y294.012
; Layer WorkSpace Pass 3 of 10
G1 X83.102Y294.508
G1 X83.225Y294.987
G1 X83.393Y295.447
G1 X83.604Y295.884
G1 X83.854Y296.296
G1 X84.142Y296.681
G1 X84.465Y297.036
G1 X84.82Y297.359
G1 X85.205Y297.646
G1 X85.617Y297.897
G1 X86.054Y298.107
G1 X86.513Y298.276
G1 X86.993Y298.399
G1 X87.489Y298.474
G1 X88Y298.5
G1 X88.511Y298.474
G1 X89.008Y298.399
G1 X89.487Y298.276
G1 X89.946Y298.107
G1 X90.384Y297.897
G1 X90.796Y297.646
G1 X91.181Y297.359
G1 X91.536Y297.036
G1 X91.858Y296.681
G1 X92.146Y296.296
G1 X92.397Y295.884
G1 X92.607Y295.447
G1 X92.775Y294.987
G1 X92.899Y294.508
G1 X92.974Y294.012
G1 X93Y293.5
G1 X92.974Y292.989
G1 X92.899Y292.493
G1 X92.775Y292.013
G1 X92.607Y291.554
G1 X92.397Y291.117
G1 X92.146Y290.705
G1 X91.858Y290.32
G1 X91.536Y289.965
G1 X91.181Y289.642
G1 X90.796Y289.354
G1 X90.384Y289.104
G1 X89.946Y288.893
G1 X89.487Y288.725
G1 X89.008Y288.602
G1 X88.511Y288.526
G1 X88Y288.5
G1 X87.489Y288.526
G1 X86.993Y288.602
G1 X86.513Y288.725
G1 X86.054Y288.893
G1 X85.617Y289.104
G1 X85.205Y289.354
G1 X84.82Y289.642
G1 X84.465Y289.965
G1 X84.142Y290.32
G1 X83.854Y290.705
G1 X83.604Y291.117
G1 X83.393Y291.554
G1 X83.225Y292.013
G1 X83.102Y292.493
G1 X83.026Y292.989
G1 X83Y293.5
G1 X83.026Y294.012
; Layer WorkSpace Pass 4 of 10
G1 X83.102Y294.508
G1 X83.225Y294.987
G1 X83.393Y295.447
G1 X83.604Y295.884
G1 X83.854Y296.296
G1 X84.142Y296.681
G1 X84.465Y297.036
G1 X84.82Y297.359
G1 X85.205Y297.646
G1 X85.617Y297.897
G1 X86.054Y298.107
G1 X86.513Y298.276
G1 X86.993Y298.399
G1 X87.489Y298.474
G1 X88Y298.5
G1 X88.511Y298.474
G1 X89.008Y298.399
G1 X89.487Y298.276
G1 X89.946Y298.107
G1 X90.384Y297.897
G1 X90.796Y297.646
G1 X91.181Y297.359
G1 X91.536Y297.036
G1 X91.858Y296.681
G1 X92.146Y296.296
G1 X92.397Y295.884
G1 X92.607Y295.447
G1 X92.775Y294.987
G1 X92.899Y294.508
G1 X92.974Y294.012
G1 X93Y293.5
G1 X92.974Y292.989
G1 X92.899Y292.493
G1 X92.775Y292.013
G1 X92.607Y291.554
G1 X92.397Y291.117
G1 X92.146Y290.705
G1 X91.858Y290.32
G1 X91.536Y289.965
G1 X91.181Y289.642
G1 X90.796Y289.354
G1 X90.384Y289.104
G1 X89.946Y288.893
G1 X89.487Y288.725
G1 X89.008Y288.602
G1 X88.511Y288.526
G1 X88Y288.5
G1 X87.489Y288.526
G1 X86.993Y288.602
G1 X86.513Y288.725
G1 X86.054Y288.893
G1 X85.617Y289.104
G1 X85.205Y289.354
G1 X84.82Y289.642
G1 X84.465Y289.965
G1 X84.142Y290.32
G1 X83.854Y290.705
G1 X83.604Y291.117
G1 X83.393Y291.554
G1 X83.225Y292.013
G1 X83.102Y292.493
G1 X83.026Y292.989
G1 X83Y293.5
G1 X83.026Y294.012
; Layer WorkSpace Pass 5 of 10
G1 X83.102Y294.508
G1 X83.225Y294.987
G1 X83.393Y295.447
G1 X83.604Y295.884
G1 X83.854Y296.296
G1 X84.142Y296.681
G1 X84.465Y297.036
G1 X84.82Y297.359
G1 X85.205Y297.646
G1 X85.617Y297.897
G1 X86.054Y298.107
G1 X86.513Y298.276
G1 X86.993Y298.399
G1 X87.489Y298.474
G1 X88Y298.5
G1 X88.511Y298.474
G1 X89.008Y298.399
G1 X89.487Y298.276
G1 X89.946Y298.107
G1 X90.384Y297.897
G1 X90.796Y297.646
G1 X91.181Y297.359
G1 X91.536Y297.036
G1 X91.858Y296.681
G1 X92.146Y296.296
G1 X92.397Y295.884
G1 X92.607Y295.447
G1 X92.775Y294.987
G1 X92.899Y294.508
G1 X92.974Y294.012
G1 X93Y293.5
G1 X92.974Y292.989
G1 X92.899Y292.493
G1 X92.775Y292.013
G1 X92.607Y291.554
G1 X92.397Y291.117
G1 X92.146Y290.705
G1 X91.858Y290.32
G1 X91.536Y289.965
G1 X91.181Y289.642
G1 X90.796Y289.354
G1 X90.384Y289.104
G1 X89.946Y288.893
G1 X89.487Y288.725
G1 X89.008Y288.602
G1 X88.511Y288.526
G1 X88Y288.5
G1 X87.489Y288.526
G1 X86.993Y288.602
G1 X86.513Y288.725
G1 X86.054Y288.893
G1 X85.617Y289.104
G1 X85.205Y289.354
G1 X84.82Y289.642
G1 X84.465Y289.965
G1 X84.142Y290.32
G1 X83.854Y290.705
G1 X83.604Y291.117
G1 X83.393Y291.554
G1 X83.225Y292.013
G1 X83.102Y292.493
G1 X83.026Y292.989
G1 X83Y293.5
G1 X83.026Y294.012
; Layer WorkSpace Pass 6 of 10
G1 X83.102Y294.508
G1 X83.225Y294.987
G1 X83.393Y295.447
G1 X83.604Y295.884
G1 X83.854Y296.296
G1 X84.142Y296.681
G1 X84.465Y297.036
G1 X84.82Y297.359
G1 X85.205Y297.646
G1 X85.617Y297.897
G1 X86.054Y298.107
G1 X86.513Y298.276
G1 X86.993Y298.399
G1 X87.489Y298.474
G1 X88Y298.5
G1 X88.511Y298.474
G1 X89.008Y298.399
G1 X89.487Y298.276
G1 X89.946Y298.107
G1 X90.384Y297.897
G1 X90.796Y297.646
G1 X91.181Y297.359
G1 X91.536Y297.036
G1 X91.858Y296.681
G1 X92.146Y296.296
G1 X92.397Y295.884
G1 X92.607Y295.447
G1 X92.775Y294.987
G1 X92.899Y294.508
G1 X92.974Y294.012
G1 X93Y293.5
G1 X92.974Y292.989
G1 X92.899Y292.493
G1 X92.775Y292.013
G1 X92.607Y291.554
G1 X92.397Y291.117
G1 X92.146Y290.705
G1 X91.858Y290.32
G1 X91.536Y289.965
G1 X91.181Y289.642
G1 X90.796Y289.354
G1 X90.384Y289.104
G1 X89.946Y288.893
G1 X89.487Y288.725
G1 X89.008Y288.602
G1 X88.511Y288.526
G1 X88Y288.5
G1 X87.489Y288.526
G1 X86.993Y288.602
G1 X86.513Y288.725
G1 X86.054Y288.893
G1 X85.617Y289.104
G1 X85.205Y289.354
G1 X84.82Y289.642
G1 X84.465Y289.965
G1 X84.142Y290.32
G1 X83.854Y290.705
G1 X83.604Y291.117
G1 X83.393Y291.554
G1 X83.225Y292.013
G1 X83.102Y292.493
G1 X83.026Y292.989
G1 X83Y293.5
G1 X83.026Y294.012
; Layer WorkSpace Pass 7 of 10
G1 X83.102Y294.508
G1 X83.225Y294.987
G1 X83.393Y295.447
G1 X83.604Y295.884
G1 X83.854Y296.296
G1 X84.142Y296.681
G1 X84.465Y297.036
G1 X84.82Y297.359
G1 X85.205Y297.646
G1 X85.617Y297.897
G1 X86.054Y298.107
G1 X86.513Y298.276
G1 X86.993Y298.399
G1 X87.489Y298.474
G1 X88Y298.5
G1 X88.511Y298.474
G1 X89.008Y298.399
G1 X89.487Y298.276
G1 X89.946Y298.107
G1 X90.384Y297.897
G1 X90.796Y297.646
G1 X91.181Y297.359
G1 X91.536Y297.036
G1 X91.858Y296.681
G1 X92.146Y296.296
G1 X92.397Y295.884
G1 X92.607Y295.447
G1 X92.775Y294.987
G1 X92.899Y294.508
G1 X92.974Y294.012
G1 X93Y293.5
G1 X92.974Y292.989
G1 X92.899Y292.493
G1 X92.775Y292.013
G1 X92.607Y291.554
G1 X92.397Y291.117
G1 X92.146Y290.705
G1 X91.858Y290.32
G1 X91.536Y289.965
G1 X91.181Y289.642
G1 X90.796Y289.354
G1 X90.384Y289.104
G1 X89.946Y288.893
G1 X89.487Y288.725
G1 X89.008Y288.602
G1 X88.511Y288.526
G1 X88Y288.5
G1 X87.489Y288.526
G1 X86.993Y288.602
G1 X86.513Y288.725
G1 X86.054Y288.893
G1 X85.617Y289.104
G1 X85.205Y289.354
G1 X84.82Y289.642
G1 X84.465Y289.965
G1 X84.142Y290.32
G1 X83.854Y290.705
G1 X83.604Y291.117
G1 X83.393Y291.554
G1 X83.225Y292.013
G1 X83.102Y292.493
G1 X83.026Y292.989
G1 X83Y293.5
G1 X83.026Y294.012
; Layer WorkSpace Pass 8 of 10
G1 X83.102Y294.508
G1 X83.225Y294.987
G1 X83.393Y295.447
G1 X83.604Y295.884
G1 X83.854Y296.296
G1 X84.142Y296.681
G1 X84.465Y297.036
G1 X84.82Y297.359
G1 X85.205Y297.646
G1 X85.617Y297.897
G1 X86.054Y298.107
G1 X86.513Y298.276
G1 X86.993Y298.399
G1 X87.489Y298.474
G1 X88Y298.5
G1 X88.511Y298.474
G1 X89.008Y298.399
G1 X89.487Y298.276
G1 X89.946Y298.107
G1 X90.384Y297.897
G1 X90.796Y297.646
G1 X91.181Y297.359
G1 X91.536Y297.036
G1 X91.858Y296.681
G1 X92.146Y296.296
G1 X92.397Y295.884
G1 X92.607Y295.447
G1 X92.775Y294.987
G1 X92.899Y294.508
G1 X92.974Y294.012
G1 X93Y293.5
G1 X92.974Y292.989
G1 X92.899Y292.493
G1 X92.775Y292.013
G1 X92.607Y291.554
G1 X92.397Y291.117
G1 X92.146Y290.705
G1 X91.858Y290.32
G1 X91.536Y289.965
G1 X91.181Y289.642
G1 X90.796Y289.354
G1 X90.384Y289.104
G1 X89.946Y288.893
G1 X89.487Y288.725
G1 X89.008Y288.602
G1 X88.511Y288.526
G1 X88Y288.5
G1 X87.489Y288.526
G1 X86.993Y288.602
G1 X86.513Y288.725
G1 X86.054Y288.893
G1 X85.617Y289.104
G1 X85.205Y289.354
G1 X84.82Y289.642
G1 X84.465Y289.965
G1 X84.142Y290.32
G1 X83.854Y290.705
G1 X83.604Y291.117
G1 X83.393Y291.554
G1 X83.225Y292.013
G1 X83.102Y292.493
G1 X83.026Y292.989
G1 X83Y293.5
G1 X83.026Y294.012
; Layer WorkSpace Pass 9 of 10
G1 X83.102Y294.508
G1 X83.225Y294.987
G1 X83.393Y295.447
G1 X83.604Y295.884
G1 X83.854Y296.296
G1 X84.142Y296.681
G1 X84.465Y297.036
G1 X84.82Y297.359
G1 X85.205Y297.646
G1 X85.617Y297.897
G1 X86.054Y298.107
G1 X86.513Y298.276
G1 X86.993Y298.399
G1 X87.489Y298.474
G1 X88Y298.5
G1 X88.511Y298.474
G1 X89.008Y298.399
G1 X89.487Y298.276
G1 X89.946Y298.107
G1 X90.384Y297.897
G1 X90.796Y297.646
G1 X91.181Y297.359
G1 X91.536Y297.036
G1 X91.858Y296.681
G1 X92.146Y296.296
G1 X92.397Y295.884
G1 X92.607Y295.447
G1 X92.775Y294.987
G1 X92.899Y294.508
G1 X92.974Y294.012
G1 X93Y293.5
G1 X92.974Y292.989
G1 X92.899Y292.493
G1 X92.775Y292.013
G1 X92.607Y291.554
G1 X92.397Y291.117
G1 X92.146Y290.705
G1 X91.858Y290.32
G1 X91.536Y289.965
G1 X91.181Y289.642
G1 X90.796Y289.354
G1 X90.384Y289.104
G1 X89.946Y288.893
G1 X89.487Y288.725
G1 X89.008Y288.602
G1 X88.511Y288.526
G1 X88Y288.5
G1 X87.489Y288.526
G1 X86.993Y288.602
G1 X86.513Y288.725
G1 X86.054Y288.893
G1 X85.617Y289.104
G1 X85.205Y289.354
G1 X84.82Y289.642
G1 X84.465Y289.965
G1 X84.142Y290.32
G1 X83.854Y290.705
G1 X83.604Y291.117
G1 X83.393Y291.554
G1 X83.225Y292.013
G1 X83.102Y292.493
G1 X83.026Y292.989
G1 X83Y293.5
G1 X83.026Y294.012
; Layer WorkSpace Pass 10 of 10
G1 X83.102Y294.508
G1 X83.225Y294.987
G1 X83.393Y295.447
G1 X83.604Y295.884
G1 X83.854Y296.296
G1 X84.142Y296.681
G1 X84.465Y297.036
G1 X84.82Y297.359
G1 X85.205Y297.646
G1 X85.617Y297.897
G1 X86.054Y298.107
G1 X86.513Y298.276
G1 X86.993Y298.399
G1 X87.489Y298.474
G1 X88Y298.5
G1 X88.511Y298.474
G1 X89.008Y298.399
G1 X89.487Y298.276
G1 X89.946Y298.107
G1 X90.384Y297.897
G1 X90.796Y297.646
G1 X91.181Y297.359
G1 X91.536Y297.036
G1 X91.858Y296.681
G1 X92.146Y296.296
G1 X92.397Y295.884
G1 X92.607Y295.447
G1 X92.775Y294.987
G1 X92.899Y294.508
G1 X92.974Y294.012
G1 X93Y293.5
G1 X92.974Y292.989
G1 X92.899Y292.493
G1 X92.775Y292.013
G1 X92.607Y291.554
G1 X92.397Y291.117
G1 X92.146Y290.705
G1 X91.858Y290.32
G1 X91.536Y289.965
G1 X91.181Y289.642
G1 X90.796Y289.354
G1 X90.384Y289.104
G1 X89.946Y288.893
G1 X89.487Y288.725
G1 X89.008Y288.602
G1 X88.511Y288.526
G1 X88Y288.5
G1 X87.489Y288.526
G1 X86.993Y288.602
G1 X86.513Y288.725
G1 X86.054Y288.893
G1 X85.617Y289.104
G1 X85.205Y289.354
G1 X84.82Y289.642
G1 X84.465Y289.965
G1 X84.142Y290.32
G1 X83.854Y290.705
G1 X83.604Y291.117
G1 X83.393Y291.554
G1 X83.225Y292.013
G1 X83.102Y292.493
G1 X83.026Y292.989
G1 X83Y293.5
G1 X83.026Y294.012
G0 X78.779Y295.787
; Layer WorkSpace Pass 1 of 10
G1 X78.038Y295.93
G1 X77.3Y295.998
G1 X76.57
G1 X75.851Y295.917
G1 X75.149Y295.773
G1 X74.468Y295.565
G1 X73.812Y295.294
G1 X73.186Y294.963
G1 X72.593Y294.574
G1 X72.038Y294.13
G1 X71.527Y293.635
G1 X71.062Y293.089
G1 X70.649Y292.497
G1 X70.291Y291.86
G1 X69.994Y291.181
G1 X69.761Y290.463
G1 X69.053Y290.36
G1 X68.369Y290.193
G1 X67.712Y289.966
G1 X67.085Y289.681
G1 X66.491Y289.343
G1 X65.934Y288.954
G1 X65.416Y288.518
G1 X64.94Y288.037
G1 X64.509Y287.516
G1 X64.126Y286.958
G1 X63.794Y286.365
G1 X63.516Y285.741
G1 X63.294Y285.089
G1 X63.133Y284.413
G1 X63.034Y283.715
G1 X63Y283
G1 Y233
G1 X113
G1 Y283
G1 X112.966Y283.715
G1 X112.867Y284.412
G1 X112.705Y285.089
G1 X112.484Y285.74
G1 X112.206Y286.364
G1 X111.874Y286.957
G1 X111.491Y287.515
G1 X111.06Y288.036
G1 X110.584Y288.517
G1 X110.066Y288.953
G1 X109.509Y289.342
G1 X108.915Y289.68
G1 X108.289Y289.965
G1 X107.632Y290.192
G1 X106.948Y290.359
G1 X106.24Y290.463
G1 X106.007Y291.181
G1 X105.709Y291.859
G1 X105.352Y292.496
G1 X104.938Y293.088
G1 X104.474Y293.633
G1 X103.962Y294.128
G1 X103.407Y294.572
G1 X102.815Y294.96
G1 X102.188Y295.291
G1 X101.532Y295.563
G1 X100.851Y295.771
G1 X100.15Y295.915
G1 X99.431Y295.991
G1 X98.701
G1 X97.964Y295.929
G1 X97.223Y295.786
G1 Y295.819
G1 X96.968Y296.644
G1 X96.653Y297.432
G1 X96.273Y298.179
G1 X95.833Y298.884
G1 X95.337Y299.543
G1 X94.788Y300.154
G1 X94.19Y300.713
G1 X93.547Y301.218
G1 X92.863Y301.666
G1 X92.143Y302.055
G1 X91.389Y302.38
G1 X90.606Y302.641
G1 X89.798Y302.833
G1 X88.968Y302.955
G1 X88.121Y303.002
G1 X87.261Y302.973
G1 X86.504Y302.884
G1 X85.765Y302.736
G1 X85.047Y302.533
G1 X84.352Y302.275
G1 X83.683Y301.966
G1 X83.043Y301.608
G1 X82.434Y301.202
G1 X81.858Y300.751
G1 X81.319Y300.257
G1 X80.819Y299.723
G1 X80.36Y299.15
G1 X79.945Y298.541
G1 X79.577Y297.898
G1 X79.258Y297.223
G1 X78.991Y296.519
G1 X78.779Y295.787
; Layer WorkSpace Pass 2 of 10
G1 X78.038Y295.93
G1 X77.3Y295.998
G1 X76.57
G1 X75.851Y295.917
G1 X75.149Y295.773
G1 X74.468Y295.565
G1 X73.812Y295.294
G1 X73.186Y294.963
G1 X72.593Y294.574
G1 X72.038Y294.13
G1 X71.527Y293.635
G1 X71.062Y293.089
G1 X70.649Y292.497
G1 X70.291Y291.86
G1 X69.994Y291.181
G1 X69.761Y290.463
G1 X69.053Y290.36
G1 X68.369Y290.193
G1 X67.712Y289.966
G1 X67.085Y289.681
G1 X66.491Y289.343
G1 X65.934Y288.954
G1 X65.416Y288.518
G1 X64.94Y288.037
G1 X64.509Y287.516
G1 X64.126Y286.958
G1 X63.794Y286.365
G1 X63.516Y285.741
G1 X63.294Y285.089
G1 X63.133Y284.413
G1 X63.034Y283.715
G1 X63Y283
G1 Y233
G1 X113
G1 Y283
G1 X112.966Y283.715
G1 X112.867Y284.412
G1 X112.705Y285.089
G1 X112.484Y285.74
G1 X112.206Y286.364
G1 X111.874Y286.957
G1 X111.491Y287.515
G1 X111.06Y288.036
G1 X110.584Y288.517
G1 X110.066Y288.953
G1 X109.509Y289.342
G1 X108.915Y289.68
G1 X108.289Y289.965
G1 X107.632Y290.192
G1 X106.948Y290.359
G1 X106.24Y290.463
G1 X106.007Y291.181
G1 X105.709Y291.859
G1 X105.352Y292.496
G1 X104.938Y293.088
G1 X104.474Y293.633
G1 X103.962Y294.128
G1 X103.407Y294.572
G1 X102.815Y294.96
G1 X102.188Y295.291
G1 X101.532Y295.563
G1 X100.851Y295.771
G1 X100.15Y295.915
G1 X99.431Y295.991
G1 X98.701
G1 X97.964Y295.929
G1 X97.223Y295.786
G1 Y295.819
G1 X96.968Y296.644
G1 X96.653Y297.432
G1 X96.273Y298.179
G1 X95.833Y298.884
G1 X95.337Y299.543
G1 X94.788Y300.154
G1 X94.19Y300.713
G1 X93.547Y301.218
G1 X92.863Y301.666
G1 X92.143Y302.055
G1 X91.389Y302.38
G1 X90.606Y302.641
G1 X89.798Y302.833
G1 X88.968Y302.955
G1 X88.121Y303.002
G1 X87.261Y302.973
G1 X86.504Y302.884
G1 X85.765Y302.736
G1 X85.047Y302.533
G1 X84.352Y302.275
G1 X83.683Y301.966
G1 X83.043Y301.608
G1 X82.434Y301.202
G1 X81.858Y300.751
G1 X81.319Y300.257
G1 X80.819Y299.723
G1 X80.36Y299.15
G1 X79.945Y298.541
G1 X79.577Y297.898
G1 X79.258Y297.223
G1 X78.991Y296.519
G1 X78.779Y295.787
; Layer WorkSpace Pass 3 of 10
G1 X78.038Y295.93
G1 X77.3Y295.998
G1 X76.57
G1 X75.851Y295.917
G1 X75.149Y295.773
G1 X74.468Y295.565
G1 X73.812Y295.294
G1 X73.186Y294.963
G1 X72.593Y294.574
G1 X72.038Y294.13
G1 X71.527Y293.635
G1 X71.062Y293.089
G1 X70.649Y292.497
G1 X70.291Y291.86
G1 X69.994Y291.181
G1 X69.761Y290.463
G1 X69.053Y290.36
G1 X68.369Y290.193
G1 X67.712Y289.966
G1 X67.085Y289.681
G1 X66.491Y289.343
G1 X65.934Y288.954
G1 X65.416Y288.518
G1 X64.94Y288.037
G1 X64.509Y287.516
G1 X64.126Y286.958
G1 X63.794Y286.365
G1 X63.516Y285.741
G1 X63.294Y285.089
G1 X63.133Y284.413
G1 X63.034Y283.715
G1 X63Y283
G1 Y233
G1 X113
G1 Y283
G1 X112.966Y283.715
G1 X112.867Y284.412
G1 X112.705Y285.089
G1 X112.484Y285.74
G1 X112.206Y286.364
G1 X111.874Y286.957
G1 X111.491Y287.515
G1 X111.06Y288.036
G1 X110.584Y288.517
G1 X110.066Y288.953
G1 X109.509Y289.342
G1 X108.915Y289.68
G1 X108.289Y289.965
G1 X107.632Y290.192
G1 X106.948Y290.359
G1 X106.24Y290.463
G1 X106.007Y291.181
G1 X105.709Y291.859
G1 X105.352Y292.496
G1 X104.938Y293.088
G1 X104.474Y293.633
G1 X103.962Y294.128
G1 X103.407Y294.572
G1 X102.815Y294.96
G1 X102.188Y295.291
G1 X101.532Y295.563
G1 X100.851Y295.771
G1 X100.15Y295.915
G1 X99.431Y295.991
G1 X98.701
G1 X97.964Y295.929
G1 X97.223Y295.786
G1 Y295.819
G1 X96.968Y296.644
G1 X96.653Y297.432
G1 X96.273Y298.179
G1 X95.833Y298.884
G1 X95.337Y299.543
G1 X94.788Y300.154
G1 X94.19Y300.713
G1 X93.547Y301.218
G1 X92.863Y301.666
G1 X92.143Y302.055
G1 X91.389Y302.38
G1 X90.606Y302.641
G1 X89.798Y302.833
G1 X88.968Y302.955
G1 X88.121Y303.002
G1 X87.261Y302.973
G1 X86.504Y302.884
G1 X85.765Y302.736
G1 X85.047Y302.533
G1 X84.352Y302.275
G1 X83.683Y301.966
G1 X83.043Y301.608
G1 X82.434Y301.202
G1 X81.858Y300.751
G1 X81.319Y300.257
G1 X80.819Y299.723
G1 X80.36Y299.15
G1 X79.945Y298.541
G1 X79.577Y297.898
G1 X79.258Y297.223
G1 X78.991Y296.519
G1 X78.779Y295.787
; Layer WorkSpace Pass 4 of 10
G1 X78.038Y295.93
G1 X77.3Y295.998
G1 X76.57
G1 X75.851Y295.917
G1 X75.149Y295.773
G1 X74.468Y295.565
G1 X73.812Y295.294
G1 X73.186Y294.963
G1 X72.593Y294.574
G1 X72.038Y294.13
G1 X71.527Y293.635
G1 X71.062Y293.089
G1 X70.649Y292.497
G1 X70.291Y291.86
G1 X69.994Y291.181
G1 X69.761Y290.463
G1 X69.053Y290.36
G1 X68.369Y290.193
G1 X67.712Y289.966
G1 X67.085Y289.681
G1 X66.491Y289.343
G1 X65.934Y288.954
G1 X65.416Y288.518
G1 X64.94Y288.037
G1 X64.509Y287.516
G1 X64.126Y286.958
G1 X63.794Y286.365
G1 X63.516Y285.741
G1 X63.294Y285.089
G1 X63.133Y284.413
G1 X63.034Y283.715
G1 X63Y283
G1 Y233
G1 X113
G1 Y283
G1 X112.966Y283.715
G1 X112.867Y284.412
G1 X112.705Y285.089
G1 X112.484Y285.74
G1 X112.206Y286.364
G1 X111.874Y286.957
G1 X111.491Y287.515
G1 X111.06Y288.036
G1 X110.584Y288.517
G1 X110.066Y288.953
G1 X109.509Y289.342
G1 X108.915Y289.68
G1 X108.289Y289.965
G1 X107.632Y290.192
G1 X106.948Y290.359
G1 X106.24Y290.463
G1 X106.007Y291.181
G1 X105.709Y291.859
G1 X105.352Y292.496
G1 X104.938Y293.088
G1 X104.474Y293.633
G1 X103.962Y294.128
G1 X103.407Y294.572
G1 X102.815Y294.96
G1 X102.188Y295.291
G1 X101.532Y295.563
G1 X100.851Y295.771
G1 X100.15Y295.915
G1 X99.431Y295.991
G1 X98.701
G1 X97.964Y295.929
G1 X97.223Y295.786
G1 Y295.819
G1 X96.968Y296.644
G1 X96.653Y297.432
G1 X96.273Y298.179
G1 X95.833Y298.884
G1 X95.337Y299.543
G1 X94.788Y300.154
G1 X94.19Y300.713
G1 X93.547Y301.218
G1 X92.863Y301.666
G1 X92.143Y302.055
G1 X91.389Y302.38
G1 X90.606Y302.641
G1 X89.798Y302.833
G1 X88.968Y302.955
G1 X88.121Y303.002
G1 X87.261Y302.973
G1 X86.504Y302.884
G1 X85.765Y302.736
G1 X85.047Y302.533
G1 X84.352Y302.275
G1 X83.683Y301.966
G1 X83.043Y301.608
G1 X82.434Y301.202
G1 X81.858Y300.751
G1 X81.319Y300.257
G1 X80.819Y299.723
G1 X80.36Y299.15
G1 X79.945Y298.541
G1 X79.577Y297.898
G1 X79.258Y297.223
G1 X78.991Y296.519
G1 X78.779Y295.787
; Layer WorkSpace Pass 5 of 10
G1 X78.038Y295.93
G1 X77.3Y295.998
G1 X76.57
G1 X75.851Y295.917
G1 X75.149Y295.773
G1 X74.468Y295.565
G1 X73.812Y295.294
G1 X73.186Y294.963
G1 X72.593Y294.574
G1 X72.038Y294.13
G1 X71.527Y293.635
G1 X71.062Y293.089
G1 X70.649Y292.497
G1 X70.291Y291.86
G1 X69.994Y291.181
G1 X69.761Y290.463
G1 X69.053Y290.36
G1 X68.369Y290.193
G1 X67.712Y289.966
G1 X67.085Y289.681
G1 X66.491Y289.343
G1 X65.934Y288.954
G1 X65.416Y288.518
G1 X64.94Y288.037
G1 X64.509Y287.516
G1 X64.126Y286.958
G1 X63.794Y286.365
G1 X63.516Y285.741
G1 X63.294Y285.089
G1 X63.133Y284.413
G1 X63.034Y283.715
G1 X63Y283
G1 Y233
G1 X113
G1 Y283
G1 X112.966Y283.715
G1 X112.867Y284.412
G1 X112.705Y285.089
G1 X112.484Y285.74
G1 X112.206Y286.364
G1 X111.874Y286.957
G1 X111.491Y287.515
G1 X111.06Y288.036
G1 X110.584Y288.517
G1 X110.066Y288.953
G1 X109.509Y289.342
G1 X108.915Y289.68
G1 X108.289Y289.965
G1 X107.632Y290.192
G1 X106.948Y290.359
G1 X106.24Y290.463
G1 X106.007Y291.181
G1 X105.709Y291.859
G1 X105.352Y292.496
G1 X104.938Y293.088
G1 X104.474Y293.633
G1 X103.962Y294.128
G1 X103.407Y294.572
G1 X102.815Y294.96
G1 X102.188Y295.291
G1 X101.532Y295.563
G1 X100.851Y295.771
G1 X100.15Y295.915
G1 X99.431Y295.991
G1 X98.701
G1 X97.964Y295.929
G1 X97.223Y295.786
G1 Y295.819
G1 X96.968Y296.644
G1 X96.653Y297.432
G1 X96.273Y298.179
G1 X95.833Y298.884
G1 X95.337Y299.543
G1 X94.788Y300.154
G1 X94.19Y300.713
G1 X93.547Y301.218
G1 X92.863Y301.666
G1 X92.143Y302.055
G1 X91.389Y302.38
G1 X90.606Y302.641
G1 X89.798Y302.833
G1 X88.968Y302.955
G1 X88.121Y303.002
G1 X87.261Y302.973
G1 X86.504Y302.884
G1 X85.765Y302.736
G1 X85.047Y302.533
G1 X84.352Y302.275
G1 X83.683Y301.966
G1 X83.043Y301.608
G1 X82.434Y301.202
G1 X81.858Y300.751
G1 X81.319Y300.257
G1 X80.819Y299.723
G1 X80.36Y299.15
G1 X79.945Y298.541
G1 X79.577Y297.898
G1 X79.258Y297.223
G1 X78.991Y296.519
G1 X78.779Y295.787
; Layer WorkSpace Pass 6 of 10
G1 X78.038Y295.93
G1 X77.3Y295.998
G1 X76.57
G1 X75.851Y295.917
G1 X75.149Y295.773
G1 X74.468Y295.565
G1 X73.812Y295.294
G1 X73.186Y294.963
G1 X72.593Y294.574
G1 X72.038Y294.13
G1 X71.527Y293.635
G1 X71.062Y293.089
G1 X70.649Y292.497
G1 X70.291Y291.86
G1 X69.994Y291.181
G1 X69.761Y290.463
G1 X69.053Y290.36
G1 X68.369Y290.193
G1 X67.712Y289.966
G1 X67.085Y289.681
G1 X66.491Y289.343
G1 X65.934Y288.954
G1 X65.416Y288.518
G1 X64.94Y288.037
G1 X64.509Y287.516
G1 X64.126Y286.958
G1 X63.794Y286.365
G1 X63.516Y285.741
G1 X63.294Y285.089
G1 X63.133Y284.413
G1 X63.034Y283.715
G1 X63Y283
G1 Y233
G1 X113
G1 Y283
G1 X112.966Y283.715
G1 X112.867Y284.412
G1 X112.705Y285.089
G1 X112.484Y285.74
G1 X112.206Y286.364
G1 X111.874Y286.957
G1 X111.491Y287.515
G1 X111.06Y288.036
G1 X110.584Y288.517
G1 X110.066Y288.953
G1 X109.509Y289.342
G1 X108.915Y289.68
G1 X108.289Y289.965
G1 X107.632Y290.192
G1 X106.948Y290.359
G1 X106.24Y290.463
G1 X106.007Y291.181
G1 X105.709Y291.859
G1 X105.352Y292.496
G1 X104.938Y293.088
G1 X104.474Y293.633
G1 X103.962Y294.128
G1 X103.407Y294.572
G1 X102.815Y294.96
G1 X102.188Y295.291
G1 X101.532Y295.563
G1 X100.851Y295.771
G1 X100.15Y295.915
G1 X99.431Y295.991
G1 X98.701
G1 X97.964Y295.929
G1 X97.223Y295.786
G1 Y295.819
G1 X96.968Y296.644
G1 X96.653Y297.432
G1 X96.273Y298.179
G1 X95.833Y298.884
G1 X95.337Y299.543
G1 X94.788Y300.154
G1 X94.19Y300.713
G1 X93.547Y301.218
G1 X92.863Y301.666
G1 X92.143Y302.055
G1 X91.389Y302.38
G1 X90.606Y302.641
G1 X89.798Y302.833
G1 X88.968Y302.955
G1 X88.121Y303.002
G1 X87.261Y302.973
G1 X86.504Y302.884
G1 X85.765Y302.736
G1 X85.047Y302.533
G1 X84.352Y302.275
G1 X83.683Y301.966
G1 X83.043Y301.608
G1 X82.434Y301.202
G1 X81.858Y300.751
G1 X81.319Y300.257
G1 X80.819Y299.723
G1 X80.36Y299.15
G1 X79.945Y298.541
G1 X79.577Y297.898
G1 X79.258Y297.223
G1 X78.991Y296.519
G1 X78.779Y295.787
; Layer WorkSpace Pass 7 of 10
G1 X78.038Y295.93
G1 X77.3Y295.998
G1 X76.57
G1 X75.851Y295.917
G1 X75.149Y295.773
G1 X74.468Y295.565
G1 X73.812Y295.294
G1 X73.186Y294.963
G1 X72.593Y294.574
G1 X72.038Y294.13
G1 X71.527Y293.635
G1 X71.062Y293.089
G1 X70.649Y292.497
G1 X70.291Y291.86
G1 X69.994Y291.181
G1 X69.761Y290.463
G1 X69.053Y290.36
G1 X68.369Y290.193
G1 X67.712Y289.966
G1 X67.085Y289.681
G1 X66.491Y289.343
G1 X65.934Y288.954
G1 X65.416Y288.518
G1 X64.94Y288.037
G1 X64.509Y287.516
G1 X64.126Y286.958
G1 X63.794Y286.365
G1 X63.516Y285.741
G1 X63.294Y285.089
G1 X63.133Y284.413
G1 X63.034Y283.715
G1 X63Y283
G1 Y233
G1 X113
G1 Y283
G1 X112.966Y283.715
G1 X112.867Y284.412
G1 X112.705Y285.089
G1 X112.484Y285.74
G1 X112.206Y286.364
G1 X111.874Y286.957
G1 X111.491Y287.515
G1 X111.06Y288.036
G1 X110.584Y288.517
G1 X110.066Y288.953
G1 X109.509Y289.342
G1 X108.915Y289.68
G1 X108.289Y289.965
G1 X107.632Y290.192
G1 X106.948Y290.359
G1 X106.24Y290.463
G1 X106.007Y291.181
G1 X105.709Y291.859
G1 X105.352Y292.496
G1 X104.938Y293.088
G1 X104.474Y293.633
G1 X103.962Y294.128
G1 X103.407Y294.572
G1 X102.815Y294.96
G1 X102.188Y295.291
G1 X101.532Y295.563
G1 X100.851Y295.771
G1 X100.15Y295.915
G1 X99.431Y295.991
G1 X98.701
G1 X97.964Y295.929
G1 X97.223Y295.786
G1 Y295.819
G1 X96.968Y296.644
G1 X96.653Y297.432
G1 X96.273Y298.179
G1 X95.833Y298.884
G1 X95.337Y299.543
G1 X94.788Y300.154
G1 X94.19Y300.713
G1 X93.547Y301.218
G1 X92.863Y301.666
G1 X92.143Y302.055
G1 X91.389Y302.38
G1 X90.606Y302.641
G1 X89.798Y302.833
G1 X88.968Y302.955
G1 X88.121Y303.002
G1 X87.261Y302.973
G1 X86.504Y302.884
G1 X85.765Y302.736
G1 X85.047Y302.533
G1 X84.352Y302.275
G1 X83.683Y301.966
G1 X83.043Y301.608
G1 X82.434Y301.202
G1 X81.858Y300.751
G1 X81.319Y300.257
G1 X80.819Y299.723
G1 X80.36Y299.15
G1 X79.945Y298.541
G1 X79.577Y297.898
G1 X79.258Y297.223
G1 X78.991Y296.519
G1 X78.779Y295.787
; Layer WorkSpace Pass 8 of 10
G1 X78.038Y295.93
G1 X77.3Y295.998
G1 X76.57
G1 X75.851Y295.917
G1 X75.149Y295.773
G1 X74.468Y295.565
G1 X73.812Y295.294
G1 X73.186Y294.963
G1 X72.593Y294.574
G1 X72.038Y294.13
G1 X71.527Y293.635
G1 X71.062Y293.089
G1 X70.649Y292.497
G1 X70.291Y291.86
G1 X69.994Y291.181
G1 X69.761Y290.463
G1 X69.053Y290.36
G1 X68.369Y290.193
G1 X67.712Y289.966
G1 X67.085Y289.681
G1 X66.491Y289.343
G1 X65.934Y288.954
G1 X65.416Y288.518
G1 X64.94Y288.037
G1 X64.509Y287.516
G1 X64.126Y286.958
G1 X63.794Y286.365
G1 X63.516Y285.741
G1 X63.294Y285.089
G1 X63.133Y284.413
G1 X63.034Y283.715
G1 X63Y283
G1 Y233
G1 X113
G1 Y283
G1 X112.966Y283.715
G1 X112.867Y284.412
G1 X112.705Y285.089
G1 X112.484Y285.74
G1 X112.206Y286.364
G1 X111.874Y286.957
G1 X111.491Y287.515
G1 X111.06Y288.036
G1 X110.584Y288.517
G1 X110.066Y288.953
G1 X109.509Y289.342
G1 X108.915Y289.68
G1 X108.289Y289.965
G1 X107.632Y290.192
G1 X106.948Y290.359
G1 X106.24Y290.463
G1 X106.007Y291.181
G1 X105.709Y291.859
G1 X105.352Y292.496
G1 X104.938Y293.088
G1 X104.474Y293.633
G1 X103.962Y294.128
G1 X103.407Y294.572
G1 X102.815Y294.96
G1 X102.188Y295.291
G1 X101.532Y295.563
G1 X100.851Y295.771
G1 X100.15Y295.915
G1 X99.431Y295.991
G1 X98.701
G1 X97.964Y295.929
G1 X97.223Y295.786
G1 Y295.819
G1 X96.968Y296.644
G1 X96.653Y297.432
G1 X96.273Y298.179
G1 X95.833Y298.884
G1 X95.337Y299.543
G1 X94.788Y300.154
G1 X94.19Y300.713
G1 X93.547Y301.218
G1 X92.863Y301.666
G1 X92.143Y302.055
G1 X91.389Y302.38
G1 X90.606Y302.641
G1 X89.798Y302.833
G1 X88.968Y302.955
G1 X88.121Y303.002
G1 X87.261Y302.973
G1 X86.504Y302.884
G1 X85.765Y302.736
G1 X85.047Y302.533
G1 X84.352Y302.275
G1 X83.683Y301.966
G1 X83.043Y301.608
G1 X82.434Y301.202
G1 X81.858Y300.751
G1 X81.319Y300.257
G1 X80.819Y299.723
G1 X80.36Y299.15
G1 X79.945Y298.541
G1 X79.577Y297.898
G1 X79.258Y297.223
G1 X78.991Y296.519
G1 X78.779Y295.787
; Layer WorkSpace Pass 9 of 10
G1 X78.038Y295.93
G1 X77.3Y295.998
G1 X76.57
G1 X75.851Y295.917
G1 X75.149Y295.773
G1 X74.468Y295.565
G1 X73.812Y295.294
G1 X73.186Y294.963
G1 X72.593Y294.574
G1 X72.038Y294.13
G1 X71.527Y293.635
G1 X71.062Y293.089
G1 X70.649Y292.497
G1 X70.291Y291.86
G1 X69.994Y291.181
G1 X69.761Y290.463
G1 X69.053Y290.36
G1 X68.369Y290.193
G1 X67.712Y289.966
G1 X67.085Y289.681
G1 X66.491Y289.343
G1 X65.934Y288.954
G1 X65.416Y288.518
G1 X64.94Y288.037
G1 X64.509Y287.516
G1 X64.126Y286.958
G1 X63.794Y286.365
G1 X63.516Y285.741
G1 X63.294Y285.089
G1 X63.133Y284.413
G1 X63.034Y283.715
G1 X63Y283
G1 Y233
G1 X113
G1 Y283
G1 X112.966Y283.715
G1 X112.867Y284.412
G1 X112.705Y285.089
G1 X112.484Y285.74
G1 X112.206Y286.364
G1 X111.874Y286.957
G1 X111.491Y287.515
G1 X111.06Y288.036
G1 X110.584Y288.517
G1 X110.066Y288.953
G1 X109.509Y289.342
G1 X108.915Y289.68
G1 X108.289Y289.965
G1 X107.632Y290.192
G1 X106.948Y290.359
G1 X106.24Y290.463
G1 X106.007Y291.181
G1 X105.709Y291.859
G1 X105.352Y292.496
G1 X104.938Y293.088
G1 X104.474Y293.633
G1 X103.962Y294.128
G1 X103.407Y294.572
G1 X102.815Y294.96
G1 X102.188Y295.291
G1 X101.532Y295.563
G1 X100.851Y295.771
G1 X100.15Y295.915
G1 X99.431Y295.991
G1 X98.701
G1 X97.964Y295.929
G1 X97.223Y295.786
G1 Y295.819
G1 X96.968Y296.644
G1 X96.653Y297.432
G1 X96.273Y298.179
G1 X95.833Y298.884
G1 X95.337Y299.543
G1 X94.788Y300.154
G1 X94.19Y300.713
G1 X93.547Y301.218
G1 X92.863Y301.666
G1 X92.143Y302.055
G1 X91.389Y302.38
G1 X90.606Y302.641
G1 X89.798Y302.833
G1 X88.968Y302.955
G1 X88.121Y303.002
G1 X87.261Y302.973
G1 X86.504Y302.884
G1 X85.765Y302.736
G1 X85.047Y302.533
G1 X84.352Y302.275
G1 X83.683Y301.966
G1 X83.043Y301.608
G1 X82.434Y301.202
G1 X81.858Y300.751
G1 X81.319Y300.257
G1 X80.819Y299.723
G1 X80.36Y299.15
G1 X79.945Y298.541
G1 X79.577Y297.898
G1 X79.258Y297.223
G1 X78.991Y296.519
G1 X78.779Y295.787
; Layer WorkSpace Pass 10 of 10
G1 X78.038Y295.93
G1 X77.3Y295.998
G1 X76.57
G1 X75.851Y295.917
G1 X75.149Y295.773
G1 X74.468Y295.565
G1 X73.812Y295.294
G1 X73.186Y294.963
G1 X72.593Y294.574
G1 X72.038Y294.13
G1 X71.527Y293.635
G1 X71.062Y293.089
G1 X70.649Y292.497
G1 X70.291Y291.86
G1 X69.994Y291.181
G1 X69.761Y290.463
G1 X69.053Y290.36
G1 X68.369Y290.193
G1 X67.712Y289.966
G1 X67.085Y289.681
G1 X66.491Y289.343
G1 X65.934Y288.954
G1 X65.416Y288.518
G1 X64.94Y288.037
G1 X64.509Y287.516
G1 X64.126Y286.958
G1 X63.794Y286.365
G1 X63.516Y285.741
G1 X63.294Y285.089
G1 X63.133Y284.413
G1 X63.034Y283.715
G1 X63Y283
G1 Y233
G1 X113
G1 Y283
G1 X112.966Y283.715
G1 X112.867Y284.412
G1 X112.705Y285.089
G1 X112.484Y285.74
G1 X112.206Y286.364
G1 X111.874Y286.957
G1 X111.491Y287.515
G1 X111.06Y288.036
G1 X110.584Y288.517
G1 X110.066Y288.953
G1 X109.509Y289.342
G1 X108.915Y289.68
G1 X108.289Y289.965
G1 X107.632Y290.192
G1 X106.948Y290.359
G1 X106.24Y290.463
G1 X106.007Y291.181
G1 X105.709Y291.859
G1 X105.352Y292.496
G1 X104.938Y293.088
G1 X104.474Y293.633
G1 X103.962Y294.128
G1 X103.407Y294.572
G1 X102.815Y294.96
G1 X102.188Y295.291
G1 X101.532Y295.563
G1 X100.851Y295.771
G1 X100.15Y295.915
G1 X99.431Y295.991
G1 X98.701
G1 X97.964Y295.929
G1 X97.223Y295.786
G1 Y295.819
G1 X96.968Y296.644
G1 X96.653Y297.432
G1 X96.273Y298.179
G1 X95.833Y298.884
G1 X95.337Y299.543
G1 X94.788Y300.154
G1 X94.19Y300.713
G1 X93.547Y301.218
G1 X92.863Y301.666
G1 X92.143Y302.055
G1 X91.389Y302.38
G1 X90.606Y302.641
G1 X89.798Y302.833
G1 X88.968Y302.955
G1 X88.121Y303.002
G1 X87.261Y302.973
G1 X86.504Y302.884
G1 X85.765Y302.736
G1 X85.047Y302.533
G1 X84.352Y302.275
G1 X83.683Y301.966
G1 X83.043Y301.608
G1 X82.434Y301.202
G1 X81.858Y300.751
G1 X81.319Y300.257
G1 X80.819Y299.723
G1 X80.36Y299.15
G1 X79.945Y298.541
G1 X79.577Y297.898
G1 X79.258Y297.223
G1 X78.991Y296.519
G1 X78.779Y295.787
G0 X136.026Y294.012
; Layer WorkSpace Pass 1 of 10
G1 X136.102Y294.508
G1 X136.225Y294.987
G1 X136.393Y295.447
G1 X136.604Y295.884
G1 X136.854Y296.296
G1 X137.142Y296.681
G1 X137.465Y297.036
G1 X137.82Y297.359
G1 X138.205Y297.646
G1 X138.617Y297.897
G1 X139.054Y298.107
G1 X139.513Y298.276
G1 X139.993Y298.399
G1 X140.489Y298.474
G1 X141Y298.5
G1 X141.511Y298.474
G1 X142.008Y298.399
G1 X142.487Y298.276
G1 X142.946Y298.107
G1 X143.384Y297.897
G1 X143.796Y297.646
G1 X144.181Y297.359
G1 X144.536Y297.036
G1 X144.858Y296.681
G1 X145.146Y296.296
G1 X145.397Y295.884
G1 X145.607Y295.447
G1 X145.775Y294.987
G1 X145.899Y294.508
G1 X145.974Y294.012
G1 X146Y293.5
G1 X145.974Y292.989
G1 X145.899Y292.493
G1 X145.775Y292.013
G1 X145.607Y291.554
G1 X145.397Y291.117
G1 X145.146Y290.705
G1 X144.858Y290.32
G1 X144.536Y289.965
G1 X144.181Y289.642
G1 X143.796Y289.354
G1 X143.384Y289.104
G1 X142.946Y288.893
G1 X142.487Y288.725
G1 X142.008Y288.602
G1 X141.511Y288.526
G1 X141Y288.5
G1 X140.489Y288.526
G1 X139.993Y288.602
G1 X139.513Y288.725
G1 X139.054Y288.893
G1 X138.617Y289.104
G1 X138.205Y289.354
G1 X137.82Y289.642
G1 X137.465Y289.965
G1 X137.142Y290.32
G1 X136.854Y290.705
G1 X136.604Y291.117
G1 X136.393Y291.554
G1 X136.225Y292.013
G1 X136.102Y292.493
G1 X136.026Y292.989
G1 X136Y293.5
G1 X136.026Y294.012
; Layer WorkSpace Pass 2 of 10
G1 X136.102Y294.508
G1 X136.225Y294.987
G1 X136.393Y295.447
G1 X136.604Y295.884
G1 X136.854Y296.296
G1 X137.142Y296.681
G1 X137.465Y297.036
G1 X137.82Y297.359
G1 X138.205Y297.646
G1 X138.617Y297.897
G1 X139.054Y298.107
G1 X139.513Y298.276
G1 X139.993Y298.399
G1 X140.489Y298.474
G1 X141Y298.5
G1 X141.511Y298.474
G1 X142.008Y298.399
G1 X142.487Y298.276
G1 X142.946Y298.107
G1 X143.384Y297.897
G1 X143.796Y297.646
G1 X144.181Y297.359
G1 X144.536Y297.036
G1 X144.858Y296.681
G1 X145.146Y296.296
G1 X145.397Y295.884
G1 X145.607Y295.447
G1 X145.775Y294.987
G1 X145.899Y294.508
G1 X145.974Y294.012
G1 X146Y293.5
G1 X145.974Y292.989
G1 X145.899Y292.493
G1 X145.775Y292.013
G1 X145.607Y291.554
G1 X145.397Y291.117
G1 X145.146Y290.705
G1 X144.858Y290.32
G1 X144.536Y289.965
G1 X144.181Y289.642
G1 X143.796Y289.354
G1 X143.384Y289.104
G1 X142.946Y288.893
G1 X142.487Y288.725
G1 X142.008Y288.602
G1 X141.511Y288.526
G1 X141Y288.5
G1 X140.489Y288.526
G1 X139.993Y288.602
G1 X139.513Y288.725
G1 X139.054Y288.893
G1 X138.617Y289.104
G1 X138.205Y289.354
G1 X137.82Y289.642
G1 X137.465Y289.965
G1 X137.142Y290.32
G1 X136.854Y290.705
G1 X136.604Y291.117
G1 X136.393Y291.554
G1 X136.225Y292.013
G1 X136.102Y292.493
G1 X136.026Y292.989
G1 X136Y293.5
G1 X136.026Y294.012
; Layer WorkSpace Pass 3 of 10
G1 X136.102Y294.508
G1 X136.225Y294.987
G1 X136.393Y295.447
G1 X136.604Y295.884
G1 X136.854Y296.296
G1 X137.142Y296.681
G1 X137.465Y297.036
G1 X137.82Y297.359
G1 X138.205Y297.646
G1 X138.617Y297.897
G1 X139.054Y298.107
G1 X139.513Y298.276
G1 X139.993Y298.399
G1 X140.489Y298.474
G1 X141Y298.5
G1 X141.511Y298.474
G1 X142.008Y298.399
G1 X142.487Y298.276
G1 X142.946Y298.107
G1 X143.384Y297.897
G1 X143.796Y297.646
G1 X144.181Y297.359
G1 X144.536Y297.036
G1 X144.858Y296.681
G1 X145.146Y296.296
G1 X145.397Y295.884
G1 X145.607Y295.447
G1 X145.775Y294.987
G1 X145.899Y294.508
G1 X145.974Y294.012
G1 X146Y293.5
G1 X145.974Y292.989
G1 X145.899Y292.493
G1 X145.775Y292.013
G1 X145.607Y291.554
G1 X145.397Y291.117
G1 X145.146Y290.705
G1 X144.858Y290.32
G1 X144.536Y289.965
G1 X144.181Y289.642
G1 X143.796Y289.354
G1 X143.384Y289.104
G1 X142.946Y288.893
G1 X142.487Y288.725
G1 X142.008Y288.602
G1 X141.511Y288.526
G1 X141Y288.5
G1 X140.489Y288.526
G1 X139.993Y288.602
G1 X139.513Y288.725
G1 X139.054Y288.893
G1 X138.617Y289.104
G1 X138.205Y289.354
G1 X137.82Y289.642
G1 X137.465Y289.965
G1 X137.142Y290.32
G1 X136.854Y290.705
G1 X136.604Y291.117
G1 X136.393Y291.554
G1 X136.225Y292.013
G1 X136.102Y292.493
G1 X136.026Y292.989
G1 X136Y293.5
G1 X136.026Y294.012
; Layer WorkSpace Pass 4 of 10
G1 X136.102Y294.508
G1 X136.225Y294.987
G1 X136.393Y295.447
G1 X136.604Y295.884
G1 X136.854Y296.296
G1 X137.142Y296.681
G1 X137.465Y297.036
G1 X137.82Y297.359
G1 X138.205Y297.646
G1 X138.617Y297.897
G1 X139.054Y298.107
G1 X139.513Y298.276
G1 X139.993Y298.399
G1 X140.489Y298.474
G1 X141Y298.5
G1 X141.511Y298.474
G1 X142.008Y298.399
G1 X142.487Y298.276
G1 X142.946Y298.107
G1 X143.384Y297.897
G1 X143.796Y297.646
G1 X144.181Y297.359
G1 X144.536Y297.036
G1 X144.858Y296.681
G1 X145.146Y296.296
G1 X145.397Y295.884
G1 X145.607Y295.447
G1 X145.775Y294.987
G1 X145.899Y294.508
G1 X145.974Y294.012
G1 X146Y293.5
G1 X145.974Y292.989
G1 X145.899Y292.493
G1 X145.775Y292.013
G1 X145.607Y291.554
G1 X145.397Y291.117
G1 X145.146Y290.705
G1 X144.858Y290.32
G1 X144.536Y289.965
G1 X144.181Y289.642
G1 X143.796Y289.354
G1 X143.384Y289.104
G1 X142.946Y288.893
G1 X142.487Y288.725
G1 X142.008Y288.602
G1 X141.511Y288.526
G1 X141Y288.5
G1 X140.489Y288.526
G1 X139.993Y288.602
G1 X139.513Y288.725
G1 X139.054Y288.893
G1 X138.617Y289.104
G1 X138.205Y289.354
G1 X137.82Y289.642
G1 X137.465Y289.965
G1 X137.142Y290.32
G1 X136.854Y290.705
G1 X136.604Y291.117
G1 X136.393Y291.554
G1 X136.225Y292.013
G1 X136.102Y292.493
G1 X136.026Y292.989
G1 X136Y293.5
G1 X136.026Y294.012
; Layer WorkSpace Pass 5 of 10
G1 X136.102Y294.508
G1 X136.225Y294.987
G1 X136.393Y295.447
G1 X136.604Y295.884
G1 X136.854Y296.296
G1 X137.142Y296.681
G1 X137.465Y297.036
G1 X137.82Y297.359
G1 X138.205Y297.646
G1 X138.617Y297.897
G1 X139.054Y298.107
G1 X139.513Y298.276
G1 X139.993Y298.399
G1 X140.489Y298.474
G1 X141Y298.5
G1 X141.511Y298.474
G1 X142.008Y298.399
G1 X142.487Y298.276
G1 X142.946Y298.107
G1 X143.384Y297.897
G1 X143.796Y297.646
G1 X144.181Y297.359
G1 X144.536Y297.036
G1 X144.858Y296.681
G1 X145.146Y296.296
G1 X145.397Y295.884
G1 X145.607Y295.447
G1 X145.775Y294.987
G1 X145.899Y294.508
G1 X145.974Y294.012
G1 X146Y293.5
G1 X145.974Y292.989
G1 X145.899Y292.493
G1 X145.775Y292.013
G1 X145.607Y291.554
G1 X145.397Y291.117
G1 X145.146Y290.705
G1 X144.858Y290.32
G1 X144.536Y289.965
G1 X144.181Y289.642
G1 X143.796Y289.354
G1 X143.384Y289.104
G1 X142.946Y288.893
G1 X142.487Y288.725
G1 X142.008Y288.602
G1 X141.511Y288.526
G1 X141Y288.5
G1 X140.489Y288.526
G1 X139.993Y288.602
G1 X139.513Y288.725
G1 X139.054Y288.893
G1 X138.617Y289.104
G1 X138.205Y289.354
G1 X137.82Y289.642
G1 X137.465Y289.965
G1 X137.142Y290.32
G1 X136.854Y290.705
G1 X136.604Y291.117
G1 X136.393Y291.554
G1 X136.225Y292.013
G1 X136.102Y292.493
G1 X136.026Y292.989
G1 X136Y293.5
G1 X136.026Y294.012
; Layer WorkSpace Pass 6 of 10
G1 X136.102Y294.508
G1 X136.225Y294.987
G1 X136.393Y295.447
G1 X136.604Y295.884
G1 X136.854Y296.296
G1 X137.142Y296.681
G1 X137.465Y297.036
G1 X137.82Y297.359
G1 X138.205Y297.646
G1 X138.617Y297.897
G1 X139.054Y298.107
G1 X139.513Y298.276
G1 X139.993Y298.399
G1 X140.489Y298.474
G1 X141Y298.5
G1 X141.511Y298.474
G1 X142.008Y298.399
G1 X142.487Y298.276
G1 X142.946Y298.107
G1 X143.384Y297.897
G1 X143.796Y297.646
G1 X144.181Y297.359
G1 X144.536Y297.036
G1 X144.858Y296.681
G1 X145.146Y296.296
G1 X145.397Y295.884
G1 X145.607Y295.447
G1 X145.775Y294.987
G1 X145.899Y294.508
G1 X145.974Y294.012
G1 X146Y293.5
G1 X145.974Y292.989
G1 X145.899Y292.493
G1 X145.775Y292.013
G1 X145.607Y291.554
G1 X145.397Y291.117
G1 X145.146Y290.705
G1 X144.858Y290.32
G1 X144.536Y289.965
G1 X144.181Y289.642
G1 X143.796Y289.354
G1 X143.384Y289.104
G1 X142.946Y288.893
G1 X142.487Y288.725
G1 X142.008Y288.602
G1 X141.511Y288.526
G1 X141Y288.5
G1 X140.489Y288.526
G1 X139.993Y288.602
G1 X139.513Y288.725
G1 X139.054Y288.893
G1 X138.617Y289.104
G1 X138.205Y289.354
G1 X137.82Y289.642
G1 X137.465Y289.965
G1 X137.142Y290.32
G1 X136.854Y290.705
G1 X136.604Y291.117
G1 X136.393Y291.554
G1 X136.225Y292.013
G1 X136.102Y292.493
G1 X136.026Y292.989
G1 X136Y293.5
G1 X136.026Y294.012
; Layer WorkSpace Pass 7 of 10
G1 X136.102Y294.508
G1 X136.225Y294.987
G1 X136.393Y295.447
G1 X136.604Y295.884
G1 X136.854Y296.296
G1 X137.142Y296.681
G1 X137.465Y297.036
G1 X137.82Y297.359
G1 X138.205Y297.646
G1 X138.617Y297.897
G1 X139.054Y298.107
G1 X139.513Y298.276
G1 X139.993Y298.399
G1 X140.489Y298.474
G1 X141Y298.5
G1 X141.511Y298.474
G1 X142.008Y298.399
G1 X142.487Y298.276
G1 X142.946Y298.107
G1 X143.384Y297.897
G1 X143.796Y297.646
G1 X144.181Y297.359
G1 X144.536Y297.036
G1 X144.858Y296.681
G1 X145.146Y296.296
G1 X145.397Y295.884
G1 X145.607Y295.447
G1 X145.775Y294.987
G1 X145.899Y294.508
G1 X145.974Y294.012
G1 X146Y293.5
G1 X145.974Y292.989
G1 X145.899Y292.493
G1 X145.775Y292.013
G1 X145.607Y291.554
G1 X145.397Y291.117
G1 X145.146Y290.705
G1 X144.858Y290.32
G1 X144.536Y289.965
G1 X144.181Y289.642
G1 X143.796Y289.354
G1 X143.384Y289.104
G1 X142.946Y288.893
G1 X142.487Y288.725
G1 X142.008Y288.602
G1 X141.511Y288.526
G1 X141Y288.5
G1 X140.489Y288.526
G1 X139.993Y288.602
G1 X139.513Y288.725
G1 X139.054Y288.893
G1 X138.617Y289.104
G1 X138.205Y289.354
G1 X137.82Y289.642
G1 X137.465Y289.965
G1 X137.142Y290.32
G1 X136.854Y290.705
G1 X136.604Y291.117
G1 X136.393Y291.554
G1 X136.225Y292.013
G1 X136.102Y292.493
G1 X136.026Y292.989
G1 X136Y293.5
G1 X136.026Y294.012
; Layer WorkSpace Pass 8 of 10
G1 X136.102Y294.508
G1 X136.225Y294.987
G1 X136.393Y295.447
G1 X136.604Y295.884
G1 X136.854Y296.296
G1 X137.142Y296.681
G1 X137.465Y297.036
G1 X137.82Y297.359
G1 X138.205Y297.646
G1 X138.617Y297.897
G1 X139.054Y298.107
G1 X139.513Y298.276
G1 X139.993Y298.399
G1 X140.489Y298.474
G1 X141Y298.5
G1 X141.511Y298.474
G1 X142.008Y298.399
G1 X142.487Y298.276
G1 X142.946Y298.107
G1 X143.384Y297.897
G1 X143.796Y297.646
G1 X144.181Y297.359
G1 X144.536Y297.036
G1 X144.858Y296.681
G1 X145.146Y296.296
G1 X145.397Y295.884
G1 X145.607Y295.447
G1 X145.775Y294.987
G1 X145.899Y294.508
G1 X145.974Y294.012
G1 X146Y293.5
G1 X145.974Y292.989
G1 X145.899Y292.493
G1 X145.775Y292.013
G1 X145.607Y291.554
G1 X145.397Y291.117
G1 X145.146Y290.705
G1 X144.858Y290.32
G1 X144.536Y289.965
G1 X144.181Y289.642
G1 X143.796Y289.354
G1 X143.384Y289.104
G1 X142.946Y288.893
G1 X142.487Y288.725
G1 X142.008Y288.602
G1 X141.511Y288.526
G1 X141Y288.5
G1 X140.489Y288.526
G1 X139.993Y288.602
G1 X139.513Y288.725
G1 X139.054Y288.893
G1 X138.617Y289.104
G1 X138.205Y289.354
G1 X137.82Y289.642
G1 X137.465Y289.965
G1 X137.142Y290.32
G1 X136.854Y290.705
G1 X136.604Y291.117
G1 X136.393Y291.554
G1 X136.225Y292.013
G1 X136.102Y292.493
G1 X136.026Y292.989
G1 X136Y293.5
G1 X136.026Y294.012
; Layer WorkSpace Pass 9 of 10
G1 X136.102Y294.508
G1 X136.225Y294.987
G1 X136.393Y295.447
G1 X136.604Y295.884
G1 X136.854Y296.296
G1 X137.142Y296.681
G1 X137.465Y297.036
G1 X137.82Y297.359
G1 X138.205Y297.646
G1 X138.617Y297.897
G1 X139.054Y298.107
G1 X139.513Y298.276
G1 X139.993Y298.399
G1 X140.489Y298.474
G1 X141Y298.5
G1 X141.511Y298.474
G1 X142.008Y298.399
G1 X142.487Y298.276
G1 X142.946Y298.107
G1 X143.384Y297.897
G1 X143.796Y297.646
G1 X144.181Y297.359
G1 X144.536Y297.036
G1 X144.858Y296.681
G1 X145.146Y296.296
G1 X145.397Y295.884
G1 X145.607Y295.447
G1 X145.775Y294.987
G1 X145.899Y294.508
G1 X145.974Y294.012
G1 X146Y293.5
G1 X145.974Y292.989
G1 X145.899Y292.493
G1 X145.775Y292.013
G1 X145.607Y291.554
G1 X145.397Y291.117
G1 X145.146Y290.705
G1 X144.858Y290.32
G1 X144.536Y289.965
G1 X144.181Y289.642
G1 X143.796Y289.354
G1 X143.384Y289.104
G1 X142.946Y288.893
G1 X142.487Y288.725
G1 X142.008Y288.602
G1 X141.511Y288.526
G1 X141Y288.5
G1 X140.489Y288.526
G1 X139.993Y288.602
G1 X139.513Y288.725
G1 X139.054Y288.893
G1 X138.617Y289.104
G1 X138.205Y289.354
G1 X137.82Y289.642
G1 X137.465Y289.965
G1 X137.142Y290.32
G1 X136.854Y290.705
G1 X136.604Y291.117
G1 X136.393Y291.554
G1 X136.225Y292.013
G1 X136.102Y292.493
G1 X136.026Y292.989
G1 X136Y293.5
G1 X136.026Y294.012
; Layer WorkSpace Pass 10 of 10
G1 X136.102Y294.508
G1 X136.225Y294.987
G1 X136.393Y295.447
G1 X136.604Y295.884
G1 X136.854Y296.296
G1 X137.142Y296.681
G1 X137.465Y297.036
G1 X137.82Y297.359
G1 X138.205Y297.646
G1 X138.617Y297.897
G1 X139.054Y298.107
G1 X139.513Y298.276
G1 X139.993Y298.399
G1 X140.489Y298.474
G1 X141Y298.5
G1 X141.511Y298.474
G1 X142.008Y298.399
G1 X142.487Y298.276
G1 X142.946Y298.107
G1 X143.384Y297.897
G1 X143.796Y297.646
G1 X144.181Y297.359
G1 X144.536Y297.036
G1 X144.858Y296.681
G1 X145.146Y296.296
G1 X145.397Y295.884
G1 X145.607Y295.447
G1 X145.775Y294.987
G1 X145.899Y294.508
G1 X145.974Y294.012
G1 X146Y293.5
G1 X145.974Y292.989
G1 X145.899Y292.493
G1 X145.775Y292.013
G1 X145.607Y291.554
G1 X145.397Y291.117
G1 X145.146Y290.705
G1 X144.858Y290.32
G1 X144.536Y289.965
G1 X144.181Y289.642
G1 X143.796Y289.354
G1 X143.384Y289.104
G1 X142.946Y288.893
G1 X142.487Y288.725
G1 X142.008Y288.602
G1 X141.511Y288.526
G1 X141Y288.5
G1 X140.489Y288.526
G1 X139.993Y288.602
G1 X139.513Y288.725
G1 X139.054Y288.893
G1 X138.617Y289.104
G1 X138.205Y289.354
G1 X137.82Y289.642
G1 X137.465Y289.965
G1 X137.142Y290.32
G1 X136.854Y290.705
G1 X136.604Y291.117
G1 X136.393Y291.554
G1 X136.225Y292.013
G1 X136.102Y292.493
G1 X136.026Y292.989
G1 X136Y293.5
G1 X136.026Y294.012
G0 X131.779Y295.787
; Layer WorkSpace Pass 1 of 10
G1 X131.038Y295.93
G1 X130.3Y295.998
G1 X129.57
G1 X128.851Y295.917
G1 X128.149Y295.773
G1 X127.468Y295.565
G1 X126.812Y295.294
G1 X126.186Y294.963
G1 X125.593Y294.574
G1 X125.038Y294.13
G1 X124.527Y293.635
G1 X124.062Y293.089
G1 X123.649Y292.497
G1 X123.291Y291.86
G1 X122.994Y291.181
G1 X122.761Y290.463
G1 X122.053Y290.36
G1 X121.369Y290.193
G1 X120.712Y289.966
G1 X120.085Y289.681
G1 X119.491Y289.343
G1 X118.934Y288.954
G1 X118.416Y288.518
G1 X117.94Y288.037
G1 X117.509Y287.516
G1 X117.126Y286.958
G1 X116.794Y286.365
G1 X116.516Y285.741
G1 X116.294Y285.089
G1 X116.133Y284.413
G1 X116.034Y283.715
G1 X116Y283
G1 Y233
G1 X166
G1 Y283
G1 X165.966Y283.715
G1 X165.867Y284.412
G1 X165.705Y285.089
G1 X165.484Y285.74
G1 X165.206Y286.364
G1 X164.874Y286.957
G1 X164.491Y287.515
G1 X164.06Y288.036
G1 X163.584Y288.517
G1 X163.066Y288.953
G1 X162.509Y289.342
G1 X161.915Y289.68
G1 X161.289Y289.965
G1 X160.632Y290.192
G1 X159.948Y290.359
G1 X159.24Y290.463
G1 X159.007Y291.181
G1 X158.709Y291.859
G1 X158.352Y292.496
G1 X157.938Y293.088
G1 X157.474Y293.633
G1 X156.962Y294.128
G1 X156.407Y294.572
G1 X155.815Y294.96
G1 X155.188Y295.291
G1 X154.532Y295.563
G1 X153.851Y295.771
G1 X153.15Y295.915
G1 X152.431Y295.991
G1 X151.701
G1 X150.964Y295.929
G1 X150.223Y295.786
G1 Y295.819
G1 X149.968Y296.644
G1 X149.653Y297.432
G1 X149.273Y298.179
G1 X148.833Y298.884
G1 X148.337Y299.543
G1 X147.788Y300.154
G1 X147.19Y300.713
G1 X146.547Y301.218
G1 X145.863Y301.666
G1 X145.143Y302.055
G1 X144.389Y302.38
G1 X143.606Y302.641
G1 X142.798Y302.833
G1 X141.968Y302.955
G1 X141.121Y303.002
G1 X140.261Y302.973
G1 X139.504Y302.884
G1 X138.765Y302.736
G1 X138.047Y302.533
G1 X137.352Y302.275
G1 X136.683Y301.966
G1 X136.043Y301.608
G1 X135.434Y301.202
G1 X134.858Y300.751
G1 X134.319Y300.257
G1 X133.819Y299.723
G1 X133.36Y299.15
G1 X132.945Y298.541
G1 X132.577Y297.898
G1 X132.258Y297.223
G1 X131.991Y296.519
G1 X131.779Y295.787
; Layer WorkSpace Pass 2 of 10
G1 X131.038Y295.93
G1 X130.3Y295.998
G1 X129.57
G1 X128.851Y295.917
G1 X128.149Y295.773
G1 X127.468Y295.565
G1 X126.812Y295.294
G1 X126.186Y294.963
G1 X125.593Y294.574
G1 X125.038Y294.13
G1 X124.527Y293.635
G1 X124.062Y293.089
G1 X123.649Y292.497
G1 X123.291Y291.86
G1 X122.994Y291.181
G1 X122.761Y290.463
G1 X122.053Y290.36
G1 X121.369Y290.193
G1 X120.712Y289.966
G1 X120.085Y289.681
G1 X119.491Y289.343
G1 X118.934Y288.954
G1 X118.416Y288.518
G1 X117.94Y288.037
G1 X117.509Y287.516
G1 X117.126Y286.958
G1 X116.794Y286.365
G1 X116.516Y285.741
G1 X116.294Y285.089
G1 X116.133Y284.413
G1 X116.034Y283.715
G1 X116Y283
G1 Y233
G1 X166
G1 Y283
G1 X165.966Y283.715
G1 X165.867Y284.412
G1 X165.705Y285.089
G1 X165.484Y285.74
G1 X165.206Y286.364
G1 X164.874Y286.957
G1 X164.491Y287.515
G1 X164.06Y288.036
G1 X163.584Y288.517
G1 X163.066Y288.953
G1 X162.509Y289.342
G1 X161.915Y289.68
G1 X161.289Y289.965
G1 X160.632Y290.192
G1 X159.948Y290.359
G1 X159.24Y290.463
G1 X159.007Y291.181
G1 X158.709Y291.859
G1 X158.352Y292.496
G1 X157.938Y293.088
G1 X157.474Y293.633
G1 X156.962Y294.128
G1 X156.407Y294.572
G1 X155.815Y294.96
G1 X155.188Y295.291
G1 X154.532Y295.563
G1 X153.851Y295.771
G1 X153.15Y295.915
G1 X152.431Y295.991
G1 X151.701
G1 X150.964Y295.929
G1 X150.223Y295.786
G1 Y295.819
G1 X149.968Y296.644
G1 X149.653Y297.432
G1 X149.273Y298.179
G1 X148.833Y298.884
G1 X148.337Y299.543
G1 X147.788Y300.154
G1 X147.19Y300.713
G1 X146.547Y301.218
G1 X145.863Y301.666
G1 X145.143Y302.055
G1 X144.389Y302.38
G1 X143.606Y302.641
G1 X142.798Y302.833
G1 X141.968Y302.955
G1 X141.121Y303.002
G1 X140.261Y302.973
G1 X139.504Y302.884
G1 X138.765Y302.736
G1 X138.047Y302.533
G1 X137.352Y302.275
G1 X136.683Y301.966
G1 X136.043Y301.608
G1 X135.434Y301.202
G1 X134.858Y300.751
G1 X134.319Y300.257
G1 X133.819Y299.723
G1 X133.36Y299.15
G1 X132.945Y298.541
G1 X132.577Y297.898
G1 X132.258Y297.223
G1 X131.991Y296.519
G1 X131.779Y295.787
; Layer WorkSpace Pass 3 of 10
G1 X131.038Y295.93
G1 X130.3Y295.998
G1 X129.57
G1 X128.851Y295.917
G1 X128.149Y295.773
G1 X127.468Y295.565
G1 X126.812Y295.294
G1 X126.186Y294.963
G1 X125.593Y294.574
G1 X125.038Y294.13
G1 X124.527Y293.635
G1 X124.062Y293.089
G1 X123.649Y292.497
G1 X123.291Y291.86
G1 X122.994Y291.181
G1 X122.761Y290.463
G1 X122.053Y290.36
G1 X121.369Y290.193
G1 X120.712Y289.966
G1 X120.085Y289.681
G1 X119.491Y289.343
G1 X118.934Y288.954
G1 X118.416Y288.518
G1 X117.94Y288.037
G1 X117.509Y287.516
G1 X117.126Y286.958
G1 X116.794Y286.365
G1 X116.516Y285.741
G1 X116.294Y285.089
G1 X116.133Y284.413
G1 X116.034Y283.715
G1 X116Y283
G1 Y233
G1 X166
G1 Y283
G1 X165.966Y283.715
G1 X165.867Y284.412
G1 X165.705Y285.089
G1 X165.484Y285.74
G1 X165.206Y286.364
G1 X164.874Y286.957
G1 X164.491Y287.515
G1 X164.06Y288.036
G1 X163.584Y288.517
G1 X163.066Y288.953
G1 X162.509Y289.342
G1 X161.915Y289.68
G1 X161.289Y289.965
G1 X160.632Y290.192
G1 X159.948Y290.359
G1 X159.24Y290.463
G1 X159.007Y291.181
G1 X158.709Y291.859
G1 X158.352Y292.496
G1 X157.938Y293.088
G1 X157.474Y293.633
G1 X156.962Y294.128
G1 X156.407Y294.572
G1 X155.815Y294.96
G1 X155.188Y295.291
G1 X154.532Y295.563
G1 X153.851Y295.771
G1 X153.15Y295.915
G1 X152.431Y295.991
G1 X151.701
G1 X150.964Y295.929
G1 X150.223Y295.786
G1 Y295.819
G1 X149.968Y296.644
G1 X149.653Y297.432
G1 X149.273Y298.179
G1 X148.833Y298.884
G1 X148.337Y299.543
G1 X147.788Y300.154
G1 X147.19Y300.713
G1 X146.547Y301.218
G1 X145.863Y301.666
G1 X145.143Y302.055
G1 X144.389Y302.38
G1 X143.606Y302.641
G1 X142.798Y302.833
G1 X141.968Y302.955
G1 X141.121Y303.002
G1 X140.261Y302.973
G1 X139.504Y302.884
G1 X138.765Y302.736
G1 X138.047Y302.533
G1 X137.352Y302.275
G1 X136.683Y301.966
G1 X136.043Y301.608
G1 X135.434Y301.202
G1 X134.858Y300.751
G1 X134.319Y300.257
G1 X133.819Y299.723
G1 X133.36Y299.15
G1 X132.945Y298.541
G1 X132.577Y297.898
G1 X132.258Y297.223
G1 X131.991Y296.519
G1 X131.779Y295.787
; Layer WorkSpace Pass 4 of 10
G1 X131.038Y295.93
G1 X130.3Y295.998
G1 X129.57
G1 X128.851Y295.917
G1 X128.149Y295.773
G1 X127.468Y295.565
G1 X126.812Y295.294
G1 X126.186Y294.963
G1 X125.593Y294.574
G1 X125.038Y294.13
G1 X124.527Y293.635
G1 X124.062Y293.089
G1 X123.649Y292.497
G1 X123.291Y291.86
G1 X122.994Y291.181
G1 X122.761Y290.463
G1 X122.053Y290.36
G1 X121.369Y290.193
G1 X120.712Y289.966
G1 X120.085Y289.681
G1 X119.491Y289.343
G1 X118.934Y288.954
G1 X118.416Y288.518
G1 X117.94Y288.037
G1 X117.509Y287.516
G1 X117.126Y286.958
G1 X116.794Y286.365
G1 X116.516Y285.741
G1 X116.294Y285.089
G1 X116.133Y284.413
G1 X116.034Y283.715
G1 X116Y283
G1 Y233
G1 X166
G1 Y283
G1 X165.966Y283.715
G1 X165.867Y284.412
G1 X165.705Y285.089
G1 X165.484Y285.74
G1 X165.206Y286.364
G1 X164.874Y286.957
G1 X164.491Y287.515
G1 X164.06Y288.036
G1 X163.584Y288.517
G1 X163.066Y288.953
G1 X162.509Y289.342
G1 X161.915Y289.68
G1 X161.289Y289.965
G1 X160.632Y290.192
G1 X159.948Y290.359
G1 X159.24Y290.463
G1 X159.007Y291.181
G1 X158.709Y291.859
G1 X158.352Y292.496
G1 X157.938Y293.088
G1 X157.474Y293.633
G1 X156.962Y294.128
G1 X156.407Y294.572
G1 X155.815Y294.96
G1 X155.188Y295.291
G1 X154.532Y295.563
G1 X153.851Y295.771
G1 X153.15Y295.915
G1 X152.431Y295.991
G1 X151.701
G1 X150.964Y295.929
G1 X150.223Y295.786
G1 Y295.819
G1 X149.968Y296.644
G1 X149.653Y297.432
G1 X149.273Y298.179
G1 X148.833Y298.884
G1 X148.337Y299.543
G1 X147.788Y300.154
G1 X147.19Y300.713
G1 X146.547Y301.218
G1 X145.863Y301.666
G1 X145.143Y302.055
G1 X144.389Y302.38
G1 X143.606Y302.641
G1 X142.798Y302.833
G1 X141.968Y302.955
G1 X141.121Y303.002
G1 X140.261Y302.973
G1 X139.504Y302.884
G1 X138.765Y302.736
G1 X138.047Y302.533
G1 X137.352Y302.275
G1 X136.683Y301.966
G1 X136.043Y301.608
G1 X135.434Y301.202
G1 X134.858Y300.751
G1 X134.319Y300.257
G1 X133.819Y299.723
G1 X133.36Y299.15
G1 X132.945Y298.541
G1 X132.577Y297.898
G1 X132.258Y297.223
G1 X131.991Y296.519
G1 X131.779Y295.787
; Layer WorkSpace Pass 5 of 10
G1 X131.038Y295.93
G1 X130.3Y295.998
G1 X129.57
G1 X128.851Y295.917
G1 X128.149Y295.773
G1 X127.468Y295.565
G1 X126.812Y295.294
G1 X126.186Y294.963
G1 X125.593Y294.574
G1 X125.038Y294.13
G1 X124.527Y293.635
G1 X124.062Y293.089
G1 X123.649Y292.497
G1 X123.291Y291.86
G1 X122.994Y291.181
G1 X122.761Y290.463
G1 X122.053Y290.36
G1 X121.369Y290.193
G1 X120.712Y289.966
G1 X120.085Y289.681
G1 X119.491Y289.343
G1 X118.934Y288.954
G1 X118.416Y288.518
G1 X117.94Y288.037
G1 X117.509Y287.516
G1 X117.126Y286.958
G1 X116.794Y286.365
G1 X116.516Y285.741
G1 X116.294Y285.089
G1 X116.133Y284.413
G1 X116.034Y283.715
G1 X116Y283
G1 Y233
G1 X166
G1 Y283
G1 X165.966Y283.715
G1 X165.867Y284.412
G1 X165.705Y285.089
G1 X165.484Y285.74
G1 X165.206Y286.364
G1 X164.874Y286.957
G1 X164.491Y287.515
G1 X164.06Y288.036
G1 X163.584Y288.517
G1 X163.066Y288.953
G1 X162.509Y289.342
G1 X161.915Y289.68
G1 X161.289Y289.965
G1 X160.632Y290.192
G1 X159.948Y290.359
G1 X159.24Y290.463
G1 X159.007Y291.181
G1 X158.709Y291.859
G1 X158.352Y292.496
G1 X157.938Y293.088
G1 X157.474Y293.633
G1 X156.962Y294.128
G1 X156.407Y294.572
G1 X155.815Y294.96
G1 X155.188Y295.291
G1 X154.532Y295.563
G1 X153.851Y295.771
G1 X153.15Y295.915
G1 X152.431Y295.991
G1 X151.701
G1 X150.964Y295.929
G1 X150.223Y295.786
G1 Y295.819
G1 X149.968Y296.644
G1 X149.653Y297.432
G1 X149.273Y298.179
G1 X148.833Y298.884
G1 X148.337Y299.543
G1 X147.788Y300.154
G1 X147.19Y300.713
G1 X146.547Y301.218
G1 X145.863Y301.666
G1 X145.143Y302.055
G1 X144.389Y302.38
G1 X143.606Y302.641
G1 X142.798Y302.833
G1 X141.968Y302.955
G1 X141.121Y303.002
G1 X140.261Y302.973
G1 X139.504Y302.884
G1 X138.765Y302.736
G1 X138.047Y302.533
G1 X137.352Y302.275
G1 X136.683Y301.966
G1 X136.043Y301.608
G1 X135.434Y301.202
G1 X134.858Y300.751
G1 X134.319Y300.257
G1 X133.819Y299.723
G1 X133.36Y299.15
G1 X132.945Y298.541
G1 X132.577Y297.898
G1 X132.258Y297.223
G1 X131.991Y296.519
G1 X131.779Y295.787
; Layer WorkSpace Pass 6 of 10
G1 X131.038Y295.93
G1 X130.3Y295.998
G1 X129.57
G1 X128.851Y295.917
G1 X128.149Y295.773
G1 X127.468Y295.565
G1 X126.812Y295.294
G1 X126.186Y294.963
G1 X125.593Y294.574
G1 X125.038Y294.13
G1 X124.527Y293.635
G1 X124.062Y293.089
G1 X123.649Y292.497
G1 X123.291Y291.86
G1 X122.994Y291.181
G1 X122.761Y290.463
G1 X122.053Y290.36
G1 X121.369Y290.193
G1 X120.712Y289.966
G1 X120.085Y289.681
G1 X119.491Y289.343
G1 X118.934Y288.954
G1 X118.416Y288.518
G1 X117.94Y288.037
G1 X117.509Y287.516
G1 X117.126Y286.958
G1 X116.794Y286.365
G1 X116.516Y285.741
G1 X116.294Y285.089
G1 X116.133Y284.413
G1 X116.034Y283.715
G1 X116Y283
G1 Y233
G1 X166
G1 Y283
G1 X165.966Y283.715
G1 X165.867Y284.412
G1 X165.705Y285.089
G1 X165.484Y285.74
G1 X165.206Y286.364
G1 X164.874Y286.957
G1 X164.491Y287.515
G1 X164.06Y288.036
G1 X163.584Y288.517
G1 X163.066Y288.953
G1 X162.509Y289.342
G1 X161.915Y289.68
G1 X161.289Y289.965
G1 X160.632Y290.192
G1 X159.948Y290.359
G1 X159.24Y290.463
G1 X159.007Y291.181
G1 X158.709Y291.859
G1 X158.352Y292.496
G1 X157.938Y293.088
G1 X157.474Y293.633
G1 X156.962Y294.128
G1 X156.407Y294.572
G1 X155.815Y294.96
G1 X155.188Y295.291
G1 X154.532Y295.563
G1 X153.851Y295.771
G1 X153.15Y295.915
G1 X152.431Y295.991
G1 X151.701
G1 X150.964Y295.929
G1 X150.223Y295.786
G1 Y295.819
G1 X149.968Y296.644
G1 X149.653Y297.432
G1 X149.273Y298.179
G1 X148.833Y298.884
G1 X148.337Y299.543
G1 X147.788Y300.154
G1 X147.19Y300.713
G1 X146.547Y301.218
G1 X145.863Y301.666
G1 X145.143Y302.055
G1 X144.389Y302.38
G1 X143.606Y302.641
G1 X142.798Y302.833
G1 X141.968Y302.955
G1 X141.121Y303.002
G1 X140.261Y302.973
G1 X139.504Y302.884
G1 X138.765Y302.736
G1 X138.047Y302.533
G1 X137.352Y302.275
G1 X136.683Y301.966
G1 X136.043Y301.608
G1 X135.434Y301.202
G1 X134.858Y300.751
G1 X134.319Y300.257
G1 X133.819Y299.723
G1 X133.36Y299.15
G1 X132.945Y298.541
G1 X132.577Y297.898
G1 X132.258Y297.223
G1 X131.991Y296.519
G1 X131.779Y295.787
; Layer WorkSpace Pass 7 of 10
G1 X131.038Y295.93
G1 X130.3Y295.998
G1 X129.57
G1 X128.851Y295.917
G1 X128.149Y295.773
G1 X127.468Y295.565
G1 X126.812Y295.294
G1 X126.186Y294.963
G1 X125.593Y294.574
G1 X125.038Y294.13
G1 X124.527Y293.635
G1 X124.062Y293.089
G1 X123.649Y292.497
G1 X123.291Y291.86
G1 X122.994Y291.181
G1 X122.761Y290.463
G1 X122.053Y290.36
G1 X121.369Y290.193
G1 X120.712Y289.966
G1 X120.085Y289.681
G1 X119.491Y289.343
G1 X118.934Y288.954
G1 X118.416Y288.518
G1 X117.94Y288.037
G1 X117.509Y287.516
G1 X117.126Y286.958
G1 X116.794Y286.365
G1 X116.516Y285.741
G1 X116.294Y285.089
G1 X116.133Y284.413
G1 X116.034Y283.715
G1 X116Y283
G1 Y233
G1 X166
G1 Y283
G1 X165.966Y283.715
G1 X165.867Y284.412
G1 X165.705Y285.089
G1 X165.484Y285.74
G1 X165.206Y286.364
G1 X164.874Y286.957
G1 X164.491Y287.515
G1 X164.06Y288.036
G1 X163.584Y288.517
G1 X163.066Y288.953
G1 X162.509Y289.342
G1 X161.915Y289.68
G1 X161.289Y289.965
G1 X160.632Y290.192
G1 X159.948Y290.359
G1 X159.24Y290.463
G1 X159.007Y291.181
G1 X158.709Y291.859
G1 X158.352Y292.496
G1 X157.938Y293.088
G1 X157.474Y293.633
G1 X156.962Y294.128
G1 X156.407Y294.572
G1 X155.815Y294.96
G1 X155.188Y295.291
G1 X154.532Y295.563
G1 X153.851Y295.771
G1 X153.15Y295.915
G1 X152.431Y295.991
G1 X151.701
G1 X150.964Y295.929
G1 X150.223Y295.786
G1 Y295.819
G1 X149.968Y296.644
G1 X149.653Y297.432
G1 X149.273Y298.179
G1 X148.833Y298.884
G1 X148.337Y299.543
G1 X147.788Y300.154
G1 X147.19Y300.713
G1 X146.547Y301.218
G1 X145.863Y301.666
G1 X145.143Y302.055
G1 X144.389Y302.38
G1 X143.606Y302.641
G1 X142.798Y302.833
G1 X141.968Y302.955
G1 X141.121Y303.002
G1 X140.261Y302.973
G1 X139.504Y302.884
G1 X138.765Y302.736
G1 X138.047Y302.533
G1 X137.352Y302.275
G1 X136.683Y301.966
G1 X136.043Y301.608
G1 X135.434Y301.202
G1 X134.858Y300.751
G1 X134.319Y300.257
G1 X133.819Y299.723
G1 X133.36Y299.15
G1 X132.945Y298.541
G1 X132.577Y297.898
G1 X132.258Y297.223
G1 X131.991Y296.519
G1 X131.779Y295.787
; Layer WorkSpace Pass 8 of 10
G1 X131.038Y295.93
G1 X130.3Y295.998
G1 X129.57
G1 X128.851Y295.917
G1 X128.149Y295.773
G1 X127.468Y295.565
G1 X126.812Y295.294
G1 X126.186Y294.963
G1 X125.593Y294.574
G1 X125.038Y294.13
G1 X124.527Y293.635
G1 X124.062Y293.089
G1 X123.649Y292.497
G1 X123.291Y291.86
G1 X122.994Y291.181
G1 X122.761Y290.463
G1 X122.053Y290.36
G1 X121.369Y290.193
G1 X120.712Y289.966
G1 X120.085Y289.681
G1 X119.491Y289.343
G1 X118.934Y288.954
G1 X118.416Y288.518
G1 X117.94Y288.037
G1 X117.509Y287.516
G1 X117.126Y286.958
G1 X116.794Y286.365
G1 X116.516Y285.741
G1 X116.294Y285.089
G1 X116.133Y284.413
G1 X116.034Y283.715
G1 X116Y283
G1 Y233
G1 X166
G1 Y283
G1 X165.966Y283.715
G1 X165.867Y284.412
G1 X165.705Y285.089
G1 X165.484Y285.74
G1 X165.206Y286.364
G1 X164.874Y286.957
G1 X164.491Y287.515
G1 X164.06Y288.036
G1 X163.584Y288.517
G1 X163.066Y288.953
G1 X162.509Y289.342
G1 X161.915Y289.68
G1 X161.289Y289.965
G1 X160.632Y290.192
G1 X159.948Y290.359
G1 X159.24Y290.463
G1 X159.007Y291.181
G1 X158.709Y291.859
G1 X158.352Y292.496
G1 X157.938Y293.088
G1 X157.474Y293.633
G1 X156.962Y294.128
G1 X156.407Y294.572
G1 X155.815Y294.96
G1 X155.188Y295.291
G1 X154.532Y295.563
G1 X153.851Y295.771
G1 X153.15Y295.915
G1 X152.431Y295.991
G1 X151.701
G1 X150.964Y295.929
G1 X150.223Y295.786
G1 Y295.819
G1 X149.968Y296.644
G1 X149.653Y297.432
G1 X149.273Y298.179
G1 X148.833Y298.884
G1 X148.337Y299.543
G1 X147.788Y300.154
G1 X147.19Y300.713
G1 X146.547Y301.218
G1 X145.863Y301.666
G1 X145.143Y302.055
G1 X144.389Y302.38
G1 X143.606Y302.641
G1 X142.798Y302.833
G1 X141.968Y302.955
G1 X141.121Y303.002
G1 X140.261Y302.973
G1 X139.504Y302.884
G1 X138.765Y302.736
G1 X138.047Y302.533
G1 X137.352Y302.275
G1 X136.683Y301.966
G1 X136.043Y301.608
G1 X135.434Y301.202
G1 X134.858Y300.751
G1 X134.319Y300.257
G1 X133.819Y299.723
G1 X133.36Y299.15
G1 X132.945Y298.541
G1 X132.577Y297.898
G1 X132.258Y297.223
G1 X131.991Y296.519
G1 X131.779Y295.787
; Layer WorkSpace Pass 9 of 10
G1 X131.038Y295.93
G1 X130.3Y295.998
G1 X129.57
G1 X128.851Y295.917
G1 X128.149Y295.773
G1 X127.468Y295.565
G1 X126.812Y295.294
G1 X126.186Y294.963
G1 X125.593Y294.574
G1 X125.038Y294.13
G1 X124.527Y293.635
G1 X124.062Y293.089
G1 X123.649Y292.497
G1 X123.291Y291.86
G1 X122.994Y291.181
G1 X122.761Y290.463
G1 X122.053Y290.36
G1 X121.369Y290.193
G1 X120.712Y289.966
G1 X120.085Y289.681
G1 X119.491Y289.343
G1 X118.934Y288.954
G1 X118.416Y288.518
G1 X117.94Y288.037
G1 X117.509Y287.516
G1 X117.126Y286.958
G1 X116.794Y286.365
G1 X116.516Y285.741
G1 X116.294Y285.089
G1 X116.133Y284.413
G1 X116.034Y283.715
G1 X116Y283
G1 Y233
G1 X166
G1 Y283
G1 X165.966Y283.715
G1 X165.867Y284.412
G1 X165.705Y285.089
G1 X165.484Y285.74
G1 X165.206Y286.364
G1 X164.874Y286.957
G1 X164.491Y287.515
G1 X164.06Y288.036
G1 X163.584Y288.517
G1 X163.066Y288.953
G1 X162.509Y289.342
G1 X161.915Y289.68
G1 X161.289Y289.965
G1 X160.632Y290.192
G1 X159.948Y290.359
G1 X159.24Y290.463
G1 X159.007Y291.181
G1 X158.709Y291.859
G1 X158.352Y292.496
G1 X157.938Y293.088
G1 X157.474Y293.633
G1 X156.962Y294.128
G1 X156.407Y294.572
G1 X155.815Y294.96
G1 X155.188Y295.291
G1 X154.532Y295.563
G1 X153.851Y295.771
G1 X153.15Y295.915
G1 X152.431Y295.991
G1 X151.701
G1 X150.964Y295.929
G1 X150.223Y295.786
G1 Y295.819
G1 X149.968Y296.644
G1 X149.653Y297.432
G1 X149.273Y298.179
G1 X148.833Y298.884
G1 X148.337Y299.543
G1 X147.788Y300.154
G1 X147.19Y300.713
G1 X146.547Y301.218
G1 X145.863Y301.666
G1 X145.143Y302.055
G1 X144.389Y302.38
G1 X143.606Y302.641
G1 X142.798Y302.833
G1 X141.968Y302.955
G1 X141.121Y303.002
G1 X140.261Y302.973
G1 X139.504Y302.884
G1 X138.765Y302.736
G1 X138.047Y302.533
G1 X137.352Y302.275
G1 X136.683Y301.966
G1 X136.043Y301.608
G1 X135.434Y301.202
G1 X134.858Y300.751
G1 X134.319Y300.257
G1 X133.819Y299.723
G1 X133.36Y299.15
G1 X132.945Y298.541
G1 X132.577Y297.898
G1 X132.258Y297.223
G1 X131.991Y296.519
G1 X131.779Y295.787
; Layer WorkSpace Pass 10 of 10
G1 X131.038Y295.93
G1 X130.3Y295.998
G1 X129.57
G1 X128.851Y295.917
G1 X128.149Y295.773
G1 X127.468Y295.565
G1 X126.812Y295.294
G1 X126.186Y294.963
G1 X125.593Y294.574
G1 X125.038Y294.13
G1 X124.527Y293.635
G1 X124.062Y293.089
G1 X123.649Y292.497
G1 X123.291Y291.86
G1 X122.994Y291.181
G1 X122.761Y290.463
G1 X122.053Y290.36
G1 X121.369Y290.193
G1 X120.712Y289.966
G1 X120.085Y289.681
G1 X119.491Y289.343
G1 X118.934Y288.954
G1 X118.416Y288.518
G1 X117.94Y288.037
G1 X117.509Y287.516
G1 X117.126Y286.958
G1 X116.794Y286.365
G1 X116.516Y285.741
G1 X116.294Y285.089
G1 X116.133Y284.413
G1 X116.034Y283.715
G1 X116Y283
G1 Y233
G1 X166
G1 Y283
G1 X165.966Y283.715
G1 X165.867Y284.412
G1 X165.705Y285.089
G1 X165.484Y285.74
G1 X165.206Y286.364
G1 X164.874Y286.957
G1 X164.491Y287.515
G1 X164.06Y288.036
G1 X163.584Y288.517
G1 X163.066Y288.953
G1 X162.509Y289.342
G1 X161.915Y289.68
G1 X161.289Y289.965
G1 X160.632Y290.192
G1 X159.948Y290.359
G1 X159.24Y290.463
G1 X159.007Y291.181
G1 X158.709Y291.859
G1 X158.352Y292.496
G1 X157.938Y293.088
G1 X157.474Y293.633
G1 X156.962Y294.128
G1 X156.407Y294.572
G1 X155.815Y294.96
G1 X155.188Y295.291
G1 X154.532Y295.563
G1 X153.851Y295.771
G1 X153.15Y295.915
G1 X152.431Y295.991
G1 X151.701
G1 X150.964Y295.929
G1 X150.223Y295.786
G1 Y295.819
G1 X149.968Y296.644
G1 X149.653Y297.432
G1 X149.273Y298.179
G1 X148.833Y298.884
G1 X148.337Y299.543
G1 X147.788Y300.154
G1 X147.19Y300.713
G1 X146.547Y301.218
G1 X145.863Y301.666
G1 X145.143Y302.055
G1 X144.389Y302.38
G1 X143.606Y302.641
G1 X142.798Y302.833
G1 X141.968Y302.955
G1 X141.121Y303.002
G1 X140.261Y302.973
G1 X139.504Y302.884
G1 X138.765Y302.736
G1 X138.047Y302.533
G1 X137.352Y302.275
G1 X136.683Y301.966
G1 X136.043Y301.608
G1 X135.434Y301.202
G1 X134.858Y300.751
G1 X134.319Y300.257
G1 X133.819Y299.723
G1 X133.36Y299.15
G1 X132.945Y298.541
G1 X132.577Y297.898
G1 X132.258Y297.223
G1 X131.991Y296.519
G1 X131.779Y295.787
G0 X97.868Y201.568
; Layer WorkSpace Pass 1 of 10
G1 X98.553Y201.392
G1 X99.209Y201.152
G1 X99.833Y200.851
G1 X100.422Y200.493
G1 X100.972Y200.082
G1 X101.479Y199.621
G1 X101.94Y199.114
G1 X102.351Y198.564
G1 X102.709Y197.975
G1 X103.01Y197.351
G1 X103.25Y196.694
G1 X103.426Y196.01
G1 X103.534Y195.301
G1 X103.571Y194.57
G1 X103.534Y193.84
G1 X103.426Y193.131
G1 X103.25Y192.446
G1 X103.01Y191.79
G1 X102.709Y191.166
G1 X102.351Y190.577
G1 X101.94Y190.027
G1 X101.479Y189.52
G1 X100.972Y189.059
G1 X100.422Y188.647
G1 X99.833Y188.29
G1 X99.209Y187.989
G1 X98.553Y187.749
G1 X97.868Y187.573
G1 X97.159Y187.464
G1 X96.428Y187.428
G1 X95.698Y187.464
G1 X94.989Y187.573
G1 X94.304Y187.749
G1 X93.648Y187.989
G1 X93.024Y188.29
G1 X92.435Y188.647
G1 X91.885Y189.059
G1 X91.378Y189.52
G1 X90.917Y190.027
G1 X90.506Y190.577
G1 X90.148Y191.166
G1 X89.847Y191.79
G1 X89.607Y192.446
G1 X89.431Y193.131
G1 X89.323Y193.84
G1 X89.286Y194.57
G1 X89.323Y195.301
G1 X89.431Y196.01
G1 X89.607Y196.694
G1 X89.847Y197.351
G1 X90.148Y197.975
G1 X90.506Y198.564
G1 X90.917Y199.114
G1 X91.378Y199.621
G1 X91.885Y200.082
G1 X92.435Y200.493
G1 X93.024Y200.851
G1 X93.648Y201.152
G1 X94.304Y201.392
G1 X94.989Y201.568
G1 X95.698Y201.676
G1 X96.428Y201.713
G1 X97.159Y201.676
G1 X97.868Y201.568
; Layer WorkSpace Pass 2 of 10
G1 X98.553Y201.392
G1 X99.209Y201.152
G1 X99.833Y200.851
G1 X100.422Y200.493
G1 X100.972Y200.082
G1 X101.479Y199.621
G1 X101.94Y199.114
G1 X102.351Y198.564
G1 X102.709Y197.975
G1 X103.01Y197.351
G1 X103.25Y196.694
G1 X103.426Y196.01
G1 X103.534Y195.301
G1 X103.571Y194.57
G1 X103.534Y193.84
G1 X103.426Y193.131
G1 X103.25Y192.446
G1 X103.01Y191.79
G1 X102.709Y191.166
G1 X102.351Y190.577
G1 X101.94Y190.027
G1 X101.479Y189.52
G1 X100.972Y189.059
G1 X100.422Y188.647
G1 X99.833Y188.29
G1 X99.209Y187.989
G1 X98.553Y187.749
G1 X97.868Y187.573
G1 X97.159Y187.464
G1 X96.428Y187.428
G1 X95.698Y187.464
G1 X94.989Y187.573
G1 X94.304Y187.749
G1 X93.648Y187.989
G1 X93.024Y188.29
G1 X92.435Y188.647
G1 X91.885Y189.059
G1 X91.378Y189.52
G1 X90.917Y190.027
G1 X90.506Y190.577
G1 X90.148Y191.166
G1 X89.847Y191.79
G1 X89.607Y192.446
G1 X89.431Y193.131
G1 X89.323Y193.84
G1 X89.286Y194.57
G1 X89.323Y195.301
G1 X89.431Y196.01
G1 X89.607Y196.694
G1 X89.847Y197.351
G1 X90.148Y197.975
G1 X90.506Y198.564
G1 X90.917Y199.114
G1 X91.378Y199.621
G1 X91.885Y200.082
G1 X92.435Y200.493
G1 X93.024Y200.851
G1 X93.648Y201.152
G1 X94.304Y201.392
G1 X94.989Y201.568
G1 X95.698Y201.676
G1 X96.428Y201.713
G1 X97.159Y201.676
G1 X97.868Y201.568
; Layer WorkSpace Pass 3 of 10
G1 X98.553Y201.392
G1 X99.209Y201.152
G1 X99.833Y200.851
G1 X100.422Y200.493
G1 X100.972Y200.082
G1 X101.479Y199.621
G1 X101.94Y199.114
G1 X102.351Y198.564
G1 X102.709Y197.975
G1 X103.01Y197.351
G1 X103.25Y196.694
G1 X103.426Y196.01
G1 X103.534Y195.301
G1 X103.571Y194.57
G1 X103.534Y193.84
G1 X103.426Y193.131
G1 X103.25Y192.446
G1 X103.01Y191.79
G1 X102.709Y191.166
G1 X102.351Y190.577
G1 X101.94Y190.027
G1 X101.479Y189.52
G1 X100.972Y189.059
G1 X100.422Y188.647
G1 X99.833Y188.29
G1 X99.209Y187.989
G1 X98.553Y187.749
G1 X97.868Y187.573
G1 X97.159Y187.464
G1 X96.428Y187.428
G1 X95.698Y187.464
G1 X94.989Y187.573
G1 X94.304Y187.749
G1 X93.648Y187.989
G1 X93.024Y188.29
G1 X92.435Y188.647
G1 X91.885Y189.059
G1 X91.378Y189.52
G1 X90.917Y190.027
G1 X90.506Y190.577
G1 X90.148Y191.166
G1 X89.847Y191.79
G1 X89.607Y192.446
G1 X89.431Y193.131
G1 X89.323Y193.84
G1 X89.286Y194.57
G1 X89.323Y195.301
G1 X89.431Y196.01
G1 X89.607Y196.694
G1 X89.847Y197.351
G1 X90.148Y197.975
G1 X90.506Y198.564
G1 X90.917Y199.114
G1 X91.378Y199.621
G1 X91.885Y200.082
G1 X92.435Y200.493
G1 X93.024Y200.851
G1 X93.648Y201.152
G1 X94.304Y201.392
G1 X94.989Y201.568
G1 X95.698Y201.676
G1 X96.428Y201.713
G1 X97.159Y201.676
G1 X97.868Y201.568
; Layer WorkSpace Pass 4 of 10
G1 X98.553Y201.392
G1 X99.209Y201.152
G1 X99.833Y200.851
G1 X100.422Y200.493
G1 X100.972Y200.082
G1 X101.479Y199.621
G1 X101.94Y199.114
G1 X102.351Y198.564
G1 X102.709Y197.975
G1 X103.01Y197.351
G1 X103.25Y196.694
G1 X103.426Y196.01
G1 X103.534Y195.301
G1 X103.571Y194.57
G1 X103.534Y193.84
G1 X103.426Y193.131
G1 X103.25Y192.446
G1 X103.01Y191.79
G1 X102.709Y191.166
G1 X102.351Y190.577
G1 X101.94Y190.027
G1 X101.479Y189.52
G1 X100.972Y189.059
G1 X100.422Y188.647
G1 X99.833Y188.29
G1 X99.209Y187.989
G1 X98.553Y187.749
G1 X97.868Y187.573
G1 X97.159Y187.464
G1 X96.428Y187.428
G1 X95.698Y187.464
G1 X94.989Y187.573
G1 X94.304Y187.749
G1 X93.648Y187.989
G1 X93.024Y188.29
G1 X92.435Y188.647
G1 X91.885Y189.059
G1 X91.378Y189.52
G1 X90.917Y190.027
G1 X90.506Y190.577
G1 X90.148Y191.166
G1 X89.847Y191.79
G1 X89.607Y192.446
G1 X89.431Y193.131
G1 X89.323Y193.84
G1 X89.286Y194.57
G1 X89.323Y195.301
G1 X89.431Y196.01
G1 X89.607Y196.694
G1 X89.847Y197.351
G1 X90.148Y197.975
G1 X90.506Y198.564
G1 X90.917Y199.114
G1 X91.378Y199.621
G1 X91.885Y200.082
G1 X92.435Y200.493
G1 X93.024Y200.851
G1 X93.648Y201.152
G1 X94.304Y201.392
G1 X94.989Y201.568
G1 X95.698Y201.676
G1 X96.428Y201.713
G1 X97.159Y201.676
G1 X97.868Y201.568
; Layer WorkSpace Pass 5 of 10
G1 X98.553Y201.392
G1 X99.209Y201.152
G1 X99.833Y200.851
G1 X100.422Y200.493
G1 X100.972Y200.082
G1 X101.479Y199.621
G1 X101.94Y199.114
G1 X102.351Y198.564
G1 X102.709Y197.975
G1 X103.01Y197.351
G1 X103.25Y196.694
G1 X103.426Y196.01
G1 X103.534Y195.301
G1 X103.571Y194.57
G1 X103.534Y193.84
G1 X103.426Y193.131
G1 X103.25Y192.446
G1 X103.01Y191.79
G1 X102.709Y191.166
G1 X102.351Y190.577
G1 X101.94Y190.027
G1 X101.479Y189.52
G1 X100.972Y189.059
G1 X100.422Y188.647
G1 X99.833Y188.29
G1 X99.209Y187.989
G1 X98.553Y187.749
G1 X97.868Y187.573
G1 X97.159Y187.464
G1 X96.428Y187.428
G1 X95.698Y187.464
G1 X94.989Y187.573
G1 X94.304Y187.749
G1 X93.648Y187.989
G1 X93.024Y188.29
G1 X92.435Y188.647
G1 X91.885Y189.059
G1 X91.378Y189.52
G1 X90.917Y190.027
