; LightBurn 1.3.01
; GRBL device profile, absolute coords
; Bounds: X10 Y10 to X230 Y181.27
G00 G17 G40 G21 G54
G90
M4
; Scan @ 3000 mm/min, 100% power
M8
G0 X42.424Y66.161
; Layer GatoPeq
G91
G0 X1.25
G1 X2.741F3000S1000
G0 X1.25
G0 X1.444Y0.1
G0 X-1.25
G1 X-5.661
G0 X-1.25
G0 X-0.745Y0.1
G0 X1.25
G1 X7.109
G0 X1.25
G0 X0.628Y0.1
G0 X-1.25
G1 X-8.341
G0 X-1.25
G0 X-0.552Y0.1
G0 X1.25
G1 X9.42
G0 X1.25
G0 X0.51Y0.1
G0 X-1.25
G1 X-10.412
G0 X-1.25
G0 X-0.449Y0.1
G0 X1.25
G1 X11.281
G0 X1.25
G0 X0.42Y0.1
G0 X-1.25
G1 X-12.108
G0 X-1.25
G0 X-0.394Y0.1
G0 X1.25
G1 X12.895
G0 X1.25
G0 X0.347Y0.1
G0 X-1.25
G1 X-13.593
G0 X-1.25
G0 X-0.352Y0.1
G0 X1.25
G1 X14.292
G0 X1.25
G0 X0.343Y0.1
G0 X-1.25
G1 X-14.954
G0 X-1.25
G0 X-0.308Y0.1
G0 X1.25
G1 X15.556
G0 X1.25
G0 X0.295Y0.1
G0 X-1.25
G1 X-16.159
G0 X-1.25
G0 X-0.276Y0.1
G0 X1.25
G1 X16.729
G0 X1.25
G0 X0.284Y0.1
G0 X-1.25
G1 X-17.286
G0 X-1.25
G0 X-0.274Y0.1
G0 X1.25
G1 X17.814
G0 X1.25
G0 X0.254Y0.1
G0 X-1.25
G1 X-18.318
G0 X-1.25
G0 X-0.245Y0.1
G0 X1.25
G1 X18.817
G0 X1.25
G0 X0.254Y0.1
G0 X-1.25
G1 X-19.316
G0 X-1.25
G0 X-0.235Y0.1
G0 X1.25
G1 X19.777
G0 X1.25
G0 X0.222Y0.1
G0 X-1.25
G1 X-20.22
G0 X-1.25
G0 X-0.221Y0.1
G0 X1.25
G1 X20.663
G0 X1.25
G0 X0.222Y0.1
G0 X-1.25
G1 X-21.106
G0 X-1.25
G0 X-0.208Y0.1
G0 X1.25
G1 X21.535
G0 X1.25
G0 X0.197Y0.1
G0 X-1.25
G1 X-21.933
G0 X-1.25
G0 X-0.201Y0.1
G0 X1.25
G1 X22.33
G0 X1.25
G0 X0.197Y0.1
G0 X-1.25
G1 X-22.727
G0 X-1.25
G0 X-0.19Y0.1
G0 X1.25
G1 X23.113
G0 X1.25
G0 X0.197Y0.1
G0 X-1.25
G1 X-23.494
G0 X-1.25
G0 X-0.183Y0.1
G0 X1.25
G1 X9.79
G1 X4.873F5000S0
G1 X9.195F3000S1000
G0 X1.25
G0 X0.175Y0.1
G0 X-1.25
G1 X-8.68
G1 X-6.331F5000S0
G1 X-9.206F3000S1000
G0 X-1.25
G0 X-0.179Y0.1
G0 X1.25
G1 X8.806
G1 X7.505F5000S0
G1 X8.261F3000S1000
G0 X1.25
G0 X0.175Y0.1
G0 X-1.25
G1 X-7.893
G1 X-8.564F5000S0
G1 X-8.458F3000S1000
G0 X-1.25
G0 X-0.168Y0.1
G0 X1.25
G1 X8.148
G1 X9.531F5000S0
G1 X7.579F3000S1000
G0 X1.25
G0 X0.175Y0.1
G0 X-1.25
G1 X-7.326
G1 X-10.402F5000S0
G1 X-7.873F3000S1000
G0 X-1.25
G0 X-0.169Y0.1
G0 X1.25
G1 X7.642
G1 X11.211F5000S0
G1 X7.077F3000S1000
G0 X1.25
G0 X0.157Y0.1
G0 X-1.25
G1 X-6.876
G1 X-11.945F5000S0
G1 X-7.426F3000S1000
G0 X-1.25
G0 X-0.154Y0.1
G0 X1.25
G1 X7.233
G1 X12.641F5000S0
G1 X6.684F3000S1000
G0 X1.25
G0 X0.157Y0.1
G0 X-1.25
G1 X-6.51
G1 X-13.3F5000S0
G1 X-7.06F3000S1000
G0 X-1.25
G0 X-0.155Y0.1
G0 X1.25
G1 X6.898
G1 X13.948F5000S0
G1 X6.336F3000S1000
G0 X1.25
G0 X0.157Y0.1
G0 X-1.25
G1 X-6.169
G1 X-14.562F5000S0
G1 X-6.763F3000S1000
G0 X-1.25
G0 X-0.147Y0.1
G0 X1.25
G1 X6.62
G1 X15.134F5000S0
G1 X6.036F3000S1000
G0 X1.25
G0 X0.142Y0.1
G0 X-1.25
G1 X-5.921
G1 X-15.661F5000S0
G1 X-6.493F3000S1000
G0 X-1.25
G0 X-0.143Y0.1
G0 X1.25
G1 X6.377
G1 X16.166F5000S0
G1 X5.816F3000S1000
G0 X1.25
G0 X0.142Y0.1
G0 X-1.25
G1 X-5.719
G1 X-16.665F5000S0
G1 X-6.26F3000S1000
G0 X-1.25
G0 X-0.143Y0.1
G0 X1.25
G1 X6.164
G1 X17.133F5000S0
G1 X5.631F3000S1000
G0 X1.25
G0 X0.142Y0.1
G0 X-1.25
G1 X-5.544
G1 X-17.595F5000S0
G1 X-6.07F3000S1000
G0 X-1.25
G0 X-0.132Y0.1
G0 X1.25
G1 X5.968
G1 X18.056F5000S0
G1 X5.459F3000S1000
G0 X1.25
G0 X0.131Y0.1
G0 X-1.25
G1 X-5.375
G1 X-18.489F5000S0
G1 X-5.883F3000S1000
G0 X-1.25
G0 X-0.132Y0.1
G0 X1.25
G1 X5.804
G1 X18.914F5000S0
G1 X5.289F3000S1000
G0 X1.25
G0 X0.129Y0.1
G0 X-1.25
G1 X-5.203
G1 X-19.341F5000S0
G1 X-5.725F3000S1000
G0 X-1.25
G0 X-0.132Y0.1
G0 X1.25
G1 X5.654
G1 X19.74F5000S0
G1 X5.135F3000S1000
G0 X1.25
G0 X0.128Y0.1
G0 X-1.25
G1 X-5.069
G1 X-20.125F5000S0
G1 X-5.587F3000S1000
G0 X-1.25
G0 X-0.123Y0.1
G0 X1.25
G1 X5.519
G1 X20.511F5000S0
G1 X5.002F3000S1000
G0 X1.25
G0 X0.128Y0.1
G0 X-1.25
G1 X-4.936
G1 X-20.896F5000S0
G1 X-5.451F3000S1000
G0 X-1.25
G0 X-0.123Y0.1
G0 X1.25
G1 X5.391
G1 X21.272F5000S0
G1 X4.866F3000S1000
G0 X1.25
G0 X0.116Y0.1
G0 X-1.25
G1 X-4.809
G1 X-21.626F5000S0
G1 X-5.333F3000S1000
G0 X-1.25
G0 X-0.123Y0.1
G0 X1.25
G1 X5.278
G1 X21.977F5000S0
G1 X4.752F3000S1000
G0 X1.25
G0 X0.116Y0.1
G0 X-1.25
G1 X-4.694
G1 X-22.329F5000S0
G1 X-5.213F3000S1000
G0 X-1.25
G0 X-0.113Y0.1
G0 X1.25
G1 X5.154
G1 X22.674F5000S0
G1 X4.637F3000S1000
G0 X1.25
G0 X0.117Y0.1
G0 X-1.25
G1 X-4.581
G1 X-10.317F5000S0
G1 X-2.326F3000S1000
G1 X-10.367F5000S0
G1 X-5.104F3000S1000
G0 X-1.25
G0 X-0.113Y0.1
G0 X1.25
G1 X5.055
G1 X9.342F5000S0
G1 X4.659F3000S1000
G1 X9.33F5000S0
G1 X4.538F3000S1000
G0 X1.25
G0 X0.116Y0.1
G0 X-1.25
G1 X-4.499
G1 X-8.723F5000S0
G1 X-6.093F3000S1000
G1 X-8.824F5000S0
G1 X-5.014F3000S1000
G0 X-1.25
G0 X-0.113Y0.1
G0 X1.25
G1 X4.972
G1 X8.456F5000S0
G1 X7.173F3000S1000
G1 X8.322F5000S0
G1 X4.452F3000S1000
G0 X1.25
G0 X0.105Y0.1
G0 X-1.25
G1 X-4.402
G1 X-8.003F5000S0
G1 X-8.087F3000S1000
G1 X-8.166F5000S0
G1 X-4.936F3000S1000
G0 X-1.25
G0 X-0.11Y0.1
G0 X1.25
G1 X4.899
G1 X7.874F5000S0
G1 X8.944F3000S1000
G1 X7.741F5000S0
G1 X4.352F3000S1000
G0 X1.25
G0 X0.105Y0.1
G0 X-1.25
G1 X-4.304
G1 X-7.486F5000S0
G1 X-9.738F3000S1000
G1 X-7.635F5000S0
G1 X-4.855F3000S1000
G0 X-1.25
G0 X-0.103Y0.1
G0 X1.25
G1 X4.811
G1 X7.447F5000S0
G1 X10.407F3000S1000
G1 X7.292F5000S0
G1 X4.27F3000S1000
G0 X1.25
G0 X0.106Y0.1
G0 X-1.25
G1 X-4.236
G1 X-7.097F5000S0
G1 X-11.078F3000S1000
G1 X-7.259F5000S0
G1 X-4.766F3000S1000
G0 X-1.25
G0 X-0.103Y0.1
G0 X1.25
G1 X4.733
G1 X7.06F5000S0
G1 X11.741F3000S1000
G1 X6.91F5000S0
G1 X4.2F3000S1000
G0 X1.25
G0 X0.106Y0.1
G0 X-1.25
G1 X-4.166
G1 X-6.773F5000S0
G1 X-12.306F3000S1000
G1 X-6.908F5000S0
G1 X-4.701F3000S1000
G0 X-1.25
G0 X-0.103Y0.1
G0 X1.25
G1 X4.667
G1 X6.778F5000S0
G1 X12.85F3000S1000
G1 X6.636F5000S0
G1 X4.126F3000S1000
G0 X1.25
G0 X0.096Y0.1
G0 X-1.25
G1 X-4.082
G1 X-6.498F5000S0
G1 X-13.395F3000S1000
G1 X-6.647F5000S0
G1 X-4.634F3000S1000
G0 X-1.25
G0 X-0.102Y0.1
G0 X1.25
G1 X4.6
G1 X6.516F5000S0
G1 X13.916F3000S1000
G1 X6.371F5000S0
G1 X4.051F3000S1000
G0 X1.25
G0 X0.096Y0.1
G0 X-1.25
G1 X-4.02
G1 X-6.263F5000S0
G1 X-14.414F3000S1000
G1 X-6.38F5000S0
G1 X-4.567F3000S1000
G0 X-1.25
G0 X-0.094Y0.1
G0 X1.25
G1 X4.535
G1 X6.287F5000S0
G1 X14.869F3000S1000
G1 X6.154F5000S0
G1 X3.989F3000S1000
G0 X1.25
G0 X0.097Y0.1
G0 X-1.25
G1 X-3.959
G1 X-6.046F5000S0
G1 X-15.323F3000S1000
G1 X-6.195F5000S0
G1 X-4.502F3000S1000
G0 X-1.25
G0 X-0.093Y0.1
G0 X1.25
G1 X4.469
G1 X6.102F5000S0
G1 X15.762F3000S1000
G1 X5.953F5000S0
G1 X3.928F3000S1000
G0 X1.25
G0 X0.096Y0.1
G0 X-1.25
G1 X-3.897
G1 X-5.876F5000S0
G1 X-16.185F3000S1000
G1 X-6.01F5000S0
G1 X-4.436F3000S1000
G0 X-1.25
G0 X-0.094Y0.1
G0 X1.25
G1 X4.412
G1 X5.909F5000S0
G1 X16.607F3000S1000
G1 X5.794F5000S0
G1 X3.872F3000S1000
G0 X1.25
G0 X0.088Y0.1
G0 X-1.25
G1 X-3.845
G1 X-5.706F5000S0
G1 X-17.005F3000S1000
G1 X-5.831F5000S0
G1 X-4.389F3000S1000
G0 X-1.25
G0 X-0.094Y0.1
G0 X1.25
G1 X4.365
G1 X5.766F5000S0
G1 X17.392F3000S1000
G1 X5.618F5000S0
G1 X3.817F3000S1000
G0 X1.25
G0 X0.087Y0.1
G0 X-1.25
G1 X-3.789
G1 X-5.552F5000S0
G1 X-17.757F3000S1000
G1 X-5.7F5000S0
G1 X-4.336F3000S1000
G0 X-1.25
G0 X-0.085Y0.1
G0 X1.25
G1 X4.304
G1 X5.634F5000S0
G1 X18.117F3000S1000
G1 X5.49F5000S0
G1 X3.761F3000S1000
G0 X1.25
G0 X0.088Y0.1
G0 X-1.25
G1 X-3.733
G1 X-5.428F5000S0
G1 X-18.478F3000S1000
G1 X-5.564F5000S0
G1 X-4.277F3000S1000
G0 X-1.25
G0 X-0.085Y0.1
G0 X1.25
G1 X4.253
G1 X5.49F5000S0
G1 X18.839F3000S1000
G1 X5.365F5000S0
G1 X3.705F3000S1000
G0 X1.25
G0 X0.087Y0.1
G0 X-1.25
G1 X-3.684
G1 X-5.295F5000S0
G1 X-19.188F3000S1000
G1 X-5.428F5000S0
G1 X-4.23F3000S1000
G0 X-1.25
G0 X-0.085Y0.1
G0 X1.25
G1 X4.206
G1 X5.381F5000S0
G1 X19.505F3000S1000
G1 X5.239F5000S0
G1 X3.667F3000S1000
G0 X1.25
G0 X0.087Y0.1
G0 X-1.25
G1 X-3.649
G1 X-5.187F5000S0
G1 X-19.817F3000S1000
G1 X-5.336F5000S0
G1 X-4.182F3000S1000
G0 X-1.25
G0 X-0.085Y0.1
G0 X1.25
G1 X4.159
G1 X5.288F5000S0
G1 X20.13F3000S1000
G1 X5.135F5000S0
G1 X3.626F3000S1000
G0 X1.25
G0 X0.08Y0.1
G0 X-1.25
G1 X-3.601
G1 X-5.083F5000S0
G1 X-20.442F3000S1000
G1 X-5.235F5000S0
G1 X-4.142F3000S1000
G0 X-1.25
G0 X-0.08Y0.1
G0 X1.25
G1 X4.121
G1 X5.18F5000S0
G1 X20.755F3000S1000
G1 X5.031F5000S0
G1 X3.577F3000S1000
G0 X1.25
G0 X0.08Y0.1
G0 X-1.25
G1 X-3.552
G1 X-4.983F5000S0
G1 X-21.064F3000S1000
G1 X-5.126F5000S0
G1 X-4.096F3000S1000
G0 X-1.25
G0 X-0.078Y0.1
G0 X1.25
G1 X4.073
G1 X5.08F5000S0
G1 X21.35F3000S1000
G1 X4.944F5000S0
G1 X3.532F3000S1000
G0 X1.25
G0 X0.08Y0.1
G0 X-1.25
G1 X-3.516
G1 X-4.901F5000S0
G1 X-21.622F3000S1000
G1 X-5.049F5000S0
G1 X-4.049F3000S1000
G0 X-1.25
G0 X-0.077Y0.1
G0 X1.25
G1 X4.027
G1 X5.014F5000S0
G1 X21.895F3000S1000
G1 X4.858F5000S0
G1 X3.501F3000S1000
G0 X1.25
G0 X0.076Y0.1
G0 X-1.25
G1 X-3.482
G1 X-4.813F5000S0
G1 X-22.169F3000S1000
G1 X-4.974F5000S0
G1 X-4.011F3000S1000
G0 X-1.25
G0 X-0.078Y0.1
G0 X1.25
G1 X3.994
G1 X4.936F5000S0
G1 X22.441F3000S1000
G1 X4.77F5000S0
G1 X3.46F3000S1000
G0 X1.25
G0 X0.074Y0.1
G0 X-1.25
G1 X-3.438
G1 X-4.73F5000S0
G1 X-22.711F3000S1000
G1 X-4.896F5000S0
G1 X-3.977F3000S1000
G0 X-1.25
G0 X-0.078Y0.1
G0 X1.25
G1 X3.961
G1 X4.856F5000S0
G1 X22.97F3000S1000
G1 X4.7F5000S0
G1 X3.418F3000S1000
G0 X1.25
G0 X0.074Y0.1
G0 X-1.25
G1 X-3.396
G1 X-4.672F5000S0
G1 X-10.255F3000S1000
G1 X-2.552F5000S0
G1 X-10.421F3000S1000
G1 X-4.817F5000S0
G1 X-3.939F3000S1000
G0 X-1.25
G0 X-0.07Y0.1
G0 X1.25
G1 X3.918
G1 X4.784F5000S0
G1 X9.521F3000S1000
G1 X4.396F5000S0
G1 X9.559F3000S1000
G1 X4.635F5000S0
G1 X3.383F3000S1000
G0 X1.25
G0 X0.075Y0.1
G0 X-1.25
G1 X-3.371
G1 X-4.598F5000S0
G1 X-9.108F3000S1000
G1 X-5.514F5000S0
G1 X-9.094F3000S1000
G1 X-4.756F5000S0
G1 X-3.901F3000S1000
G0 X-1.25
G0 X-0.07Y0.1
G0 X1.25
G1 X3.884
G1 X4.727F5000S0
G1 X8.749F3000S1000
G1 X6.459F5000S0
G1 X8.748F3000S1000
G1 X4.561F5000S0
G1 X3.355F3000S1000
G0 X1.25
G0 X0.069Y0.1
G0 X-1.25
G1 X-3.337
G1 X-4.524F5000S0
G1 X-8.456F3000S1000
G1 X-7.299F5000S0
G1 X-8.441F3000S1000
G1 X-4.699F5000S0
G1 X-3.867F3000S1000
G0 X-1.25
G0 X-0.07Y0.1
G0 X1.25
G1 X3.849
G1 X4.671F5000S0
G1 X8.165F3000S1000
G1 X8.086F5000S0
G1 X8.176F3000S1000
G1 X4.496F5000S0
G1 X3.319F3000S1000
G0 X1.25
G0 X0.068Y0.1
G0 X-1.25
G1 X-3.3
G1 X-4.472F5000S0
G1 X-7.956F3000S1000
G1 X-8.779F5000S0
G1 X-7.919F3000S1000
G1 X-4.642F5000S0
G1 X-3.832F3000S1000
G0 X-1.25
G0 X-0.071Y0.1
G0 X1.25
G1 X3.817
G1 X4.612F5000S0
G1 X7.708F3000S1000
G1 X9.434F5000S0
G1 X7.739F3000S1000
G1 X4.448F5000S0
G1 X3.282F3000S1000
G0 X1.25
G0 X0.069Y0.1
G0 X-1.25
G1 X-3.265
G1 X-4.423F5000S0
G1 X-7.564F3000S1000
G1 X-10.003F5000S0
G1 X-7.541F3000S1000
G1 X-4.577F5000S0
G1 X-3.806F3000S1000
G0 X-1.25
G0 X-0.069Y0.1
G0 X1.25
G1 X3.794
G1 X4.542F5000S0
G1 X7.389F3000S1000
G1 X10.55F5000S0
G1 X7.396F3000S1000
G1 X4.392F5000S0
G1 X3.254F3000S1000
G0 X1.25
G0 X0.068Y0.1
G0 X-1.25
G1 X-3.243
G1 X-4.36F5000S0
G1 X-7.246F3000S1000
G1 X-11.079F5000S0
G1 X-7.226F3000S1000
G1 X-4.519F5000S0
G1 X-3.776F3000S1000
G0 X-1.25
G0 X-0.063Y0.1
G0 X1.25
G1 X3.758
G1 X4.497F5000S0
G1 X7.095F3000S1000
G1 X11.553F5000S0
G1 X7.117F3000S1000
G1 X4.328F5000S0
G1 X3.227F3000S1000
G0 X1.25
G0 X0.064Y0.1
G0 X-1.25
G1 X-3.212
G1 X-4.305F5000S0
G1 X-6.979F3000S1000
G1 X-12.025F5000S0
G1 X-6.967F3000S1000
G1 X-4.474F5000S0
G1 X-3.741F3000S1000
G0 X-1.25
G0 X-0.064Y0.1
G0 X1.25
G1 X3.724
G1 X4.451F5000S0
G1 X6.84F3000S1000
G1 X12.474F5000S0
G1 X6.86F3000S1000
G1 X4.285F5000S0
G1 X3.196F3000S1000
G0 X1.25
G0 X0.063Y0.1
G0 X-1.25
G1 X-3.18
G1 X-4.265F5000S0
G1 X-6.748F3000S1000
G1 X-12.892F5000S0
G1 X-6.736F3000S1000
G1 X-4.424F5000S0
G1 X-3.711F3000S1000
G0 X-1.25
G0 X-0.064Y0.1
G0 X1.25
G1 X3.7
G1 X4.395F5000S0
G1 X6.637F3000S1000
G1 X13.305F5000S0
G1 X6.638F3000S1000
G1 X4.244F5000S0
G1 X3.165F3000S1000
G0 X1.25
G0 X0.063Y0.1
G0 X-1.25
G1 X-3.149
G1 X-4.224F5000S0
G1 X-6.543F3000S1000
G1 X-13.701F5000S0
G1 X-6.53F3000S1000
G1 X-4.375F5000S0
G1 X-3.688F3000S1000
G0 X-1.25
G0 X-0.064Y0.1
G0 X1.25
G1 X3.676
G1 X4.356F5000S0
G1 X6.432F3000S1000
G1 X14.081F5000S0
G1 X6.455F3000S1000
G1 X4.198F5000S0
G1 X3.14F3000S1000
G0 X1.25
G0 X0.06Y0.1
G0 X-1.25
G1 X-3.129
G1 X-4.17F5000S0
G1 X-6.368F3000S1000
G1 X-14.445F5000S0
G1 X-6.349F3000S1000
G1 X-4.336F5000S0
G1 X-3.665F3000S1000
G0 X-1.25
G0 X-0.06Y0.1
G0 X1.25
G1 X3.65
G1 X4.317F5000S0
G1 X6.264F3000S1000
G1 X14.804F5000S0
G1 X6.283F3000S1000
G1 X4.147F5000S0
G1 X3.116F3000S1000
G0 X1.25
G0 X0.058Y0.1
G0 X-1.25
G1 X-3.102
G1 X-4.13F5000S0
G1 X-6.209F3000S1000
G1 X-15.146F5000S0
G1 X-6.18F3000S1000
G1 X-4.294F5000S0
G1 X-3.635F3000S1000
G0 X-1.25
G0 X-0.057Y0.1
G0 X1.25
G1 X3.622
G1 X4.27F5000S0
G1 X6.108F3000S1000
G1 X15.475F5000S0
G1 X6.134F3000S1000
G1 X4.113F5000S0
G1 X3.089F3000S1000
G0 X1.25
G0 X0.059Y0.1
G0 X-1.25
G1 X-3.076
G1 X-4.096F5000S0
G1 X-6.06F3000S1000
G1 X-15.797F5000S0
G1 X-6.039F3000S1000
G1 X-4.25F5000S0
G1 X-3.61F3000S1000
G0 X-1.25
G0 X-0.057Y0.1
G0 X1.25
G1 X3.598
G1 X4.233F5000S0
G1 X5.966F3000S1000
G1 X16.12F5000S0
G1 X5.985F3000S1000
G1 X4.079F5000S0
G1 X3.062F3000S1000
G0 X1.25
G0 X0.058Y0.1
G0 X-1.25
G1 X-3.048
G1 X-4.062F5000S0
G1 X-5.911F3000S1000
G1 X-16.442F5000S0
G1 X-5.893F3000S1000
G1 X-4.217F5000S0
G1 X-3.585F3000S1000
G0 X-1.25
G0 X-0.057Y0.1
G0 X1.25
G1 X3.572
G1 X4.2F5000S0
G1 X5.831F3000S1000
G1 X16.734F5000S0
G1 X5.857F3000S1000
G1 X4.041F5000S0
G1 X3.039F3000S1000
G0 X1.25
G0 X0.054Y0.1
G0 X-1.25
G1 X-3.028
G1 X-4.018F5000S0
G1 X-5.804F3000S1000
G1 X-17.017F5000S0
G1 X-5.775F3000S1000
G1 X-4.183F5000S0
G1 X-3.56F3000S1000
G0 X-1.25
G0 X-0.058Y0.1
G0 X1.25
G1 X3.553
G1 X4.162F5000S0
G1 X5.718F3000S1000
G1 X17.3F5000S0
G1 X5.746F3000S1000
G1 X4.001F5000S0
G1 X3.017F3000S1000
G0 X1.25
G0 X0.053Y0.1
G0 X-1.25
G1 X-3.005
G1 X-3.987F5000S0
G1 X-5.685F3000S1000
G1 X-17.582F5000S0
G1 X-5.662F3000S1000
G1 X-4.14F5000S0
G1 X-3.546F3000S1000
G0 X-1.25
G0 X-0.054Y0.1
G0 X1.25
G1 X3.535
G1 X4.127F5000S0
G1 X5.601F3000S1000
G1 X17.862F5000S0
G1 X5.623F3000S1000
G1 X3.973F5000S0
G1 X2.994F3000S1000
G0 X1.25
G0 X0.053Y0.1
G0 X-1.25
G1 X-2.983
G1 X-3.957F5000S0
G1 X-5.563F3000S1000
G1 X-18.13F5000S0
G1 X-5.552F3000S1000
G1 X-4.112F5000S0
G1 X-3.522F3000S1000
G0 X-1.25
G0 X-0.051Y0.1
G0 X1.25
G1 X3.509
G1 X4.097F5000S0
G1 X5.503F3000S1000
G1 X18.383F5000S0
G1 X5.517F3000S1000
G1 X3.943F5000S0
G1 X2.972F3000S1000
G0 X1.25
G0 X0.053Y0.1
G0 X-1.25
G1 X-2.96
G1 X-3.929F5000S0
G1 X-5.475F3000S1000
G1 X-18.632F5000S0
G1 X-5.453F3000S1000
G1 X-4.083F5000S0
G1 X-3.496F3000S1000
G0 X-1.25
G0 X-0.051Y0.1
G0 X1.25
G1 X3.483
G1 X4.068F5000S0
G1 X5.404F3000S1000
G1 X18.882F5000S0
G1 X5.432F3000S1000
G1 X3.915F5000S0
G1 X2.949F3000S1000
G0 X1.25
G0 X0.049Y0.1
G0 X-1.25
G1 X-2.938
G1 X-3.895F5000S0
G1 X-5.39F3000S1000
G1 X-19.125F5000S0
G1 X-5.362F3000S1000
G1 X-4.048F5000S0
G1 X-3.475F3000S1000
G0 X-1.25
G0 X-0.052Y0.1
G0 X1.25
G1 X3.468
G1 X4.031F5000S0
G1 X5.323F3000S1000
G1 X19.361F5000S0
G1 X5.342F3000S1000
G1 X3.881F5000S0
G1 X2.928F3000S1000
G0 X1.25
G0 X0.048Y0.1
G0 X-1.25
G1 X-2.918
G1 X-3.868F5000S0
G1 X-5.291F3000S1000
G1 X-19.598F5000S0
G1 X-5.279F3000S1000
G1 X-4.019F5000S0
G1 X-3.46F3000S1000
G0 X-1.25
G0 X-0.051Y0.1
G0 X1.25
G1 X3.452
G1 X4.006F5000S0
G1 X5.235F3000S1000
G1 X19.831F5000S0
G1 X5.244F3000S1000
G1 X3.856F5000S0
G1 X2.909F3000S1000
G0 X1.25
G0 X0.049Y0.1
G0 X-1.25
G1 X-2.9
G1 X-3.843F5000S0
G1 X-5.209F3000S1000
G1 X-20.052F5000S0
G1 X-5.191F3000S1000
G1 X-3.995F5000S0
G1 X-3.443F3000S1000
G0 X-1.25
G0 X-0.049Y0.1
G0 X1.25
G1 X3.433
G1 X3.982F5000S0
G1 X5.154F3000S1000
G1 X20.267F5000S0
G1 X5.173F3000S1000
G1 X3.831F5000S0
G1 X2.891F3000S1000
G0 X1.25
G0 X0.049Y0.1
G0 X-1.25
G1 X-2.881
G1 X-3.82F5000S0
G1 X-5.137F3000S1000
G1 X-20.477F5000S0
G1 X-5.121F3000S1000
G1 X-3.969F5000S0
G1 X-3.421F3000S1000
G0 X-1.25
G0 X-0.045Y0.1
G0 X1.25
G1 X3.412
G1 X3.951F5000S0
G1 X5.089F3000S1000
G1 X20.687F5000S0
G1 X5.102F3000S1000
G1 X3.807F5000S0
G1 X2.872F3000S1000
G0 X1.25
G0 X0.045Y0.1
G0 X-1.25
G1 X-2.859
G1 X-3.795F5000S0
G1 X-5.066F3000S1000
G1 X-20.897F5000S0
G1 X-5.053F3000S1000
G1 X-3.937F5000S0
G1 X-3.404F3000S1000
G0 X-1.25
G0 X-0.045Y0.1
G0 X1.25
G1 X3.394
G1 X3.927F5000S0
G1 X5.014F3000S1000
G1 X21.107F5000S0
G1 X5.03F3000S1000
G1 X3.78F5000S0
G1 X2.848F3000S1000
G0 X1.25
G0 X0.045Y0.1
G0 X-1.25
G1 X-2.841
G1 X-3.77F5000S0
G1 X-4.99F3000S1000
G1 X-21.31F5000S0
G1 X-4.978F3000S1000
G1 X-3.916F5000S0
G1 X-3.385F3000S1000
G0 X-1.25
G0 X-0.046Y0.1
G0 X1.25
G1 X3.377
G1 X3.905F5000S0
G1 X4.95F3000S1000
G1 X21.496F5000S0
G1 X4.959F3000S1000
G1 X3.76F5000S0
G1 X2.833F3000S1000
G0 X1.25
G0 X0.044Y0.1
G0 X-1.25
G1 X-2.825
G1 X-3.75F5000S0
G1 X-4.929F3000S1000
G1 X-21.682F5000S0
G1 X-4.921F3000S1000
G1 X-3.894F5000S0
G1 X-3.368F3000S1000
G0 X-1.25
G0 X-0.045Y0.1
G0 X1.25
G1 X3.359
G1 X3.884F5000S0
G1 X4.891F3000S1000
G1 X21.869F5000S0
G1 X4.899F3000S1000
G1 X3.739F5000S0
G1 X2.818F3000S1000
G0 X1.25
G0 X0.044Y0.1
G0 X-1.25
G1 X-2.81
G1 X-3.729F5000S0
G1 X-4.869F3000S1000
G1 X-22.055F5000S0
G1 X-4.862F3000S1000
G1 X-3.869F5000S0
G1 X-3.355F3000S1000
G0 X-1.25
G0 X-0.045Y0.1
G0 X1.25
G1 X3.351
G1 X3.855F5000S0
G1 X4.831F3000S1000
G1 X22.242F5000S0
G1 X4.838F3000S1000
G1 X3.719F5000S0
G1 X2.803F3000S1000
G0 X1.25
G0 X0.041Y0.1
G0 X-1.25
G1 X-2.792
G1 X-3.709F5000S0
G1 X-4.808F3000S1000
G1 X-22.421F5000S0
G1 X-4.803F3000S1000
G1 X-3.846F5000S0
G1 X-3.342F3000S1000
G0 X-1.25
G0 X-0.04Y0.1
G0 X1.25
G1 X3.333
G1 X3.837F5000S0
G1 X4.776F3000S1000
G1 X22.599F5000S0
G1 X4.778F3000S1000
G1 X3.698F5000S0
G1 X2.78F3000S1000
G0 X1.25
G0 X0.04Y0.1
G0 X-1.25
G1 X-2.77
G1 X-3.688F5000S0
G1 X-4.755F3000S1000
G1 X-22.766F5000S0
G1 X-4.751F3000S1000
G1 X-3.827F5000S0
G1 X-3.324F3000S1000
G0 X-1.25
G0 X-0.04Y0.1
G0 X1.25
G1 X3.314
G1 X3.819F5000S0
G1 X4.724F3000S1000
G1 X3.94F5000S0
G1 X0.132F3000S1000
G1 X14.123F5000S0
G1 X0.097F3000S1000
G1 X4.64F5000S0
G1 X4.728F3000S1000
G1 X3.68F5000S0
G1 X2.764F3000S1000
G0 X1.25
G0 X0.041Y0.1
G0 X-1.25
G1 X-2.759
G1 X-3.671F5000S0
G1 X-4.703F3000S1000
G1 X-4.705F5000S0
G1 X-0.353F3000S1000
G1 X-13.674F5000S0
G1 X-0.334F3000S1000
G1 X-4.031F5000S0
G1 X-4.698F3000S1000
G1 X-3.809F5000S0
G1 X-3.304F3000S1000
G0 X-1.25
G0 X-0.04Y0.1
G0 X1.25
G1 X3.297
G1 X3.798F5000S0
G1 X4.671F3000S1000
G1 X4.128F5000S0
G1 X0.528F3000S1000
G1 X13.256F5000S0
G1 X0.558F3000S1000
G1 X4.793F5000S0
G1 X4.677F3000S1000
G1 X3.662F5000S0
G1 X2.753F3000S1000
G0 X1.25
G0 X0.04Y0.1
G0 X-1.25
G1 X-2.747
G1 X-3.654F5000S0
G1 X-4.65F3000S1000
G1 X-4.886F5000S0
G1 X-0.749F3000S1000
G1 X-12.851F5000S0
G1 X-0.716F3000S1000
G1 X-4.218F5000S0
G1 X-4.654F3000S1000
G1 X-3.783F5000S0
G1 X-3.293F3000S1000
G0 X-1.25
G0 X-0.04Y0.1
G0 X1.25
G1 X3.288
G1 X3.776F5000S0
G1 X4.629F3000S1000
G1 X4.31F5000S0
G1 X0.901F3000S1000
G1 X12.449F5000S0
G1 X0.938F3000S1000
G1 X4.98F5000S0
G1 X4.624F3000S1000
G1 X3.645F5000S0
G1 X2.741F3000S1000
G0 X1.25
G0 X0.039Y0.1
G0 X-1.25
G1 X-2.734
G1 X-3.637F5000S0
G1 X-4.598F3000S1000
G1 X-5.078F5000S0
G1 X-1.12F3000S1000
G1 X-12.049F5000S0
G1 X-1.085F3000S1000
G1 X-4.402F5000S0
G1 X-4.606F3000S1000
G1 X-3.768F5000S0
G1 X-3.283F3000S1000
G0 X-1.25
G0 X-0.04Y0.1
G0 X1.25
G1 X3.278
G1 X3.761F5000S0
G1 X4.582F3000S1000
G1 X4.494F5000S0
G1 X1.269F3000S1000
G1 X11.652F5000S0
G1 X1.3F3000S1000
G1 X5.176F5000S0
G1 X4.572F3000S1000
G1 X3.628F5000S0
G1 X2.724F3000S1000
G0 X1.25
G0 X0.036Y0.1
G0 X-1.25
G1 X-2.714
G1 X-3.619F5000S0
G1 X-4.555F3000S1000
G1 X-5.267F5000S0
G1 X-1.478F3000S1000
G1 X-11.254F5000S0
G1 X-1.453F3000S1000
G1 X-4.588F5000S0
G1 X-4.558F3000S1000
G1 X-3.753F5000S0
G1 X-3.272F3000S1000
G0 X-1.25
G0 X-0.034Y0.1
G0 X1.25
G1 X3.261
G1 X3.746F5000S0
G1 X4.534F3000S1000
G1 X4.681F5000S0
G1 X1.634F3000S1000
G1 X10.86F5000S0
G1 X1.655F3000S1000
G1 X5.356F5000S0
G1 X4.539F3000S1000
G1 X3.611F5000S0
G1 X2.704F3000S1000
G0 X1.25
G0 X0.036Y0.1
G0 X-1.25
G1 X-2.698
G1 X-3.603F5000S0
G1 X-4.519F3000S1000
G1 X-5.444F5000S0
G1 X-1.834F3000S1000
G1 X-10.466F5000S0
G1 X-1.813F3000S1000
G1 X-4.769F5000S0
G1 X-4.517F3000S1000
G1 X-3.736F5000S0
G1 X-3.253F3000S1000
G0 X-1.25
G0 X-0.035Y0.1
G0 X1.25
G1 X3.248
G1 X3.723F5000S0
G1 X4.501F3000S1000
G1 X4.855F5000S0
G1 X1.993F3000S1000
G1 X10.072F5000S0
G1 X2.012F3000S1000
G1 X5.533F5000S0
G1 X4.5F3000S1000
G1 X3.592F5000S0
G1 X2.694F3000S1000
G0 X1.25
G0 X0.036Y0.1
G0 X-1.25
G1 X-2.69
G1 X-3.582F5000S0
G1 X-4.48F3000S1000
G1 X-5.621F5000S0
G1 X-2.191F3000S1000
G1 X-9.677F5000S0
G1 X-2.173F3000S1000
G1 X-4.941F5000S0
G1 X-4.482F3000S1000
G1 X-3.713F5000S0
G1 X-3.243F3000S1000
G0 X-1.25
G0 X-0.035Y0.1
G0 X1.25
G1 X3.239
G1 X3.705F5000S0
G1 X4.46F3000S1000
G1 X5.027F5000S0
G1 X2.353F3000S1000
G1 X9.285F5000S0
G1 X2.368F3000S1000
G1 X5.709F5000S0
G1 X4.461F3000S1000
G1 X3.571F5000S0
G1 X2.686F3000S1000
G0 X1.25
G0 X0.036Y0.1
G0 X-1.25
G1 X-2.681
G1 X-3.563F5000S0
G1 X-4.439F3000S1000
G1 X-5.797F5000S0
G1 X-2.546F3000S1000
G1 X-8.893F5000S0
G1 X-2.532F3000S1000
G1 X-5.113F5000S0
G1 X-4.439F3000S1000
G1 X-3.698F5000S0
G1 X-3.233F3000S1000
G0 X-1.25
G0 X-0.035Y0.1
G0 X1.25
G1 X3.229
G1 X3.69F5000S0
G1 X4.417F3000S1000
G1 X5.2F5000S0
G1 X2.711F3000S1000
G1 X8.501F5000S0
G1 X2.723F3000S1000
G1 X5.885F5000S0
G1 X4.418F3000S1000
G1 X3.554F5000S0
G1 X2.673F3000S1000
G0 X1.25
G0 X0.032Y0.1
G0 X-1.25
G1 X-2.665
G1 X-3.545F5000S0
G1 X-4.402F3000S1000
G1 X-5.968F5000S0
G1 X-2.899F3000S1000
G1 X-8.111F5000S0
G1 X-2.89F3000S1000
G1 X-5.282F5000S0
G1 X-4.399F3000S1000
G1 X-3.682F5000S0
G1 X-3.224F3000S1000
G0 X-1.25
G0 X-0.035Y0.1
G0 X1.25
G1 X3.219
G1 X3.676F5000S0
G1 X4.384F3000S1000
G1 X5.361F5000S0
G1 X3.068F3000S1000
G1 X7.72F5000S0
G1 X3.077F3000S1000
G1 X6.045F5000S0
G1 X4.39F3000S1000
G1 X3.537F5000S0
G1 X2.657F3000S1000
G0 X1.25
G0 X0.032Y0.1
G0 X-1.25
G1 X-2.648
G1 X-3.531F5000S0
G1 X-4.376F3000S1000
G1 X-6.124F5000S0
G1 X-3.254F3000S1000
G1 X-7.329F5000S0
G1 X-3.247F3000S1000
G1 X-5.44F5000S0
G1 X-4.369F3000S1000
G1 X-3.668F5000S0
G1 X-3.214F3000S1000
G0 X-1.25
G0 X-0.034Y0.1
G0 X1.25
G1 X3.209
G1 X3.66F5000S0
G1 X4.355F3000S1000
G1 X5.519F5000S0
G1 X3.425F3000S1000
G1 X6.938F5000S0
G1 X3.431F3000S1000
G1 X6.202F5000S0
G1 X4.363F3000S1000
G1 X3.524F5000S0
G1 X2.64F3000S1000
G0 X1.25
G0 X0.032Y0.1
G0 X-1.25
G1 X-2.637
G1 X-3.513F5000S0
G1 X-4.348F3000S1000
G1 X-6.28F5000S0
G1 X-3.609F3000S1000
G1 X-6.547F5000S0
G1 X-3.604F3000S1000
G1 X-5.598F5000S0
G1 X-4.335F3000S1000
G1 X-3.658F5000S0
G1 X-3.198F3000S1000
G0 X-1.25
G0 X-0.03Y0.1
G0 X1.25
G1 X3.189
G1 X3.655F5000S0
G1 X4.316F3000S1000
G1 X5.677F5000S0
G1 X3.782F3000S1000
G1 X6.156F5000S0
G1 X3.786F3000S1000
G1 X6.359F5000S0
G1 X4.332F3000S1000
G1 X3.503F5000S0
G1 X2.634F3000S1000
G0 X1.25
G0 X0.032Y0.1
G0 X-1.25
G1 X-2.631
G1 X-3.495F5000S0
G1 X-4.315F3000S1000
G1 X-6.437F5000S0
G1 X-3.963F3000S1000
G1 X-5.765F5000S0
G1 X-3.961F3000S1000
G1 X-5.756F5000S0
G1 X-4.295F3000S1000
G1 X-3.651F5000S0
G1 X-3.181F3000S1000
G0 X-1.25
G0 X-0.029Y0.1
G0 X1.25
G1 X3.177
G1 X3.642F5000S0
G1 X4.282F3000S1000
G1 X5.829F5000S0
G1 X4.139F3000S1000
G1 X5.374F5000S0
G1 X4.141F3000S1000
G1 X6.515F5000S0
G1 X4.298F3000S1000
G1 X3.486F5000S0
G1 X2.628F3000S1000
G0 X1.25
G0 X0.028Y0.1
G0 X-1.25
G1 X-2.621
G1 X-3.48F5000S0
G1 X-4.279F3000S1000
G1 X-6.593F5000S0
G1 X-4.318F3000S1000
G1 X-4.983F5000S0
G1 X-4.318F3000S1000
G1 X-5.901F5000S0
G1 X-4.268F3000S1000
G1 X-3.634F5000S0
G1 X-3.174F3000S1000
G0 X-1.25
G0 X-0.029Y0.1
G0 X1.25
G1 X3.17
G1 X3.626F5000S0
G1 X4.255F3000S1000
G1 X5.973F5000S0
G1 X4.496F3000S1000
G1 X4.593F5000S0
G1 X4.494F3000S1000
G1 X6.664F5000S0
G1 X4.267F3000S1000
G1 X3.474F5000S0
G1 X2.614F3000S1000
G0 X1.25
G0 X0.028Y0.1
G0 X-1.25
G1 X-2.607
G1 X-3.469F5000S0
G1 X-4.255F3000S1000
G1 X-6.733F5000S0
G1 X-4.671F3000S1000
G1 X-4.202F5000S0
G1 X-4.676F3000S1000
G1 X-6.045F5000S0
G1 X-4.242F3000S1000
G1 X-3.617F5000S0
G1 X-3.167F3000S1000
G0 X-1.25
G0 X-0.029Y0.1
G0 X1.25
G1 X3.163
G1 X3.609F5000S0
G1 X4.228F3000S1000
G1 X6.118F5000S0
G1 X4.855F3000S1000
G1 X3.812F5000S0
G1 X4.846F3000S1000
G1 X6.803F5000S0
G1 X4.241F3000S1000
G1 X3.466F5000S0
G1 X2.6F3000S1000
G0 X1.25
G0 X0.028Y0.1
G0 X-1.25
G1 X-2.593
G1 X-3.463F5000S0
G1 X-4.228F3000S1000
G1 X-6.872F5000S0
G1 X-5.022F3000S1000
G1 X-3.42F5000S0
G1 X-5.036F3000S1000
G1 X-6.189F5000S0
G1 X-4.21F3000S1000
G1 X-3.606F5000S0
G1 X-3.159F3000S1000
G0 X-1.25
G0 X-0.03Y0.1
G0 X1.25
G1 X3.156
G1 X3.603F5000S0
G1 X4.191F3000S1000
G1 X6.262F5000S0
G1 X5.215F3000S1000
G1 X3.03F5000S0
G1 X5.197F3000S1000
G1 X6.942F5000S0
G1 X4.213F3000S1000
G1 X3.459F5000S0
G1 X2.588F3000S1000
G0 X1.25
G0 X0.028Y0.1
G0 X-1.25
G1 X-2.586
G1 X-3.453F5000S0
G1 X-4.197F3000S1000
G1 X-7.011F5000S0
G1 X-5.373F3000S1000
G1 X-2.639F5000S0
G1 X-5.396F3000S1000
G1 X-6.327F5000S0
G1 X-4.179F3000S1000
G1 X-3.6F5000S0
G1 X-3.152F3000S1000
G0 X-1.25
G0 X-0.024Y0.1
G0 X1.25
G1 X3.143
G1 X3.596F5000S0
G1 X4.168F3000S1000
G1 X6.393F5000S0
G1 X5.576F3000S1000
G1 X2.247F5000S0
G1 X5.549F3000S1000
G1 X7.081F5000S0
G1 X4.179F3000S1000
G1 X3.449F5000S0
G1 X2.584F3000S1000
G0 X1.25
G0 X0.027Y0.1
G0 X-1.25
G1 X-2.581
G1 X-3.444F5000S0
G1 X-4.163F3000S1000
G1 X-7.15F5000S0
G1 X-5.724F3000S1000
G1 X-1.854F5000S0
G1 X-5.758F3000S1000
G1 X-6.46F5000S0
G1 X-4.155F3000S1000
G1 X-3.593F5000S0
G1 X-3.135F3000S1000
G0 X-1.25
G0 X-0.024Y0.1
G0 X1.25
G1 X3.126
G1 X3.59F5000S0
G1 X4.143F3000S1000
G1 X6.525F5000S0
G1 X5.942F3000S1000
G1 X1.459F5000S0
G1 X5.901F3000S1000
G1 X7.219F5000S0
G1 X4.145F3000S1000
G1 X3.441F5000S0
G1 X2.575F3000S1000
G0 X1.25
G0 X0.024Y0.1
G0 X-1.25
G1 X-2.569
G1 X-3.438F5000S0
G1 X-4.133F3000S1000
G1 X-7.282F5000S0
G1 X-6.077F3000S1000
G1 X-1.065F5000S0
G1 X-6.124F3000S1000
G1 X-6.592F5000S0
G1 X-4.13F3000S1000
G1 X-3.585F5000S0
G1 X-3.12F3000S1000
G0 X-1.25
G0 X-0.024Y0.1
G0 X1.25
G1 X3.118
G1 X3.575F5000S0
G1 X4.118F3000S1000
G1 X6.657F5000S0
G1 X6.308F3000S1000
G1 X0.663S0
G1 X6.26S1000
G1 X7.343F5000S0
G1 X4.123F3000S1000
G1 X3.435F5000S0
G1 X2.563F3000S1000
G0 X1.25
G0 X0.025Y0.1
G0 X-1.25
G1 X-2.558
G1 X-3.432F5000S0
G1 X-4.112F3000S1000
G1 X-7.404F5000S0
G1 X-6.452F3000S1000
G1 X-0.25S0
G1 X-6.494S1000
G1 X-6.723F5000S0
G1 X-4.101F3000S1000
G1 X-3.571F5000S0
G1 X-3.115F3000S1000
G0 X-1.25
G0 X-0.025Y0.1
G0 X1.25
G1 X3.113
G1 X3.567F5000S0
G1 X4.091F3000S1000
G1 X6.781F5000S0
G1 X13.161F3000S1000
G1 X7.465F5000S0
G1 X4.101F3000S1000
G1 X3.43F5000S0
G1 X2.552F3000S1000
G0 X1.25
G0 X0.024Y0.1
G0 X-1.25
G1 X-2.545
G1 X-3.43F5000S0
G1 X-4.089F3000S1000
G1 X-7.526F5000S0
G1 X-13.125F3000S1000
G1 X-6.84F5000S0
G1 X-4.081F3000S1000
G1 X-3.563F5000S0
G1 X-3.11F3000S1000
G0 X-1.25
G0 X-0.025Y0.1
G0 X1.25
G1 X3.108
G1 X3.559F5000S0
G1 X4.071F3000S1000
G1 X6.898F5000S0
G1 X13.091F3000S1000
G1 X7.587F5000S0
G1 X4.075F3000S1000
G1 X3.425F5000S0
G1 X2.545F3000S1000
G0 X1.25
G0 X0.024Y0.1
G0 X-1.25
G1 X-2.543
G1 X-3.421F5000S0
G1 X-4.062F3000S1000
G1 X-7.648F5000S0
G1 X-13.055F3000S1000
G1 X-6.957F5000S0
G1 X-4.061F3000S1000
G1 X-3.555F5000S0
G1 X-3.105F3000S1000
G0 X-1.25
G0 X-0.024Y0.1
G0 X1.25
G1 X3.102
G1 X3.551F5000S0
G1 X4.052F3000S1000
G1 X7.014F5000S0
G1 X13.02F3000S1000
G1 X7.71F5000S0
G1 X4.049F3000S1000
G1 X3.415F5000S0
G1 X2.541F3000S1000
G0 X1.25
G0 X0.021Y0.1
G0 X-1.25
G1 X-2.536
G1 X-3.411F5000S0
G1 X-4.036F3000S1000
G1 X-7.77F5000S0
G1 X-12.985F3000S1000
G1 X-7.073F5000S0
G1 X-4.042F3000S1000
G1 X-3.547F5000S0
G1 X-3.097F3000S1000
G0 X-1.25
G0 X-0.019Y0.1
G0 X1.25
G1 X3.089
G1 X3.543F5000S0
G1 X4.032F3000S1000
G1 X7.131F5000S0
G1 X12.95F3000S1000
G1 X7.827F5000S0
G1 X4.028F3000S1000
G1 X3.405F5000S0
G1 X2.531F3000S1000
G0 X1.25
G0 X0.021Y0.1
G0 X-1.25
G1 X-2.527
G1 X-3.4F5000S0
G1 X-4.022F3000S1000
G1 X-7.881F5000S0
G1 X-12.914F3000S1000
G1 X-7.19F5000S0
G1 X-4.018F3000S1000
G1 X-3.542F5000S0
G1 X-3.083F3000S1000
G0 X-1.25
G0 X-0.019Y0.1
G0 X1.25
G1 X3.075
G1 X3.543F5000S0
G1 X4.003F3000S1000
G1 X7.248F5000S0
G1 X12.88F3000S1000
G1 X7.934F5000S0
G1 X4.012F3000S1000
G1 X3.4F5000S0
G1 X2.522F3000S1000
G0 X1.25
G0 X0.02Y0.1
G0 X-1.25
G1 X-2.517
G1 X-3.399F5000S0
G1 X-4.003F3000S1000
G1 X-7.987F5000S0
G1 X-12.844F3000S1000
G1 X-7.302F5000S0
G1 X-3.993F3000S1000
G1 X-3.543F5000S0
G1 X-3.069F3000S1000
G0 X-1.25
G0 X-0.019Y0.1
G0 X1.25
G1 X3.067
G1 X3.538F5000S0
G1 X3.986F3000S1000
G1 X7.352F5000S0
G1 X12.809F3000S1000
G1 X8.041F5000S0
G1 X3.994F3000S1000
G1 X3.397F5000S0
G1 X2.513F3000S1000
G0 X1.25
G0 X0.021Y0.1
G0 X-1.25
G1 X-2.51
G1 X-3.395F5000S0
G1 X-3.985F3000S1000
G1 X-8.094F5000S0
G1 X-12.773F3000S1000
G1 X-7.403F5000S0
G1 X-3.979F3000S1000
G1 X-3.533F5000S0
G1 X-3.066F3000S1000
G0 X-1.25
G0 X-0.019Y0.1
G0 X1.25
G1 X3.064
G1 X3.528F5000S0
G1 X3.973F3000S1000
G1 X7.452F5000S0
G1 X12.739F3000S1000
G1 X8.147F5000S0
G1 X3.976F3000S1000
G1 X3.389F5000S0
G1 X2.509F3000S1000
G0 X1.25
G0 X0.02Y0.1
G0 X-1.25
G1 X-2.509
G1 X-3.383F5000S0
G1 X-3.966F3000S1000
G1 X-8.201F5000S0
G1 X-12.703F3000S1000
G1 X-7.503F5000S0
G1 X-3.966F3000S1000
G1 X-3.523F5000S0
G1 X-3.063F3000S1000
G0 X-1.25
G0 X-0.019Y0.1
G0 X1.25
G1 X3.061
G1 X3.518F5000S0
G1 X3.96F3000S1000
G1 X7.553F5000S0
G1 X12.667F3000S1000
G1 X8.254F5000S0
G1 X3.957F3000S1000
G1 X3.378F5000S0
G1 X2.505F3000S1000
G0 X1.25
G0 X0.017Y0.1
G0 X-1.25
G1 X-2.502
G1 X-3.375F5000S0
G1 X-3.944F3000S1000
G1 X-8.307F5000S0
G1 X-12.633F3000S1000
G1 X-7.603F5000S0
G1 X-3.951F3000S1000
G1 X-3.514F5000S0
G1 X-3.061F3000S1000
G0 X-1.25
G0 X-0.019Y0.1
G0 X1.25
G1 X3.059
G1 X3.514F5000S0
G1 X3.939F3000S1000
G1 X7.654F5000S0
G1 X12.597F3000S1000
G1 X8.353F5000S0
G1 X3.938F3000S1000
G1 X3.374F5000S0
G1 X2.498F3000S1000
G0 X1.25
G0 X0.017Y0.1
G0 X-1.25
G1 X-2.495
G1 X-3.372F5000S0
G1 X-3.932F3000S1000
G1 X-8.399F5000S0
G1 X-12.562F3000S1000
G1 X-7.703F5000S0
G1 X-3.928F3000S1000
G1 X-3.514F5000S0
G1 X-3.053F3000S1000
G0 X-1.25
G0 X-0.014Y0.1
G0 X1.25
G1 X3.046
G1 X3.514F5000S0
G1 X3.916F3000S1000
G1 X7.754F5000S0
G1 X12.527F3000S1000
G1 X8.444F5000S0
G1 X3.926F3000S1000
G1 X3.371F5000S0
G1 X2.492F3000S1000
G0 X1.25
G0 X0.017Y0.1
G0 X-1.25
G1 X-2.489
G1 X-3.368F5000S0
G1 X-3.921F3000S1000
G1 X-8.49F5000S0
G1 X-12.492F3000S1000
G1 X-7.8F5000S0
G1 X-3.909F3000S1000
G1 X-3.513F5000S0
G1 X-3.04F3000S1000
G0 X-1.25
G0 X-0.015Y0.1
G0 X1.25
G1 X3.034
G1 X3.513F5000S0
G1 X3.905F3000S1000
G1 X7.843F5000S0
G1 X12.456F3000S1000
G1 X8.536F5000S0
G1 X3.915F3000S1000
G1 X3.367F5000S0
G1 X2.485F3000S1000
G0 X1.25
G0 X0.017Y0.1
G0 X-1.25
G1 X-2.485
G1 X-3.362F5000S0
G1 X-3.909F3000S1000
G1 X-8.581F5000S0
G1 X-12.422F3000S1000
G1 X-7.885F5000S0
G1 X-3.901F3000S1000
G1 X-3.513F5000S0
G1 X-3.028F3000S1000
G0 X-1.25
G0 X-0.014Y0.1
G0 X1.25
G1 X3.026
G1 X3.508F5000S0
G1 X3.897F3000S1000
G1 X7.928F5000S0
G1 X12.386F3000S1000
G1 X8.628F5000S0
G1 X3.898F3000S1000
G1 X3.36F5000S0
G1 X2.486F3000S1000
G0 X1.25
G0 X0.013Y0.1
G0 X-1.25
G1 X-2.483
G1 X-3.359F5000S0
G1 X-3.887F3000S1000
G1 X-8.674F5000S0
G1 X-12.35F3000S1000
G1 X-7.971F5000S0
G1 X-3.892F3000S1000
G1 X-3.503F5000S0
G1 X-3.026F3000S1000
G0 X-1.25
G0 X-0.015Y0.1
G0 X1.25
G1 X3.026
G1 X3.501F5000S0
G1 X3.883F3000S1000
G1 X8.015F5000S0
G1 X12.315F3000S1000
G1 X8.719F5000S0
G1 X3.877F3000S1000
G1 X3.357F5000S0
G1 X2.481F3000S1000
G0 X1.25
G0 X0.014Y0.1
G0 X-1.25
G1 X-2.48
G1 X-3.354F5000S0
G1 X-3.869F3000S1000
G1 X-8.763F5000S0
G1 X-12.279F3000S1000
G1 X-8.058F5000S0
G1 X-3.874F3000S1000
G1 X-3.5F5000S0
G1 X-3.026F3000S1000
G0 X-1.25
G0 X-0.015Y0.1
G0 X1.25
G1 X3.026
G1 X3.498F5000S0
G1 X3.866F3000S1000
G1 X8.101F5000S0
G1 X12.243F3000S1000
G1 X8.802F5000S0
G1 X3.866F3000S1000
G1 X3.352F5000S0
G1 X2.477F3000S1000
G0 X1.25
G0 X0.014Y0.1
G0 X-1.25
G1 X-2.475
G1 X-3.35F5000S0
G1 X-3.863F3000S1000
G1 X-8.841F5000S0
G1 X-12.207F3000S1000
G1 X-8.144F5000S0
G1 X-3.857F3000S1000
G1 X-3.497F5000S0
G1 X-3.025F3000S1000
G0 X-1.25
G0 X-0.013Y0.1
G0 X1.25
G1 X3.023
G1 X3.495F5000S0
G1 X3.849F3000S1000
G1 X8.187F5000S0
G1 X12.172F3000S1000
G1 X8.878F5000S0
G1 X3.861F3000S1000
G1 X3.348F5000S0
G1 X2.472F3000S1000
G0 X1.25
G0 X0.014Y0.1
G0 X-1.25
G1 X-2.471
G1 X-3.35F5000S0
G1 X-3.853F3000S1000
G1 X-8.917F5000S0
G1 X-12.136F3000S1000
G1 X-8.23F5000S0
G1 X-3.841F3000S1000
G1 X-3.493F5000S0
G1 X-3.018F3000S1000
G0 X-1.25
G0 X-0.01Y0.1
G0 X1.25
G1 X3.013
G1 X3.492F5000S0
G1 X3.839F3000S1000
G1 X8.266F5000S0
G1 X12.1F3000S1000
G1 X8.956F5000S0
G1 X3.846F3000S1000
G1 X3.352F5000S0
G1 X2.469F3000S1000
G0 X1.25
G0 X0.013Y0.1
G0 X-1.25
G1 X-2.47
G1 X-3.351F5000S0
G1 X-3.838F3000S1000
G1 X-8.994F5000S0
G1 X-12.065F3000S1000
G1 X-8.302F5000S0
G1 X-3.838F3000S1000
G1 X-3.49F5000S0
G1 X-3.007F3000S1000
G0 X-1.25
G0 X-0.01Y0.1
G0 X1.25
G1 X3.002
G1 X3.492F5000S0
G1 X3.833F3000S1000
G1 X8.338F5000S0
G1 X12.029F3000S1000
G1 X9.033F5000S0
G1 X3.831F3000S1000
G1 X3.348F5000S0
G1 X2.47F3000S1000
G0 X1.25
G0 X0.01Y0.1
G0 X-1.25
G1 X-2.469
G1 X-3.346F5000S0
G1 X-3.823F3000S1000
G1 X-9.072F5000S0
G1 X-11.993F3000S1000
G1 X-8.374F5000S0
G1 X-3.826F3000S1000
G1 X-3.496F5000S0
G1 X-2.997F3000S1000
G0 X-1.25
G0 X-0.01Y0.1
G0 X1.25
G1 X2.994
G1 X3.497F5000S0
G1 X3.82F3000S1000
G1 X8.41F5000S0
G1 X11.958F3000S1000
G1 X9.109F5000S0
G1 X3.817F3000S1000
G1 X3.343F5000S0
G1 X2.465F3000S1000
G0 X1.25
G0 X0.006Y0.1
G0 X-1.25
G1 X-2.46
G1 X-3.341F5000S0
G1 X-3.811F3000S1000
G1 X-9.146F5000S0
G1 X-11.921F3000S1000
G1 X-8.448F5000S0
G1 X-3.813F3000S1000
G1 X-3.494F5000S0
G1 X-2.995F3000S1000
G0 X-1.25
G0 X-0.009Y0.1
G0 X1.25
G1 X2.995
G1 X3.491F5000S0
G1 X3.807F3000S1000
G1 X8.485F5000S0
G1 X11.884F3000S1000
G1 X9.178F5000S0
G1 X3.807F3000S1000
G1 X3.342F5000S0
G1 X2.455F3000S1000
G0 X1.25
G0 X0.005Y0.1
G0 X-1.25
G1 X-2.449
G1 X-3.344F5000S0
G1 X-3.803F3000S1000
G1 X-9.208F5000S0
G1 X-11.847F3000S1000
G1 X-8.523F5000S0
G1 X-3.801F3000S1000
G1 X-3.489F5000S0
G1 X-2.995F3000S1000
G0 X-1.25
G0 X-0.01Y0.1
G0 X1.25
G1 X2.996
G1 X3.486F5000S0
G1 X3.795F3000S1000
G1 X8.561F5000S0
G1 X11.809F3000S1000
G1 X9.24F5000S0
G1 X3.798F3000S1000
G1 X3.346F5000S0
G1 X2.443F3000S1000
G0 X1.25
G0 Y0.1
G0 X-1.246
G1 X-2.436
G1 X-3.348F5000S0
G1 X-3.793F3000S1000
G1 X-9.272F5000S0
G1 X-11.772F3000S1000
G1 X-8.598F5000S0
G1 X-3.789F3000S1000
G1 X-3.483F5000S0
G1 X-2.997F3000S1000
G0 X-1.25
G0 X-0.009Y0.1
G0 X1.25
G1 X2.997
G1 X3.481F5000S0
G1 X3.785F3000S1000
G1 X8.633F5000S0
G1 X11.735F3000S1000
G1 X9.302F5000S0
G1 X3.79F3000S1000
G1 X3.349F5000S0
G1 X2.429F3000S1000
G0 X1.25
G0 Y0.1
G0 X-1.247
G1 X-2.426
G1 X-3.346F5000S0
G1 X-3.785F3000S1000
G1 X-9.334F5000S0
G1 X-11.697F3000S1000
G1 X-8.664F5000S0
G1 X-3.782F3000S1000
G1 X-3.483F5000S0
G1 X-2.992F3000S1000
G0 X-1.25
G0 Y0.1
G0 X1.246
G1 X2.987
G1 X3.485F5000S0
G1 X3.778F3000S1000
G1 X8.58F5000S0
G1 X11.886F3000S1000
G1 X9.254F5000S0
G1 X3.78F3000S1000
G1 X3.344F5000S0
G1 X2.422F3000S1000
G0 X1.25
G0 Y0.1
G0 X-1.248
G1 X-2.418
G1 X-3.344F5000S0
G1 X-3.773F3000S1000
G1 X-9.164F5000S0
G1 X-12.094F3000S1000
G1 X-8.486F5000S0
G1 X-3.772F3000S1000
G1 X-3.489F5000S0
G1 X-2.983F3000S1000
G0 X-1.25
G0 Y0.1
G0 X1.245
G1 X2.978
G1 X3.494F5000S0
G1 X3.769F3000S1000
G1 X8.39F5000S0
G1 X12.302F3000S1000
G1 X9.074F5000S0
G1 X3.765F3000S1000
G1 X3.345F5000S0
G1 X2.414F3000S1000
G0 X1.25
G0 Y0.1
G0 X-1.248
G1 X-2.41
G1 X-3.346F5000S0
G1 X-3.758F3000S1000
G1 X-8.983F5000S0
G1 X-12.51F3000S1000
G1 X-8.292F5000S0
G1 X-3.766F3000S1000
G1 X-3.499F5000S0
G1 X-2.973F3000S1000
G0 X-1.25
G0 Y0.1
G0 X1.245
G1 X2.969
G1 X3.505F5000S0
G1 X3.763F3000S1000
G1 X8.194F5000S0
G1 X12.717F3000S1000
G1 X8.887F5000S0
G1 X3.756F3000S1000
G1 X3.348F5000S0
G1 X2.405F3000S1000
G0 X1.25
G0 Y0.1
G0 X-1.248
G1 X-2.401
G1 X-3.348F5000S0
G1 X-3.755F3000S1000
G1 X-8.79F5000S0
G1 X-12.926F3000S1000
G1 X-8.096F5000S0
G1 X-3.759F3000S1000
G1 X-3.506F5000S0
G1 X-2.969F3000S1000
G0 X-1.25
G0 X-0.005Y0.1
G0 X1.25
G1 X2.971
G1 X3.507F5000S0
G1 X3.754F3000S1000
G1 X7.999F5000S0
G1 X13.135F3000S1000
G1 X8.691F5000S0
G1 X3.754F3000S1000
G1 X3.35F5000S0
G1 X2.396F3000S1000
G0 X1.25
G0 Y0.1
G0 X-1.248
G1 X-2.392
G1 X-3.351F5000S0
G1 X-3.752F3000S1000
G1 X-8.593F5000S0
G1 X-13.345F3000S1000
G1 X-7.897F5000S0
G1 X-3.753F3000S1000
G1 X-3.509F5000S0
G1 X-2.972F3000S1000
G0 X-1.25
G0 Y0.1
G0 X1.246
G1 X2.973
G1 X3.511F5000S0
G1 X3.75F3000S1000
G1 X7.797F5000S0
G1 X13.554F3000S1000
G1 X8.494F5000S0
G1 X3.75F3000S1000
G1 X3.353F5000S0
G1 X2.387F3000S1000
G0 X1.25
G0 Y0.1
G0 X-1.25
G1 X-2.385
G1 X-3.353F5000S0
G1 X-3.745F3000S1000
G1 X-8.396F5000S0
G1 X-13.764F3000S1000
G1 X-7.696F5000S0
G1 X-3.747F3000S1000
G1 X-3.514F5000S0
G1 X-2.974F3000S1000
G0 X-1.25
G0 Y0.1
G0 X1.245
G1 X2.976
G1 X3.517F5000S0
G1 X3.743F3000S1000
G1 X7.595F5000S0
G1 X13.974F3000S1000
G1 X8.298F5000S0
G1 X3.74F3000S1000
G1 X3.353F5000S0
G1 X2.384F3000S1000
G0 X1.25
G0 Y0.1
G0 X-1.249
G1 X-2.383
G1 X-3.354F5000S0
G1 X-3.735F3000S1000
G1 X-8.199F5000S0
G1 X-14.185F3000S1000
G1 X-7.493F5000S0
G1 X-3.74F3000S1000
G1 X-3.52F5000S0
G1 X-2.972F3000S1000
G0 X-1.25
G0 Y0.1
G0 X1.25
G1 X2.968
G1 X3.524F5000S0
G1 X3.737F3000S1000
G1 X7.391F5000S0
G1 X14.395F3000S1000
G1 X8.101F5000S0
G1 X3.73F3000S1000
G1 X3.354F5000S0
G1 X2.381F3000S1000
G0 X1.25
G0 Y0.1
G0 X-1.249
G1 X-2.38
G1 X-3.354F5000S0
G1 X-3.726F3000S1000
G1 X-8.002F5000S0
G1 X-14.605F3000S1000
G1 X-7.288F5000S0
G1 X-3.735F3000S1000
G1 X-3.527F5000S0
G1 X-2.964F3000S1000
G0 X-1.25
G0 Y0.1
G0 X1.25
G1 X2.96
G1 X3.531F5000S0
G1 X3.734F3000S1000
G1 X7.183F5000S0
G1 X14.816F3000S1000
G1 X7.897F5000S0
G1 X3.727F3000S1000
G1 X3.355F5000S0
G1 X2.379F3000S1000
G0 X1.25
G0 Y0.1
G0 X-1.25
G1 X-2.376
G1 X-3.356F5000S0
G1 X-3.729F3000S1000
G1 X-7.792F5000S0
G1 X-15.026F3000S1000
G1 X-7.08F5000S0
G1 X-3.731F3000S1000
G1 X-3.535F5000S0
G1 X-2.957F3000S1000
G0 X-1.25
G0 Y0.1
G0 X1.251
G1 X2.952
G1 X3.54F5000S0
G1 X3.728F3000S1000
G1 X6.976F5000S0
G1 X15.237F3000S1000
G1 X7.686F5000S0
G1 X3.729F3000S1000
G1 X3.359F5000S0
G1 X2.374F3000S1000
G0 X1.25
G0 Y0.1
G0 X-1.251
G1 X-2.371
G1 X-3.363F5000S0
G1 X-3.728F3000S1000
G1 X-7.58F5000S0
G1 X-15.447F3000S1000
G1 X-6.873F5000S0
G1 X-3.725F3000S1000
G1 X-3.541F5000S0
G1 X-2.952F3000S1000
G0 X-1.25
G0 Y0.1
G0 X1.251
G1 X2.953
G1 X3.541F5000S0
G1 X3.723F3000S1000
G1 X6.768F5000S0
G1 X15.657F3000S1000
G1 X7.475F5000S0
G1 X3.725F3000S1000
G1 X3.367F5000S0
G1 X2.369F3000S1000
G0 X1.25
G0 Y0.1
G0 X-1.25
G1 X-2.372
G1 X-3.366F5000S0
G1 X-3.724F3000S1000
G1 X-7.369F5000S0
G1 X-15.868F3000S1000
G1 X-6.662F5000S0
G1 X-3.722F3000S1000
G1 X-3.54F5000S0
G1 X-2.955F3000S1000
G0 X-1.25
G0 Y0.1
G0 X1.25
G1 X2.957
G1 X3.539F5000S0
G1 X3.721F3000S1000
G1 X6.557F5000S0
G1 X16.078F3000S1000
G1 X7.264F5000S0
G1 X3.721F3000S1000
G1 X3.367F5000S0
G1 X2.373F3000S1000
G0 X1.25
G0 Y0.1
G0 X-1.25
G1 X-2.376
G1 X-3.366F5000S0
G1 X-3.72F3000S1000
G1 X-7.158F5000S0
G1 X-16.289F3000S1000
G1 X-6.451F5000S0
G1 X-3.718F3000S1000
G1 X-3.54F5000S0
G1 X-2.958F3000S1000
G0 X-1.25
G0 Y0.1
G0 X1.25
G1 X2.96
G1 X3.54F5000S0
G1 X3.717F3000S1000
G1 X6.345F5000S0
G1 X16.499F3000S1000
G1 X7.053F5000S0
G1 X3.718F3000S1000
G1 X3.365F5000S0
G1 X2.378F3000S1000
G0 X1.25
G0 Y0.1
G0 X-1.251
G1 X-2.379
G1 X-3.366F5000S0
G1 X-3.716F3000S1000
G1 X-6.947F5000S0
G1 X-16.709F3000S1000
G1 X-6.24F5000S0
G1 X-3.714F3000S1000
G1 X-3.54F5000S0
G1 X-2.96F3000S1000
G0 X-1.25
G0 X0.006Y0.1
G0 X1.25
G1 X2.956
G1 X3.541F5000S0
G1 X3.713F3000S1000
G1 X6.132F5000S0
G1 X16.92F3000S1000
G1 X6.837F5000S0
G1 X3.719F3000S1000
G1 X3.365F5000S0
G1 X2.38F3000S1000
G0 X1.25
G0 Y0.1
G0 X-1.252
G1 X-2.381
G1 X-3.365F5000S0
G1 X-3.724F3000S1000
G1 X-6.724F5000S0
G1 X-17.13F3000S1000
G1 X-6.024F5000S0
G1 X-3.713F3000S1000
G1 X-3.542F5000S0
G1 X-2.953F3000S1000
G0 X-1.25
G0 X0.005Y0.1
G0 X1.25
G1 X2.95
G1 X3.543F5000S0
G1 X3.712F3000S1000
G1 X5.916F5000S0
G1 X17.34F3000S1000
G1 X6.612F5000S0
G1 X3.727F3000S1000
G1 X3.368F5000S0
G1 X2.381F3000S1000
G0 X1.25
G0 Y0.1
G0 X-1.252
G1 X-2.382
G1 X-3.373F5000S0
G1 X-3.727F3000S1000
G1 X-6.499F5000S0
G1 X-17.55F3000S1000
G1 X-5.809F5000S0
G1 X-3.711F3000S1000
G1 X-3.544F5000S0
G1 X-2.946F3000S1000
G0 X-1.25
G0 X0.005Y0.1
G0 X1.25
G1 X2.944
G1 X3.546F5000S0
G1 X3.708F3000S1000
G1 X5.702F5000S0
G1 X17.76F3000S1000
G1 X6.386F5000S0
G1 X3.728F3000S1000
G1 X3.377F5000S0
G1 X2.383F3000S1000
G0 X1.25
G0 Y0.1
G0 X-1.252
G1 X-2.383
G1 X-3.382F5000S0
G1 X-3.729F3000S1000
G1 X-6.273F5000S0
G1 X-17.971F3000S1000
G1 X-5.591F5000S0
G1 X-3.709F3000S1000
G1 X-3.548F5000S0
G1 X-2.94F3000S1000
G0 X-1.25
G0 X0.005Y0.1
G0 X1.25
G1 X2.943
G1 X3.545F5000S0
G1 X3.709F3000S1000
G1 X5.481F5000S0
G1 X18.181F3000S1000
G1 X6.16F5000S0
G1 X3.729F3000S1000
G1 X3.387F5000S0
G1 X2.384F3000S1000
G0 X1.25
G0 Y0.1
G0 X-1.253
G1 X-2.385
G1 X-3.39F5000S0
G1 X-3.73F3000S1000
G1 X-6.047F5000S0
G1 X-18.392F3000S1000
G1 X-5.37F5000S0
G1 X-3.71F3000S1000
G1 X-3.541F5000S0
G1 X-2.946F3000S1000
G0 X-1.25
G0 X0.006Y0.1
G0 X1.25
G1 X2.948
G1 X3.538F5000S0
G1 X3.71F3000S1000
G1 X5.26F5000S0
G1 X18.602F3000S1000
G1 X5.934F5000S0
G1 X3.73F3000S1000
G1 X3.39F5000S0
G1 X2.39F3000S1000
G0 X1.25
G0 Y0.1
G0 X-1.253
G1 X-2.396
G1 X-3.388F5000S0
G1 X-3.731F3000S1000
G1 X-5.821F5000S0
G1 X-18.812F3000S1000
G1 X-5.15F5000S0
G1 X-3.71F3000S1000
G1 X-3.535F5000S0
G1 X-2.951F3000S1000
G0 X-1.25
G0 X0.006Y0.1
G0 X1.25
G1 X2.954
G1 X3.532F5000S0
G1 X3.714F3000S1000
G1 X5.035F5000S0
G1 X19.022F3000S1000
G1 X5.708F5000S0
G1 X3.732F3000S1000
G1 X3.387F5000S0
G1 X2.4F3000S1000
G0 X1.25
G0 Y0.1
G0 X-1.254
G1 X-2.404
G1 X-3.387F5000S0
G1 X-3.732F3000S1000
G1 X-5.595F5000S0
G1 X-19.231F3000S1000
G1 X-4.922F5000S0
G1 X-3.717F3000S1000
G1 X-3.53F5000S0
G1 X-2.956F3000S1000
G0 X-1.25
G0 X0.01Y0.1
G0 X1.25
G1 X2.954
G1 X3.529F5000S0
G1 X3.719F3000S1000
G1 X4.808F5000S0
G1 X19.441F3000S1000
G1 X5.479F5000S0
G1 X3.732F3000S1000
G1 X3.39F5000S0
G1 X2.407F3000S1000
G0 X1.25
G0 Y0.1
G0 X-1.255
G1 X-2.41
G1 X-3.395F5000S0
G1 X-3.735F3000S1000
G1 X-5.36F5000S0
G1 X-19.648F3000S1000
G1 X-4.692F5000S0
G1 X-3.723F3000S1000
G1 X-3.529F5000S0
G1 X-2.951F3000S1000
G0 X-1.25
G0 X0.01Y0.1
G0 X1.25
G1 X2.949
G1 X3.529F5000S0
G1 X3.732F3000S1000
G1 X4.57F5000S0
G1 X19.857F3000S1000
G1 X5.24F5000S0
G1 X3.738F3000S1000
G1 X3.4F5000S0
G1 X2.412F3000S1000
G0 X1.25
G0 X-0.007Y0.1
G0 X-1.25
G1 X-2.413
G1 X-3.404F5000S0
G1 X-3.742F3000S1000
G1 X-5.12F5000S0
G1 X-20.066F3000S1000
G1 X-4.448F5000S0
G1 X-3.74F3000S1000
G1 X-3.53F5000S0
G1 X-2.946F3000S1000
G0 X-1.25
G0 X0.01Y0.1
G0 X1.25
G1 X2.945
G1 X3.531F5000S0
G1 X3.746F3000S1000
G1 X4.328F5000S0
G1 X20.274F3000S1000
G1 X5F5000S0
G1 X3.745F3000S1000
G1 X3.408F5000S0
G1 X2.415F3000S1000
G0 X1.25
G0 X-0.009Y0.1
G0 X-1.25
G1 X-2.414
G1 X-3.412F5000S0
G1 X-3.749F3000S1000
G1 X-4.88F5000S0
G1 X-20.483F3000S1000
G1 X-4.206F5000S0
G1 X-3.751F3000S1000
G1 X-3.535F5000S0
G1 X-2.943F3000S1000
G0 X-1.25
G0 X0.011Y0.1
G0 X1.25
G1 X2.94
G1 X3.54F5000S0
G1 X3.754F3000S1000
G1 X4.086F5000S0
G1 X20.691F3000S1000
G1 X4.76F5000S0
G1 X3.752F3000S1000
G1 X3.417F5000S0
G1 X2.41F3000S1000
G0 X1.25
G0 X-0.013Y0.1
G0 X-1.25
G1 X-2.405
G1 X-3.422F5000S0
G1 X-3.755F3000S1000
G1 X-4.64F5000S0
G1 X-20.899F3000S1000
G1 X-3.965F5000S0
G1 X-3.754F3000S1000
G1 X-3.547F5000S0
G1 X-2.94F3000S1000
G0 X-1.25
G0 X0.011Y0.1
G0 X1.25
G1 X2.944
G1 X3.55F5000S0
G1 X3.753F3000S1000
G1 X3.845F5000S0
G1 X21.106F3000S1000
G1 X4.52F5000S0
G1 X3.759F3000S1000
G1 X3.422F5000S0
G1 X2.403F3000S1000
G0 X1.25
G0 X-0.014Y0.1
G0 X-1.25
G1 X-2.403
G1 X-3.422F5000S0
G1 X-3.76F3000S1000
G1 X-4.403F5000S0
G1 X-21.311F3000S1000
G1 X-3.726F5000S0
G1 X-3.751F3000S1000
G1 X-3.554F5000S0
G1 X-2.948F3000S1000
G0 X-1.25
G0 X0.011Y0.1
G0 X1.25
G1 X2.951
G1 X3.558F5000S0
G1 X3.75F3000S1000
G1 X3.605F5000S0
G1 X21.517F3000S1000
G1 X4.285F5000S0
G1 X3.758F3000S1000
G1 X3.426F5000S0
G1 X2.403F3000S1000
G0 X1.25
G0 X-0.014Y0.1
G0 X-1.25
G1 X-2.403
G1 X-3.43F5000S0
G1 X-3.756F3000S1000
G1 X-4.167F5000S0
G1 X-21.722F3000S1000
G1 X-3.485F5000S0
G1 X-3.749F3000S1000
G1 X-3.561F5000S0
G1 X-2.956F3000S1000
G0 X-1.25
G0 X0.015Y0.1
G0 X1.25
G1 X2.955
G1 X3.565F5000S0
G1 X3.752F3000S1000
G1 X3.362F5000S0
G1 X21.927F3000S1000
G1 X4.044F5000S0
G1 X3.758F3000S1000
G1 X3.434F5000S0
G1 X2.404F3000S1000
G0 X1.25
G0 X-0.014Y0.1
G0 X-1.25
G1 X-2.404
G1 X-3.438F5000S0
G1 X-3.764F3000S1000
G1 X-3.92F5000S0
G1 X-22.128F3000S1000
G1 X-3.237F5000S0
G1 X-3.758F3000S1000
G1 X-3.568F5000S0
G1 X-2.955F3000S1000
G0 X-1.25
G0 X0.016Y0.1
G0 X1.25
G1 X2.953
G1 X3.571F5000S0
G1 X3.765F3000S1000
G1 X3.113F5000S0
G1 X22.328F3000S1000
G1 X3.796F5000S0
G1 X3.77F3000S1000
G1 X3.443F5000S0
G1 X2.403F3000S1000
G0 X1.25
G0 X-0.014Y0.1
G0 X-1.25
G1 X-2.403
G1 X-3.446F5000S0
G1 X-3.777F3000S1000
G1 X-3.673F5000S0
G1 X-22.526F3000S1000
G1 X-2.99F5000S0
G1 X-3.771F3000S1000
G1 X-3.575F5000S0
G1 X-2.952F3000S1000
G0 X-1.25
G0 X0.016Y0.1
G0 X1.25
G1 X2.951
G1 X3.578F5000S0
G1 X3.777F3000S1000
G1 X2.868F5000S0
G1 X22.722F3000S1000
G1 X3.551F5000S0
G1 X3.783F3000S1000
G1 X3.45F5000S0
G1 X2.403F3000S1000
G0 X1.25
G0 X-0.014Y0.1
G0 X-1.25
G1 X-2.403
G1 X-3.454F5000S0
G1 X-3.79F3000S1000
G1 X-3.431F5000S0
G1 X-22.91F3000S1000
G1 X-2.751F5000S0
G1 X-3.782F3000S1000
G1 X-3.583F5000S0
G1 X-2.95F3000S1000
G0 X-1.25
G0 X0.015Y0.1
G0 X1.25
G1 X2.95
G1 X3.592F5000S0
G1 X3.782F3000S1000
G1 X2.642F5000S0
G1 X23.084F3000S1000
G1 X3.318F5000S0
G1 X3.796F3000S1000
G1 X3.458F5000S0
G1 X2.404F3000S1000
G0 X1.25
G0 X-0.014Y0.1
G0 X-1.25
G1 X-2.404
G1 X-3.466F5000S0
G1 X-3.798F3000S1000
G1 X-3.35F5000S0
G1 X-22.969F3000S1000
G1 X-2.677F5000S0
G1 X-3.783F3000S1000
G1 X-3.601F5000S0
G1 X-2.948F3000S1000
G0 X-1.25
G0 X0.015Y0.1
G0 X1.25
G1 X2.948
G1 X3.61F5000S0
G1 X3.783F3000S1000
G1 X3.26F5000S0
G1 X21.755F3000S1000
G1 X3.933F5000S0
G1 X3.798F3000S1000
G1 X3.474F5000S0
G1 X2.406F3000S1000
G0 X1.25
G0 X-0.019Y0.1
G0 X-1.25
G1 X-2.407
G1 X-3.477F5000S0
G1 X-3.799F3000S1000
G1 X-4.582F5000S0
G1 X-20.41F3000S1000
G1 X-3.908F5000S0
G1 X-3.784F3000S1000
G1 X-3.614F5000S0
G1 X-2.951F3000S1000
G0 X-1.25
G0 X0.015Y0.1
G0 X1.25
G1 X2.957
G1 X3.616F5000S0
G1 X3.786F3000S1000
G1 X4.588F5000S0
G1 X18.999F3000S1000
G1 X5.263F5000S0
G1 X3.8F3000S1000
G1 X3.481F5000S0
G1 X2.407F3000S1000
G0 X1.25
G0 X-0.02Y0.1
G0 X-1.25
G1 X-2.406
G1 X-3.485F5000S0
G1 X-3.801F3000S1000
G1 X-5.953F5000S0
G1 X-17.571F3000S1000
G1 X-5.27F5000S0
G1 X-3.794F3000S1000
G1 X-3.62F5000S0
G1 X-2.961F3000S1000
G0 X-1.25
G0 X0.019Y0.1
G0 X1.25
G1 X2.963
G1 X3.622F5000S0
G1 X3.802F3000S1000
G1 X5.953F5000S0
G1 X16.143F3000S1000
G1 X6.637F5000S0
G1 X3.807F3000S1000
G1 X3.489F5000S0
G1 X2.407F3000S1000
G0 X1.25
G0 X-0.02Y0.1
G0 X-1.25
G1 X-2.407
G1 X-3.492F5000S0
G1 X-3.817F3000S1000
G1 X-7.308F5000S0
G1 X-14.735F3000S1000
G1 X-6.625F5000S0
G1 X-3.81F3000S1000
G1 X-3.625F5000S0
G1 X-2.964F3000S1000
G0 X-1.25
G0 X0.021Y0.1
G0 X1.25
G1 X2.964
G1 X3.627F5000S0
G1 X3.819F3000S1000
G1 X7.296F5000S0
G1 X13.329F3000S1000
G1 X7.979F5000S0
G1 X3.825F3000S1000
G1 X3.496F5000S0
G1 X2.407F3000S1000
G0 X1.25
G0 X-0.02Y0.1
G0 X-1.25
G1 X-2.407
G1 X-3.5F5000S0
G1 X-3.834F3000S1000
G1 X-8.643F5000S0
G1 X-11.928F3000S1000
G1 X-7.968F5000S0
G1 X-3.827F3000S1000
G1 X-3.631F5000S0
G1 X-2.964F3000S1000
G0 X-1.25
G0 X0.021Y0.1
G0 X1.25
G1 X2.964
G1 X3.639F5000S0
G1 X3.83F3000S1000
G1 X8.625F5000S0
G1 X10.551F3000S1000
G1 X9.298F5000S0
G1 X3.842F3000S1000
G1 X3.506F5000S0
G1 X2.407F3000S1000
G0 X1.25
G0 X-0.02Y0.1
G0 X-1.25
G1 X-2.407
G1 X-3.516F5000S0
G1 X-3.845F3000S1000
G1 X-9.953F5000S0
G1 X-9.179F3000S1000
G1 X-9.278F5000S0
G1 X-3.832F3000S1000
G1 X-3.647F5000S0
G1 X-2.965F3000S1000
G0 X-1.25
G0 X0.021Y0.1
G0 X1.25
G1 X2.964
G1 X3.656F5000S0
G1 X3.835F3000S1000
G1 X9.859F5000S0
G1 X7.908F3000S1000
G1 X10.578F5000S0
G1 X3.849F3000S1000
G1 X3.525F5000S0
G1 X2.407F3000S1000
G0 X1.25
G0 X-0.02Y0.1
G0 X-1.25
G1 X-2.407
G1 X-3.534F5000S0
G1 X-3.853F3000S1000
G1 X-10.9F5000S0
G1 X-7.209F3000S1000
G1 X-10.171F5000S0
G1 X-3.838F3000S1000
G1 X-3.664F5000S0
G1 X-2.965F3000S1000
G0 X-1.25
G0 X0.021Y0.1
G0 X1.25
G1 X2.965
G1 X3.673F5000S0
G1 X3.84F3000S1000
G1 X10.222F5000S0
G1 X7.075F3000S1000
G1 X10.918F5000S0
G1 X3.857F3000S1000
G1 X3.542F5000S0
G1 X2.409F3000S1000
G0 X1.25
G0 X-0.02Y0.1
G0 X-1.25
G1 X-2.415
G1 X-3.545F5000S0
G1 X-3.86F3000S1000
G1 X-10.936F5000S0
G1 X-6.971F3000S1000
G1 X-10.238F5000S0
G1 X-3.849F3000S1000
G1 X-3.682F5000S0
G1 X-2.965F3000S1000
G0 X-1.25
G0 X0.02Y0.1
G0 X1.25
G1 X2.969
G1 X3.687F5000S0
G1 X3.86F3000S1000
G1 X10.252F5000S0
G1 X6.866F3000S1000
G1 X10.954F5000S0
G1 X3.863F3000S1000
G1 X3.549F5000S0
G1 X2.421F3000S1000
G0 X1.25
G0 X-0.023Y0.1
G0 X-1.25
G1 X-2.424
G1 X-3.552F5000S0
G1 X-3.87F3000S1000
G1 X-10.968F5000S0
G1 X-6.764F3000S1000
G1 X-10.264F5000S0
G1 X-3.871F3000S1000
G1 X-3.689F5000S0
G1 X-2.975F3000S1000
G0 X-1.25
G0 X0.024Y0.1
G0 X1.25
G1 X2.978
G1 X3.692F5000S0
G1 X3.88F3000S1000
G1 X10.277F5000S0
G1 X6.661F3000S1000
G1 X10.977F5000S0
G1 X3.883F3000S1000
G1 X3.555F5000S0
G1 X2.424F3000S1000
G0 X1.25
G0 X-0.026Y0.1
G0 X-1.25
G1 X-2.424
G1 X-3.559F5000S0
G1 X-3.895F3000S1000
G1 X-10.986F5000S0
G1 X-6.559F3000S1000
G1 X-10.288F5000S0
G1 X-3.891F3000S1000
G1 X-3.694F5000S0
G1 X-2.979F3000S1000
G0 X-1.25
G0 X0.025Y0.1
G0 X1.25
G1 X2.982
G1 X3.701F5000S0
G1 X3.896F3000S1000
G1 X10.3F5000S0
G1 X6.457F3000S1000
G1 X10.994F5000S0
G1 X3.901F3000S1000
G1 X3.569F5000S0
G1 X2.425F3000S1000
G0 X1.25
G0 X-0.026Y0.1
G0 X-1.25
G1 X-2.425
G1 X-3.578F5000S0
G1 X-3.908F3000S1000
G1 X-11.003F5000S0
G1 X-6.354F3000S1000
G1 X-10.312F5000S0
G1 X-3.901F3000S1000
G1 X-3.709F5000S0
G1 X-2.983F3000S1000
G0 X-1.25
G0 X0.025Y0.1
G0 X1.25
G1 X2.985
G1 X3.718F5000S0
G1 X3.904F3000S1000
G1 X10.325F5000S0
G1 X6.251F3000S1000
G1 X11.012F5000S0
G1 X3.915F3000S1000
G1 X3.587F5000S0
G1 X2.425F3000S1000
G0 X1.25
G0 X-0.026Y0.1
G0 X-1.25
G1 X-2.425
G1 X-3.596F5000S0
G1 X-3.922F3000S1000
G1 X-11.02F5000S0
G1 X-6.149F3000S1000
G1 X-10.337F5000S0
G1 X-3.909F3000S1000
G1 X-3.726F5000S0
G1 X-2.986F3000S1000
G0 X-1.25
G0 X0.026Y0.1
G0 X1.25
G1 X2.987
G1 X3.735F5000S0
G1 X3.913F3000S1000
G1 X10.349F5000S0
G1 X6.046F3000S1000
G1 X11.029F5000S0
G1 X3.929F3000S1000
G1 X3.605F5000S0
G1 X2.425F3000S1000
G0 X1.25
G0 X-0.026Y0.1
G0 X-1.25
G1 X-2.425
G1 X-3.614F5000S0
G1 X-3.936F3000S1000
G1 X-11.038F5000S0
G1 X-5.944F3000S1000
G1 X-10.353F5000S0
G1 X-3.925F3000S1000
G1 X-3.743F5000S0
G1 X-2.989F3000S1000
G0 X-1.25
G0 X0.026Y0.1
G0 X1.25
G1 X2.99
G1 X3.751F5000S0
G1 X3.939F3000S1000
G1 X10.355F5000S0
G1 X5.843F3000S1000
G1 X11.046F5000S0
G1 X3.943F3000S1000
G1 X3.621F5000S0
G1 X2.427F3000S1000
G0 X1.25
G0 X-0.025Y0.1
G0 X-1.25
G1 X-2.434
G1 X-3.624F5000S0
G1 X-3.95F3000S1000
G1 X-11.055F5000S0
G1 X-5.741F3000S1000
G1 X-10.358F5000S0
G1 X-3.951F3000S1000
G1 X-3.759F5000S0
G1 X-2.992F3000S1000
G0 X-1.25
G0 X0.025Y0.1
G0 X1.25
G1 X2.994
G1 X3.767F5000S0
G1 X3.964F3000S1000
G1 X10.361F5000S0
G1 X5.64F3000S1000
G1 X11.061F5000S0
G1 X3.958F3000S1000
G1 X3.628F5000S0
G1 X2.44F3000S1000
G0 X1.25
G0 X-0.026Y0.1
G0 X-1.25
G1 X-2.446
G1 X-3.637F5000S0
G1 X-3.969F3000S1000
G1 X-11.06F5000S0
G1 X-5.538F3000S1000
G1 X-10.364F5000S0
G1 X-3.975F3000S1000
G1 X-3.775F5000S0
G1 X-2.997F3000S1000
G0 X-1.25
G0 X0.029Y0.1
G0 X1.25
G1 X3.002
G1 X3.783F5000S0
G1 X3.981F3000S1000
G1 X10.367F5000S0
G1 X5.436F3000S1000
G1 X11.06F5000S0
G1 X3.979F3000S1000
G1 X3.645F5000S0
G1 X2.453F3000S1000
G0 X1.25
G0 X-0.029Y0.1
G0 X-1.25
G1 X-2.456
G1 X-3.654F5000S0
G1 X-3.99F3000S1000
G1 X-11.058F5000S0
G1 X-5.335F3000S1000
G1 X-10.369F5000S0
G1 X-3.988F3000S1000
G1 X-3.792F5000S0
G1 X-3.004F3000S1000
G0 X-1.25
G0 X0.031Y0.1
G0 X1.25
G1 X3.007
G1 X3.8F5000S0
G1 X3.994F3000S1000
G1 X10.372F5000S0
G1 X5.233F3000S1000
G1 X11.057F5000S0
G1 X4.001F3000S1000
G1 X3.663F5000S0
G1 X2.456F3000S1000
G0 X1.25
G0 X-0.032Y0.1
G0 X-1.25
G1 X-2.456
G1 X-3.672F5000S0
G1 X-4.012F3000S1000
G1 X-11.056F5000S0
G1 X-5.131F3000S1000
G1 X-10.375F5000S0
G1 X-4F3000S1000
G1 X-3.808F5000S0
G1 X-3.01F3000S1000
G0 X-1.25
G0 X0.031Y0.1
G0 X1.25
G1 X3.013
G1 X3.815F5000S0
G1 X4.01F3000S1000
G1 X10.375F5000S0
G1 X5.03F3000S1000
G1 X11.054F5000S0
G1 X4.023F3000S1000
G1 X3.68F5000S0
G1 X2.457F3000S1000
G0 X1.25
G0 X-0.032Y0.1
G0 X-1.25
G1 X-2.457
G1 X-3.689F5000S0
G1 X-4.034F3000S1000
G1 X-11.053F5000S0
G1 X-4.928F3000S1000
G1 X-10.369F5000S0
G1 X-4.025F3000S1000
G1 X-3.824F5000S0
G1 X-3.015F3000S1000
G0 X-1.25
G0 X0.031Y0.1
G0 X1.25
G1 X3.018
G1 X3.832F5000S0
G1 X4.041F3000S1000
G1 X10.362F5000S0
G1 X4.827F3000S1000
G1 X11.052F5000S0
G1 X4.044F3000S1000
G1 X3.698F5000S0
G1 X2.457F3000S1000
G0 X1.25
G0 X-0.033Y0.1
G0 X-1.25
G1 X-2.457
G1 X-3.706F5000S0
G1 X-4.055F3000S1000
G1 X-11.051F5000S0
G1 X-4.725F3000S1000
G1 X-10.356F5000S0
G1 X-4.056F3000S1000
G1 X-3.84F5000S0
G1 X-3.021F3000S1000
G0 X-1.25
G0 X0.031Y0.1
G0 X1.25
G1 X3.024
G1 X3.848F5000S0
G1 X4.071F3000S1000
G1 X10.35F5000S0
G1 X4.623F3000S1000
G1 X11.05F5000S0
G1 X4.06F3000S1000
G1 X3.718F5000S0
G1 X2.46F3000S1000
G0 X1.25
G0 X-0.032Y0.1
G0 X-1.25
G1 X-2.467
G1 X-3.725F5000S0
G1 X-4.072F3000S1000
G1 X-11.042F5000S0
G1 X-4.522F3000S1000
G1 X-10.344F5000S0
G1 X-4.082F3000S1000
G1 X-3.86F5000S0
G1 X-3.027F3000S1000
G0 X-1.25
G0 X0.03Y0.1
G0 X1.25
G1 X3.03
G1 X3.876F5000S0
G1 X4.09F3000S1000
G1 X10.338F5000S0
G1 X4.42F3000S1000
G1 X11.03F5000S0
G1 X4.089F3000S1000
G1 X3.733F5000S0
G1 X2.473F3000S1000
G0 X1.25
G0 X-0.032Y0.1
G0 X-1.25
G1 X-2.48
G1 X-3.74F5000S0
G1 X-4.105F3000S1000
G1 X-11.019F5000S0
G1 X-4.318F3000S1000
G1 X-10.332F5000S0
G1 X-4.098F3000S1000
G1 X-3.891F5000S0
G1 X-3.033F3000S1000
G0 X-1.25
G0 X0.037Y0.1
G0 X1.25
G1 X3.033
G1 X3.902F5000S0
G1 X4.108F3000S1000
G1 X10.325F5000S0
G1 X4.217F3000S1000
G1 X11.006F5000S0
G1 X4.121F3000S1000
G1 X3.748F5000S0
G1 X2.487F3000S1000
G0 X1.25
G0 X-0.032Y0.1
G0 X-1.25
G1 X-2.494
G1 X-3.755F5000S0
G1 X-4.137F3000S1000
G1 X-10.995F5000S0
G1 X-4.116F3000S1000
G1 X-10.317F5000S0
G1 X-4.117F3000S1000
G1 X-3.91F5000S0
G1 X-3.038F3000S1000
G0 X-1.25
G0 X0.037Y0.1
G0 X1.25
G1 X3.041
G1 X3.919F5000S0
G1 X4.135F3000S1000
G1 X10.301F5000S0
G1 X4.015F3000S1000
G1 X10.982F5000S0
G1 X4.151F3000S1000
G1 X3.766F5000S0
G1 X2.499F3000S1000
G0 X1.25
G0 X-0.036Y0.1
G0 X-1.25
G1 X-2.502
G1 X-3.778F5000S0
G1 X-4.162F3000S1000
G1 X-10.971F5000S0
G1 X-3.914F3000S1000
G1 X-10.284F5000S0
G1 X-4.153F3000S1000
G1 X-3.927F5000S0
G1 X-3.046F3000S1000
G0 X-1.25
G0 X0.036Y0.1
G0 X1.25
G1 X3.051
G1 X3.934F5000S0
G1 X4.172F3000S1000
G1 X10.268F5000S0
G1 X3.812F3000S1000
G1 X10.959F5000S0
G1 X4.174F3000S1000
G1 X3.79F5000S0
G1 X2.503F3000S1000
G0 X1.25
G0 X-0.039Y0.1
G0 X-1.25
G1 X-2.502
G1 X-3.803F5000S0
G1 X-4.185F3000S1000
G1 X-10.947F5000S0
G1 X-3.712F3000S1000
G1 X-10.251F5000S0
G1 X-4.19F3000S1000
G1 X-3.942F5000S0
G1 X-3.055F3000S1000
G0 X-1.25
G0 X0.036Y0.1
G0 X1.25
G1 X3.059
G1 X3.952F5000S0
G1 X4.207F3000S1000
G1 X10.235F5000S0
G1 X3.61F3000S1000
G1 X10.935F5000S0
G1 X4.197F3000S1000
G1 X3.815F5000S0
G1 X2.502F3000S1000
G0 X1.25
G0 X-0.039Y0.1
G0 X-1.25
G1 X-2.502
G1 X-3.827F5000S0
G1 X-4.213F3000S1000
G1 X-10.919F5000S0
G1 X-3.509F3000S1000
G1 X-10.218F5000S0
G1 X-4.218F3000S1000
G1 X-3.967F5000S0
G1 X-3.064F3000S1000
G0 X-1.25
G0 X0.037Y0.1
G0 X1.25
G1 X3.068
G1 X3.982F5000S0
G1 X4.228F3000S1000
G1 X10.203F5000S0
G1 X3.408F3000S1000
G1 X10.895F5000S0
G1 X4.235F3000S1000
G1 X3.835F5000S0
G1 X2.508F3000S1000
G0 X1.25
G0 X-0.039Y0.1
G0 X-1.25
G1 X-2.514
G1 X-3.846F5000S0
G1 X-4.253F3000S1000
G1 X-10.872F5000S0
G1 X-3.306F3000S1000
G1 X-10.187F5000S0
G1 X-4.239F3000S1000
G1 X-3.997F5000S0
G1 X-3.073F3000S1000
G0 X-1.25
G0 X0.036Y0.1
G0 X1.25
G1 X3.077
G1 X4.012F5000S0
G1 X4.255F3000S1000
G1 X10.166F5000S0
G1 X3.206F3000S1000
G1 X10.847F5000S0
G1 X4.273F3000S1000
G1 X3.856F5000S0
G1 X2.52F3000S1000
G0 X1.25
G0 X-0.039Y0.1
G0 X-1.25
G1 X-2.527
G1 X-3.866F5000S0
G1 X-4.291F3000S1000
G1 X-10.824F5000S0
G1 X-3.104F3000S1000
G1 X-10.139F5000S0
G1 X-4.277F3000S1000
G1 X-4.027F5000S0
G1 X-3.079F3000S1000
G0 X-1.25
G0 X0.042Y0.1
G0 X1.25
G1 X3.078
G1 X4.042F5000S0
G1 X4.298F3000S1000
G1 X10.112F5000S0
G1 X3.003F3000S1000
G1 X10.801F5000S0
G1 X4.309F3000S1000
G1 X3.877F5000S0
G1 X2.534F3000S1000
G0 X1.25
G0 X-0.039Y0.1
G0 X-1.25
G1 X-2.54
G1 X-3.888F5000S0
G1 X-4.327F3000S1000
G1 X-10.778F5000S0
G1 X-2.901F3000S1000
G1 X-10.085F5000S0
G1 X-4.32F3000S1000
G1 X-4.052F5000S0
G1 X-3.082F3000S1000
G0 X-1.25
G0 X0.042Y0.1
G0 X1.25
G1 X3.089
G1 X4.058F5000S0
G1 X4.342F3000S1000
G1 X10.058F5000S0
G1 X2.8F3000S1000
G1 X10.754F5000S0
G1 X4.346F3000S1000
G1 X3.899F5000S0
G1 X2.546F3000S1000
G0 X1.25
G0 X-0.039Y0.1
G0 X-1.25
G1 X-2.552
G1 X-3.915F5000S0
G1 X-4.359F3000S1000
G1 X-10.731F5000S0
G1 X-2.698F3000S1000
G1 X-10.031F5000S0
G1 X-4.363F3000S1000
G1 X-4.067F5000S0
G1 X-3.094F3000S1000
G0 X-1.25
G0 X0.042Y0.1
G0 X1.25
G1 X3.1
G1 X4.082F5000S0
G1 X4.377F3000S1000
G1 X10.004F5000S0
G1 X2.597F3000S1000
G1 X10.708F5000S0
G1 X4.372F3000S1000
G1 X3.93F5000S0
G1 X2.559F3000S1000
G0 X1.25
G0 X-0.045Y0.1
G0 X-1.25
G1 X-2.559
G1 X-3.946F5000S0
G1 X-4.393F3000S1000
G1 X-10.678F5000S0
G1 X-2.494F3000S1000
G1 X-9.977F5000S0
G1 X-4.392F3000S1000
G1 X-4.097F5000S0
G1 X-3.106F3000S1000
G0 X-1.25
G0 X0.042Y0.1
G0 X1.25
G1 X3.112
G1 X4.112F5000S0
G1 X4.407F3000S1000
G1 X9.949F5000S0
G1 X2.393F3000S1000
G1 X10.644F5000S0
G1 X4.417F3000S1000
G1 X3.962F5000S0
G1 X2.558F3000S1000
G0 X1.25
G0 X-0.046Y0.1
G0 X-1.25
G1 X-2.559
G1 X-3.976F5000S0
G1 X-4.442F3000S1000
G1 X-10.609F5000S0
G1 X-2.291F3000S1000
G1 X-9.911F5000S0
G1 X-4.433F3000S1000
G1 X-4.127F5000S0
G1 X-3.118F3000S1000
G0 X-1.25
G0 X0.042Y0.1
G0 X1.25
G1 X3.124
G1 X4.142F5000S0
G1 X4.46F3000S1000
G1 X9.871F5000S0
G1 X2.19F3000S1000
G1 X10.569F5000S0
G1 X4.472F3000S1000
G1 X3.985F5000S0
G1 X2.566F3000S1000
G0 X1.25
G0 X-0.046Y0.1
G0 X-1.25
G1 X-2.572
G1 X-4F5000S0
G1 X-4.496F3000S1000
G1 X-10.53F5000S0
G1 X-2.087F3000S1000
G1 X-9.833F5000S0
G1 X-4.486F3000S1000
G1 X-4.156F5000S0
G1 X-3.131F3000S1000
G0 X-1.25
G0 X0.043Y0.1
G0 X1.25
G1 X3.136
G1 X4.171F5000S0
G1 X4.513F3000S1000
G1 X9.793F5000S0
G1 X1.986F3000S1000
G1 X10.489F5000S0
G1 X4.522F3000S1000
G1 X4.013F5000S0
G1 X2.579F3000S1000
G0 X1.25
G0 X-0.045Y0.1
G0 X-1.25
G1 X-2.586
G1 X-4.027F5000S0
G1 X-4.552F3000S1000
G1 X-10.444F5000S0
G1 X-1.884F3000S1000
G1 X-9.755F5000S0
G1 X-4.539F3000S1000
G1 X-4.186F5000S0
G1 X-3.136F3000S1000
G0 X-1.25
G0 X0.048Y0.1
G0 X1.25
G1 X3.136
G1 X4.201F5000S0
G1 X4.565F3000S1000
G1 X9.717F5000S0
G1 X1.782F3000S1000
G1 X10.399F5000S0
G1 X4.581F3000S1000
G1 X4.042F5000S0
G1 X2.592F3000S1000
G0 X1.25
G0 X-0.045Y0.1
G0 X-1.25
G1 X-2.599
G1 X-4.056F5000S0
G1 X-4.611F3000S1000
G1 X-10.355F5000S0
G1 X-1.68F3000S1000
G1 X-9.677F5000S0
G1 X-4.587F3000S1000
G1 X-4.217F5000S0
G1 X-3.14F3000S1000
G0 X-1.25
G0 X0.048Y0.1
G0 X1.25
G1 X3.148
G1 X4.227F5000S0
G1 X4.612F3000S1000
G1 X9.636F5000S0
G1 X1.577F3000S1000
G1 X10.308F5000S0
G1 X4.642F3000S1000
G1 X4.072F5000S0
G1 X2.605F3000S1000
G0 X1.25
G0 X-0.046Y0.1
G0 X-1.25
G1 X-2.611
G1 X-4.092F5000S0
G1 X-4.669F3000S1000
G1 X-10.261F5000S0
G1 X-1.475F3000S1000
G1 X-9.583F5000S0
G1 X-4.646F3000S1000
G1 X-4.24F5000S0
G1 X-3.157F3000S1000
G0 X-1.25
G0 X0.048Y0.1
G0 X1.25
G1 X3.165
G1 X4.253F5000S0
G1 X4.679F3000S1000
G1 X9.532F5000S0
G1 X1.373F3000S1000
G1 X10.212F5000S0
G1 X4.697F3000S1000
G1 X4.111F5000S0
G1 X2.619F3000S1000
G0 X1.25
G0 X-0.046Y0.1
G0 X-1.25
G1 X-2.625
G1 X-4.131F5000S0
G1 X-4.726F3000S1000
G1 X-10.163F5000S0
G1 X-1.271F3000S1000
G1 X-9.479F5000S0
G1 X-4.712F3000S1000
G1 X-4.267F5000S0
G1 X-3.173F3000S1000
G0 X-1.25
G0 X0.048Y0.1
G0 X1.25
G1 X3.181
G1 X4.282F5000S0
G1 X4.744F3000S1000
G1 X9.427F5000S0
G1 X1.168F3000S1000
G1 X10.112F5000S0
G1 X4.757F3000S1000
G1 X4.151F5000S0
G1 X2.625F3000S1000
G0 X1.25
G0 X-0.053Y0.1
G0 X-1.25
G1 X-2.628
G1 X-4.167F5000S0
G1 X-4.788F3000S1000
G1 X-10.061F5000S0
G1 X-1.066F3000S1000
G1 X-9.374F5000S0
G1 X-4.775F3000S1000
G1 X-4.298F5000S0
G1 X-3.189F3000S1000
G0 X-1.25
G0 X0.048Y0.1
G0 X1.25
G1 X3.197
G1 X4.315F5000S0
G1 X4.805F3000S1000
G1 X9.322F5000S0
G1 X0.963F3000S1000
G1 X10.009F5000S0
G1 X4.816F3000S1000
G1 X4.183F5000S0
G1 X2.635F3000S1000
G0 X1.25
G0 X-0.053Y0.1
G0 X-1.25
G1 X-2.642
G1 X-4.201F5000S0
G1 X-4.845F3000S1000
G1 X-9.955F5000S0
G1 X-0.86F3000S1000
G1 X-9.269F5000S0
G1 X-4.833F3000S1000
G1 X-4.334F5000S0
G1 X-3.205F3000S1000
G0 X-1.25
G0 X0.055Y0.1
G0 X1.25
G1 X3.206
G1 X4.36F5000S0
G1 X4.867F3000S1000
G1 X9.204F5000S0
G1 X0.756F3000S1000
G1 X9.901F5000S0
G1 X4.874F3000S1000
G1 X4.219F5000S0
G1 X2.649F3000S1000
G0 X1.25
G0 X-0.053Y0.1
G0 X-1.25
G1 X-2.656
G1 X-4.237F5000S0
G1 X-4.904F3000S1000
G1 X-9.846F5000S0
G1 X-0.653F3000S1000
G1 X-9.136F5000S0
G1 X-4.902F3000S1000
G1 X-4.387F5000S0
G1 X-3.208F3000S1000
G0 X-1.25
G0 X0.054Y0.1
G0 X1.25
G1 X3.21
G1 X4.414F5000S0
G1 X4.938F3000S1000
G1 X9.068F5000S0
G1 X0.549F3000S1000
G1 X9.787F5000S0
G1 X4.938F3000S1000
G1 X4.256F5000S0
G1 X2.663F3000S1000
G0 X1.25
G0 X-0.053Y0.1
G0 X-1.25
G1 X-2.67
G1 X-4.274F5000S0
G1 X-4.972F3000S1000
G1 X-9.728F5000S0
G1 X-0.445F3000S1000
G1 X-9.001F5000S0
G1 X-4.973F3000S1000
G1 X-4.436F5000S0
G1 X-3.216F3000S1000
G0 X-1.25
G0 X0.054Y0.1
G0 X1.25
G1 X3.224
G1 X4.457F5000S0
G1 X5.009F3000S1000
G1 X8.932F5000S0
G1 X0.341F3000S1000
G1 X9.667F5000S0
G1 X5.002F3000S1000
G1 X4.299F5000S0
G1 X2.677F3000S1000
G0 X1.25
G0 X-0.053Y0.1
G0 X-1.25
G1 X-2.684
G1 X-4.323F5000S0
G1 X-5.038F3000S1000
G1 X-9.602F5000S0
G1 X-0.231F3000S1000
G1 X-8.868F5000S0
G1 X-5.044F3000S1000
G1 X-4.478F5000S0
G1 X-3.233F3000S1000
G0 X-1.25
G0 X0.055Y0.1
G0 X1.25
G1 X3.24
G1 X4.499F5000S0
G1 X5.08F3000S1000
G1 X8.82F5000S0
G1 X0.103F3000S1000
G1 X9.537F5000S0
G1 X5.076F3000S1000
G1 X4.347F5000S0
G1 X2.691F3000S1000
G0 X1.25
G0 X-0.053Y0.1
G0 X-1.25
G1 X-2.698
G1 X-4.372F5000S0
G1 X-5.127F3000S1000
G1 X-18.187F5000S0
G1 X-5.134F3000S1000
G1 X-4.519F5000S0
G1 X-3.249F3000S1000
G0 X-1.25
G0 X0.054Y0.1
G0 X1.25
G1 X3.257
G1 X4.543F5000S0
G1 X5.185F3000S1000
G1 X17.913F5000S0
G1 X5.18F3000S1000
G1 X4.395F5000S0
G1 X2.706F3000S1000
G0 X1.25
G0 X-0.061Y0.1
G0 X-1.25
G1 X-2.714
G1 X-4.415F5000S0
G1 X-5.227F3000S1000
G1 X-17.64F5000S0
G1 X-5.231F3000S1000
G1 X-4.569F5000S0
G1 X-3.267F3000S1000
G0 X-1.25
G0 X0.056Y0.1
G0 X1.25
G1 X3.277
G1 X4.594F5000S0
G1 X5.277F3000S1000
G1 X17.366F5000S0
G1 X5.273F3000S1000
G1 X4.438F5000S0
G1 X2.722F3000S1000
G0 X1.25
G0 X-0.061Y0.1
G0 X-1.25
G1 X-2.729
G1 X-4.462F5000S0
G1 X-5.317F3000S1000
G1 X-17.093F5000S0
G1 X-5.323F3000S1000
G1 X-4.618F5000S0
G1 X-3.283F3000S1000
G0 X-1.25
G0 X0.062Y0.1
G0 X1.25
G1 X3.287
G1 X4.643F5000S0
G1 X5.369F3000S1000
G1 X16.815F5000S0
G1 X5.367F3000S1000
G1 X4.484F5000S0
G1 X2.737F3000S1000
G0 X1.25
G0 X-0.06Y0.1
G0 X-1.25
G1 X-2.745
G1 X-4.507F5000S0
G1 X-5.434F3000S1000
G1 X-16.502F5000S0
G1 X-5.433F3000S1000
G1 X-4.667F5000S0
G1 X-3.293F3000S1000
G0 X-1.25
G0 X0.061Y0.1
G0 X1.25
G1 X3.298
G1 X4.692F5000S0
G1 X5.502F3000S1000
G1 X16.184F5000S0
G1 X5.498F3000S1000
G1 X4.533F5000S0
G1 X2.752F3000S1000
G0 X1.25
G0 X-0.061Y0.1
G0 X-1.25
G1 X-2.76
G1 X-4.563F5000S0
G1 X-5.557F3000S1000
G1 X-15.866F5000S0
G1 X-5.571F3000S1000
G1 X-4.715F5000S0
G1 X-3.305F3000S1000
G0 X-1.25
G0 X0.061Y0.1
G0 X1.25
G1 X3.313
G1 X4.743F5000S0
G1 X5.634F3000S1000
G1 X15.549F5000S0
G1 X5.616F3000S1000
G1 X4.593F5000S0
G1 X2.768F3000S1000
G0 X1.25
G0 X-0.061Y0.1
G0 X-1.25
G1 X-2.775
G1 X-4.623F5000S0
G1 X-5.676F3000S1000
G1 X-15.232F5000S0
G1 X-5.692F3000S1000
G1 X-4.775F5000S0
G1 X-3.321F3000S1000
G0 X-1.25
G0 X0.061Y0.1
G0 X1.25
G1 X3.331
G1 X4.804F5000S0
G1 X5.756F3000S1000
G1 X14.886F5000S0
G1 X5.759F3000S1000
G1 X4.653F5000S0
G1 X2.783F3000S1000
G0 X1.25
G0 X-0.06Y0.1
G0 X-1.25
G1 X-2.793
G1 X-4.684F5000S0
G1 X-5.842F3000S1000
G1 X-14.513F5000S0
G1 X-5.844F3000S1000
G1 X-4.834F5000S0
G1 X-3.341F3000S1000
G0 X-1.25
G0 X0.061Y0.1
G0 X1.25
G1 X3.352
G1 X4.863F5000S0
G1 X5.932F3000S1000
G1 X14.141F5000S0
G1 X5.919F3000S1000
G1 X4.713F5000S0
G1 X2.809F3000S1000
G0 X1.25
G0 X-0.065Y0.1
G0 X-1.25
G1 X-2.822
G1 X-4.741F5000S0
G1 X-5.997F3000S1000
G1 X-13.769F5000S0
G1 X-6.019F3000S1000
G1 X-4.891F5000S0
G1 X-3.357F3000S1000
G0 X-1.25
G0 X0.068Y0.1
G0 X1.25
G1 X3.364
G1 X4.917F5000S0
G1 X6.107F3000S1000
G1 X13.389F5000S0
G1 X6.082F3000S1000
G1 X4.77F5000S0
G1 X2.829F3000S1000
G0 X1.25
G0 X-0.069Y0.1
G0 X-1.25
G1 X-2.838
G1 X-4.798F5000S0
G1 X-6.193F3000S1000
G1 X-12.979F5000S0
G1 X-6.195F3000S1000
G1 X-4.946F5000S0
G1 X-3.371F3000S1000
G0 X-1.25
G0 X0.068Y0.1
G0 X1.25
G1 X3.381
G1 X4.981F5000S0
G1 X6.309F3000S1000
G1 X12.535F5000S0
G1 X6.3F3000S1000
G1 X4.831F5000S0
G1 X2.846F3000S1000
G0 X1.25
G0 X-0.069Y0.1
G0 X-1.25
G1 X-2.854
G1 X-4.868F5000S0
G1 X-6.403F3000S1000
G1 X-12.091F5000S0
G1 X-6.424F3000S1000
G1 X-5.012F5000S0
G1 X-3.394F3000S1000
G0 X-1.25
G0 X0.069Y0.1
G0 X1.25
G1 X3.409
G1 X5.041F5000S0
G1 X6.537F3000S1000
G1 X11.645F5000S0
G1 X6.509F3000S1000
G1 X4.904F5000S0
G1 X2.862F3000S1000
G0 X1.25
G0 X-0.069Y0.1
G0 X-1.25
G1 X-2.87
G1 X-4.941F5000S0
G1 X-6.656F3000S1000
G1 X-11.157F5000S0
G1 X-6.652F3000S1000
G1 X-5.069F5000S0
G1 X-3.425F3000S1000
G0 X-1.25
G0 X0.068Y0.1
G0 X1.25
G1 X3.442
G1 X5.096F5000S0
G1 X6.808F3000S1000
G1 X10.628F5000S0
G1 X6.803F3000S1000
G1 X4.978F5000S0
G1 X2.878F3000S1000
G0 X1.25
G0 X-0.069Y0.1
G0 X-1.25
G1 X-2.887
G1 X-5.021F5000S0
G1 X-6.943F3000S1000
G1 X-10.087F5000S0
G1 X-6.975F3000S1000
G1 X-5.125F5000S0
G1 X-3.457F3000S1000
G0 X-1.25
G0 X0.068Y0.1
G0 X1.25
G1 X3.473
G1 X5.165F5000S0
G1 X7.131F3000S1000
G1 X9.514F5000S0
G1 X7.113F3000S1000
G1 X5.06F5000S0
G1 X2.902F3000S1000
G0 X1.25
G0 X-0.07Y0.1
G0 X-1.25
G1 X-2.918
G1 X-5.097F5000S0
G1 X-7.313F3000S1000
G1 X-8.903F5000S0
G1 X-7.293F3000S1000
G1 X-5.207F5000S0
G1 X-3.482F3000S1000
G0 X-1.25
G0 X0.076Y0.1
G0 X1.25
G1 X3.496
G1 X5.243F5000S0
G1 X7.516F3000S1000
G1 X8.232F5000S0
G1 X7.513F3000S1000
G1 X5.132F5000S0
G1 X2.936F3000S1000
G0 X1.25
G0 X-0.07Y0.1
G0 X-1.25
G1 X-2.954
G1 X-5.168F5000S0
G1 X-7.765F3000S1000
G1 X-7.489F5000S0
G1 X-7.757F3000S1000
G1 X-5.279F5000S0
G1 X-3.509F3000S1000
G0 X-1.25
G0 X0.076Y0.1
G0 X1.25
G1 X3.523
G1 X5.315F5000S0
G1 X8.052F3000S1000
G1 X6.652F5000S0
G1 X8.048F3000S1000
G1 X5.209F5000S0
G1 X2.967F3000S1000
G0 X1.25
G0 X-0.078Y0.1
G0 X-1.25
G1 X-2.981
G1 X-5.249F5000S0
G1 X-8.369F3000S1000
G1 X-5.723F5000S0
G1 X-8.402F3000S1000
G1 X-5.351F5000S0
G1 X-3.537F3000S1000
G0 X-1.25
G0 X0.077Y0.1
G0 X1.25
G1 X3.55
G1 X5.399F5000S0
G1 X8.822F3000S1000
G1 X4.589F5000S0
G1 X8.813F3000S1000
G1 X5.289F5000S0
G1 X2.994F3000S1000
G0 X1.25
G0 X-0.079Y0.1
G0 X-1.25
G1 X-3.009
G1 X-5.327F5000S0
G1 X-9.509F3000S1000
G1 X-3.016F5000S0
G1 X-9.425F3000S1000
G1 X-5.451F5000S0
G1 X-3.564F3000S1000
G0 X-1.25
G0 X0.076Y0.1
G0 X1.25
G1 X3.582
G1 X5.499F5000S0
G1 X21.669F3000S1000
G1 X5.37F5000S0
G1 X3.027F3000S1000
G0 X1.25
G0 X-0.079Y0.1
G0 X-1.25
G1 X-3.045
G1 X-5.415F5000S0
G1 X-21.385F3000S1000
G1 X-5.545F5000S0
G1 X-3.601F3000S1000
G0 X-1.25
G0 X0.076Y0.1
G0 X1.25
G1 X3.621
G1 X5.591F5000S0
G1 X21.101F3000S1000
G1 X5.461F5000S0
G1 X3.062F3000S1000
G0 X1.25
G0 X-0.079Y0.1
G0 X-1.25
G1 X-3.079
G1 X-5.507F5000S0
G1 X-20.816F3000S1000
G1 X-5.639F5000S0
G1 X-3.635F3000S1000
G0 X-1.25
G0 X0.081Y0.1
G0 X1.25
G1 X3.65
G1 X5.703F5000S0
G1 X20.51F3000S1000
G1 X5.553F5000S0
G1 X3.101F3000S1000
G0 X1.25
G0 X-0.079Y0.1
G0 X-1.25
G1 X-3.122
G1 X-5.606F5000S0
G1 X-20.197F3000S1000
G1 X-5.767F5000S0
G1 X-3.665F3000S1000
G0 X-1.25
G0 X0.082Y0.1
G0 X1.25
G1 X3.684
G1 X5.825F5000S0
G1 X19.885F3000S1000
G1 X5.66F5000S0
G1 X3.142F3000S1000
G0 X1.25
G0 X-0.081Y0.1
G0 X-1.25
G1 X-3.161
G1 X-5.712F5000S0
G1 X-19.573F3000S1000
G1 X-5.883F5000S0
G1 X-3.704F3000S1000
G0 X-1.25
G0 X0.083Y0.1
G0 X1.25
G1 X3.723
G1 X5.941F5000S0
G1 X19.255F3000S1000
G1 X5.768F5000S0
G1 X3.174F3000S1000
G0 X1.25
G0 X-0.089Y0.1
G0 X-1.25
G1 X-3.188
G1 X-5.836F5000S0
G1 X-18.909F3000S1000
G1 X-6.014F5000S0
G1 X-3.741F3000S1000
G0 X-1.25
G0 X0.084Y0.1
G0 X1.25
G1 X3.759
G1 X6.091F5000S0
G1 X18.559F3000S1000
G1 X5.904F5000S0
G1 X3.202F3000S1000
G0 X1.25
G0 X-0.089Y0.1
G0 X-1.25
G1 X-3.216
G1 X-5.972F5000S0
G1 X-18.208F3000S1000
G1 X-6.168F5000S0
G1 X-3.775F3000S1000
G0 X-1.25
G0 X0.088Y0.1
G0 X1.25
G1 X3.796
G1 X6.238F5000S0
G1 X17.858F3000S1000
G1 X6.039F5000S0
G1 X3.231F3000S1000
G0 X1.25
G0 X-0.089Y0.1
G0 X-1.25
G1 X-3.248
G1 X-6.12F5000S0
G1 X-17.492F3000S1000
G1 X-6.308F5000S0
G1 X-3.815F3000S1000
G0 X-1.25
G0 X0.091Y0.1
G0 X1.25
G1 X3.833
G1 X6.394F5000S0
G1 X17.099F3000S1000
G1 X6.211F5000S0
G1 X3.265F3000S1000
G0 X1.25
G0 X-0.089Y0.1
G0 X-1.25
G1 X-3.283
G1 X-6.303F5000S0
G1 X-16.701F3000S1000
G1 X-6.484F5000S0
G1 X-3.849F3000S1000
G0 X-1.25
G0 X0.095Y0.1
G0 X1.25
G1 X3.863
G1 X6.574F5000S0
G1 X16.303F3000S1000
G1 X6.395F5000S0
G1 X3.301F3000S1000
G0 X1.25
G0 X-0.089Y0.1
G0 X-1.25
G1 X-3.324
G1 X-6.487F5000S0
G1 X-15.899F3000S1000
G1 X-6.66F5000S0
G1 X-3.882F3000S1000
G0 X-1.25
G0 X0.097Y0.1
G0 X1.25
G1 X3.902
G1 X6.765F5000S0
G1 X15.445F3000S1000
G1 X6.608F5000S0
G1 X3.346F3000S1000
G0 X1.25
G0 X-0.1Y0.1
G0 X-1.25
G1 X-3.357
G1 X-6.728F5000S0
G1 X-14.992F3000S1000
G1 X-6.871F5000S0
G1 X-3.921F3000S1000
G0 X-1.25
G0 X0.098Y0.1
G0 X1.25
G1 X3.939
G1 X6.978F5000S0
G1 X14.537F3000S1000
G1 X6.844F5000S0
G1 X3.372F3000S1000
G0 X1.25
G0 X-0.1Y0.1
G0 X-1.25
G1 X-3.391
G1 X-6.963F5000S0
G1 X-14.058F3000S1000
G1 X-7.102F5000S0
G1 X-3.957F3000S1000
G0 X-1.25
G0 X0.098Y0.1
G0 X1.25
G1 X3.98
G1 X7.234F5000S0
G1 X13.534F3000S1000
G1 X7.115F5000S0
G1 X3.409F3000S1000
G0 X1.25
G0 X-0.101Y0.1
G0 X-1.25
G1 X-3.434
G1 X-7.26F5000S0
G1 X-13.01F3000S1000
G1 X-7.362F5000S0
G1 X-4.002F3000S1000
G0 X-1.25
G0 X0.103Y0.1
G0 X1.25
G1 X4.024
G1 X7.514F5000S0
G1 X12.462F3000S1000
G1 X7.402F5000S0
G1 X3.462F3000S1000
G0 X1.25
G0 X-0.1Y0.1
G0 X-1.25
G1 X-3.491
G1 X-7.577F5000S0
G1 X-11.865F3000S1000
G1 X-7.683F5000S0
G1 X-4.044F3000S1000
G0 X-1.25
G0 X0.103Y0.1
G0 X1.25
G1 X4.066
G1 X7.851F5000S0
G1 X11.251F3000S1000
G1 X7.769F5000S0
G1 X3.519F3000S1000
G0 X1.25
G0 X-0.101Y0.1
G0 X-1.25
G1 X-3.548
G1 X-7.961F5000S0
G1 X-10.585F3000S1000
G1 X-8.064F5000S0
G1 X-4.094F3000S1000
G0 X-1.25
G0 X0.104Y0.1
G0 X1.25
G1 X4.125
G1 X8.273F5000S0
G1 X9.879F3000S1000
G1 X8.186F5000S0
G1 X3.585F3000S1000
G0 X1.25
G0 X-0.104Y0.1
G0 X-1.25
G1 X-3.619
G1 X-8.44F5000S0
G1 X-9.091F3000S1000
G1 X-8.534F5000S0
G1 X-4.157F3000S1000
G0 X-1.25
G0 X0.103Y0.1
G0 X1.25
G1 X4.188
G1 X8.814F5000S0
G1 X8.284F3000S1000
G1 X8.695F5000S0
G1 X3.643F3000S1000
G0 X1.25
G0 X-0.114Y0.1
G0 X-1.25
G1 X-3.668
G1 X-9.055F5000S0
G1 X-7.294F3000S1000
G1 X-9.17F5000S0
G1 X-4.21F3000S1000
G0 X-1.25
G0 X0.114Y0.1
G0 X1.25
G1 X4.242
G1 X9.556F5000S0
G1 X6.262F3000S1000
G1 X9.414F5000S0
G1 X3.695F3000S1000
G0 X1.25
G0 X-0.113Y0.1
G0 X-1.25
G1 X-3.731
G1 X-9.951F5000S0
G1 X-4.933F3000S1000
G1 X-10.053F5000S0
G1 X-4.275F3000S1000
G0 X-1.25
G0 X0.113Y0.1
G0 X1.25
G1 X4.307
G1 X10.955F5000S0
G1 X2.936F3000S1000
G1 X10.753F5000S0
G1 X3.765F3000S1000
G0 X1.25
G0 X-0.114Y0.1
G0 X-1.25
G1 X-3.8
G1 X-24.349F5000S0
G1 X-4.34F3000S1000
G0 X-1.25
G0 X0.114Y0.1
G0 X1.25
G1 X4.382
G1 X24.045F5000S0
G1 X3.834F3000S1000
G0 X1.25
G0 X-0.114Y0.1
G0 X-1.25
G1 X-3.88
G1 X-23.727F5000S0
G1 X-4.427F3000S1000
G0 X-1.25
G0 X0.118Y0.1
G0 X1.25
G1 X4.466
G1 X23.41F5000S0
G1 X3.927F3000S1000
G0 X1.25
G0 X-0.117Y0.1
G0 X-1.25
G1 X-3.97
G1 X-23.093F5000S0
G1 X-4.499F3000S1000
G0 X-1.25
G0 X0.125Y0.1
G0 X1.25
G1 X4.544
G1 X22.763F5000S0
G1 X4.001F3000S1000
G0 X1.25
G0 X-0.129Y0.1
G0 X-1.25
G1 X-4.044
G1 X-22.42F5000S0
G1 X-4.591F3000S1000
G0 X-1.25
G0 X0.124Y0.1
G0 X1.25
G1 X4.637
G1 X22.077F5000S0
G1 X4.088F3000S1000
G0 X1.25
G0 X-0.128Y0.1
G0 X-1.25
G1 X-4.134
G1 X-21.73F5000S0
G1 X-4.686F3000S1000
G0 X-1.25
G0 X0.125Y0.1
G0 X1.25
G1 X4.746
G1 X21.371F5000S0
G1 X4.179F3000S1000
G0 X1.25
G0 X-0.129Y0.1
G0 X-1.25
G1 X-4.238
G1 X-20.998F5000S0
G1 X-4.803F3000S1000
G0 X-1.25
G0 X0.137Y0.1
G0 X1.25
G1 X4.85
G1 X20.626F5000S0
G1 X4.297F3000S1000
G0 X1.25
G0 X-0.128Y0.1
G0 X-1.25
G1 X-4.357
G1 X-20.236F5000S0
G1 X-4.916F3000S1000
G0 X-1.25
G0 X0.137Y0.1
G0 X1.25
G1 X4.989
G1 X19.829F5000S0
G1 X4.425F3000S1000
G0 X1.25
G0 X-0.144Y0.1
G0 X-1.25
G1 X-4.486
G1 X-19.415F5000S0
G1 X-5.061F3000S1000
G0 X-1.25
G0 X0.136Y0.1
G0 X1.25
G1 X5.135
G1 X19F5000S0
G1 X4.545F3000S1000
G0 X1.25
G0 X-0.146Y0.1
G0 X-1.25
G1 X-4.607
G1 X-18.583F5000S0
G1 X-5.207F3000S1000
G0 X-1.25
G0 X0.146Y0.1
G0 X1.25
G1 X5.271
G1 X18.148F5000S0
G1 X4.685F3000S1000
G0 X1.25
G0 X-0.146Y0.1
G0 X-1.25
G1 X-4.764
G1 X-17.701F5000S0
G1 X-5.343F3000S1000
G0 X-1.25
G0 X0.151Y0.1
G0 X1.25
G1 X5.443
G1 X17.223F5000S0
G1 X4.845F3000S1000
G0 X1.25
G0 X-0.146Y0.1
G0 X-1.25
G1 X-4.947
G1 X-16.723F5000S0
G1 X-5.545F3000S1000
G0 X-1.25
G0 X0.151Y0.1
G0 X1.25
G1 X5.645
G1 X16.223F5000S0
G1 X5.05F3000S1000
G0 X1.25
G0 X-0.152Y0.1
G0 X-1.25
G1 X-5.153
G1 X-15.717F5000S0
G1 X-5.745F3000S1000
G0 X-1.25
G0 X0.157Y0.1
G0 X1.25
G1 X5.84
G1 X15.189F5000S0
G1 X5.262F3000S1000
G0 X1.25
G0 X-0.166Y0.1
G0 X-1.25
G1 X-5.371
G1 X-14.618F5000S0
G1 X-5.97F3000S1000
G0 X-1.25
G0 X0.167Y0.1
G0 X1.25
G1 X6.113
G1 X14.01F5000S0
G1 X5.502F3000S1000
G0 X1.25
G0 X-0.167Y0.1
G0 X-1.25
G1 X-5.644
G1 X-13.392F5000S0
G1 X-6.255F3000S1000
G0 X-1.25
G0 X0.166Y0.1
G0 X1.25
G1 X6.399
G1 X12.761F5000S0
G1 X5.798F3000S1000
G0 X1.25
G0 X-0.167Y0.1
G0 X-1.25
G1 X-5.981
G1 X-12.088F5000S0
G1 X-6.555F3000S1000
G0 X-1.25
G0 X0.178Y0.1
G0 X1.25
G1 X6.774
G1 X11.331F5000S0
G1 X6.174F3000S1000
G0 X1.25
G0 X-0.175Y0.1
G0 X-1.25
G1 X-6.4
G1 X-10.533F5000S0
G1 X-6.986F3000S1000
G0 X-1.25
G0 X0.185Y0.1
G0 X1.25
G1 X7.197
G1 X9.715F5000S0
G1 X6.633F3000S1000
G0 X1.25
G0 X-0.189Y0.1
G0 X-1.25
G1 X-6.913
G1 X-8.8F5000S0
G1 X-7.457F3000S1000
G0 X-1.25
G0 X0.185Y0.1
G0 X1.25
G1 X7.772
G1 X7.772F5000S0
G1 X7.252F3000S1000
G0 X1.25
G0 X-0.189Y0.1
G0 X-1.25
G1 X-7.657
G1 X-6.575F5000S0
G1 X-8.184F3000S1000
G0 X-1.25
G0 X0.208Y0.1
G0 X1.25
G1 X8.697
G1 X5.141F5000S0
G1 X8.172F3000S1000
G0 X1.25
G0 X-0.211Y0.1
G0 X-1.25
G1 X-10.026
G1 X-2.087F5000S0
G1 X-9.479F3000S1000
G0 X-1.25
G0 X0.207Y0.1
G0 X1.25
G1 X21.173
G0 X1.25
G0 X-0.211Y0.1
G0 X-1.25
G1 X-20.754
G0 X-1.25
G0 X0.217Y0.1
G0 X1.25
G1 X20.326
G0 X1.25
G0 X-0.233Y0.1
G0 X-1.25
G1 X-19.859
G0 X-1.25
G0 X0.234Y0.1
G0 X1.25
G1 X19.387
G0 X1.25
G0 X-0.238Y0.1
G0 X-1.25
G1 X-18.915
G0 X-1.25
G0 X0.234Y0.1
G0 X1.25
G1 X18.443
G0 X1.25
G0 X-0.257Y0.1
G0 X-1.25
G1 X-17.92
G0 X-1.25
G0 X0.267Y0.1
G0 X1.25
G1 X17.383
G0 X1.25
G0 X-0.269Y0.1
G0 X-1.25
G1 X-16.847
G0 X-1.25
G0 X0.268Y0.1
G0 X1.25
G1 X16.309
G0 X1.25
G0 X-0.304Y0.1
G0 X-1.25
G1 X-15.696
G0 X-1.25
G0 X0.31Y0.1
G0 X1.25
G1 X15.076
G0 X1.25
G0 X-0.309Y0.1
G0 X-1.25
G1 X-14.458
G0 X-1.25
G0 X0.34Y0.1
G0 X1.25
G1 X13.78
G0 X1.25
G0 X-0.362Y0.1
G0 X-1.25
G1 X-13.053
G0 X-1.25
G0 X0.366Y0.1
G0 X1.25
G1 X12.325
G0 X1.25
G0 X-0.413Y0.1
G0 X-1.25
G1 X-11.502
G0 X-1.25
G0 X0.443Y0.1
G0 X1.25
G1 X10.623
G0 X1.25
G0 X-0.47Y0.1
G0 X-1.25
G1 X-9.699
G0 X-1.25
G0 X0.562Y0.1
G0 X1.25
G1 X8.587
G0 X1.25
G0 X-0.617Y0.1
G0 X-1.25
G1 X-7.39
G0 X-1.25
G0 X0.762Y0.1
G0 X1.25
G1 X5.827
G0 X1.25
G0 X-1.135Y0.1
G0 X-1.25
G1 X-3.681
G0 X-1.25
G0 X-8.028Y10.6
G0 X1.25
G1 X0.383
G1 X3.05F5000S0
G1 X0.816F3000S1000
G1 X2.34F5000S0
G1 X1.034F3000S1000
G1 X1.505F5000S0
G1 X0.331F3000S1000
G1 X1.752F5000S0
G1 X0.324F3000S1000
G1 X2.198F5000S0
G1 X0.672F3000S1000
G1 X2.472F5000S0
G1 X1.007F3000S1000
G1 X2.473F5000S0
G1 X1.146F3000S1000
G0 X1.25
G0 X0.36Y0.1
G0 X-1.25
G1 X-1.717
G1 X-1.867F5000S0
G1 X-1.674F3000S1000
G1 X-1.929F5000S0
G1 X-1.101F3000S1000
G1 X-1.91F5000S0
G1 X-0.515F3000S1000
G1 X-1.566F5000S0
G1 X-0.508F3000S1000
G1 X-1.061F5000S0
G1 X-1.698F3000S1000
G1 X-1.824F5000S0
G1 X-1.215F3000S1000
G1 X-2.815F5000S0
G1 X-0.564F3000S1000
G0 X-1.25
G0 X-0.053Y0.1
G0 X1.25
G1 X0.655
G1 X2.686F5000S0
G1 X1.465F3000S1000
G1 X1.487F5000S0
G1 X2.128F3000S1000
G1 X0.79S0
G1 X0.607S1000
G1 X1.476F5000S0
G1 X0.596F3000S1000
G1 X1.772F5000S0
G1 X1.374F3000S1000
G1 X1.546F5000S0
G1 X2.114F3000S1000
G1 X1.458F5000S0
G1 X2.133F3000S1000
G0 X1.25
G0 X0.199Y0.1
G0 X-1.25
G1 X-2.443
G1 X-1.132F5000S0
G1 X-2.465F3000S1000
G1 X-1.252F5000S0
G1 X-1.586F3000S1000
G1 X-1.664F5000S0
G1 X-0.637F3000S1000
G1 X-1.431F5000S0
G1 X-0.656F3000S1000
G1 X-0.598S0
G1 X-2.464S1000
G1 X-1.208F5000S0
G1 X-1.672F3000S1000
G1 X-2.596F5000S0
G1 X-0.695F3000S1000
G0 X-1.25
G0 Y0.1
G0 X1.251
G1 X0.728
G1 X2.537F5000S0
G1 X1.826F3000S1000
G1 X0.968S0
G1 X2.752S1000
G1 X0.441S0
G1 X0.678S1000
G1 X1.405F5000S0
G1 X0.676F3000S1000
G1 X1.577F5000S0
G1 X1.765F3000S1000
G1 X0.994S0
G1 X2.74S1000
G1 X0.887S0
G1 X2.715S1000
G0 X1.25
G0 X0.151Y0.1
G0 X-1.25
G1 X-2.936
G1 X-0.663S0
G1 X-2.979S1000
G1 X-0.79S0
G1 X-1.912S1000
G1 X-1.482F5000S0
G1 X-0.726F3000S1000
G1 X-1.358F5000S0
G1 X-0.727F3000S1000
G1 X-0.317S0
G1 X-2.976S1000
G1 X-0.767S0
G1 X-1.968S1000
G1 X-2.465F5000S0
G1 X-0.759F3000S1000
G0 X-1.25
G0 X0.015Y0.1
G0 X1.25
G1 X0.791
G1 X2.409F5000S0
G1 X0.724F3000S1000
G1 X0.438S0
G1 X0.925S1000
G1 X0.582S0
G1 X1.017S1000
G1 X0.917S0
G1 X1.252S1000
G1 X0.197S0
G1 X0.777S1000
G1 X1.31F5000S0
G1 X0.777F3000S1000
G1 X1.403F5000S0
G1 X0.75F3000S1000
G1 X0.117S0
G1 X1.164S1000
G1 X0.607S0
G1 X1.024S1000
G1 X0.9S0
G1 X1.257S1000
G1 X0.48S0
G1 X0.731S1000
G1 X0.372S0
G1 X2.032S1000
G0 X1.25
G0 X0.133Y0.1
G0 X-1.25
G1 X-1.947
G1 X-0.675S0
G1 X-0.686S1000
G1 X-0.315S0
G1 X-1.087S1000
G1 X-1.3F5000S0
G1 X-0.982F3000S1000
G1 X-0.437S0
G1 X-0.976S1000
G1 X-0.426S0
G1 X-0.742S1000
G1 X-1.33F5000S0
G1 X-0.827F3000S1000
G1 X-1.262F5000S0
G1 X-0.826F3000S1000
G1 X-0.103S0
G1 X-1.079S1000
G1 X-1.303F5000S0
G1 X-0.977F3000S1000
G1 X-0.423S0
G1 X-0.883S1000
G1 X-0.574S0
G1 X-0.734S1000
G1 X-2.353F5000S0
G1 X-0.824F3000S1000
G0 X-1.25
G0 X0.015Y0.1
G0 X1.25
G1 X0.856
G1 X2.311F5000S0
G1 X0.749F3000S1000
G1 X0.692S0
G1 X0.839S1000
G1 X0.279S0
G1 X0.97S1000
G1 X1.572F5000S0
G1 X0.977F3000S1000
G1 X0.884
G1 X1.213F5000S0
G1 X0.879F3000S1000
G1 X1.272F5000S0
G1 X0.742F3000S1000
G1 X0.557S0
G1 X0.935S1000
G1 X0.287S0
G1 X0.967S1000
G1 X1.58F5000S0
G1 X0.971F3000S1000
G1 X0.18S0
G1 X0.669S1000
G1 X0.863S0
G1 X1.923S1000
G0 X1.25
G0 X0.11Y0.1
G0 X-1.25
G1 X-1.956
G1 X-0.961S0
G1 X-0.677S1000
G1 X-0.051S0
G1 X-0.893S1000
G1 X-1.791F5000S0
G1 X-0.979F3000S1000
G1 X-0.152S0
G1 X-0.884S1000
G1 X-0.67S0
G1 X-0.758S1000
G1 X-1.216F5000S0
G1 X-0.93F3000S1000
G1 X-1.165F5000S0
G1 X-1.75F3000S1000
G1 X-1.777F5000S0
G1 X-0.986F3000S1000
G1 X-0.152S0
G1 X-0.804S1000
G1 X-0.767S0
G1 X-0.783S1000
G1 X-2.269F5000S0
G1 X-0.891F3000S1000
G0 X-1.25
G0 X0.017Y0.1
G0 X1.25
G1 X0.927
G1 X2.236F5000S0
G1 X0.822F3000S1000
G1 X0.814S0
G1 X0.778S1000
G1 X0.039S0
G1 X1.012S1000
G1 X1.929F5000S0
G1 X1.67F3000S1000
G1 X1.117F5000S0
G1 X0.98F3000S1000
G1 X1.168F5000S0
G1 X0.783F3000S1000
G1 X0.747S0
G1 X0.844S1000
G1 X0.038S0
G1 X1.001S1000
G1 X1.946F5000S0
G1 X1.478F3000S1000
G1 X1.034F5000S0
G1 X1.229F3000S1000
G1 X0.022S0
G1 X0.733S1000
G0 X1.25
G0 X0.086Y0.1
G0 X-1.25
G1 X-0.709
G1 X-0.082S0
G1 X-1.228S1000
G1 X-1.069F5000S0
G1 X-1.368F3000S1000
G1 X-2.071F5000S0
G1 X-1.775F3000S1000
G1 X-0.806S0
G1 X-0.813S1000
G1 X-1.12F5000S0
G1 X-1.028F3000S1000
G1 X-1.07F5000S0
G1 X-1.609F3000S1000
G1 X-2.063F5000S0
G1 X-1.716F3000S1000
G1 X-0.858S0
G1 X-0.861S1000
G1 X-2.207F5000S0
G1 X-0.955F3000S1000
G0 X-1.25
G0 X0.025Y0.1
G0 X1.25
G1 X0.984
G1 X2.18F5000S0
G1 X0.896F3000S1000
G1 X0.887S0
G1 X1.631S1000
G1 X2.173F5000S0
G1 X1.56F3000S1000
G1 X1.024F5000S0
G1 X1.077F3000S1000
G1 X1.069F5000S0
G1 X0.851F3000S1000
G1 X0.859S0
G1 X1.677S1000
G1 X2.174F5000S0
G1 X1.306F3000S1000
G1 X1.067F5000S0
G1 X1.228F3000S1000
G1 X0.138S0
G1 X0.687S1000
G0 X1.25
G0 X0.086Y0.1
G0 X-1.25
G1 X-0.69
G1 X-0.178S0
G1 X-1.222S1000
G1 X-1.027F5000S0
G1 X-1.298F3000S1000
G1 X-2.258F5000S0
G1 X-1.6F3000S1000
G1 X-0.891S0
G1 X-0.889S1000
G1 X-1.017F5000S0
G1 X-1.129F3000S1000
G1 X-0.977S0
G1 X-1.529S1000
G1 X-2.264F5000S0
G1 X-1.556F3000S1000
G1 X-0.906S0
G1 X-0.932S1000
G1 X-2.153F5000S0
G1 X-1.013F3000S1000
G0 X-1.25
G0 X0.025Y0.1
G0 X1.25
G1 X1.047
G1 X2.121F5000S0
G1 X0.968F3000S1000
G1 X0.925S0
G1 X1.49S1000
G1 X2.342F5000S0
G1 X1.502F3000S1000
G1 X0.931S0
G1 X1.181S1000
G1 X0.965S0
G1 X0.926S1000
G1 X0.919S0
G1 X1.526S1000
G1 X2.338F5000S0
G1 X1.586F3000S1000
G1 X0.682S0
G1 X1.224S1000
G1 X0.225S0
G1 X0.672S1000
G0 X1.25
G0 X0.066Y0.1
G0 X-1.25
G1 X-0.664
G1 X-0.262S0
G1 X-1.227S1000
G1 X-0.563S0
G1 X-1.662S1000
G1 X-2.39F5000S0
G1 X-1.465F3000S1000
G1 X-0.947S0
G1 X-0.958S1000
G1 X-0.919S0
G1 X-1.233S1000
G1 X-0.884S0
G1 X-1.489S1000
G1 X-2.403F5000S0
G1 X-1.431F3000S1000
G1 X-0.941S0
G1 X-0.996S1000
G1 X-2.096F5000S0
G1 X-1.081F3000S1000
G0 X-1.25
G0 X0.025Y0.1
G0 X1.25
G1 X1.114
G1 X2.073F5000S0
G1 X1.024F3000S1000
G1 X0.94S0
G1 X1.396S1000
G1 X2.452F5000S0
G1 X1.48F3000S1000
G1 X0.838S0
G1 X1.285S1000
G1 X0.871S0
G1 X0.99S1000
G1 X0.964S0
G1 X1.419S1000
G1 X2.437F5000S0
G1 X1.652F3000S1000
G1 X0.533S0
G1 X1.221S1000
G1 X0.3S0
G1 X0.662S1000
G0 X1.25
G0 X0.062Y0.1
G0 X-1.25
G1 X-0.657
G1 X-0.343S0
G1 X-1.226S1000
G1 X-0.516S0
G1 X-1.622S1000
G1 X-2.476F5000S0
G1 X-1.38F3000S1000
G1 X-0.972S0
G1 X-1.022S1000
G1 X-0.825S0
G1 X-1.337S1000
G1 X-0.786S0
G1 X-1.485S1000
G1 X-2.485F5000S0
G1 X-1.367F3000S1000
G1 X-0.941S0
G1 X-1.051S1000
G1 X-2.048F5000S0
G1 X-1.142F3000S1000
G0 X-1.25
G0 X0.031Y0.1
G0 X1.25
G1 X1.176
G1 X2.018F5000S0
G1 X1.085F3000S1000
G1 X0.934S0
G1 X2.407S1000
G1 X1.443F5000S0
G1 X1.496F3000S1000
G1 X0.737S0
G1 X1.388S1000
G1 X0.778S0
G1 X1.054S1000
G1 X0.981S0
G1 X2.411S1000
G1 X1.441F5000S0
G1 X1.566F3000S1000
G1 X0.529S0
G1 X1.231S1000
G1 X0.379S0
G1 X0.644S1000
G0 X1.25
G0 X0.049Y0.1
G0 X-1.25
G1 X-0.639
G1 X-0.415S0
G1 X-1.229S1000
G1 X-0.566S0
G1 X-1.488S1000
G1 X-1.215F5000S0
G1 X-2.633F3000S1000
G1 X-0.988S0
G1 X-1.083S1000
G1 X-0.734S0
G1 X-1.437S1000
G1 X-0.69S0
G1 X-1.508S1000
G1 X-1.216F5000S0
G1 X-2.638F3000S1000
G1 X-0.92S0
G1 X-1.119S1000
G1 X-1.988F5000S0
G1 X-1.209F3000S1000
G0 X-1.25
G0 X0.032Y0.1
G0 X1.25
G1 X1.242
G1 X1.958F5000S0
G1 X1.153F3000S1000
G1 X0.895S0
G1 X2.82S1000
G1 X1.039F5000S0
G1 X1.53F3000S1000
G1 X0.643S0
G1 X1.491S1000
G1 X0.688S0
G1 X1.11S1000
G1 X0.975S0
G1 X2.812S1000
G1 X1.038F5000S0
G1 X1.409F3000S1000
G1 X0.605S0
G1 X1.233S1000
G1 X0.458S0
G1 X0.632S1000
G0 X1.25
G0 X0.043Y0.1
G0 X-1.25
G1 X-0.612
G1 X-0.509S0
G1 X-1.239S1000
G1 X-0.656S0
G1 X-1.315S1000
G1 X-0.922S0
G1 X-2.956S1000
G1 X-0.933S0
G1 X-1.141S1000
G1 X-0.643S0
G1 X-1.543S1000
G1 X-0.596S0
G1 X-0.464S1000
G1 X-1.089
G1 X-0.924S0
G1 X-2.958S1000
G1 X-0.852S0
G1 X-1.187S1000
G1 X-1.928F5000S0
G1 X-1.276F3000S1000
G0 X-1.25
G0 X0.032Y0.1
G0 X1.25
G1 X1.309
G1 X1.895F5000S0
G1 X1.224F3000S1000
G1 X0.805S0
G1 X3.094S1000
G1 X0.784S0
G1 X1.118S1000
G1 X0.02S0
G1 X0.47S1000
G1 X0.547S0
G1 X1.597S1000
G1 X0.597S0
G1 X1.171S1000
G1 X0.892S0
G1 X3.092S1000
G1 X0.825S0
G1 X1.195S1000
G1 X0.722S0
G1 X1.241S1000
G1 X0.566S0
G1 X0.554S1000
G0 X1.25
G0 X-0.032Y0.1
G0 X-1.25
G1 X-0.449
G1 X-0.638S0
G1 X-1.245S1000
G1 X-0.799S0
G1 X-1.056S1000
G1 X-0.771S0
G1 X-1.133S1000
G1 X-0.657S0
G1 X-1.394S1000
G1 X-0.85S0
G1 X-1.202S1000
G1 X-0.551S0
G1 X-1.651S1000
G1 X-0.496S0
G1 X-0.479S1000
G1 X-0.036S0
G1 X-1.151S1000
G1 X-0.688S0
G1 X-1.133S1000
G1 X-0.657S0
G1 X-1.394S1000
G1 X-0.759S0
G1 X-1.263S1000
G1 X-1.86F5000S0
G1 X-1.342F3000S1000
G0 X-1.25
G0 X0.031Y0.1
G0 X1.25
G1 X1.376
G1 X1.826F5000S0
G1 X1.301F3000S1000
G1 X0.712S0
G1 X1.425S1000
G1 X0.899S0
G1 X0.951S1000
G1 X0.592S0
G1 X1.185S1000
G1 X0.052S0
G1 X0.488S1000
G1 X0.445S0
G1 X1.196S1000
G1 X0.508
G1 X0.51S0
G1 X1.227S1000
G1 X0.81S0
G1 X1.425S1000
G1 X0.899S0
G1 X0.951S1000
G1 X0.717S0
G1 X0.864S1000
G1 X0.924S0
G1 X1.253S1000
G1 X0.774S0
G1 X0.221S1000
G0 X1.25
G0 X-0.997Y0.1
G0 X-1.25
G1 X-1.258
G1 X-1.098F5000S0
G1 X-0.624F3000S1000
G1 X-0.674S0
G1 X-0.857S1000
G1 X-1.042F5000S0
G1 X-1.457F3000S1000
G1 X-0.768S0
G1 X-1.251S1000
G1 X-0.472S0
G1 X-0.509S1000
G1 X-0.026S0
G1 X-1.222S1000
G1 X-0.393S0
G1 X-0.498S1000
G1 X-0.068S0
G1 X-1.218S1000
G1 X-0.507S0
G1 X-0.857S1000
G1 X-1.042F5000S0
G1 X-1.456F3000S1000
G1 X-0.667S0
G1 X-1.338S1000
G1 X-1.791F5000S0
G1 X-1.409F3000S1000
G0 X-1.25
G0 X0.032Y0.1
G0 X1.25
G1 X1.442
G1 X1.756F5000S0
G1 X1.373F3000S1000
G1 X0.634S0
G1 X1.477S1000
G1 X1.13F5000S0
G1 X0.795F3000S1000
G1 X0.446S0
G1 X1.251S1000
G1 X0.084S0
G1 X0.507S1000
G1 X0.344S0
G1 X1.245S1000
G1 X0.046S0
G1 X0.517S1000
G1 X0.433S0
G1 X1.275S1000
G1 X0.74S0
G1 X1.475S1000
G1 X1.13F5000S0
G1 X0.795F3000S1000
G1 X0.654S0
G1 X0.621S1000
G1 X1.029F5000S0
G1 X1.26F3000S1000
G0 X1.25
G0 X-0.011Y0.1
G0 X-1.25
G1 X-1.271
G1 X-0.95S0
G1 X-0.619S1000
G1 X-0.633S0
G1 X-0.744S1000
G1 X-1.208F5000S0
G1 X-1.487F3000S1000
G1 X-0.719S0
G1 X-1.299S1000
G1 X-0.389S0
G1 X-0.53S1000
G1 X-0.065S0
G1 X-1.267S1000
G1 X-0.297S0
G1 X-0.515S1000
G1 X-0.1S0
G1 X-1.283S1000
G1 X-0.385S0
G1 X-0.744S1000
G1 X-1.208F5000S0
G1 X-1.489F3000S1000
G1 X-0.61S0
G1 X-1.407S1000
G1 X-1.721F5000S0
G1 X-1.477F3000S1000
G0 X-1.25
G0 X0.033Y0.1
G0 X1.25
G1 X1.509
G1 X1.686F5000S0
G1 X1.446F3000S1000
G1 X0.583S0
G1 X1.512S1000
G1 X1.236F5000S0
G1 X0.73F3000S1000
G1 X0.327S0
G1 X1.312S1000
G1 X0.116S0
G1 X0.529S1000
G1 X0.246S0
G1 X1.288S1000
G1 X0.085S0
G1 X0.543S1000
G1 X0.345S0
G1 X1.323S1000
G1 X0.696S0
G1 X1.512S1000
G1 X1.236F5000S0
G1 X0.73F3000S1000
G1 X0.613S0
G1 X0.616S1000
G1 X0.872S0
G1 X1.281S1000
G0 X1.25
G0 X-0.023Y0.1
G0 X-1.25
G1 X-1.282
G1 X-0.791S0
G1 X-0.614S1000
G1 X-0.618S0
G1 X-0.691S1000
G1 X-1.26F5000S0
G1 X-1.54F3000S1000
G1 X-0.677S0
G1 X-1.345S1000
G1 X-0.299S0
G1 X-0.556S1000
G1 X-0.105S0
G1 X-1.311S1000
G1 X-0.194S0
G1 X-0.542S1000
G1 X-0.132S0
G1 X-1.342S1000
G1 X-0.294S0
G1 X-0.692S1000
G1 X-1.259F5000S0
G1 X-1.54F3000S1000
G1 X-0.566S0
G1 X-1.484S1000
G1 X-1.627F5000S0
G1 X-1.551F3000S1000
G0 X-1.25
G0 X0.036Y0.1
G0 X1.25
G1 X1.734
G1 X1.389F5000S0
G1 X1.547F3000S1000
G1 X0.563S0
G1 X1.568S1000
G1 X1.261F5000S0
G1 X0.674F3000S1000
G1 X0.262S0
G1 X1.373S1000
G1 X0.149S0
G1 X0.554S1000
G1 X0.141S0
G1 X1.333S1000
G1 X0.13S0
G1 X0.564S1000
G1 X0.253S0
G1 X1.367S1000
G1 X0.658S0
G1 X1.569S1000
G1 X1.261F5000S0
G1 X0.674F3000S1000
G1 X0.624S0
G1 X0.611S1000
G1 X0.698S0
G1 X1.296S1000
G0 X1.25
G0 X-0.023Y0.1
G0 X-1.25
G1 X-1.31
G1 X-0.603S0
G1 X-0.609S1000
G1 X-0.631S0
G1 X-0.663S1000
G1 X-1.256F5000S0
G1 X-1.584F3000S1000
G1 X-0.654S0
G1 X-1.387S1000
G1 X-0.208S0
G1 X-0.572S1000
G1 X-0.154S0
G1 X-1.356S1000
G1 X-0.089S0
G1 X-0.56S1000
G1 X-0.172S0
G1 X-1.403S1000
G1 X-0.23S0
G1 X-0.663S1000
G1 X-1.256F5000S0
G1 X-1.586F3000S1000
G1 X-0.582S0
G1 X-1.872S1000
G1 X-0.781S0
G1 X-2.012S1000
G0 X-1.25
G0 X0.036Y0.1
G0 X1.25
G1 X4.647
G1 X0.628S0
G1 X1.6S1000
G1 X1.238F5000S0
G1 X0.653F3000S1000
G1 X0.203S0
G1 X1.432S1000
G1 X0.195S0
G1 X0.565S1000
G1 X0.037S0
G1 X1.379S1000
G1 X0.178S0
G1 X0.581S1000
G1 X0.161S0
G1 X1.411S1000
G1 X0.656S0
G1 X1.599S1000
G1 X1.238F5000S0
G1 X0.653F3000S1000
G1 X0.642S0
G1 X0.607S1000
G1 X0.506S0
G1 X1.313S1000
G0 X1.25
G0 X-0.036Y0.1
G0 X-1.25
G1 X-1.331
G1 X-0.393S0
G1 X-0.606S1000
G1 X-0.67S0
G1 X-0.644S1000
G1 X-1.191F5000S0
G1 X-1.625F3000S1000
G1 X-0.655S0
G1 X-1.439S1000
G1 X-0.113S0
G1 X-0.588S1000
G1 X-0.203S0
G1 X-1.958S1000
G1 X-0.218S0
G1 X-1.458S1000
G1 X-0.196S0
G1 X-0.644S1000
G1 X-1.191F5000S0
G1 X-1.625F3000S1000
G1 X-0.701S0
G1 X-4.6S1000
G0 X-1.25
G0 X0.036Y0.1
G0 X1.25
G1 X4.515
G1 X0.813S0
G1 X1.649S1000
G1 X1.144F5000S0
G1 X0.635F3000S1000
G1 X0.189S0
G1 X1.486S1000
G1 X0.241S0
G1 X1.934S1000
G1 X0.229S0
G1 X0.603S1000
G1 X0.056S0
G1 X1.448S1000
G1 X0.674S0
G1 X1.65S1000
G1 X1.143F5000S0
G1 X0.635F3000S1000
G1 X0.699S0
G1 X0.605S1000
G1 X0.28S0
G1 X1.35S1000
G0 X1.25
G0 X-0.036Y0.1
G0 X-1.25
G1 X-1.37
G1 X-0.165S0
G1 X-0.604S1000
G1 X-0.727S0
G1 X-0.629S1000
G1 X-1.094F5000S0
G1 X-1.674F3000S1000
G1 X-0.699S0
G1 X-2.064S1000
G1 X-0.259S0
G1 X-1.911S1000
G1 X-0.264S0
G1 X-1.512S1000
G1 X-0.182S0
G1 X-0.629S1000
G1 X-1.094F5000S0
G1 X-1.674F3000S1000
G1 X-0.952S0
G1 X-2.571S1000
G1 X-0.121S0
G1 X-1.711S1000
G0 X-1.25
G0 X0.037Y0.1
G0 X1.25
G1 X1.738
G1 X0.323S0
G1 X2.196S1000
G1 X1.148F5000S0
G1 X1.689F3000S1000
G1 X1.016F5000S0
G1 X0.636F3000S1000
G1 X0.176S0
G1 X1.539S1000
G1 X0.287S0
G1 X1.887S1000
G1 X0.289S0
G1 X2.009S1000
G1 X0.761S0
G1 X1.688S1000
G1 X1.017F5000S0
G1 X0.635F3000S1000
G1 X0.756S0
G1 X0.602S1000
G1 X0.031S0
G1 X1.409S1000
G0 X1.25
G0 X-0.036Y0.1
G0 X-1.25
G1 X-1.945
G1 X-0.802S0
G1 X-0.649S1000
G1 X-0.907S0
G1 X-1.709S1000
G1 X-0.835S0
G1 X-1.943S1000
G1 X-0.319S0
G1 X-1.865S1000
G1 X-0.312S0
G1 X-1.562S1000
G1 X-0.188S0
G1 X-0.649S1000
G1 X-0.907S0
G1 X-1.709S1000
G1 X-1.416F5000S0
G1 X-1.72F3000S1000
G1 X-0.557S0
G1 X-1.766S1000
G0 X-1.25
G0 X0.037Y0.1
G0 X1.25
G1 X1.793
G1 X0.664S0
G1 X1.304S1000
G1 X1.752F5000S0
G1 X1.729F3000S1000
G1 X0.78S0
G1 X0.67S1000
G1 X0.212S0
G1 X1.54S1000
G1 X0.379S0
G1 X1.828S1000
G1 X0.363S0
G1 X1.871S1000
G1 X0.917S0
G1 X1.728S1000
G1 X0.78S0
G1 X0.671S1000
G1 X0.859S0
G1 X1.849S1000
G0 X1.25
G0 X-0.033Y0.1
G0 X-1.25
G1 X-1.754
G1 X-0.928S0
G1 X-0.702S1000
G1 X-0.627S0
G1 X-1.753S1000
G1 X-1.041F5000S0
G1 X-1.752F3000S1000
G1 X-0.443S0
G1 X-1.756S1000
G1 X-0.473S0
G1 X-1.494S1000
G1 X-0.247S0
G1 X-0.702S1000
G1 X-0.627S0
G1 X-1.753S1000
G1 X-1.921F5000S0
G1 X-1.078F3000S1000
G1 X-0.747S0
G1 X-1.822S1000
G0 X-1.25
G0 X0.04Y0.1
G0 X1.25
G1 X1.847
G1 X0.821S0
G1 X1.132S1000
G1 X1.84F5000S0
G1 X1.823F3000S1000
G1 X0.348S0
G1 X0.777S1000
G1 X0.298S0
G1 X1.432S1000
G1 X0.583S0
G1 X1.67S1000
G1 X0.539S0
G1 X1.618S1000
G1 X1.201F5000S0
G1 X1.823F3000S1000
G1 X0.347S0
G1 X0.777S1000
G1 X1.011F5000S0
G1 X1.663F3000S1000
G0 X1.25
G0 X-0.011Y0.1
G0 X-1.25
G1 X-1.59
G1 X-1.107F5000S0
G1 X-2.795F3000S1000
G1 X-1.366F5000S0
G1 X-1.483F3000S1000
G1 X-0.66S0
G1 X-1.549S1000
G1 X-0.717S0
G1 X-1.357S1000
G1 X-0.361S0
G1 X-2.795S1000
G1 X-1.797F5000S0
G1 X-1.177F3000S1000
G1 X-0.872S0
G1 X-1.872S1000
G1 X-0.687S0
G1 X-0.469S1000
G0 X-1.25
G0 X-0.132Y0.1
G0 X1.25
G1 X0.859
G1 X0.471S0
G1 X1.894S1000
G1 X0.922S0
G1 X1.225S1000
G1 X1.774F5000S0
G1 X2.608F3000S1000
G1 X0.438S0
G1 X1.252S1000
G1 X0.884S0
G1 X1.402S1000
G1 X0.803S0
G1 X1.308S1000
G1 X1.593F5000S0
G1 X2.609F3000S1000
G1 X1.216F5000S0
G1 X1.516F3000S1000
G0 X1.25
G0 X0.008Y0.1
G0 X-1.25
G1 X-1.462
G1 X-1.345F5000S0
G1 X-2.386F3000S1000
G1 X-1.84F5000S0
G1 X-1.129F3000S1000
G1 X-0.974S0
G1 X-1.213S1000
G1 X-1.1F5000S0
G1 X-1.112F3000S1000
G1 X-0.535S0
G1 X-2.385S1000
G1 X-1.781F5000S0
G1 X-1.277F3000S1000
G1 X-0.957S0
G1 X-1.915S1000
G1 X-0.368S0
G1 X-1.032S1000
G0 X-1.25
G0 X-0.019Y0.1
G0 X1.25
G1 X1.162
G1 X0.298S0
G1 X1.936S1000
G1 X0.992S0
G1 X1.295S1000
G1 X1.861F5000S0
G1 X2.096F3000S1000
G1 X0.689S0
G1 X0.913S1000
G1 X1.351F5000S0
G1 X0.971F3000S1000
G1 X1.203F5000S0
G1 X0.885F3000S1000
G1 X2.181F5000S0
G1 X2.096F3000S1000
G1 X1.501F5000S0
G1 X1.434F3000S1000
G0 X1.25
G0 X0.006Y0.1
G0 X-1.25
G1 X-1.378
G1 X-1.697F5000S0
G1 X-1.725F3000S1000
G1 X-2.62F5000S0
G1 X-0.511F3000S1000
G1 X-1.528F5000S0
G1 X-0.691F3000S1000
G1 X-1.674F5000S0
G1 X-0.602F3000S1000
G1 X-0.937S0
G1 X-1.726S1000
G1 X-1.983F5000S0
G1 X-1.327F3000S1000
G1 X-1.016F5000S0
G1 X-1.953F3000S1000
G1 X-0.252S0
G1 X-1.259S1000
G0 X-1.25
G0 X0.008Y0.1
G0 X1.25
G1 X1.297
G1 X0.247S0
G1 X1.972S1000
G1 X1.04F5000S0
G1 X1.358F3000S1000
G1 X2.227F5000S0
G1 X1.06F3000S1000
G1 X9.229F5000S0
G1 X1.059F3000S1000
G1 X2.066F5000S0
G1 X1.289F3000S1000
G0 X1.25
G0 X-0.028Y0.1
G0 X-1.25
G1 X-1.199
G1 X-15.611F5000S0
G1 X-1.367F3000S1000
G1 X-1.064F5000S0
G1 X-1.99F3000S1000
G1 X-0.275S0
G1 X-1.291S1000
G0 X-1.25
G0 X0.029Y0.1
G0 X1.25
G1 X1.255
G1 X0.324S0
G1 X1.997S1000
G1 X1.087F5000S0
G1 X1.378F3000S1000
G1 X15.591F5000S0
G1 X1.091F3000S1000
G0 X1.25
G0 X-0.057Y0.1
G0 X-1.25
G1 X-0.972
G1 X-15.57F5000S0
G1 X-1.403F3000S1000
G1 X-1.095F5000S0
G1 X-2.006F3000S1000
G1 X-0.395S0
G1 X-1.187S1000
G0 X-1.25
G0 X0.039Y0.1
G0 X1.25
G1 X1.122
G1 X0.462S0
G1 X2.012S1000
G1 X1.105F5000S0
G1 X1.429F3000S1000
G1 X15.549F5000S0
G1 X0.838F3000S1000
G0 X1.25
G0 X-0.094Y0.1
G0 X-1.25
G1 X-0.682
G1 X-15.543F5000S0
G1 X-1.439F3000S1000
G1 X-1.154F5000S0
G1 X-1.978F3000S1000
G1 X-0.512S0
G1 X-1.077S1000
G0 X-1.25
G0 X0.047Y0.1
G0 X1.25
G1 X1.049
G1 X0.54S0
G1 X1.928S1000
G1 X1.207F5000S0
G1 X1.448F3000S1000
G1 X15.547F5000S0
G1 X0.49F3000S1000
G0 X1.25
G0 X-0.176Y0.1
G0 X-1.25
G1 X-0.18
G1 X-15.622F5000S0
G1 X-1.47F3000S1000
G1 X-1.26F5000S0
G1 X-1.866F3000S1000
G1 X-0.565S0
G1 X-1.021S1000
G0 X-1.25
G0 X0.05Y0.1
G0 X1.25
G1 X0.993
G1 X0.59S0
G1 X1.786S1000
G1 X1.33F5000S0
G1 X1.492F3000S1000
G0 X1.25
G0 X0.058Y0.1
G0 X-1.25
G1 X-1.512
G1 X-1.423F5000S0
G1 X-1.685F3000S1000
G1 X-0.61S0
G1 X-0.964S1000
G0 X-1.25
G0 X0.062Y0.1
G0 X1.25
G1 X0.946
G1 X0.612S0
G1 X1.571S1000
G1 X1.528F5000S0
G1 X1.51F3000S1000
G0 X1.25
G0 X0.034Y0.1
G0 X-1.25
G1 X-1.526
G1 X-1.619F5000S0
G1 X-1.451F3000S1000
G1 X-0.616S0
G1 X-0.927S1000
G0 X-1.25
G0 X0.068Y0.1
G0 X1.25
G1 X0.903
G1 X0.618S0
G1 X1.331S1000
G1 X1.712F5000S0
G1 X1.539F3000S1000
G0 X1.25
G0 X0.009Y0.1
G0 X-1.25
G1 X-1.529
G1 X-1.84F5000S0
G1 X-1.175F3000S1000
G1 X-0.6S0
G1 X-0.893S1000
G0 X-1.25
G0 X0.076Y0.1
G0 X1.25
G1 X0.887
G1 X0.576S0
G1 X1.02S1000
G1 X1.968F5000S0
G1 X1.52F3000S1000
G0 X1.25
G0 X0.008Y0.1
G0 X-1.25
G1 X-1.517
G1 X-2.133F5000S0
G1 X-0.82F3000S1000
G1 X-0.551S0
G1 X-0.874S1000
G0 X-1.25
G0 X0.091Y0.1
G0 X1.25
G1 X0.879
G1 X0.51S0
G1 X0.585S1000
G1 X2.312F5000S0
G1 X1.505F3000S1000
G0 X1.25
G0 X-0.013Y0.1
G0 X-1.25
G1 X-1.507
G1 X-2.579F5000S0
G1 X-0.131F3000S1000
G1 X-0.575S0
G1 X-0.894S1000
G0 X-1.25
G0 X0.107Y0.1
G0 X1.25
G1 X0.897
G1 X3.154F5000S0
G1 X1.512F3000S1000
G0 X1.25
G0 X-0.038Y0.1
G0 X-1.25
G1 X-1.514
G1 X-2.978F5000S0
G1 X-0.922F3000S1000
G0 X-1.25
G0 X0.12Y0.1
G0 X1.25
G1 X0.945
G1 X2.783F5000S0
G1 X1.529F3000S1000
G0 X1.25
G0 X-0.048Y0.1
G0 X-1.25
G1 X-1.548
G1 X-2.543F5000S0
G1 X-0.985F3000S1000
G0 X-1.25
G0 X0.142Y0.1
G0 X1.25
G1 X1.043
G1 X2.254F5000S0
G1 X1.557F3000S1000
G0 X1.25
G0 X-0.08Y0.1
G0 X-1.25
G1 X-1.604
G1 X-1.886F5000S0
G1 X-1.121F3000S1000
G0 X-1.25
G0 X0.179Y0.1
G0 X1.25
G1 X1.288
G1 X1.327F5000S0
G1 X1.706F3000S1000
G0 X1.25
G0 X-0.116Y0.1
G0 X-1.25
G1 X-3.996
G0 X-1.25
G0 X0.225Y0.1
G0 X1.25
G1 X3.609
G0 X1.25
G0 X-0.209Y0.1
G0 X-1.25
G1 X-3.124
G0 X-1.25
G0 X0.343Y0.1
G0 X1.25
G1 X2.459
G0 X1.25
G0 X-0.492Y0.1
G0 X-1.25
G1 X-1.475
G0 X-1.25
G0 X26.441Y2.9
G0 X1.25
G1 X0.884
G0 X1.25
G0 X0.309Y0.1
G0 X-1.25
G1 X-1.372
G0 X-1.25
G0 X-0.103Y0.1
G0 X1.25
G1 X1.702
G0 X1.25
G0 X0.168Y0.1
G0 X-1.25
G1 X-1.958
G0 X-1.25
G0 X-0.047Y0.1
G0 X1.25
G1 X2.159
G0 X1.25
G0 X0.13Y0.1
G0 X-1.25
G1 X-1.148
G1 X-0.399S0
G1 X-0.789S1000
G0 X-1.25
G0 X-0.009Y0.1
G0 X1.25
G1 X0.71
G1 X0.62S0
G1 X1.125S1000
G0 X1.25
G0 X0.11Y0.1
G0 X-1.25
G1 X-1.119
G1 X-0.762S0
G1 X-0.689S1000
G0 X-1.25
G0 X0.007Y0.1
G0 X1.25
G1 X0.693
G1 X0.866S0
G1 X1.101S1000
G0 X1.25
G0 X0.092Y0.1
G0 X-1.25
G1 X-1.099
G1 X-0.923S0
G1 X-0.712S1000
G0 X-1.25
G0 X0.022Y0.1
G0 X1.25
G1 X0.735
G1 X0.973S0
G1 X1.095S1000
G0 X1.25
G0 X0.082Y0.1
G0 X-1.25
G1 X-1.088
G1 X-1.002F5000S0
G1 X-0.755F3000S1000
G0 X-1.25
G0 X0.042Y0.1
G0 X1.25
G1 X0.78
G1 X1.011F5000S0
G1 X1.092F3000S1000
G0 X1.25
G0 X0.079Y0.1
G0 X-1.25
G1 X-1.095
G1 X-0.997S0
G1 X-0.802S1000
G0 X-1.25
G0 X0.071Y0.1
G0 X1.25
G1 X0.837
G1 X0.964S0
G1 X1.094S1000
G0 X1.25
G0 X0.069Y0.1
G0 X-1.25
G1 X-1.102
G1 X-0.897S0
G1 X-0.872S1000
G0 X-1.25
G0 X0.093Y0.1
G0 X1.25
G1 X0.927
G1 X0.81S0
G1 X1.11S1000
G0 X1.25
G0 X0.064Y0.1
G0 X-1.25
G1 X-1.113
G1 X-0.714S0
G1 X-0.991S1000
G0 X-1.25
G0 X-49Y0.1
G0 X1.25
G1 X0.268
G1 X30.596F5000S0
G1 X0.253F3000S1000
G1 X18.002F5000S0
G1 X1.06F3000S1000
G1 X0.584S0
G1 X1.114S1000
G0 X1.25
G0 X0.059Y0.1
G0 X-1.25
G1 X-1.115
G1 X-0.422S0
G1 X-1.157S1000
G1 X-17.944F5000S0
G1 X-0.484F3000S1000
G1 X-30.384F5000S0
G1 X-0.481F3000S1000
G0 X-1.25
G0 X0.014Y0.1
G0 X1.25
G1 X0.591
G1 X30.273F5000S0
G1 X0.595F3000S1000
G1 X17.946F5000S0
G1 X1.3F3000S1000
G1 X0.211S0
G1 X1.116S1000
G0 X1.25
G0 X0.054Y0.1
G0 X-1.25
G1 X-2.516
G1 X-18.017F5000S0
G1 X-0.65F3000S1000
G1 X-30.213F5000S0
G1 X-0.652F3000S1000
G0 X-1.25
G0 X0.068Y0.1
G0 X1.25
G1 X0.67
G1 X30.195F5000S0
G1 X0.66F3000S1000
G1 X18.104F5000S0
G1 X2.406F3000S1000
G0 X1.25
G0 X0.054Y0.1
G0 X-1.25
G1 X-2.243
G1 X-18.246F5000S0
G1 X-0.624F3000S1000
G1 X-30.233F5000S0
G1 X-0.632F3000S1000
G0 X-1.25
G0 X0.089Y0.1
G0 X1.25
G1 X0.617
G1 X3.653F5000S0
G1 X0.462F3000S1000
G1 X1.105F5000S0
G1 X0.345F3000S1000
G1 X2.431F5000S0
G1 X0.748F3000S1000
G1 X2.194F5000S0
G1 X0.472F3000S1000
G1 X1.847F5000S0
G1 X0.787F3000S1000
G1 X2.53F5000S0
G1 X0.791F3000S1000
G1 X2.064F5000S0
G1 X1.089F3000S1000
G1 X2.403F5000S0
G1 X1.208F3000S1000
G1 X6.119F5000S0
G1 X0.609F3000S1000
G1 X3.661F5000S0
G1 X0.461F3000S1000
G1 X2.272F5000S0
G1 X1.019F3000S1000
G1 X4.441F5000S0
G1 X0.792F3000S1000
G1 X2.063F5000S0
G1 X1.084F3000S1000
G1 X2.612F5000S0
G1 X2.065F3000S1000
G1 X2.034F5000S0
G1 X1.268F3000S1000
G0 X1.25
G0 X0.275Y0.1
G0 X-1.25
G1 X-1.686
G1 X-1.773F5000S0
G1 X-1.903F3000S1000
G1 X-2.514F5000S0
G1 X-1.718F3000S1000
G1 X-1.615F5000S0
G1 X-1.14F3000S1000
G1 X-4.013F5000S0
G1 X-1.512F3000S1000
G1 X-1.965F5000S0
G1 X-0.618F3000S1000
G1 X-3.515F5000S0
G1 X-0.601F3000S1000
G1 X-5.857F5000S0
G1 X-1.757F3000S1000
G1 X-1.823F5000S0
G1 X-1.722F3000S1000
G1 X-1.615F5000S0
G1 X-1.14F3000S1000
G1 X-2.186F5000S0
G1 X-1.141F3000S1000
G1 X-1.361F5000S0
G1 X-1.094F3000S1000
G1 X-1.636F5000S0
G1 X-1.153F3000S1000
G1 X-2.168F5000S0
G1 X-0.512F3000S1000
G1 X-0.965S0
G1 X-0.618S1000
G1 X-3.51F5000S0
G1 X-0.606F3000S1000
G0 X-1.25
G0 X0.084Y0.1
G0 X1.25
G1 X0.596
G1 X3.41F5000S0
G1 X0.688F3000S1000
G1 X0.912S0
G1 X0.6S1000
G1 X2.034F5000S0
G1 X1.401F3000S1000
G1 X1.284F5000S0
G1 X1.432F3000S1000
G1 X1.071F5000S0
G1 X1.41F3000S1000
G1 X1.931F5000S0
G1 X1.395F3000S1000
G1 X1.285F5000S0
G1 X2.149F3000S1000
G1 X1.427F5000S0
G1 X2.168F3000S1000
G1 X5.671F5000S0
G1 X0.592F3000S1000
G1 X3.415F5000S0
G1 X0.687F3000S1000
G1 X1.775F5000S0
G1 X1.862F3000S1000
G1 X3.712F5000S0
G1 X1.394F3000S1000
G1 X1.286F5000S0
G1 X2.148F3000S1000
G1 X2.64F5000S0
G1 X1.739F3000S1000
G1 X1.436F5000S0
G1 X2.018F3000S1000
G0 X1.25
G0 X0.185Y0.1
G0 X-1.25
G1 X-2.288
G1 X-1.155F5000S0
G1 X-1.562F3000S1000
G1 X-2.801F5000S0
G1 X-2.493F3000S1000
G1 X-1.019F5000S0
G1 X-1.591F3000S1000
G1 X-3.495F5000S0
G1 X-2.12F3000S1000
G1 X-1.645F5000S0
G1 X-0.734F3000S1000
G1 X-3.319F5000S0
G1 X-0.583F3000S1000
G1 X-5.563F5000S0
G1 X-2.47F3000S1000
G1 X-1.108F5000S0
G1 X-2.49F3000S1000
G1 X-1.019F5000S0
G1 X-1.591F3000S1000
G1 X-1.748F5000S0
G1 X-1.594F3000S1000
G1 X-0.878S0
G1 X-1.676S1000
G1 X-1.01F5000S0
G1 X-1.611F3000S1000
G1 X-1.922F5000S0
G1 X-0.648F3000S1000
G1 X-0.9S0
G1 X-0.734S1000
G1 X-3.317F5000S0
G1 X-0.585F3000S1000
G0 X-1.25
G0 X0.079Y0.1
G0 X1.25
G1 X0.58
G1 X3.223F5000S0
G1 X0.762F3000S1000
G1 X0.911S0
G1 X0.703S1000
G1 X1.817F5000S0
G1 X1.768F3000S1000
G1 X0.791S0
G1 X1.878S1000
G1 X0.723S0
G1 X1.76S1000
G1 X1.571F5000S0
G1 X1.76F3000S1000
G1 X0.798S0
G1 X2.763S1000
G1 X0.864S0
G1 X2.741S1000
G1 X5.452F5000S0
G1 X0.578F3000S1000
G1 X3.225F5000S0
G1 X0.762F3000S1000
G1 X1.542F5000S0
G1 X2.36F3000S1000
G1 X3.293F5000S0
G1 X1.76F3000S1000
G1 X0.797S0
G1 X2.763S1000
G1 X1.674F5000S0
G1 X0.542F3000S1000
G1 X0.516S0
G1 X1.642S1000
G1 X0.911S0
G1 X2.528S1000
G0 X1.25
G0 X0.141Y0.1
G0 X-1.25
G1 X-2.717
G1 X-0.701S0
G1 X-1.757S1000
G1 X-0.275S0
G1 X-1.136S1000
G1 X-1.211F5000S0
G1 X-3.004F3000S1000
G1 X-0.604S0
G1 X-1.902S1000
G1 X-3.129F5000S0
G1 X-2.545F3000S1000
G1 X-1.474F5000S0
G1 X-0.796F3000S1000
G1 X-3.13F5000S0
G1 X-0.576F3000S1000
G1 X-5.383F5000S0
G1 X-2.954F3000S1000
G1 X-0.646S0
G1 X-2.998S1000
G1 X-0.604S0
G1 X-1.903S1000
G1 X-1.439F5000S0
G1 X-1.9F3000S1000
G1 X-0.579S0
G1 X-2.057S1000
G1 X-0.596S0
G1 X-1.913S1000
G1 X-1.718F5000S0
G1 X-0.757F3000S1000
G1 X-0.915S0
G1 X-0.796S1000
G1 X-3.131F5000S0
G1 X-0.576F3000S1000
G0 X-1.25
G0 X0.078Y0.1
G0 X1.25
G1 X0.571
G1 X3.04F5000S0
G1 X0.833F3000S1000
G1 X0.915S0
G1 X0.812S1000
G1 X1.634F5000S0
G1 X0.729F3000S1000
G1 X0.227S0
G1 X1.075S1000
G1 X0.433S0
G1 X1.286S1000
G1 X0.212S0
G1 X0.704S1000
G1 X0.462S0
G1 X0.847S1000
G1 X0.287S0
G1 X0.885S1000
G1 X1.315F5000S0
G1 X0.818F3000S1000
G1 X0.268S0
G1 X0.939S1000
G1 X0.441S0
G1 X1.017S1000
G1 X0.944S0
G1 X1.237S1000
G1 X0.463S0
G1 X0.743S1000
G1 X0.39S0
G1 X2.021S1000
G1 X5.316F5000S0
G1 X0.574F3000S1000
G1 X3.037F5000S0
G1 X0.832F3000S1000
G1 X1.402F5000S0
G1 X0.883F3000S1000
G1 X0.331S0
G1 X1.516S1000
G1 X2.965F5000S0
G1 X0.819F3000S1000
G1 X0.267S0
G1 X0.939S1000
G1 X0.441S0
G1 X1.012S1000
G1 X0.96S0
G1 X1.228S1000
G1 X0.91S0
G1 X1.496S1000
G1 X0.137S0
G1 X1.852S1000
G1 X0.514S0
G1 X0.778S1000
G1 X0.535S0
G1 X1.588S1000
G0 X1.25
G0 X0.118Y0.1
G0 X-1.25
G1 X-1.474
G1 X-0.89S0
G1 X-0.678S1000
G1 X-0.356S0
G1 X-1.945S1000
G1 X-0.067S0
G1 X-1.72S1000
G1 X-0.674S0
G1 X-1.078S1000
G1 X-1.333F5000S0
G1 X-0.976F3000S1000
G1 X-0.288S0
G1 X-0.851S1000
G1 X-0.457S0
G1 X-0.814S1000
G1 X-2.844F5000S0
G1 X-1.435F3000S1000
G1 X-0.71S0
G1 X-0.75S1000
G1 X-1.332F5000S0
G1 X-0.863F3000S1000
G1 X-2.951F5000S0
G1 X-0.571F3000S1000
G1 X-5.263F5000S0
G1 X-1.945F3000S1000
G1 X-0.694S0
G1 X-0.684S1000
G1 X-0.302S0
G1 X-1.074S1000
G1 X-1.329F5000S0
G1 X-0.98F3000S1000
G1 X-0.288S0
G1 X-0.851S1000
G1 X-0.458S0
G1 X-0.814S1000
G1 X-1.219F5000S0
G1 X-0.782F3000S1000
G1 X-0.565S0
G1 X-0.783S1000
G1 X-0.352S0
G1 X-0.589S1000
G1 X-0.554S0
G1 X-1.196S1000
G1 X-0.277S0
G1 X-0.963S1000
G1 X-0.447S0
G1 X-0.734S1000
G1 X-1.552F5000S0
G1 X-0.868F3000S1000
G1 X-0.915S0
G1 X-0.865S1000
G1 X-2.953F5000S0
