; LightBurn 1.3.01
; GRBL device profile, user origin
; Bounds: X0 Y0 to X120 Y140
G00 G17 G40 G21 G54
G90
G0 X0 Y0
G91
M4
; Scan @ 2500.002 mm/min, 100% power
M8
G0 X13.172Y119.781
; Layer Grabado_fill_1
G0 X1.042
G1 X4.028F2500S1000
G0 X1.041
G0 X-0.098Y0.1
G0 X-1.042
G1 X-4.029
G0 X-1.042
G0 X-0.1Y0.1
G0 X1.042
G1 X4.03
G0 X1.042
G0 X-0.099Y0.1
G0 X-1.041
G1 X-4.032
G0 X-1.041
G0 X-0.1Y0.1
G0 X1.041
G1 X4.033
G0 X1.042
G0 X-0.1Y0.1
G0 X-1.042
G1 X-4.033
G0 X-1.041
G0 X-0.1Y0.1
G0 X1.041
G1 X4.033
G0 X1.042
G0 X-0.1Y0.1
G0 X-1.041
G1 X-4.034
G0 X-1.041
G0 X-0.1Y0.1
G0 X1.041
G1 X4.034
G0 X1.041
G0 X-0.099Y0.1
G0 X-1.042
G1 X-4.034
G0 X-1.041
G0 X-0.1Y0.1
G0 X1.041
G1 X4.034
G0 X1.042
G0 X-0.1Y0.1
G0 X-1.042
G1 X-4.034
G0 X-1.041
G0 X-0.1Y0.1
G0 X1.041
G1 X4.034
G0 X1.042
G0 X-0.1Y0.1
G0 X-1.042
G1 X-4.034
G0 X-1.041
G0 X-0.1Y0.1
G0 X1.041
G1 X4.034
G0 X1.042
G0 X-0.1Y0.1
G0 X-1.041
G1 X-4.035
G0 X-1.041
G0 X-0.1Y0.1
G0 X1.041
G1 X4.035
G0 X1.041
G0 X-0.099Y0.1
G0 X-1.042
G1 X-4.035
G0 X-1.041
G0 X-0.1Y0.1
G0 X1.041
G1 X4.035
G0 X1.042
G0 X-0.1Y0.1
G0 X-1.042
G1 X-4.035
G0 X-1.041
G0 X-0.1Y0.1
G0 X1.041
G1 X4.035
G0 X1.042
G0 X-0.1Y0.1
G0 X-1.042
G1 X-4.035
G0 X-1.041
G0 X-0.1Y0.1
G0 X1.041
G1 X4.036
G0 X1.041
G0 X-0.1Y0.1
G0 X-1.041
G1 X-4.036
G0 X-1.041
G0 X-0.1Y0.1
G0 X1.041
G1 X4.036
G0 X1.041
G0 X-0.099Y0.1
G0 X-1.042
G1 X-4.036
G0 X-1.041
G0 X-0.1Y0.1
G0 X1.041
G1 X4.036
G0 X1.042
G0 X-0.1Y0.1
G0 X-1.042
G1 X-4.036
G0 X-1.041
G0 X-0.1Y0.1
G0 X1.041
G1 X4.036
G0 X1.042
G0 X-0.1Y0.1
G0 X-1.042
G1 X-4.036
G0 X-1.041
G0 X-0.1Y0.1
G0 X1.041
G1 X4.037
G0 X1.041
G0 X-0.1Y0.1
G0 X-1.041
G1 X-4.037
G0 X-1.041
G0 X-0.1Y0.1
G0 X1.041
G1 X4.037
G0 X1.042
G0 X7.867Y0.1
G0 X-1.042
G1 X-12.004
G0 X-1.041
G0 X-0.1Y0.1
G0 X1.041
G1 X12.104
G0 X1.042
G0 Y0.1
G0 X-1.042
G1 X-12.204
G0 X-1.041
G0 X-0.1Y0.1
G0 X1.041
G1 X12.304
G0 X1.042
G0 Y0.1
G0 X-1.042
G1 X-12.404
G0 X-1.041
G0 X-0.1Y0.1
G0 X1.041
G1 X12.504
G0 X1.042
G0 Y0.1
G0 X-1.042
G1 X-12.604
G0 X-1.041
G0 X-0.1Y0.1
G0 X1.041
G1 X12.704
G0 X1.042
G0 Y0.1
G0 X-1.042
G1 X-12.804
G0 X-1.041
G0 X-0.1Y0.1
G0 X1.041
G1 X12.904
G0 X1.042
G0 Y0.1
G0 X-1.042
G1 X-13.004
G0 X-1.041
G0 X-0.1Y0.1
G0 X1.041
G1 X13.104
G0 X1.042
G0 Y0.1
G0 X-1.042
G1 X-13.204
G0 X-1.041
G0 X-0.1Y0.1
G0 X1.041
G1 X13.304
G0 X1.042
G0 Y0.1
G0 X-1.042
G1 X-13.304
G0 X-1.041
G0 X0.1Y0.1
G0 X1.041
G1 X13.204
G0 X1.042
G0 Y0.1
G0 X-1.042
G1 X-13.104
G0 X-1.041
G0 X0.1Y0.1
G0 X1.041
G1 X13.004
G0 X1.042
G0 Y0.1
G0 X-1.042
G1 X-12.904
G0 X-1.041
G0 X0.1Y0.1
G0 X1.041
G1 X12.804
G0 X1.042
G0 Y0.1
G0 X-1.042
G1 X-12.704
G0 X-1.041
G0 X0.1Y0.1
G0 X1.041
G1 X12.604
G0 X1.042
G0 Y0.1
G0 X-1.042
G1 X-12.504
G0 X-1.041
G0 X0.1Y0.1
G0 X1.041
G1 X12.404
G0 X1.042
G0 Y0.1
G0 X-1.042
G1 X-12.304
G0 X-1.041
G0 X0.1Y0.1
G0 X1.041
G1 X12.204
G0 X1.042
G0 Y0.1
G0 X-1.042
G1 X-12.104
G0 X-1.041
G0 X0.1Y0.1
G0 X1.041
G1 X12.004
G0 X1.042
G0 X-7.867Y0.1
G0 X-1.042
G1 X-4.037
G0 X-1.041
G0 X0.1Y0.1
G0 X1.041
G1 X4.037
G0 X1.042
G0 X0.1Y0.1
G0 X-1.042
G1 X-4.037
G0 X-1.041
G0 X0.1Y0.1
G0 X1.041
G1 X4.037
G0 X1.042
G0 X0.1Y0.1
G0 X-1.042
G1 X-4.037
G0 X-1.041
G0 X0.1Y0.1
G0 X1.041
G1 X4.037
G0 X1.042
G0 X0.1Y0.1
G0 X-1.042
G1 X-4.037
G0 X-1.041
G0 X0.1Y0.1
G0 X1.041
G1 X4.037
G0 X1.042
G0 X0.1Y0.1
G0 X-1.042
G1 X-4.037
G0 X-1.041
G0 X0.1Y0.1
G0 X1.041
G1 X4.037
G0 X1.042
G0 X0.1Y0.1
G0 X-1.042
G1 X-4.037
G0 X-1.041
G0 X0.1Y0.1
G0 X1.041
G1 X4.037
G0 X1.042
G0 X0.1Y0.1
G0 X-1.042
G1 X-4.037
G0 X-1.041
G0 X0.1Y0.1
G0 X1.041
G1 X4.037
G0 X1.042
G0 X0.1Y0.1
G0 X-1.042
G1 X-4.037
G0 X-1.041
G0 X0.1Y0.1
G0 X1.041
G1 X4.037
G0 X1.042
G0 X0.1Y0.1
G0 X-1.042
G1 X-4.037
G0 X-1.041
G0 X0.1Y0.1
G0 X1.041
G1 X4.036
G0 X1.042
G0 X0.1Y0.1
G0 X-1.042
G1 X-4.036
G0 X-1.041
G0 X0.1Y0.1
G0 X1.041
G1 X4.035
G0 X1.042
G0 X0.1Y0.1
G0 X-1.042
G1 X-4.035
G0 X-1.041
G0 X0.1Y0.1
G0 X1.041
G1 X4.034
G0 X1.042
G0 X0.1Y0.1
G0 X-1.042
G1 X-4.034
G0 X-1.041
G0 X0.1Y0.1
G0 X1.041
G1 X4.033
G0 X1.042
G0 X0.1Y0.1
G0 X-1.042
G1 X-4.033
G0 X-1.041
G0 X0.1Y0.1
G0 X1.041
G1 X4.032
G0 X1.042
G0 X0.1Y0.1
G0 X-1.042
G1 X-4.032
G0 X-1.041
G0 X0.1Y0.1
G0 X1.041
G1 X4.031
G0 X1.042
G0 X0.1Y0.1
G0 X-1.042
G1 X-4.031
G0 X-1.041
G0 X0.1Y0.1
G0 X1.041
G1 X4.03
G0 X1.042
G0 X0.1Y0.1
G0 X-1.042
G1 X-4.03
G0 X-1.041
G0 X0.099Y0.1
G0 X1.042
G1 X4.03
G0 X1.041
G0 X0.098Y0.1
G0 X-1.042
G1 X-4.027
G0 X-1.042
; Cut @ 1500 mm/min, 100% power
M8
G0 X18.884Y-40.843
; Layer Grabado_linea_1
G1 X-0.55Y-0.039F1500
G1 X-0.541Y-0.131
G1 X-0.436Y-0.177
G1 X-0.406Y-0.233
G1 X-0.371Y-0.286
G1 X-0.331Y-0.334
G1 X-0.319Y-0.413
G1 X-0.245Y-0.457
G1 X-0.167Y-0.491
G1 X-0.085Y-0.514
G1 X-0.018Y-0.322
G1 X0.009Y-0.321
G1 X0.035Y-0.32
G1 X0.062Y-0.316
G1 X0.122Y-0.376
G1 X0.168Y-0.356
G1 X0.211Y-0.332
G1 X0.252Y-0.304
G1 X0.253Y-0.257
G1 X0.277Y-0.23
G1 X0.298Y-0.202
G1 X0.318Y-0.171
G1 X0.369Y-0.146
G1 X0.383Y-0.1
G1 X0.392Y-0.054
G1 X0.397Y-0.007
G1 X0.502Y0.059
G1 X0.487Y0.13
G1 X0.462Y0.198
G1 X0.432Y0.263
G1 X0.349Y0.285
G1 X0.305Y0.324
G1 X0.258Y0.358
G1 X0.209Y0.386
G1 X0.159Y0.411
G1 X0.104Y0.428
G1 X0.049Y0.442
G1 X-0.009Y0.451
G1 X-0.076Y0.498
G1 X-0.146Y0.475
G1 X-0.211Y0.444
G1 X-0.271Y0.407
G1 X-0.327Y0.365
G1 X-0.378Y0.315
G1 X-0.423Y0.259
G1 X-0.465Y0.198
G1 X-0.537Y0.142
G1 X-0.55Y0.051
G0 X4.29Y6.407
G1 Y6.735
G1 X0.704
G1 Y-6.735
G1 X-0.704
G0 X-8.731Y0
G1 X-0.631
G1 Y5.536
G1 Y1.199
G1 X0.641
G1 X-0.009Y-6.735
G0 X-8.525Y2.071
G1 Y4.664
G1 X4.902
G1 Y-2.44
G1 Y-5.879
G1 X0.104Y-0.341
G1 X0.11Y-0.34
G1 X0.239Y-0.593
G1 X0.314Y-0.556
G1 X0.382Y-0.51
G1 X0.448Y-0.457
G1 X0.412Y-0.321
G1 X0.447Y-0.266
G1 X0.476Y-0.209
G1 X0.5Y-0.149
G1 X0.477Y-0.05
G1 X0.48Y-0.017
G1 X1.5Y-0.026
G1 X3.118Y-0.015
G1 X1.617
G1 X0.809Y0.012
G1 X0.808Y0.04
G1 X0.396Y0.049
G1 X0.388Y0.097
G1 X0.35Y0.147
G1 X0.336Y0.176
G1 X0.32Y0.203
G1 X0.302Y0.229
G1 X0.296Y0.266
G1 X0.276Y0.287
G1 X0.252Y0.306
G1 X0.23Y0.326
G1 X0.24Y0.445
G1 X0.191Y0.468
G1 X0.085Y0.387
G1 X0.044Y0.393
G1 X0.042Y0.827
G1 X0.014Y0.827
G1 X0.009Y1.289
G1 Y1.29
G1 Y4.105
G1 X4.906
G1 Y-4.664
G1 X1.749
G1 Y4.664
G1 X0.325
G1 X0.009Y-3.04
G1 X1.706
G1 Y3.04
G1 X0.319
G1 X-0.007Y-1.707
G1 X1.729
G1 Y1.707
G1 X1.251
G1 Y1.666
G1 X-1.251
G1 Y1.749
G1 X-0.7
G1 X-0.7Y-0.006
G1 X-0.146Y-0.006
G1 X-0.145Y-0.013
G1 X-0.018Y-0.006
G1 X-0.007Y-1.718
G1 X-0.325
G1 Y3.04
G1 X-1.728
G1 X0.008Y-3.04
G1 X-0.32
G1 Y4.706
G1 X-1.749
G1 Y-4.706
G1 X-4.903
G1 Y1.778
G1 X-0.158Y0.313
G1 X-0.042Y0.072
G1 X-0.045Y0.07
G1 X-0.132Y0.164
G1 X-0.152Y0.145
G1 X-0.169Y0.124
G1 X-0.185Y0.101
G1 X-0.088Y0.026
G1 X-0.09Y0.019
G1 X-0.442Y0.019
G1 X-0.441Y-0.027
G1 X-0.106Y-0.031
G1 X-0.102Y-0.042
G1 X-0.083Y-0.05
G1 X-0.115Y-0.081
G1 X-0.109Y-0.09
G1 X-0.181Y-0.195
G1 X-0.153Y-0.22
G1 X-0.164Y-0.31
G1 Y-1.785
G1 X-0.704
G1 Y8.502
G1 X-0.006Y4.304
G1 X-0.023Y4.304
G1 X-0.009Y0.895
G1 X-0.022Y0.894
G1 X-0.01Y0.16
G1 X-0.029Y0.159
G1 X-0.062Y0.185
G1 X-0.082Y0.177
G1 X-0.164Y0.259
G1 X-0.201Y0.229
G1 X-0.236Y0.194
G1 X-0.265Y0.155
G1 X-0.105Y0.052
G1 X-0.098Y0.038
G1 X-0.134Y0.035
G1 X-0.138Y0.016
G1 X-0.453Y0.011
G1 X-0.453Y-0.027
G1 X-0.188Y-0.035
G1 X-0.182Y-0.061
G1 X-0.082Y-0.039
G1 X-0.08Y-0.043
G1 X-0.208Y-0.149
G1 X-0.186Y-0.178
G1 X-0.154Y-0.158
G1 X-0.145Y-0.166
G1 X-0.034Y-0.05
G1 X-0.031Y-0.053
G1 X-0.044Y-0.105
G1 X-0.035Y-0.109
G1 X-0.069Y-0.414
G1 X-0.032Y-0.418
G1 X-0.034Y-0.96
G1 X-0.011Y-0.961
G1 X-0.007Y-1.752
G1 Y-12.098
G1 X-0.63
G1 X-0.04Y16.297
G1 X-0.119Y0.249
G1 X-0.126Y0.245
G1 X-0.187Y0.286
G1 X-0.233Y0.246
G1 X-0.272Y0.202
G1 X-0.305Y0.153
G1 X-0.327Y0.091
G1 X-0.336Y0.043
G1 X-0.338Y-0.006
G1 X-0.335Y-0.056
G1 X-0.254Y-0.086
G1 X-0.238Y-0.122
G1 X-0.219Y-0.153
G1 X-0.196Y-0.184
G1 X-0.205Y-0.263
G1 X-0.16Y-0.293
G1 X-0.162Y-0.352
G1 X-0.026Y-19.09
G1 X-0.659
G1 X-0.011Y0.902
G1 X-0.03Y0.808
G1 X-0.012Y0.091
G1 X-0.054Y0.164
G1 X-0.072Y0.157
G1 X-0.091Y0.148
G1 X-0.106Y0.136
G1 X-0.076Y0.077
G1 X-0.219Y0.163
G1 X-0.247Y0.115
G1 X-0.258Y0.066
G1 X-0.263Y0.028
G1 X-0.264Y-0.009
G1 X-0.263Y-0.045
G1 X-0.193Y-0.07
G1 X-0.178Y-0.102
G1 X-0.206Y-0.181
G1 X-0.172Y-0.213
G1 X-0.082Y-0.128
G1 X-0.07Y-0.134
G1 X-0.019Y-0.055
G1 X-0.014Y-0.058
G1 X-0.011Y-0.058
G1 X-0.007Y-0.051
G1 X-0.031Y-0.429
G1 X-0.01Y-0.43
G1 X-0.006Y-0.446
G1 Y-0.446
G1 X-4.912
G1 Y4.706
G1 X-1.749
G1 Y-4.706
G1 X-0.321
G1 X0.009Y3.04
G1 X-1.728
G1 Y-3.04
G1 X-0.321
G1 Y1.728
G1 X-1.72Y0.023
G1 Y-1.751
G1 X-1.25
G1 Y-1.666
G1 X1.25
G1 Y-1.707
G1 X1.728
G1 Y1.707
G1 X0.313
G1 Y-3.04
G1 X1.706
G1 X0.009Y3.04
G1 X0.325
G1 Y-4.664
G1 X1.749
G0 X-0.769Y-32.553
G1 X-0.041
G1 X-0.117
G1 X-0.728Y0.01
G1 X-3.126
G1 X-4.745Y-4.743
G1 X4.745Y-4.745
G1 X2.006
G1 X1.417
G1 X0.548Y0.01
G1 X0.041
G1 X-0.033Y0.039
G1 X-0.452Y0.457
G1 X-2.818Y2.822
G1 X7.9
G1 Y2.834
G1 X-7.9
G1 X1.652Y1.652
G1 X1.521Y1.529
G1 X0.13Y0.135
G0 X66.266Y20.678
G1 X0.009Y-0.321
G1 X0.035Y-0.32
G1 X0.062Y-0.316
G1 X0.122Y-0.376
G1 X0.168Y-0.356
G1 X0.211Y-0.332
G1 X0.252Y-0.304
G1 X0.253Y-0.257
G1 X0.277Y-0.23
G1 X0.298Y-0.202
G1 X0.318Y-0.171
G1 X0.369Y-0.146
G1 X0.383Y-0.1
G1 X0.392Y-0.054
G1 X0.397Y-0.007
G1 X0.502Y0.059
G1 X0.487Y0.13
G1 X0.462Y0.198
G1 X0.432Y0.263
G1 X0.349Y0.285
G1 X0.305Y0.324
G1 X0.258Y0.358
G1 X0.209Y0.386
G1 X0.159Y0.411
G1 X0.104Y0.428
G1 X0.049Y0.442
G1 X-0.009Y0.451
G1 X-0.076Y0.498
G1 X-0.146Y0.475
G1 X-0.211Y0.444
G1 X-0.271Y0.407
G1 X-0.327Y0.365
G1 X-0.378Y0.315
G1 X-0.423Y0.259
G1 X-0.465Y0.198
G1 X-0.537Y0.142
G1 X-0.55Y0.051
G1 X-0.55Y-0.039
G1 X-0.541Y-0.131
G1 X-0.436Y-0.177
G1 X-0.406Y-0.233
G1 X-0.371Y-0.286
G1 X-0.331Y-0.334
G1 X-0.319Y-0.413
G1 X-0.245Y-0.457
G1 X-0.167Y-0.491
G1 X-0.085Y-0.514
G1 X-0.018Y-0.322
G0 X-0.972Y9.804
G1 X-0.632
G1 Y5.536
G1 Y1.199
G1 X0.641
G1 X-0.009Y-6.735
G0 X8.731Y0
G1 Y6.735
G1 X0.704
G1 Y-6.735
G1 X-0.704
G0 X8.564Y2.071
G1 X1.749
G1 Y4.664
G1 X0.325
G1 X0.009Y-3.04
G1 X1.706
G1 Y3.04
G1 X0.319
G1 X-0.007Y-1.707
G1 X1.729
G1 Y1.707
G1 X1.251
G1 Y1.666
G1 X-1.251
G1 Y1.749
G1 X-0.7
G1 X-0.7Y-0.006
G1 X-0.146Y-0.006
G1 X-0.145Y-0.013
G1 X-0.018Y-0.006
G1 X-0.007Y-1.718
G1 X-0.325
G1 Y3.04
G1 X-1.728
G1 X0.008Y-3.04
G1 X-0.32
G1 Y4.706
G1 X-1.749
G1 Y-4.706
G1 X-4.903
G1 Y1.778
G1 X-0.158Y0.313
G1 X-0.042Y0.072
G1 X-0.045Y0.07
G1 X-0.132Y0.164
G1 X-0.152Y0.145
G1 X-0.169Y0.124
G1 X-0.185Y0.101
G1 X-0.088Y0.026
G1 X-0.09Y0.019
G1 X-0.442Y0.019
G1 X-0.441Y-0.027
G1 X-0.106Y-0.031
G1 X-0.102Y-0.042
G1 X-0.083Y-0.05
G1 X-0.115Y-0.081
G1 X-0.109Y-0.09
G1 X-0.181Y-0.195
G1 X-0.153Y-0.22
G1 X-0.164Y-0.31
G1 Y-1.785
G1 X-0.704
G1 Y8.502
G1 X-0.006Y4.304
G1 X-0.023Y4.304
G1 X-0.009Y0.895
G1 X-0.022Y0.894
G1 X-0.01Y0.16
G1 X-0.029Y0.159
G1 X-0.062Y0.185
G1 X-0.082Y0.177
G1 X-0.164Y0.259
G1 X-0.201Y0.229
G1 X-0.236Y0.194
G1 X-0.265Y0.155
G1 X-0.105Y0.052
G1 X-0.098Y0.038
G1 X-0.134Y0.035
G1 X-0.138Y0.016
G1 X-0.453Y0.011
G1 X-0.453Y-0.027
G1 X-0.188Y-0.035
G1 X-0.182Y-0.061
G1 X-0.082Y-0.038
G1 X-0.08Y-0.044
G1 X-0.208Y-0.149
G1 X-0.186Y-0.178
G1 X-0.154Y-0.158
G1 X-0.145Y-0.166
G1 X-0.034Y-0.05
G1 X-0.031Y-0.053
G1 X-0.044Y-0.105
G1 X-0.035Y-0.109
G1 X-0.069Y-0.414
G1 X-0.032Y-0.418
G1 X-0.034Y-0.96
G1 X-0.011Y-0.961
G1 X-0.007Y-1.752
G1 Y-12.098
G1 X-0.63
G1 X-0.04Y16.297
G1 X-0.119Y0.249
G1 X-0.126Y0.245
G1 X-0.187Y0.286
G1 X-0.233Y0.246
G1 X-0.272Y0.202
G1 X-0.305Y0.153
G1 X-0.327Y0.091
G1 X-0.336Y0.043
G1 X-0.338Y-0.006
G1 X-0.335Y-0.056
G1 X-0.254Y-0.086
G1 X-0.238Y-0.122
G1 X-0.219Y-0.153
G1 X-0.196Y-0.184
G1 X-0.205Y-0.263
G1 X-0.16Y-0.293
G1 X-0.162Y-0.352
G1 X-0.026Y-19.09
G1 X-0.659
G1 X-0.011Y0.902
G1 X-0.03Y0.808
G1 X-0.012Y0.091
G1 X-0.054Y0.164
G1 X-0.072Y0.157
G1 X-0.091Y0.148
G1 X-0.106Y0.136
G1 X-0.076Y0.077
G1 X-0.219Y0.163
G1 X-0.247Y0.115
G1 X-0.258Y0.066
G1 X-0.263Y0.028
G1 X-0.264Y-0.009
G1 X-0.263Y-0.045
G1 X-0.193Y-0.07
G1 X-0.178Y-0.102
G1 X-0.206Y-0.181
G1 X-0.172Y-0.213
G1 X-0.082Y-0.128
G1 X-0.07Y-0.134
G1 X-0.019Y-0.055
G1 X-0.014Y-0.058
G1 X-0.011Y-0.058
G1 X-0.007Y-0.051
G1 X-0.031Y-0.429
G1 X-0.01Y-0.43
G1 X-0.006Y-0.446
G1 Y-0.446
G1 X-4.912
G1 Y4.706
G1 X-1.749
G1 Y-4.706
G1 X-0.321
G1 X0.009Y3.04
G1 X-1.728
G1 Y-3.04
G1 X-0.321
G1 Y1.728
G1 X-1.72Y0.023
G1 Y-1.751
G1 X-1.25
G1 Y-1.666
G1 X1.25
G1 Y-1.707
G1 X1.728
G1 Y1.707
G1 X0.313
G1 Y-3.04
G1 X1.706
G1 X0.009Y3.04
G1 X0.325
G1 Y-4.664
G1 X1.749
G1 Y4.664
G1 X4.902
G1 Y-2.44
G1 Y-5.879
G1 X0.104Y-0.341
G1 X0.11Y-0.34
G1 X0.239Y-0.593
G1 X0.314Y-0.556
G1 X0.382Y-0.51
G1 X0.448Y-0.457
G1 X0.412Y-0.321
G1 X0.447Y-0.266
G1 X0.476Y-0.209
G1 X0.5Y-0.149
G1 X0.477Y-0.05
G1 X0.48Y-0.017
G1 X1.5Y-0.026
G1 X3.118Y-0.015
G1 X1.617
G1 X0.809Y0.012
G1 X0.808Y0.04
G1 X0.396Y0.049
G1 X0.388Y0.097
G1 X0.35Y0.147
G1 X0.336Y0.176
G1 X0.32Y0.203
G1 X0.302Y0.229
G1 X0.296Y0.266
G1 X0.276Y0.287
G1 X0.252Y0.306
G1 X0.23Y0.326
G1 X0.24Y0.445
G1 X0.191Y0.468
G1 X0.085Y0.387
G1 X0.044Y0.393
G1 X0.042Y0.827
G1 X0.014Y0.827
G1 X0.009Y1.289
G1 Y1.29
G1 Y4.105
G1 X4.906
G1 Y-4.664
G0 X-26.589Y22.982
G1 X-0.033Y0.037
G1 X-0.452Y0.457
G1 X-2.818Y2.822
G1 X7.9
G1 Y2.834
G1 X-7.9
G1 X1.652Y1.652
G1 X1.521Y1.529
G1 X0.13Y0.135
G1 X-0.041
G1 X-0.117
G1 X-0.728Y0.01
G1 X-3.126
G1 X-4.745Y-4.743
G1 X4.745Y-4.745
G1 X2.006
G1 X1.417
G1 X0.548Y0.01
G1 X0.041
G0 X0Y-55.532
G1 X-0.041
G1 X-0.117
G1 X-0.728Y0.01
G1 X-3.126
G1 X-4.745Y-4.743
G1 X4.745Y-4.745
G1 X2.006
G1 X1.417
G1 X0.548Y0.01
G1 X0.041
G1 X-0.033Y0.039
G1 X-0.452Y0.457
G1 X-2.818Y2.822
G1 X7.9
G1 Y2.834
G1 X-7.9
G1 X1.652Y1.652
G1 X1.521Y1.529
G1 X0.13Y0.135
G0 X13.735Y-40.926
G1 X-0.55Y-0.039
G1 X-0.541Y-0.131
G1 X-0.436Y-0.177
G1 X-0.406Y-0.233
G1 X-0.371Y-0.286
G1 X-0.331Y-0.334
G1 X-0.319Y-0.413
G1 X-0.245Y-0.457
G1 X-0.167Y-0.491
G1 X-0.085Y-0.514
G1 X-0.018Y-0.322
G1 X0.009Y-0.321
G1 X0.035Y-0.32
G1 X0.062Y-0.316
G1 X0.122Y-0.376
G1 X0.168Y-0.356
G1 X0.211Y-0.332
G1 X0.252Y-0.304
G1 X0.253Y-0.257
G1 X0.277Y-0.23
G1 X0.298Y-0.202
G1 X0.318Y-0.171
G1 X0.369Y-0.146
G1 X0.383Y-0.1
G1 X0.392Y-0.054
G1 X0.397Y-0.007
G1 X0.502Y0.059
G1 X0.487Y0.13
G1 X0.462Y0.198
G1 X0.432Y0.263
G1 X0.349Y0.285
G1 X0.305Y0.324
G1 X0.258Y0.358
G1 X0.209Y0.386
G1 X0.159Y0.411
G1 X0.104Y0.428
G1 X0.049Y0.442
G1 X-0.009Y0.451
G1 X-0.076Y0.498
G1 X-0.146Y0.475
G1 X-0.211Y0.444
G1 X-0.271Y0.407
G1 X-0.327Y0.365
G1 X-0.378Y0.315
G1 X-0.423Y0.259
G1 X-0.465Y0.198
G1 X-0.537Y0.142
G1 X-0.55Y0.051
G0 X4.29Y6.407
G1 Y6.735
G1 X0.704
G1 Y-6.735
G1 X-0.704
G0 X-8.731Y0
G1 X-0.632
G1 Y5.536
G1 Y1.199
G1 X0.641
G1 X-0.009Y-6.735
G0 X-8.525Y2.071
G1 Y4.664
G1 X4.902
G1 Y-2.44
G1 Y-5.879
G1 X0.104Y-0.341
G1 X0.11Y-0.34
G1 X0.239Y-0.593
G1 X0.314Y-0.556
G1 X0.382Y-0.51
G1 X0.448Y-0.457
G1 X0.412Y-0.321
G1 X0.447Y-0.266
G1 X0.476Y-0.209
G1 X0.5Y-0.149
G1 X0.477Y-0.05
G1 X0.48Y-0.017
G1 X1.5Y-0.026
G1 X3.118Y-0.015
G1 X1.617
G1 X0.809Y0.012
G1 X0.808Y0.04
G1 X0.396Y0.049
G1 X0.388Y0.097
G1 X0.35Y0.147
G1 X0.336Y0.176
G1 X0.32Y0.203
G1 X0.302Y0.229
G1 X0.296Y0.266
G1 X0.276Y0.287
G1 X0.252Y0.306
G1 X0.23Y0.326
G1 X0.24Y0.445
G1 X0.191Y0.468
G1 X0.085Y0.387
G1 X0.044Y0.393
G1 X0.042Y0.827
G1 X0.014Y0.827
G1 X0.009Y1.289
G1 Y1.29
G1 Y4.105
G1 X4.906
G1 Y-4.664
G1 X1.749
G1 Y4.664
G1 X0.325
G1 X0.009Y-3.04
G1 X1.706
G1 Y3.04
G1 X0.319
G1 X-0.007Y-1.707
G1 X1.729
G1 Y1.707
G1 X1.251
G1 Y1.666
G1 X-1.251
G1 Y1.749
G1 X-0.7
G1 X-0.7Y-0.006
G1 X-0.146Y-0.006
G1 X-0.145Y-0.013
G1 X-0.018Y-0.006
G1 X-0.007Y-1.718
G1 X-0.325
G1 Y3.04
G1 X-1.728
G1 X0.008Y-3.04
G1 X-0.32
G1 Y4.706
G1 X-1.749
G1 Y-4.706
G1 X-4.903
G1 Y1.778
G1 X-0.158Y0.313
G1 X-0.042Y0.072
G1 X-0.045Y0.07
G1 X-0.132Y0.164
G1 X-0.152Y0.145
G1 X-0.169Y0.124
G1 X-0.185Y0.101
G1 X-0.088Y0.026
G1 X-0.09Y0.019
G1 X-0.442Y0.019
G1 X-0.441Y-0.027
G1 X-0.106Y-0.031
G1 X-0.102Y-0.042
G1 X-0.083Y-0.05
G1 X-0.115Y-0.081
G1 X-0.109Y-0.09
G1 X-0.181Y-0.195
G1 X-0.153Y-0.22
G1 X-0.164Y-0.31
G1 Y-1.785
G1 X-0.704
G1 Y8.502
G1 X-0.006Y4.304
G1 X-0.023Y4.304
G1 X-0.009Y0.895
G1 X-0.022Y0.894
G1 X-0.01Y0.16
G1 X-0.029Y0.159
G1 X-0.062Y0.185
G1 X-0.082Y0.177
G1 X-0.164Y0.259
G1 X-0.201Y0.229
G1 X-0.236Y0.194
G1 X-0.265Y0.155
G1 X-0.105Y0.052
G1 X-0.098Y0.038
G1 X-0.134Y0.035
G1 X-0.138Y0.016
G1 X-0.453Y0.011
G1 X-0.453Y-0.027
G1 X-0.188Y-0.035
G1 X-0.182Y-0.061
G1 X-0.082Y-0.039
G1 X-0.08Y-0.043
G1 X-0.208Y-0.149
G1 X-0.186Y-0.178
G1 X-0.154Y-0.158
G1 X-0.145Y-0.166
G1 X-0.034Y-0.05
G1 X-0.031Y-0.053
G1 X-0.044Y-0.105
G1 X-0.035Y-0.109
G1 X-0.069Y-0.414
G1 X-0.032Y-0.418
G1 X-0.034Y-0.96
G1 X-0.011Y-0.961
G1 X-0.007Y-1.752
G1 Y-12.098
G1 X-0.63
G1 X-0.04Y16.297
G1 X-0.119Y0.249
G1 X-0.126Y0.245
G1 X-0.187Y0.286
G1 X-0.233Y0.246
G1 X-0.272Y0.202
G1 X-0.305Y0.153
G1 X-0.327Y0.091
G1 X-0.336Y0.043
G1 X-0.338Y-0.006
G1 X-0.335Y-0.056
G1 X-0.254Y-0.086
G1 X-0.238Y-0.122
G1 X-0.219Y-0.153
G1 X-0.196Y-0.184
G1 X-0.205Y-0.263
G1 X-0.16Y-0.293
G1 X-0.162Y-0.352
G1 X-0.026Y-19.09
G1 X-0.659
G1 X-0.011Y0.902
G1 X-0.03Y0.808
G1 X-0.012Y0.091
G1 X-0.054Y0.164
G1 X-0.072Y0.157
G1 X-0.091Y0.148
G1 X-0.106Y0.136
G1 X-0.076Y0.077
G1 X-0.219Y0.163
G1 X-0.247Y0.115
G1 X-0.258Y0.066
G1 X-0.263Y0.028
G1 X-0.264Y-0.009
G1 X-0.263Y-0.045
G1 X-0.193Y-0.07
G1 X-0.178Y-0.102
G1 X-0.206Y-0.181
G1 X-0.172Y-0.213
G1 X-0.082Y-0.128
G1 X-0.07Y-0.134
G1 X-0.019Y-0.055
G1 X-0.014Y-0.058
G1 X-0.011Y-0.058
G1 X-0.007Y-0.051
G1 X-0.031Y-0.429
G1 X-0.01Y-0.43
G1 X-0.006Y-0.446
G1 Y-0.446
G1 X-4.912
G1 Y4.706
G1 X-1.749
G1 Y-4.706
G1 X-0.321
G1 X0.009Y3.04
G1 X-1.728
G1 Y-3.04
G1 X-0.321
G1 Y1.728
G1 X-1.72Y0.023
G1 Y-1.751
G1 X-1.25
G1 Y-1.666
G1 X1.25
G1 Y-1.707
G1 X1.728
G1 Y1.707
G1 X0.313
G1 Y-3.04
G1 X1.706
G1 X0.009Y3.04
G1 X0.325
G1 Y-4.664
G1 X1.749
G0 X-38.04Y-2.071
G1 X-0.704
G1 Y6.735
G1 X0.704
G1 Y-6.735
G0 X-4.994Y-6.407
G1 X-0.55Y-0.039
G1 X-0.541Y-0.131
G1 X-0.436Y-0.177
G1 X-0.406Y-0.233
G1 X-0.371Y-0.286
G1 X-0.331Y-0.334
G1 X-0.319Y-0.413
G1 X-0.245Y-0.457
G1 X-0.167Y-0.491
G1 X-0.085Y-0.514
G1 X-0.018Y-0.322
G1 X0.009Y-0.321
G1 X0.035Y-0.32
G1 X0.062Y-0.316
G1 X0.122Y-0.376
G1 X0.168Y-0.356
G1 X0.211Y-0.332
G1 X0.252Y-0.304
G1 X0.253Y-0.257
G1 X0.277Y-0.23
G1 X0.298Y-0.202
G1 X0.318Y-0.171
G1 X0.369Y-0.146
G1 X0.383Y-0.1
G1 X0.392Y-0.054
G1 X0.397Y-0.007
G1 X0.502Y0.059
G1 X0.487Y0.13
G1 X0.462Y0.198
G1 X0.432Y0.263
G1 X0.349Y0.285
G1 X0.305Y0.324
G1 X0.258Y0.358
G1 X0.209Y0.386
G1 X0.159Y0.411
G1 X0.104Y0.428
G1 X0.049Y0.442
G1 X-0.009Y0.451
G1 X-0.076Y0.498
G1 X-0.146Y0.475
G1 X-0.211Y0.444
G1 X-0.271Y0.407
G1 X-0.327Y0.365
G1 X-0.378Y0.315
G1 X-0.423Y0.259
G1 X-0.465Y0.198
G1 X-0.537Y0.142
G1 X-0.55Y0.051
G0 X-4.441Y6.407
G1 X-0.632
G1 Y5.536
G1 Y1.199
G1 X0.641
G1 X-0.009Y-6.735
G0 X-8.525Y2.071
G1 Y4.664
G1 X4.902
G1 Y-2.44
G1 Y-5.879
G1 X0.104Y-0.341
G1 X0.11Y-0.34
G1 X0.239Y-0.593
G1 X0.314Y-0.556
G1 X0.382Y-0.51
G1 X0.448Y-0.457
G1 X0.412Y-0.321
G1 X0.447Y-0.266
G1 X0.476Y-0.209
G1 X0.5Y-0.149
G1 X0.477Y-0.05
G1 X0.48Y-0.017
G1 X1.5Y-0.026
G1 X3.118Y-0.015
G1 X1.617
G1 X0.809Y0.012
G1 X0.808Y0.04
G1 X0.396Y0.049
G1 X0.388Y0.097
G1 X0.35Y0.147
G1 X0.336Y0.176
G1 X0.32Y0.203
G1 X0.302Y0.229
G1 X0.296Y0.266
G1 X0.276Y0.287
G1 X0.252Y0.306
G1 X0.23Y0.326
G1 X0.24Y0.445
G1 X0.191Y0.468
G1 X0.085Y0.387
G1 X0.044Y0.393
G1 X0.042Y0.827
G1 X0.014Y0.827
G1 X0.009Y1.289
G1 Y1.29
G1 Y4.105
G1 X4.906
G1 Y-4.664
G1 X1.749
G1 Y4.664
G1 X0.325
G1 X0.009Y-3.04
G1 X1.706
G1 Y3.04
G1 X0.319
G1 X-0.007Y-1.707
G1 X1.729
G1 Y1.707
G1 X1.251
G1 Y1.666
G1 X-1.251
G1 Y1.749
G1 X-0.7
G1 X-0.7Y-0.006
G1 X-0.146Y-0.006
G1 X-0.145Y-0.013
G1 X-0.018Y-0.006
G1 X-0.007Y-1.718
G1 X-0.325
G1 Y3.04
G1 X-1.728
G1 X0.008Y-3.04
G1 X-0.32
G1 Y4.706
G1 X-1.749
G1 Y-4.706
G1 X-4.903
G1 Y1.778
G1 X-0.158Y0.313
G1 X-0.042Y0.072
G1 X-0.045Y0.07
G1 X-0.132Y0.164
G1 X-0.152Y0.145
G1 X-0.169Y0.124
G1 X-0.185Y0.101
G1 X-0.088Y0.026
G1 X-0.09Y0.019
G1 X-0.442Y0.019
G1 X-0.441Y-0.027
G1 X-0.106Y-0.031
G1 X-0.102Y-0.042
G1 X-0.083Y-0.05
G1 X-0.115Y-0.081
G1 X-0.109Y-0.09
G1 X-0.181Y-0.195
G1 X-0.153Y-0.22
G1 X-0.164Y-0.31
G1 Y-1.785
G1 X-0.704
G1 Y8.502
G1 X-0.006Y4.304
G1 X-0.023Y4.304
G1 X-0.009Y0.895
G1 X-0.022Y0.894
G1 X-0.01Y0.16
G1 X-0.029Y0.159
G1 X-0.062Y0.185
G1 X-0.082Y0.177
G1 X-0.164Y0.259
G1 X-0.201Y0.229
G1 X-0.236Y0.194
G1 X-0.265Y0.155
G1 X-0.105Y0.052
G1 X-0.098Y0.038
G1 X-0.134Y0.035
G1 X-0.138Y0.016
G1 X-0.453Y0.011
G1 X-0.453Y-0.027
G1 X-0.188Y-0.035
G1 X-0.182Y-0.061
G1 X-0.082Y-0.039
G1 X-0.08Y-0.043
G1 X-0.208Y-0.149
G1 X-0.186Y-0.178
G1 X-0.154Y-0.158
G1 X-0.145Y-0.166
G1 X-0.034Y-0.05
G1 X-0.031Y-0.053
G1 X-0.044Y-0.105
G1 X-0.035Y-0.109
G1 X-0.069Y-0.414
G1 X-0.032Y-0.418
G1 X-0.034Y-0.96
G1 X-0.011Y-0.961
G1 X-0.007Y-1.752
G1 Y-12.098
G1 X-0.63
G1 X-0.04Y16.297
G1 X-0.119Y0.249
G1 X-0.126Y0.245
G1 X-0.187Y0.286
G1 X-0.233Y0.246
G1 X-0.272Y0.202
G1 X-0.305Y0.153
G1 X-0.327Y0.091
G1 X-0.336Y0.043
G1 X-0.338Y-0.006
G1 X-0.335Y-0.056
G1 X-0.254Y-0.086
G1 X-0.238Y-0.122
G1 X-0.219Y-0.153
G1 X-0.196Y-0.184
G1 X-0.205Y-0.263
G1 X-0.16Y-0.293
G1 X-0.162Y-0.352
G1 X-0.026Y-19.09
G1 X-0.659
G1 X-0.011Y0.902
G1 X-0.03Y0.808
G1 X-0.012Y0.091
G1 X-0.054Y0.164
G1 X-0.072Y0.157
G1 X-0.091Y0.148
G1 X-0.106Y0.136
G1 X-0.076Y0.077
G1 X-0.219Y0.163
G1 X-0.247Y0.115
G1 X-0.258Y0.066
G1 X-0.263Y0.028
G1 X-0.264Y-0.009
G1 X-0.263Y-0.045
G1 X-0.193Y-0.07
G1 X-0.178Y-0.102
G1 X-0.206Y-0.181
G1 X-0.172Y-0.213
G1 X-0.082Y-0.128
G1 X-0.07Y-0.134
G1 X-0.019Y-0.055
G1 X-0.014Y-0.058
G1 X-0.011Y-0.058
G1 X-0.007Y-0.051
G1 X-0.031Y-0.429
G1 X-0.01Y-0.43
G1 X-0.006Y-0.446
G1 Y-0.446
G1 X-4.912
G1 Y4.706
G1 X-1.749
G1 Y-4.706
G1 X-0.321
G1 X0.009Y3.04
G1 X-1.728
G1 Y-3.04
G1 X-0.321
G1 Y1.728
G1 X-1.72Y0.023
G1 Y-1.751
G1 X-1.25
G1 Y-1.666
G1 X1.25
G1 Y-1.707
G1 X1.728
G1 Y1.707
G1 X0.313
G1 Y-3.04
G1 X1.706
G1 X0.009Y3.04
G1 X0.325
G1 Y-4.664
G1 X1.749
G0 X-14.09Y-26.716
G1 Y130
G1 X110
G1 Y-130
G1 X-110
; Cut @ 600 mm/min, 100% power
M8
G0 X58Y74.108
; Layer Trayectorias_de_corte_1 Pass 1 of 9
G1 Y46.784F600
G1 X0.029Y0.598
G1 X0.087Y0.581
G1 X0.141Y0.56
G1 X0.192Y0.537
G1 X0.241Y0.512
G1 X0.286Y0.482
G1 X0.329Y0.45
G1 X0.369Y0.415
G1 X0.405Y0.378
G1 X0.44Y0.336
G1 X0.471Y0.293
G1 X0.5Y0.246
G1 X0.525Y0.197
G1 X0.548Y0.144
G1 X0.567Y0.089
G1 X0.584Y0.03
G1 X38.572
G1 X0.584Y-0.03
G1 X0.567Y-0.089
G1 X0.548Y-0.144
G1 X0.525Y-0.197
G1 X0.5Y-0.246
G1 X0.471Y-0.293
G1 X0.44Y-0.336
G1 X0.405Y-0.378
G1 X0.369Y-0.415
G1 X0.329Y-0.45
G1 X0.286Y-0.482
G1 X0.241Y-0.512
G1 X0.192Y-0.537
G1 X0.141Y-0.56
G1 X0.087Y-0.581
G1 X0.029Y-0.598
G1 Y-46.784
G1 X-0.029Y-0.598
G1 X-0.087Y-0.581
G1 X-0.141Y-0.56
G1 X-0.192Y-0.537
G1 X-0.241Y-0.512
G1 X-0.286Y-0.482
G1 X-0.329Y-0.45
G1 X-0.369Y-0.415
G1 X-0.405Y-0.378
G1 X-0.44Y-0.336
G1 X-0.471Y-0.293
G1 X-0.5Y-0.246
G1 X-0.525Y-0.197
G1 X-0.548Y-0.144
G1 X-0.567Y-0.089
G1 X-0.584Y-0.03
G1 X-38.572
G1 X-0.584Y0.03
G1 X-0.567Y0.089
G1 X-0.548Y0.144
G1 X-0.525Y0.197
G1 X-0.5Y0.246
G1 X-0.471Y0.293
G1 X-0.44Y0.336
G1 X-0.405Y0.378
G1 X-0.369Y0.415
G1 X-0.329Y0.45
G1 X-0.286Y0.482
G1 X-0.241Y0.512
G1 X-0.192Y0.537
G1 X-0.141Y0.56
G1 X-0.087Y0.581
G1 X-0.029Y0.598
; Layer Trayectorias_de_corte_1 Pass 2 of 9
G1 Y46.784
G1 X0.029Y0.598
G1 X0.087Y0.581
G1 X0.141Y0.56
G1 X0.192Y0.537
G1 X0.241Y0.512
G1 X0.286Y0.482
G1 X0.329Y0.45
G1 X0.369Y0.415
G1 X0.405Y0.378
G1 X0.44Y0.336
G1 X0.471Y0.293
G1 X0.5Y0.246
G1 X0.525Y0.197
G1 X0.548Y0.144
G1 X0.567Y0.089
G1 X0.584Y0.03
G1 X38.572
G1 X0.584Y-0.03
G1 X0.567Y-0.089
G1 X0.548Y-0.144
G1 X0.525Y-0.197
G1 X0.5Y-0.246
G1 X0.471Y-0.293
G1 X0.44Y-0.336
G1 X0.405Y-0.378
G1 X0.369Y-0.415
G1 X0.329Y-0.45
G1 X0.286Y-0.482
G1 X0.241Y-0.512
G1 X0.192Y-0.537
G1 X0.141Y-0.56
G1 X0.087Y-0.581
G1 X0.029Y-0.598
G1 Y-46.784
G1 X-0.029Y-0.598
G1 X-0.087Y-0.581
G1 X-0.141Y-0.56
G1 X-0.192Y-0.537
G1 X-0.241Y-0.512
G1 X-0.286Y-0.482
G1 X-0.329Y-0.45
G1 X-0.369Y-0.415
G1 X-0.405Y-0.378
G1 X-0.44Y-0.336
G1 X-0.471Y-0.293
G1 X-0.5Y-0.246
G1 X-0.525Y-0.197
G1 X-0.548Y-0.144
G1 X-0.567Y-0.089
G1 X-0.584Y-0.03
G1 X-38.572
G1 X-0.584Y0.03
G1 X-0.567Y0.089
G1 X-0.548Y0.144
G1 X-0.525Y0.197
G1 X-0.5Y0.246
G1 X-0.471Y0.293
G1 X-0.44Y0.336
G1 X-0.405Y0.378
G1 X-0.369Y0.415
G1 X-0.329Y0.45
G1 X-0.286Y0.482
G1 X-0.241Y0.512
G1 X-0.192Y0.537
G1 X-0.141Y0.56
G1 X-0.087Y0.581
G1 X-0.029Y0.598
; Layer Trayectorias_de_corte_1 Pass 3 of 9
G1 Y46.784
G1 X0.029Y0.598
G1 X0.087Y0.581
G1 X0.141Y0.56
G1 X0.192Y0.537
G1 X0.241Y0.512
G1 X0.286Y0.482
G1 X0.329Y0.45
G1 X0.369Y0.415
G1 X0.405Y0.378
G1 X0.44Y0.336
G1 X0.471Y0.293
G1 X0.5Y0.246
G1 X0.525Y0.197
G1 X0.548Y0.144
G1 X0.567Y0.089
G1 X0.584Y0.03
G1 X38.572
G1 X0.584Y-0.03
G1 X0.567Y-0.089
G1 X0.548Y-0.144
G1 X0.525Y-0.197
G1 X0.5Y-0.246
G1 X0.471Y-0.293
G1 X0.44Y-0.336
G1 X0.405Y-0.378
G1 X0.369Y-0.415
G1 X0.329Y-0.45
G1 X0.286Y-0.482
G1 X0.241Y-0.512
G1 X0.192Y-0.537
G1 X0.141Y-0.56
G1 X0.087Y-0.581
G1 X0.029Y-0.598
G1 Y-46.784
G1 X-0.029Y-0.598
G1 X-0.087Y-0.581
G1 X-0.141Y-0.56
G1 X-0.192Y-0.537
G1 X-0.241Y-0.512
G1 X-0.286Y-0.482
G1 X-0.329Y-0.45
G1 X-0.369Y-0.415
G1 X-0.405Y-0.378
G1 X-0.44Y-0.336
G1 X-0.471Y-0.293
G1 X-0.5Y-0.246
G1 X-0.525Y-0.197
G1 X-0.548Y-0.144
G1 X-0.567Y-0.089
G1 X-0.584Y-0.03
G1 X-38.572
G1 X-0.584Y0.03
G1 X-0.567Y0.089
G1 X-0.548Y0.144
G1 X-0.525Y0.197
G1 X-0.5Y0.246
G1 X-0.471Y0.293
G1 X-0.44Y0.336
G1 X-0.405Y0.378
G1 X-0.369Y0.415
G1 X-0.329Y0.45
G1 X-0.286Y0.482
G1 X-0.241Y0.512
G1 X-0.192Y0.537
G1 X-0.141Y0.56
G1 X-0.087Y0.581
G1 X-0.029Y0.598
; Layer Trayectorias_de_corte_1 Pass 4 of 9
G1 Y46.784
G1 X0.029Y0.598
G1 X0.087Y0.581
G1 X0.141Y0.56
G1 X0.192Y0.537
G1 X0.241Y0.512
G1 X0.286Y0.482
G1 X0.329Y0.45
G1 X0.369Y0.415
G1 X0.405Y0.378
G1 X0.44Y0.336
G1 X0.471Y0.293
G1 X0.5Y0.246
G1 X0.525Y0.197
G1 X0.548Y0.144
G1 X0.567Y0.089
G1 X0.584Y0.03
G1 X38.572
G1 X0.584Y-0.03
G1 X0.567Y-0.089
G1 X0.548Y-0.144
G1 X0.525Y-0.197
G1 X0.5Y-0.246
G1 X0.471Y-0.293
G1 X0.44Y-0.336
G1 X0.405Y-0.378
G1 X0.369Y-0.415
G1 X0.329Y-0.45
G1 X0.286Y-0.482
G1 X0.241Y-0.512
G1 X0.192Y-0.537
G1 X0.141Y-0.56
G1 X0.087Y-0.581
G1 X0.029Y-0.598
G1 Y-46.784
G1 X-0.029Y-0.598
G1 X-0.087Y-0.581
G1 X-0.141Y-0.56
G1 X-0.192Y-0.537
G1 X-0.241Y-0.512
G1 X-0.286Y-0.482
G1 X-0.329Y-0.45
G1 X-0.369Y-0.415
G1 X-0.405Y-0.378
G1 X-0.44Y-0.336
G1 X-0.471Y-0.293
G1 X-0.5Y-0.246
G1 X-0.525Y-0.197
G1 X-0.548Y-0.144
G1 X-0.567Y-0.089
G1 X-0.584Y-0.03
G1 X-38.572
G1 X-0.584Y0.03
G1 X-0.567Y0.089
G1 X-0.548Y0.144
G1 X-0.525Y0.197
G1 X-0.5Y0.246
G1 X-0.471Y0.293
G1 X-0.44Y0.336
G1 X-0.405Y0.378
G1 X-0.369Y0.415
G1 X-0.329Y0.45
G1 X-0.286Y0.482
G1 X-0.241Y0.512
G1 X-0.192Y0.537
G1 X-0.141Y0.56
G1 X-0.087Y0.581
G1 X-0.029Y0.598
; Layer Trayectorias_de_corte_1 Pass 5 of 9
G1 Y46.784
G1 X0.029Y0.598
G1 X0.087Y0.581
G1 X0.141Y0.56
G1 X0.192Y0.537
G1 X0.241Y0.512
G1 X0.286Y0.482
G1 X0.329Y0.45
G1 X0.369Y0.415
G1 X0.405Y0.378
G1 X0.44Y0.336
G1 X0.471Y0.293
G1 X0.5Y0.246
G1 X0.525Y0.197
G1 X0.548Y0.144
G1 X0.567Y0.089
G1 X0.584Y0.03
G1 X38.572
G1 X0.584Y-0.03
G1 X0.567Y-0.089
G1 X0.548Y-0.144
G1 X0.525Y-0.197
G1 X0.5Y-0.246
G1 X0.471Y-0.293
G1 X0.44Y-0.336
G1 X0.405Y-0.378
G1 X0.369Y-0.415
G1 X0.329Y-0.45
G1 X0.286Y-0.482
G1 X0.241Y-0.512
G1 X0.192Y-0.537
G1 X0.141Y-0.56
G1 X0.087Y-0.581
G1 X0.029Y-0.598
G1 Y-46.784
G1 X-0.029Y-0.598
G1 X-0.087Y-0.581
G1 X-0.141Y-0.56
G1 X-0.192Y-0.537
G1 X-0.241Y-0.512
G1 X-0.286Y-0.482
G1 X-0.329Y-0.45
G1 X-0.369Y-0.415
G1 X-0.405Y-0.378
G1 X-0.44Y-0.336
G1 X-0.471Y-0.293
G1 X-0.5Y-0.246
G1 X-0.525Y-0.197
G1 X-0.548Y-0.144
G1 X-0.567Y-0.089
G1 X-0.584Y-0.03
G1 X-38.572
G1 X-0.584Y0.03
G1 X-0.567Y0.089
G1 X-0.548Y0.144
G1 X-0.525Y0.197
G1 X-0.5Y0.246
G1 X-0.471Y0.293
G1 X-0.44Y0.336
G1 X-0.405Y0.378
G1 X-0.369Y0.415
G1 X-0.329Y0.45
G1 X-0.286Y0.482
G1 X-0.241Y0.512
G1 X-0.192Y0.537
G1 X-0.141Y0.56
G1 X-0.087Y0.581
G1 X-0.029Y0.598
; Layer Trayectorias_de_corte_1 Pass 6 of 9
G1 Y46.784
G1 X0.029Y0.598
G1 X0.087Y0.581
G1 X0.141Y0.56
G1 X0.192Y0.537
G1 X0.241Y0.512
G1 X0.286Y0.482
G1 X0.329Y0.45
G1 X0.369Y0.415
G1 X0.405Y0.378
G1 X0.44Y0.336
G1 X0.471Y0.293
G1 X0.5Y0.246
G1 X0.525Y0.197
G1 X0.548Y0.144
G1 X0.567Y0.089
G1 X0.584Y0.03
G1 X38.572
G1 X0.584Y-0.03
G1 X0.567Y-0.089
G1 X0.548Y-0.144
G1 X0.525Y-0.197
G1 X0.5Y-0.246
G1 X0.471Y-0.293
G1 X0.44Y-0.336
G1 X0.405Y-0.378
G1 X0.369Y-0.415
G1 X0.329Y-0.45
G1 X0.286Y-0.482
G1 X0.241Y-0.512
G1 X0.192Y-0.537
G1 X0.141Y-0.56
G1 X0.087Y-0.581
G1 X0.029Y-0.598
G1 Y-46.784
G1 X-0.029Y-0.598
G1 X-0.087Y-0.581
G1 X-0.141Y-0.56
G1 X-0.192Y-0.537
G1 X-0.241Y-0.512
G1 X-0.286Y-0.482
G1 X-0.329Y-0.45
G1 X-0.369Y-0.415
G1 X-0.405Y-0.378
G1 X-0.44Y-0.336
G1 X-0.471Y-0.293
G1 X-0.5Y-0.246
G1 X-0.525Y-0.197
G1 X-0.548Y-0.144
G1 X-0.567Y-0.089
G1 X-0.584Y-0.03
G1 X-38.572
G1 X-0.584Y0.03
G1 X-0.567Y0.089
G1 X-0.548Y0.144
G1 X-0.525Y0.197
G1 X-0.5Y0.246
G1 X-0.471Y0.293
G1 X-0.44Y0.336
G1 X-0.405Y0.378
G1 X-0.369Y0.415
G1 X-0.329Y0.45
G1 X-0.286Y0.482
G1 X-0.241Y0.512
G1 X-0.192Y0.537
G1 X-0.141Y0.56
G1 X-0.087Y0.581
G1 X-0.029Y0.598
; Layer Trayectorias_de_corte_1 Pass 7 of 9
G1 Y46.784
G1 X0.029Y0.598
G1 X0.087Y0.581
G1 X0.141Y0.56
G1 X0.192Y0.537
G1 X0.241Y0.512
G1 X0.286Y0.482
G1 X0.329Y0.45
G1 X0.369Y0.415
G1 X0.405Y0.378
G1 X0.44Y0.336
G1 X0.471Y0.293
G1 X0.5Y0.246
G1 X0.525Y0.197
G1 X0.548Y0.144
G1 X0.567Y0.089
G1 X0.584Y0.03
G1 X38.572
G1 X0.584Y-0.03
G1 X0.567Y-0.089
G1 X0.548Y-0.144
G1 X0.525Y-0.197
G1 X0.5Y-0.246
G1 X0.471Y-0.293
G1 X0.44Y-0.336
G1 X0.405Y-0.378
G1 X0.369Y-0.415
G1 X0.329Y-0.45
G1 X0.286Y-0.482
G1 X0.241Y-0.512
G1 X0.192Y-0.537
G1 X0.141Y-0.56
G1 X0.087Y-0.581
G1 X0.029Y-0.598
G1 Y-46.784
G1 X-0.029Y-0.598
G1 X-0.087Y-0.581
G1 X-0.141Y-0.56
G1 X-0.192Y-0.537
G1 X-0.241Y-0.512
G1 X-0.286Y-0.482
G1 X-0.329Y-0.45
G1 X-0.369Y-0.415
G1 X-0.405Y-0.378
G1 X-0.44Y-0.336
G1 X-0.471Y-0.293
G1 X-0.5Y-0.246
G1 X-0.525Y-0.197
G1 X-0.548Y-0.144
G1 X-0.567Y-0.089
G1 X-0.584Y-0.03
G1 X-38.572
G1 X-0.584Y0.03
G1 X-0.567Y0.089
G1 X-0.548Y0.144
G1 X-0.525Y0.197
G1 X-0.5Y0.246
G1 X-0.471Y0.293
G1 X-0.44Y0.336
G1 X-0.405Y0.378
G1 X-0.369Y0.415
G1 X-0.329Y0.45
G1 X-0.286Y0.482
G1 X-0.241Y0.512
G1 X-0.192Y0.537
G1 X-0.141Y0.56
G1 X-0.087Y0.581
G1 X-0.029Y0.598
; Layer Trayectorias_de_corte_1 Pass 8 of 9
G1 Y46.784
G1 X0.029Y0.598
G1 X0.087Y0.581
G1 X0.141Y0.56
G1 X0.192Y0.537
G1 X0.241Y0.512
G1 X0.286Y0.482
G1 X0.329Y0.45
G1 X0.369Y0.415
G1 X0.405Y0.378
G1 X0.44Y0.336
G1 X0.471Y0.293
G1 X0.5Y0.246
G1 X0.525Y0.197
G1 X0.548Y0.144
G1 X0.567Y0.089
G1 X0.584Y0.03
G1 X38.572
G1 X0.584Y-0.03
G1 X0.567Y-0.089
G1 X0.548Y-0.144
G1 X0.525Y-0.197
G1 X0.5Y-0.246
G1 X0.471Y-0.293
G1 X0.44Y-0.336
G1 X0.405Y-0.378
G1 X0.369Y-0.415
G1 X0.329Y-0.45
G1 X0.286Y-0.482
G1 X0.241Y-0.512
G1 X0.192Y-0.537
G1 X0.141Y-0.56
G1 X0.087Y-0.581
G1 X0.029Y-0.598
G1 Y-46.784
G1 X-0.029Y-0.598
G1 X-0.087Y-0.581
G1 X-0.141Y-0.56
G1 X-0.192Y-0.537
G1 X-0.241Y-0.512
G1 X-0.286Y-0.482
G1 X-0.329Y-0.45
G1 X-0.369Y-0.415
G1 X-0.405Y-0.378
G1 X-0.44Y-0.336
G1 X-0.471Y-0.293
G1 X-0.5Y-0.246
G1 X-0.525Y-0.197
G1 X-0.548Y-0.144
G1 X-0.567Y-0.089
G1 X-0.584Y-0.03
G1 X-38.572
G1 X-0.584Y0.03
G1 X-0.567Y0.089
G1 X-0.548Y0.144
G1 X-0.525Y0.197
G1 X-0.5Y0.246
G1 X-0.471Y0.293
G1 X-0.44Y0.336
G1 X-0.405Y0.378
G1 X-0.369Y0.415
G1 X-0.329Y0.45
G1 X-0.286Y0.482
G1 X-0.241Y0.512
G1 X-0.192Y0.537
G1 X-0.141Y0.56
G1 X-0.087Y0.581
G1 X-0.029Y0.598
; Layer Trayectorias_de_corte_1 Pass 9 of 9
G1 Y46.784
G1 X0.029Y0.598
G1 X0.087Y0.581
G1 X0.141Y0.56
G1 X0.192Y0.537
G1 X0.241Y0.512
G1 X0.286Y0.482
G1 X0.329Y0.45
G1 X0.369Y0.415
G1 X0.405Y0.378
G1 X0.44Y0.336
G1 X0.471Y0.293
G1 X0.5Y0.246
G1 X0.525Y0.197
G1 X0.548Y0.144
G1 X0.567Y0.089
G1 X0.584Y0.03
G1 X38.572
G1 X0.584Y-0.03
G1 X0.567Y-0.089
G1 X0.548Y-0.144
G1 X0.525Y-0.197
G1 X0.5Y-0.246
G1 X0.471Y-0.293
G1 X0.44Y-0.336
G1 X0.405Y-0.378
G1 X0.369Y-0.415
G1 X0.329Y-0.45
G1 X0.286Y-0.482
G1 X0.241Y-0.512
G1 X0.192Y-0.537
G1 X0.141Y-0.56
G1 X0.087Y-0.581
G1 X0.029Y-0.598
G1 Y-46.784
G1 X-0.029Y-0.598
G1 X-0.087Y-0.581
G1 X-0.141Y-0.56
G1 X-0.192Y-0.537
G1 X-0.241Y-0.512
G1 X-0.286Y-0.482
G1 X-0.329Y-0.45
G1 X-0.369Y-0.415
G1 X-0.405Y-0.378
G1 X-0.44Y-0.336
G1 X-0.471Y-0.293
G1 X-0.5Y-0.246
G1 X-0.525Y-0.197
G1 X-0.548Y-0.144
G1 X-0.567Y-0.089
G1 X-0.584Y-0.03
G1 X-38.572
G1 X-0.584Y0.03
G1 X-0.567Y0.089
G1 X-0.548Y0.144
G1 X-0.525Y0.197
G1 X-0.5Y0.246
G1 X-0.471Y0.293
G1 X-0.44Y0.336
G1 X-0.405Y0.378
G1 X-0.369Y0.415
G1 X-0.329Y0.45
G1 X-0.286Y0.482
G1 X-0.241Y0.512
G1 X-0.192Y0.537
G1 X-0.141Y0.56
G1 X-0.087Y0.581
G1 X-0.029Y0.598
G0 X-11.714Y-5.848
; Layer Trayectorias_de_corte_1 Pass 1 of 9
G1 X-38.572
G1 X-0.584Y0.03
G1 X-0.567Y0.089
G1 X-0.548Y0.144
G1 X-0.525Y0.197
G1 X-0.5Y0.246
G1 X-0.471Y0.293
G1 X-0.44Y0.336
G1 X-0.405Y0.378
G1 X-0.369Y0.415
G1 X-0.329Y0.45
G1 X-0.286Y0.482
G1 X-0.241Y0.512
G1 X-0.192Y0.537
G1 X-0.141Y0.56
G1 X-0.087Y0.581
G1 X-0.029Y0.598
G1 Y46.784
G1 X0.029Y0.598
G1 X0.087Y0.581
G1 X0.141Y0.56
G1 X0.192Y0.537
G1 X0.241Y0.512
G1 X0.286Y0.482
G1 X0.329Y0.45
G1 X0.369Y0.415
G1 X0.405Y0.378
G1 X0.44Y0.336
G1 X0.471Y0.293
G1 X0.5Y0.246
G1 X0.525Y0.197
G1 X0.548Y0.144
G1 X0.567Y0.089
G1 X0.584Y0.03
G1 X38.572
G1 X0.584Y-0.03
G1 X0.567Y-0.089
G1 X0.548Y-0.144
G1 X0.525Y-0.197
G1 X0.5Y-0.246
G1 X0.471Y-0.293
G1 X0.44Y-0.336
G1 X0.405Y-0.378
G1 X0.369Y-0.415
G1 X0.329Y-0.45
G1 X0.286Y-0.482
G1 X0.241Y-0.512
G1 X0.192Y-0.537
G1 X0.141Y-0.56
G1 X0.087Y-0.581
G1 X0.029Y-0.598
G1 Y-46.784
G1 X-0.029Y-0.598
G1 X-0.087Y-0.581
G1 X-0.141Y-0.56
G1 X-0.192Y-0.537
G1 X-0.241Y-0.512
G1 X-0.286Y-0.482
G1 X-0.329Y-0.45
G1 X-0.369Y-0.415
G1 X-0.405Y-0.378
G1 X-0.44Y-0.336
G1 X-0.471Y-0.293
G1 X-0.5Y-0.246
G1 X-0.525Y-0.197
G1 X-0.548Y-0.144
G1 X-0.567Y-0.089
G1 X-0.584Y-0.03
; Layer Trayectorias_de_corte_1 Pass 2 of 9
G1 X-38.572
G1 X-0.584Y0.03
G1 X-0.567Y0.089
G1 X-0.548Y0.144
G1 X-0.525Y0.197
G1 X-0.5Y0.246
G1 X-0.471Y0.293
G1 X-0.44Y0.336
G1 X-0.405Y0.378
G1 X-0.369Y0.415
G1 X-0.329Y0.45
G1 X-0.286Y0.482
G1 X-0.241Y0.512
G1 X-0.192Y0.537
G1 X-0.141Y0.56
G1 X-0.087Y0.581
G1 X-0.029Y0.598
G1 Y46.784
G1 X0.029Y0.598
G1 X0.087Y0.581
G1 X0.141Y0.56
G1 X0.192Y0.537
G1 X0.241Y0.512
G1 X0.286Y0.482
G1 X0.329Y0.45
G1 X0.369Y0.415
G1 X0.405Y0.378
G1 X0.44Y0.336
G1 X0.471Y0.293
G1 X0.5Y0.246
G1 X0.525Y0.197
G1 X0.548Y0.144
G1 X0.567Y0.089
G1 X0.584Y0.03
G1 X38.572
G1 X0.584Y-0.03
G1 X0.567Y-0.089
G1 X0.548Y-0.144
G1 X0.525Y-0.197
G1 X0.5Y-0.246
G1 X0.471Y-0.293
G1 X0.44Y-0.336
G1 X0.405Y-0.378
G1 X0.369Y-0.415
G1 X0.329Y-0.45
G1 X0.286Y-0.482
G1 X0.241Y-0.512
G1 X0.192Y-0.537
G1 X0.141Y-0.56
G1 X0.087Y-0.581
G1 X0.029Y-0.598
G1 Y-46.784
G1 X-0.029Y-0.598
G1 X-0.087Y-0.581
G1 X-0.141Y-0.56
G1 X-0.192Y-0.537
G1 X-0.241Y-0.512
G1 X-0.286Y-0.482
G1 X-0.329Y-0.45
G1 X-0.369Y-0.415
G1 X-0.405Y-0.378
G1 X-0.44Y-0.336
G1 X-0.471Y-0.293
G1 X-0.5Y-0.246
G1 X-0.525Y-0.197
G1 X-0.548Y-0.144
G1 X-0.567Y-0.089
G1 X-0.584Y-0.03
; Layer Trayectorias_de_corte_1 Pass 3 of 9
G1 X-38.572
G1 X-0.584Y0.03
G1 X-0.567Y0.089
G1 X-0.548Y0.144
G1 X-0.525Y0.197
G1 X-0.5Y0.246
G1 X-0.471Y0.293
G1 X-0.44Y0.336
G1 X-0.405Y0.378
G1 X-0.369Y0.415
G1 X-0.329Y0.45
G1 X-0.286Y0.482
G1 X-0.241Y0.512
G1 X-0.192Y0.537
G1 X-0.141Y0.56
G1 X-0.087Y0.581
G1 X-0.029Y0.598
G1 Y46.784
G1 X0.029Y0.598
G1 X0.087Y0.581
G1 X0.141Y0.56
G1 X0.192Y0.537
G1 X0.241Y0.512
G1 X0.286Y0.482
G1 X0.329Y0.45
G1 X0.369Y0.415
G1 X0.405Y0.378
G1 X0.44Y0.336
G1 X0.471Y0.293
G1 X0.5Y0.246
G1 X0.525Y0.197
G1 X0.548Y0.144
G1 X0.567Y0.089
G1 X0.584Y0.03
G1 X38.572
G1 X0.584Y-0.03
G1 X0.567Y-0.089
G1 X0.548Y-0.144
G1 X0.525Y-0.197
G1 X0.5Y-0.246
G1 X0.471Y-0.293
G1 X0.44Y-0.336
G1 X0.405Y-0.378
G1 X0.369Y-0.415
G1 X0.329Y-0.45
G1 X0.286Y-0.482
G1 X0.241Y-0.512
G1 X0.192Y-0.537
G1 X0.141Y-0.56
G1 X0.087Y-0.581
G1 X0.029Y-0.598
G1 Y-46.784
G1 X-0.029Y-0.598
G1 X-0.087Y-0.581
G1 X-0.141Y-0.56
G1 X-0.192Y-0.537
G1 X-0.241Y-0.512
G1 X-0.286Y-0.482
G1 X-0.329Y-0.45
G1 X-0.369Y-0.415
G1 X-0.405Y-0.378
G1 X-0.44Y-0.336
G1 X-0.471Y-0.293
G1 X-0.5Y-0.246
G1 X-0.525Y-0.197
G1 X-0.548Y-0.144
G1 X-0.567Y-0.089
G1 X-0.584Y-0.03
; Layer Trayectorias_de_corte_1 Pass 4 of 9
G1 X-38.572
G1 X-0.584Y0.03
G1 X-0.567Y0.089
G1 X-0.548Y0.144
G1 X-0.525Y0.197
G1 X-0.5Y0.246
G1 X-0.471Y0.293
G1 X-0.44Y0.336
G1 X-0.405Y0.378
G1 X-0.369Y0.415
G1 X-0.329Y0.45
G1 X-0.286Y0.482
G1 X-0.241Y0.512
G1 X-0.192Y0.537
G1 X-0.141Y0.56
G1 X-0.087Y0.581
G1 X-0.029Y0.598
G1 Y46.784
G1 X0.029Y0.598
G1 X0.087Y0.581
G1 X0.141Y0.56
G1 X0.192Y0.537
G1 X0.241Y0.512
G1 X0.286Y0.482
G1 X0.329Y0.45
G1 X0.369Y0.415
G1 X0.405Y0.378
G1 X0.44Y0.336
G1 X0.471Y0.293
G1 X0.5Y0.246
G1 X0.525Y0.197
G1 X0.548Y0.144
G1 X0.567Y0.089
G1 X0.584Y0.03
G1 X38.572
G1 X0.584Y-0.03
G1 X0.567Y-0.089
G1 X0.548Y-0.144
G1 X0.525Y-0.197
G1 X0.5Y-0.246
G1 X0.471Y-0.293
G1 X0.44Y-0.336
G1 X0.405Y-0.378
G1 X0.369Y-0.415
G1 X0.329Y-0.45
G1 X0.286Y-0.482
G1 X0.241Y-0.512
G1 X0.192Y-0.537
G1 X0.141Y-0.56
G1 X0.087Y-0.581
G1 X0.029Y-0.598
G1 Y-46.784
G1 X-0.029Y-0.598
G1 X-0.087Y-0.581
G1 X-0.141Y-0.56
G1 X-0.192Y-0.537
G1 X-0.241Y-0.512
G1 X-0.286Y-0.482
G1 X-0.329Y-0.45
G1 X-0.369Y-0.415
G1 X-0.405Y-0.378
G1 X-0.44Y-0.336
G1 X-0.471Y-0.293
G1 X-0.5Y-0.246
G1 X-0.525Y-0.197
G1 X-0.548Y-0.144
G1 X-0.567Y-0.089
G1 X-0.584Y-0.03
; Layer Trayectorias_de_corte_1 Pass 5 of 9
G1 X-38.572
G1 X-0.584Y0.03
G1 X-0.567Y0.089
G1 X-0.548Y0.144
G1 X-0.525Y0.197
G1 X-0.5Y0.246
G1 X-0.471Y0.293
G1 X-0.44Y0.336
G1 X-0.405Y0.378
G1 X-0.369Y0.415
G1 X-0.329Y0.45
G1 X-0.286Y0.482
G1 X-0.241Y0.512
G1 X-0.192Y0.537
G1 X-0.141Y0.56
G1 X-0.087Y0.581
G1 X-0.029Y0.598
G1 Y46.784
G1 X0.029Y0.598
G1 X0.087Y0.581
G1 X0.141Y0.56
G1 X0.192Y0.537
G1 X0.241Y0.512
G1 X0.286Y0.482
G1 X0.329Y0.45
G1 X0.369Y0.415
G1 X0.405Y0.378
G1 X0.44Y0.336
G1 X0.471Y0.293
G1 X0.5Y0.246
G1 X0.525Y0.197
G1 X0.548Y0.144
G1 X0.567Y0.089
G1 X0.584Y0.03
G1 X38.572
G1 X0.584Y-0.03
G1 X0.567Y-0.089
G1 X0.548Y-0.144
G1 X0.525Y-0.197
G1 X0.5Y-0.246
G1 X0.471Y-0.293
G1 X0.44Y-0.336
G1 X0.405Y-0.378
G1 X0.369Y-0.415
G1 X0.329Y-0.45
G1 X0.286Y-0.482
G1 X0.241Y-0.512
G1 X0.192Y-0.537
G1 X0.141Y-0.56
G1 X0.087Y-0.581
G1 X0.029Y-0.598
G1 Y-46.784
G1 X-0.029Y-0.598
G1 X-0.087Y-0.581
G1 X-0.141Y-0.56
G1 X-0.192Y-0.537
G1 X-0.241Y-0.512
G1 X-0.286Y-0.482
G1 X-0.329Y-0.45
G1 X-0.369Y-0.415
G1 X-0.405Y-0.378
G1 X-0.44Y-0.336
G1 X-0.471Y-0.293
G1 X-0.5Y-0.246
G1 X-0.525Y-0.197
G1 X-0.548Y-0.144
G1 X-0.567Y-0.089
G1 X-0.584Y-0.03
; Layer Trayectorias_de_corte_1 Pass 6 of 9
G1 X-38.572
G1 X-0.584Y0.03
G1 X-0.567Y0.089
G1 X-0.548Y0.144
G1 X-0.525Y0.197
G1 X-0.5Y0.246
G1 X-0.471Y0.293
G1 X-0.44Y0.336
G1 X-0.405Y0.378
G1 X-0.369Y0.415
G1 X-0.329Y0.45
G1 X-0.286Y0.482
G1 X-0.241Y0.512
G1 X-0.192Y0.537
G1 X-0.141Y0.56
G1 X-0.087Y0.581
G1 X-0.029Y0.598
G1 Y46.784
G1 X0.029Y0.598
G1 X0.087Y0.581
G1 X0.141Y0.56
G1 X0.192Y0.537
G1 X0.241Y0.512
G1 X0.286Y0.482
G1 X0.329Y0.45
G1 X0.369Y0.415
G1 X0.405Y0.378
G1 X0.44Y0.336
G1 X0.471Y0.293
G1 X0.5Y0.246
G1 X0.525Y0.197
G1 X0.548Y0.144
G1 X0.567Y0.089
G1 X0.584Y0.03
G1 X38.572
G1 X0.584Y-0.03
G1 X0.567Y-0.089
G1 X0.548Y-0.144
G1 X0.525Y-0.197
G1 X0.5Y-0.246
G1 X0.471Y-0.293
G1 X0.44Y-0.336
G1 X0.405Y-0.378
G1 X0.369Y-0.415
G1 X0.329Y-0.45
G1 X0.286Y-0.482
G1 X0.241Y-0.512
G1 X0.192Y-0.537
G1 X0.141Y-0.56
G1 X0.087Y-0.581
G1 X0.029Y-0.598
G1 Y-46.784
G1 X-0.029Y-0.598
G1 X-0.087Y-0.581
G1 X-0.141Y-0.56
G1 X-0.192Y-0.537
G1 X-0.241Y-0.512
G1 X-0.286Y-0.482
G1 X-0.329Y-0.45
G1 X-0.369Y-0.415
G1 X-0.405Y-0.378
G1 X-0.44Y-0.336
G1 X-0.471Y-0.293
G1 X-0.5Y-0.246
G1 X-0.525Y-0.197
G1 X-0.548Y-0.144
G1 X-0.567Y-0.089
G1 X-0.584Y-0.03
; Layer Trayectorias_de_corte_1 Pass 7 of 9
G1 X-38.572
G1 X-0.584Y0.03
G1 X-0.567Y0.089
G1 X-0.548Y0.144
G1 X-0.525Y0.197
G1 X-0.5Y0.246
G1 X-0.471Y0.293
G1 X-0.44Y0.336
G1 X-0.405Y0.378
G1 X-0.369Y0.415
G1 X-0.329Y0.45
G1 X-0.286Y0.482
G1 X-0.241Y0.512
G1 X-0.192Y0.537
G1 X-0.141Y0.56
G1 X-0.087Y0.581
G1 X-0.029Y0.598
G1 Y46.784
G1 X0.029Y0.598
G1 X0.087Y0.581
G1 X0.141Y0.56
G1 X0.192Y0.537
G1 X0.241Y0.512
G1 X0.286Y0.482
G1 X0.329Y0.45
G1 X0.369Y0.415
G1 X0.405Y0.378
G1 X0.44Y0.336
G1 X0.471Y0.293
G1 X0.5Y0.246
G1 X0.525Y0.197
G1 X0.548Y0.144
G1 X0.567Y0.089
G1 X0.584Y0.03
G1 X38.572
G1 X0.584Y-0.03
G1 X0.567Y-0.089
G1 X0.548Y-0.144
G1 X0.525Y-0.197
G1 X0.5Y-0.246
G1 X0.471Y-0.293
G1 X0.44Y-0.336
G1 X0.405Y-0.378
G1 X0.369Y-0.415
G1 X0.329Y-0.45
G1 X0.286Y-0.482
G1 X0.241Y-0.512
G1 X0.192Y-0.537
G1 X0.141Y-0.56
G1 X0.087Y-0.581
G1 X0.029Y-0.598
G1 Y-46.784
G1 X-0.029Y-0.598
G1 X-0.087Y-0.581
G1 X-0.141Y-0.56
G1 X-0.192Y-0.537
G1 X-0.241Y-0.512
G1 X-0.286Y-0.482
G1 X-0.329Y-0.45
G1 X-0.369Y-0.415
G1 X-0.405Y-0.378
G1 X-0.44Y-0.336
G1 X-0.471Y-0.293
G1 X-0.5Y-0.246
G1 X-0.525Y-0.197
G1 X-0.548Y-0.144
G1 X-0.567Y-0.089
G1 X-0.584Y-0.03
; Layer Trayectorias_de_corte_1 Pass 8 of 9
G1 X-38.572
G1 X-0.584Y0.03
G1 X-0.567Y0.089
G1 X-0.548Y0.144
G1 X-0.525Y0.197
G1 X-0.5Y0.246
G1 X-0.471Y0.293
G1 X-0.44Y0.336
G1 X-0.405Y0.378
G1 X-0.369Y0.415
G1 X-0.329Y0.45
G1 X-0.286Y0.482
G1 X-0.241Y0.512
G1 X-0.192Y0.537
G1 X-0.141Y0.56
G1 X-0.087Y0.581
G1 X-0.029Y0.598
G1 Y46.784
G1 X0.029Y0.598
G1 X0.087Y0.581
G1 X0.141Y0.56
G1 X0.192Y0.537
G1 X0.241Y0.512
G1 X0.286Y0.482
G1 X0.329Y0.45
G1 X0.369Y0.415
G1 X0.405Y0.378
G1 X0.44Y0.336
G1 X0.471Y0.293
G1 X0.5Y0.246
G1 X0.525Y0.197
G1 X0.548Y0.144
G1 X0.567Y0.089
G1 X0.584Y0.03
G1 X38.572
G1 X0.584Y-0.03
G1 X0.567Y-0.089
G1 X0.548Y-0.144
G1 X0.525Y-0.197
G1 X0.5Y-0.246
G1 X0.471Y-0.293
G1 X0.44Y-0.336
G1 X0.405Y-0.378
G1 X0.369Y-0.415
G1 X0.329Y-0.45
G1 X0.286Y-0.482
G1 X0.241Y-0.512
G1 X0.192Y-0.537
G1 X0.141Y-0.56
G1 X0.087Y-0.581
G1 X0.029Y-0.598
G1 Y-46.784
G1 X-0.029Y-0.598
G1 X-0.087Y-0.581
G1 X-0.141Y-0.56
G1 X-0.192Y-0.537
G1 X-0.241Y-0.512
G1 X-0.286Y-0.482
G1 X-0.329Y-0.45
G1 X-0.369Y-0.415
G1 X-0.405Y-0.378
G1 X-0.44Y-0.336
G1 X-0.471Y-0.293
G1 X-0.5Y-0.246
G1 X-0.525Y-0.197
G1 X-0.548Y-0.144
G1 X-0.567Y-0.089
G1 X-0.584Y-0.03
; Layer Trayectorias_de_corte_1 Pass 9 of 9
G1 X-38.572
G1 X-0.584Y0.03
G1 X-0.567Y0.089
G1 X-0.548Y0.144
G1 X-0.525Y0.197
G1 X-0.5Y0.246
G1 X-0.471Y0.293
G1 X-0.44Y0.336
G1 X-0.405Y0.378
G1 X-0.369Y0.415
G1 X-0.329Y0.45
G1 X-0.286Y0.482
G1 X-0.241Y0.512
G1 X-0.192Y0.537
G1 X-0.141Y0.56
G1 X-0.087Y0.581
G1 X-0.029Y0.598
G1 Y46.784
G1 X0.029Y0.598
G1 X0.087Y0.581
G1 X0.141Y0.56
G1 X0.192Y0.537
G1 X0.241Y0.512
G1 X0.286Y0.482
G1 X0.329Y0.45
G1 X0.369Y0.415
G1 X0.405Y0.378
G1 X0.44Y0.336
G1 X0.471Y0.293
G1 X0.5Y0.246
G1 X0.525Y0.197
G1 X0.548Y0.144
G1 X0.567Y0.089
G1 X0.584Y0.03
G1 X38.572
G1 X0.584Y-0.03
G1 X0.567Y-0.089
G1 X0.548Y-0.144
G1 X0.525Y-0.197
G1 X0.5Y-0.246
G1 X0.471Y-0.293
G1 X0.44Y-0.336
G1 X0.405Y-0.378
G1 X0.369Y-0.415
G1 X0.329Y-0.45
G1 X0.286Y-0.482
G1 X0.241Y-0.512
G1 X0.192Y-0.537
G1 X0.141Y-0.56
G1 X0.087Y-0.581
G1 X0.029Y-0.598
G1 Y-46.784
G1 X-0.029Y-0.598
G1 X-0.087Y-0.581
G1 X-0.141Y-0.56
G1 X-0.192Y-0.537
G1 X-0.241Y-0.512
G1 X-0.286Y-0.482
G1 X-0.329Y-0.45
G1 X-0.369Y-0.415
G1 X-0.405Y-0.378
G1 X-0.44Y-0.336
G1 X-0.471Y-0.293
G1 X-0.5Y-0.246
G1 X-0.525Y-0.197
G1 X-0.548Y-0.144
G1 X-0.567Y-0.089
G1 X-0.584Y-0.03
G0 X17.428Y-6.52
; Layer Trayectorias_de_corte_1 Pass 1 of 9
G1 X38.572
G1 X0.584Y-0.03
G1 X0.567Y-0.089
G1 X0.548Y-0.144
G1 X0.525Y-0.197
G1 X0.5Y-0.246
G1 X0.471Y-0.293
G1 X0.44Y-0.336
G1 X0.405Y-0.378
G1 X0.369Y-0.415
G1 X0.329Y-0.45
G1 X0.286Y-0.482
G1 X0.241Y-0.512
G1 X0.192Y-0.537
G1 X0.141Y-0.56
G1 X0.087Y-0.581
G1 X0.029Y-0.598
G1 Y-46.784
G1 X-0.029Y-0.598
G1 X-0.087Y-0.581
G1 X-0.141Y-0.56
G1 X-0.192Y-0.537
G1 X-0.241Y-0.512
G1 X-0.286Y-0.482
G1 X-0.329Y-0.45
G1 X-0.369Y-0.415
G1 X-0.405Y-0.378
G1 X-0.44Y-0.336
G1 X-0.471Y-0.293
G1 X-0.5Y-0.246
G1 X-0.525Y-0.197
G1 X-0.548Y-0.144
G1 X-0.567Y-0.089
G1 X-0.584Y-0.03
G1 X-38.572
G1 X-0.584Y0.03
G1 X-0.567Y0.089
G1 X-0.548Y0.144
G1 X-0.525Y0.197
G1 X-0.5Y0.246
G1 X-0.471Y0.293
G1 X-0.44Y0.336
G1 X-0.405Y0.378
G1 X-0.369Y0.415
G1 X-0.329Y0.45
G1 X-0.286Y0.482
G1 X-0.241Y0.512
G1 X-0.192Y0.537
G1 X-0.141Y0.56
G1 X-0.087Y0.581
G1 X-0.029Y0.598
G1 Y46.784
G1 X0.029Y0.598
G1 X0.087Y0.581
G1 X0.141Y0.56
G1 X0.192Y0.537
G1 X0.241Y0.512
G1 X0.286Y0.482
G1 X0.329Y0.45
G1 X0.369Y0.415
G1 X0.405Y0.378
G1 X0.44Y0.336
G1 X0.471Y0.293
G1 X0.5Y0.246
G1 X0.525Y0.197
G1 X0.548Y0.144
G1 X0.567Y0.089
G1 X0.584Y0.03
; Layer Trayectorias_de_corte_1 Pass 2 of 9
G1 X38.572
G1 X0.584Y-0.03
G1 X0.567Y-0.089
G1 X0.548Y-0.144
G1 X0.525Y-0.197
G1 X0.5Y-0.246
G1 X0.471Y-0.293
G1 X0.44Y-0.336
G1 X0.405Y-0.378
G1 X0.369Y-0.415
G1 X0.329Y-0.45
G1 X0.286Y-0.482
G1 X0.241Y-0.512
G1 X0.192Y-0.537
G1 X0.141Y-0.56
G1 X0.087Y-0.581
G1 X0.029Y-0.598
G1 Y-46.784
G1 X-0.029Y-0.598
G1 X-0.087Y-0.581
G1 X-0.141Y-0.56
G1 X-0.192Y-0.537
G1 X-0.241Y-0.512
G1 X-0.286Y-0.482
G1 X-0.329Y-0.45
G1 X-0.369Y-0.415
G1 X-0.405Y-0.378
G1 X-0.44Y-0.336
G1 X-0.471Y-0.293
G1 X-0.5Y-0.246
G1 X-0.525Y-0.197
G1 X-0.548Y-0.144
G1 X-0.567Y-0.089
G1 X-0.584Y-0.03
G1 X-38.572
G1 X-0.584Y0.03
G1 X-0.567Y0.089
G1 X-0.548Y0.144
G1 X-0.525Y0.197
G1 X-0.5Y0.246
G1 X-0.471Y0.293
G1 X-0.44Y0.336
G1 X-0.405Y0.378
G1 X-0.369Y0.415
G1 X-0.329Y0.45
G1 X-0.286Y0.482
G1 X-0.241Y0.512
G1 X-0.192Y0.537
G1 X-0.141Y0.56
G1 X-0.087Y0.581
G1 X-0.029Y0.598
G1 Y46.784
G1 X0.029Y0.598
G1 X0.087Y0.581
G1 X0.141Y0.56
G1 X0.192Y0.537
G1 X0.241Y0.512
G1 X0.286Y0.482
G1 X0.329Y0.45
G1 X0.369Y0.415
G1 X0.405Y0.378
G1 X0.44Y0.336
G1 X0.471Y0.293
G1 X0.5Y0.246
G1 X0.525Y0.197
G1 X0.548Y0.144
G1 X0.567Y0.089
G1 X0.584Y0.03
; Layer Trayectorias_de_corte_1 Pass 3 of 9
G1 X38.572
G1 X0.584Y-0.03
G1 X0.567Y-0.089
G1 X0.548Y-0.144
G1 X0.525Y-0.197
G1 X0.5Y-0.246
G1 X0.471Y-0.293
G1 X0.44Y-0.336
G1 X0.405Y-0.378
G1 X0.369Y-0.415
G1 X0.329Y-0.45
G1 X0.286Y-0.482
G1 X0.241Y-0.512
G1 X0.192Y-0.537
G1 X0.141Y-0.56
G1 X0.087Y-0.581
G1 X0.029Y-0.598
G1 Y-46.784
G1 X-0.029Y-0.598
G1 X-0.087Y-0.581
G1 X-0.141Y-0.56
G1 X-0.192Y-0.537
G1 X-0.241Y-0.512
G1 X-0.286Y-0.482
G1 X-0.329Y-0.45
G1 X-0.369Y-0.415
G1 X-0.405Y-0.378
G1 X-0.44Y-0.336
G1 X-0.471Y-0.293
G1 X-0.5Y-0.246
G1 X-0.525Y-0.197
G1 X-0.548Y-0.144
G1 X-0.567Y-0.089
G1 X-0.584Y-0.03
G1 X-38.572
G1 X-0.584Y0.03
G1 X-0.567Y0.089
G1 X-0.548Y0.144
G1 X-0.525Y0.197
G1 X-0.5Y0.246
G1 X-0.471Y0.293
G1 X-0.44Y0.336
G1 X-0.405Y0.378
G1 X-0.369Y0.415
G1 X-0.329Y0.45
G1 X-0.286Y0.482
G1 X-0.241Y0.512
G1 X-0.192Y0.537
G1 X-0.141Y0.56
G1 X-0.087Y0.581
G1 X-0.029Y0.598
G1 Y46.784
G1 X0.029Y0.598
G1 X0.087Y0.581
G1 X0.141Y0.56
G1 X0.192Y0.537
G1 X0.241Y0.512
G1 X0.286Y0.482
G1 X0.329Y0.45
G1 X0.369Y0.415
G1 X0.405Y0.378
G1 X0.44Y0.336
G1 X0.471Y0.293
G1 X0.5Y0.246
G1 X0.525Y0.197
G1 X0.548Y0.144
G1 X0.567Y0.089
G1 X0.584Y0.03
; Layer Trayectorias_de_corte_1 Pass 4 of 9
G1 X38.572
G1 X0.584Y-0.03
G1 X0.567Y-0.089
G1 X0.548Y-0.144
G1 X0.525Y-0.197
G1 X0.5Y-0.246
G1 X0.471Y-0.293
G1 X0.44Y-0.336
G1 X0.405Y-0.378
G1 X0.369Y-0.415
G1 X0.329Y-0.45
G1 X0.286Y-0.482
G1 X0.241Y-0.512
G1 X0.192Y-0.537
G1 X0.141Y-0.56
G1 X0.087Y-0.581
G1 X0.029Y-0.598
G1 Y-46.784
G1 X-0.029Y-0.598
G1 X-0.087Y-0.581
G1 X-0.141Y-0.56
G1 X-0.192Y-0.537
G1 X-0.241Y-0.512
G1 X-0.286Y-0.482
G1 X-0.329Y-0.45
G1 X-0.369Y-0.415
G1 X-0.405Y-0.378
G1 X-0.44Y-0.336
G1 X-0.471Y-0.293
G1 X-0.5Y-0.246
G1 X-0.525Y-0.197
G1 X-0.548Y-0.144
G1 X-0.567Y-0.089
G1 X-0.584Y-0.03
G1 X-38.572
G1 X-0.584Y0.03
G1 X-0.567Y0.089
G1 X-0.548Y0.144
G1 X-0.525Y0.197
G1 X-0.5Y0.246
G1 X-0.471Y0.293
G1 X-0.44Y0.336
G1 X-0.405Y0.378
G1 X-0.369Y0.415
G1 X-0.329Y0.45
G1 X-0.286Y0.482
G1 X-0.241Y0.512
G1 X-0.192Y0.537
G1 X-0.141Y0.56
G1 X-0.087Y0.581
G1 X-0.029Y0.598
G1 Y46.784
G1 X0.029Y0.598
G1 X0.087Y0.581
G1 X0.141Y0.56
G1 X0.192Y0.537
G1 X0.241Y0.512
G1 X0.286Y0.482
G1 X0.329Y0.45
G1 X0.369Y0.415
G1 X0.405Y0.378
G1 X0.44Y0.336
G1 X0.471Y0.293
G1 X0.5Y0.246
G1 X0.525Y0.197
G1 X0.548Y0.144
G1 X0.567Y0.089
G1 X0.584Y0.03
; Layer Trayectorias_de_corte_1 Pass 5 of 9
G1 X38.572
G1 X0.584Y-0.03
G1 X0.567Y-0.089
G1 X0.548Y-0.144
G1 X0.525Y-0.197
G1 X0.5Y-0.246
G1 X0.471Y-0.293
G1 X0.44Y-0.336
G1 X0.405Y-0.378
G1 X0.369Y-0.415
G1 X0.329Y-0.45
G1 X0.286Y-0.482
G1 X0.241Y-0.512
G1 X0.192Y-0.537
G1 X0.141Y-0.56
G1 X0.087Y-0.581
G1 X0.029Y-0.598
G1 Y-46.784
G1 X-0.029Y-0.598
G1 X-0.087Y-0.581
G1 X-0.141Y-0.56
G1 X-0.192Y-0.537
G1 X-0.241Y-0.512
G1 X-0.286Y-0.482
G1 X-0.329Y-0.45
G1 X-0.369Y-0.415
G1 X-0.405Y-0.378
G1 X-0.44Y-0.336
G1 X-0.471Y-0.293
G1 X-0.5Y-0.246
G1 X-0.525Y-0.197
G1 X-0.548Y-0.144
G1 X-0.567Y-0.089
G1 X-0.584Y-0.03
G1 X-38.572
G1 X-0.584Y0.03
G1 X-0.567Y0.089
G1 X-0.548Y0.144
G1 X-0.525Y0.197
G1 X-0.5Y0.246
G1 X-0.471Y0.293
G1 X-0.44Y0.336
G1 X-0.405Y0.378
G1 X-0.369Y0.415
G1 X-0.329Y0.45
G1 X-0.286Y0.482
G1 X-0.241Y0.512
G1 X-0.192Y0.537
G1 X-0.141Y0.56
G1 X-0.087Y0.581
G1 X-0.029Y0.598
G1 Y46.784
G1 X0.029Y0.598
G1 X0.087Y0.581
G1 X0.141Y0.56
G1 X0.192Y0.537
G1 X0.241Y0.512
G1 X0.286Y0.482
G1 X0.329Y0.45
G1 X0.369Y0.415
G1 X0.405Y0.378
G1 X0.44Y0.336
G1 X0.471Y0.293
G1 X0.5Y0.246
G1 X0.525Y0.197
G1 X0.548Y0.144
G1 X0.567Y0.089
G1 X0.584Y0.03
; Layer Trayectorias_de_corte_1 Pass 6 of 9
G1 X38.572
G1 X0.584Y-0.03
G1 X0.567Y-0.089
G1 X0.548Y-0.144
G1 X0.525Y-0.197
G1 X0.5Y-0.246
G1 X0.471Y-0.293
G1 X0.44Y-0.336
G1 X0.405Y-0.378
G1 X0.369Y-0.415
G1 X0.329Y-0.45
G1 X0.286Y-0.482
G1 X0.241Y-0.512
G1 X0.192Y-0.537
G1 X0.141Y-0.56
G1 X0.087Y-0.581
G1 X0.029Y-0.598
G1 Y-46.784
G1 X-0.029Y-0.598
G1 X-0.087Y-0.581
G1 X-0.141Y-0.56
G1 X-0.192Y-0.537
G1 X-0.241Y-0.512
G1 X-0.286Y-0.482
G1 X-0.329Y-0.45
G1 X-0.369Y-0.415
G1 X-0.405Y-0.378
G1 X-0.44Y-0.336
G1 X-0.471Y-0.293
G1 X-0.5Y-0.246
G1 X-0.525Y-0.197
G1 X-0.548Y-0.144
G1 X-0.567Y-0.089
G1 X-0.584Y-0.03
G1 X-38.572
G1 X-0.584Y0.03
G1 X-0.567Y0.089
G1 X-0.548Y0.144
G1 X-0.525Y0.197
G1 X-0.5Y0.246
G1 X-0.471Y0.293
G1 X-0.44Y0.336
G1 X-0.405Y0.378
G1 X-0.369Y0.415
G1 X-0.329Y0.45
G1 X-0.286Y0.482
G1 X-0.241Y0.512
G1 X-0.192Y0.537
G1 X-0.141Y0.56
G1 X-0.087Y0.581
G1 X-0.029Y0.598
G1 Y46.784
G1 X0.029Y0.598
G1 X0.087Y0.581
G1 X0.141Y0.56
G1 X0.192Y0.537
G1 X0.241Y0.512
G1 X0.286Y0.482
G1 X0.329Y0.45
G1 X0.369Y0.415
G1 X0.405Y0.378
G1 X0.44Y0.336
G1 X0.471Y0.293
G1 X0.5Y0.246
G1 X0.525Y0.197
G1 X0.548Y0.144
G1 X0.567Y0.089
G1 X0.584Y0.03
; Layer Trayectorias_de_corte_1 Pass 7 of 9
G1 X38.572
G1 X0.584Y-0.03
G1 X0.567Y-0.089
G1 X0.548Y-0.144
G1 X0.525Y-0.197
G1 X0.5Y-0.246
G1 X0.471Y-0.293
G1 X0.44Y-0.336
G1 X0.405Y-0.378
G1 X0.369Y-0.415
G1 X0.329Y-0.45
G1 X0.286Y-0.482
G1 X0.241Y-0.512
G1 X0.192Y-0.537
G1 X0.141Y-0.56
G1 X0.087Y-0.581
G1 X0.029Y-0.598
G1 Y-46.784
G1 X-0.029Y-0.598
G1 X-0.087Y-0.581
G1 X-0.141Y-0.56
G1 X-0.192Y-0.537
G1 X-0.241Y-0.512
G1 X-0.286Y-0.482
G1 X-0.329Y-0.45
G1 X-0.369Y-0.415
G1 X-0.405Y-0.378
G1 X-0.44Y-0.336
G1 X-0.471Y-0.293
G1 X-0.5Y-0.246
G1 X-0.525Y-0.197
G1 X-0.548Y-0.144
G1 X-0.567Y-0.089
G1 X-0.584Y-0.03
G1 X-38.572
G1 X-0.584Y0.03
G1 X-0.567Y0.089
G1 X-0.548Y0.144
G1 X-0.525Y0.197
G1 X-0.5Y0.246
G1 X-0.471Y0.293
G1 X-0.44Y0.336
G1 X-0.405Y0.378
G1 X-0.369Y0.415
G1 X-0.329Y0.45
G1 X-0.286Y0.482
G1 X-0.241Y0.512
G1 X-0.192Y0.537
G1 X-0.141Y0.56
G1 X-0.087Y0.581
G1 X-0.029Y0.598
G1 Y46.784
G1 X0.029Y0.598
G1 X0.087Y0.581
G1 X0.141Y0.56
G1 X0.192Y0.537
G1 X0.241Y0.512
G1 X0.286Y0.482
G1 X0.329Y0.45
G1 X0.369Y0.415
G1 X0.405Y0.378
G1 X0.44Y0.336
G1 X0.471Y0.293
G1 X0.5Y0.246
G1 X0.525Y0.197
G1 X0.548Y0.144
G1 X0.567Y0.089
G1 X0.584Y0.03
; Layer Trayectorias_de_corte_1 Pass 8 of 9
G1 X38.572
G1 X0.584Y-0.03
G1 X0.567Y-0.089
G1 X0.548Y-0.144
G1 X0.525Y-0.197
G1 X0.5Y-0.246
G1 X0.471Y-0.293
G1 X0.44Y-0.336
G1 X0.405Y-0.378
G1 X0.369Y-0.415
G1 X0.329Y-0.45
G1 X0.286Y-0.482
G1 X0.241Y-0.512
G1 X0.192Y-0.537
G1 X0.141Y-0.56
G1 X0.087Y-0.581
G1 X0.029Y-0.598
G1 Y-46.784
G1 X-0.029Y-0.598
G1 X-0.087Y-0.581
G1 X-0.141Y-0.56
G1 X-0.192Y-0.537
G1 X-0.241Y-0.512
G1 X-0.286Y-0.482
G1 X-0.329Y-0.45
G1 X-0.369Y-0.415
G1 X-0.405Y-0.378
G1 X-0.44Y-0.336
G1 X-0.471Y-0.293
G1 X-0.5Y-0.246
G1 X-0.525Y-0.197
G1 X-0.548Y-0.144
G1 X-0.567Y-0.089
G1 X-0.584Y-0.03
G1 X-38.572
G1 X-0.584Y0.03
G1 X-0.567Y0.089
G1 X-0.548Y0.144
G1 X-0.525Y0.197
G1 X-0.5Y0.246
G1 X-0.471Y0.293
G1 X-0.44Y0.336
G1 X-0.405Y0.378
G1 X-0.369Y0.415
G1 X-0.329Y0.45
G1 X-0.286Y0.482
G1 X-0.241Y0.512
G1 X-0.192Y0.537
G1 X-0.141Y0.56
G1 X-0.087Y0.581
G1 X-0.029Y0.598
G1 Y46.784
G1 X0.029Y0.598
G1 X0.087Y0.581
G1 X0.141Y0.56
G1 X0.192Y0.537
G1 X0.241Y0.512
G1 X0.286Y0.482
G1 X0.329Y0.45
G1 X0.369Y0.415
G1 X0.405Y0.378
G1 X0.44Y0.336
G1 X0.471Y0.293
G1 X0.5Y0.246
G1 X0.525Y0.197
G1 X0.548Y0.144
G1 X0.567Y0.089
G1 X0.584Y0.03
; Layer Trayectorias_de_corte_1 Pass 9 of 9
G1 X38.572
G1 X0.584Y-0.03
G1 X0.567Y-0.089
G1 X0.548Y-0.144
G1 X0.525Y-0.197
G1 X0.5Y-0.246
G1 X0.471Y-0.293
G1 X0.44Y-0.336
G1 X0.405Y-0.378
G1 X0.369Y-0.415
G1 X0.329Y-0.45
G1 X0.286Y-0.482
G1 X0.241Y-0.512
G1 X0.192Y-0.537
G1 X0.141Y-0.56
G1 X0.087Y-0.581
G1 X0.029Y-0.598
G1 Y-46.784
G1 X-0.029Y-0.598
G1 X-0.087Y-0.581
G1 X-0.141Y-0.56
G1 X-0.192Y-0.537
G1 X-0.241Y-0.512
G1 X-0.286Y-0.482
G1 X-0.329Y-0.45
G1 X-0.369Y-0.415
G1 X-0.405Y-0.378
G1 X-0.44Y-0.336
G1 X-0.471Y-0.293
G1 X-0.5Y-0.246
G1 X-0.525Y-0.197
G1 X-0.548Y-0.144
G1 X-0.567Y-0.089
G1 X-0.584Y-0.03
G1 X-38.572
G1 X-0.584Y0.03
G1 X-0.567Y0.089
G1 X-0.548Y0.144
G1 X-0.525Y0.197
G1 X-0.5Y0.246
G1 X-0.471Y0.293
G1 X-0.44Y0.336
G1 X-0.405Y0.378
G1 X-0.369Y0.415
G1 X-0.329Y0.45
G1 X-0.286Y0.482
G1 X-0.241Y0.512
G1 X-0.192Y0.537
G1 X-0.141Y0.56
G1 X-0.087Y0.581
G1 X-0.029Y0.598
G1 Y46.784
G1 X0.029Y0.598
G1 X0.087Y0.581
G1 X0.141Y0.56
G1 X0.192Y0.537
G1 X0.241Y0.512
G1 X0.286Y0.482
G1 X0.329Y0.45
G1 X0.369Y0.415
G1 X0.405Y0.378
G1 X0.44Y0.336
G1 X0.471Y0.293
G1 X0.5Y0.246
G1 X0.525Y0.197
G1 X0.548Y0.144
G1 X0.567Y0.089
G1 X0.584Y0.03
G0 X-11.714Y-5.848
; Layer Trayectorias_de_corte_1 Pass 1 of 9
G1 Y-46.784
G1 X-0.029Y-0.598
G1 X-0.087Y-0.581
G1 X-0.141Y-0.56
G1 X-0.192Y-0.537
G1 X-0.241Y-0.512
G1 X-0.286Y-0.482
G1 X-0.329Y-0.45
G1 X-0.369Y-0.415
G1 X-0.405Y-0.378
G1 X-0.44Y-0.336
G1 X-0.471Y-0.293
G1 X-0.5Y-0.246
G1 X-0.525Y-0.197
G1 X-0.548Y-0.144
G1 X-0.567Y-0.089
G1 X-0.584Y-0.03
G1 X-38.572
G1 X-0.584Y0.03
G1 X-0.567Y0.089
G1 X-0.548Y0.144
G1 X-0.525Y0.197
G1 X-0.5Y0.246
G1 X-0.471Y0.293
G1 X-0.44Y0.336
G1 X-0.405Y0.378
G1 X-0.369Y0.415
G1 X-0.329Y0.45
G1 X-0.286Y0.482
G1 X-0.241Y0.512
G1 X-0.192Y0.537
G1 X-0.141Y0.56
G1 X-0.087Y0.581
G1 X-0.029Y0.598
G1 Y46.784
G1 X0.029Y0.598
G1 X0.087Y0.581
G1 X0.141Y0.56
G1 X0.192Y0.537
G1 X0.241Y0.512
G1 X0.286Y0.482
G1 X0.329Y0.45
G1 X0.369Y0.415
G1 X0.405Y0.378
G1 X0.44Y0.336
G1 X0.471Y0.293
G1 X0.5Y0.246
G1 X0.525Y0.197
G1 X0.548Y0.144
G1 X0.567Y0.089
G1 X0.584Y0.03
G1 X38.572
G1 X0.584Y-0.03
G1 X0.567Y-0.089
G1 X0.548Y-0.144
G1 X0.525Y-0.197
G1 X0.5Y-0.246
G1 X0.471Y-0.293
G1 X0.44Y-0.336
G1 X0.405Y-0.378
G1 X0.369Y-0.415
G1 X0.329Y-0.45
G1 X0.286Y-0.482
G1 X0.241Y-0.512
G1 X0.192Y-0.537
G1 X0.141Y-0.56
G1 X0.087Y-0.581
G1 X0.029Y-0.598
; Layer Trayectorias_de_corte_1 Pass 2 of 9
G1 Y-46.784
G1 X-0.029Y-0.598
G1 X-0.087Y-0.581
G1 X-0.141Y-0.56
G1 X-0.192Y-0.537
G1 X-0.241Y-0.512
G1 X-0.286Y-0.482
G1 X-0.329Y-0.45
G1 X-0.369Y-0.415
G1 X-0.405Y-0.378
G1 X-0.44Y-0.336
G1 X-0.471Y-0.293
G1 X-0.5Y-0.246
G1 X-0.525Y-0.197
G1 X-0.548Y-0.144
G1 X-0.567Y-0.089
G1 X-0.584Y-0.03
G1 X-38.572
G1 X-0.584Y0.03
G1 X-0.567Y0.089
G1 X-0.548Y0.144
G1 X-0.525Y0.197
G1 X-0.5Y0.246
G1 X-0.471Y0.293
G1 X-0.44Y0.336
G1 X-0.405Y0.378
G1 X-0.369Y0.415
G1 X-0.329Y0.45
G1 X-0.286Y0.482
G1 X-0.241Y0.512
G1 X-0.192Y0.537
G1 X-0.141Y0.56
G1 X-0.087Y0.581
G1 X-0.029Y0.598
G1 Y46.784
G1 X0.029Y0.598
G1 X0.087Y0.581
G1 X0.141Y0.56
G1 X0.192Y0.537
G1 X0.241Y0.512
G1 X0.286Y0.482
G1 X0.329Y0.45
G1 X0.369Y0.415
G1 X0.405Y0.378
G1 X0.44Y0.336
G1 X0.471Y0.293
G1 X0.5Y0.246
G1 X0.525Y0.197
G1 X0.548Y0.144
G1 X0.567Y0.089
G1 X0.584Y0.03
G1 X38.572
G1 X0.584Y-0.03
G1 X0.567Y-0.089
G1 X0.548Y-0.144
G1 X0.525Y-0.197
G1 X0.5Y-0.246
G1 X0.471Y-0.293
G1 X0.44Y-0.336
G1 X0.405Y-0.378
G1 X0.369Y-0.415
G1 X0.329Y-0.45
G1 X0.286Y-0.482
G1 X0.241Y-0.512
G1 X0.192Y-0.537
G1 X0.141Y-0.56
G1 X0.087Y-0.581
G1 X0.029Y-0.598
; Layer Trayectorias_de_corte_1 Pass 3 of 9
G1 Y-46.784
G1 X-0.029Y-0.598
G1 X-0.087Y-0.581
G1 X-0.141Y-0.56
G1 X-0.192Y-0.537
G1 X-0.241Y-0.512
G1 X-0.286Y-0.482
G1 X-0.329Y-0.45
G1 X-0.369Y-0.415
G1 X-0.405Y-0.378
G1 X-0.44Y-0.336
G1 X-0.471Y-0.293
G1 X-0.5Y-0.246
G1 X-0.525Y-0.197
G1 X-0.548Y-0.144
G1 X-0.567Y-0.089
G1 X-0.584Y-0.03
G1 X-38.572
G1 X-0.584Y0.03
G1 X-0.567Y0.089
G1 X-0.548Y0.144
G1 X-0.525Y0.197
G1 X-0.5Y0.246
G1 X-0.471Y0.293
G1 X-0.44Y0.336
G1 X-0.405Y0.378
G1 X-0.369Y0.415
G1 X-0.329Y0.45
G1 X-0.286Y0.482
G1 X-0.241Y0.512
G1 X-0.192Y0.537
G1 X-0.141Y0.56
G1 X-0.087Y0.581
G1 X-0.029Y0.598
G1 Y46.784
G1 X0.029Y0.598
G1 X0.087Y0.581
G1 X0.141Y0.56
G1 X0.192Y0.537
G1 X0.241Y0.512
G1 X0.286Y0.482
G1 X0.329Y0.45
G1 X0.369Y0.415
G1 X0.405Y0.378
G1 X0.44Y0.336
G1 X0.471Y0.293
G1 X0.5Y0.246
G1 X0.525Y0.197
G1 X0.548Y0.144
G1 X0.567Y0.089
G1 X0.584Y0.03
G1 X38.572
G1 X0.584Y-0.03
G1 X0.567Y-0.089
G1 X0.548Y-0.144
G1 X0.525Y-0.197
G1 X0.5Y-0.246
G1 X0.471Y-0.293
G1 X0.44Y-0.336
G1 X0.405Y-0.378
G1 X0.369Y-0.415
G1 X0.329Y-0.45
G1 X0.286Y-0.482
G1 X0.241Y-0.512
G1 X0.192Y-0.537
G1 X0.141Y-0.56
G1 X0.087Y-0.581
G1 X0.029Y-0.598
; Layer Trayectorias_de_corte_1 Pass 4 of 9
G1 Y-46.784
G1 X-0.029Y-0.598
G1 X-0.087Y-0.581
G1 X-0.141Y-0.56
G1 X-0.192Y-0.537
G1 X-0.241Y-0.512
G1 X-0.286Y-0.482
G1 X-0.329Y-0.45
G1 X-0.369Y-0.415
G1 X-0.405Y-0.378
G1 X-0.44Y-0.336
G1 X-0.471Y-0.293
G1 X-0.5Y-0.246
G1 X-0.525Y-0.197
G1 X-0.548Y-0.144
G1 X-0.567Y-0.089
G1 X-0.584Y-0.03
G1 X-38.572
G1 X-0.584Y0.03
G1 X-0.567Y0.089
G1 X-0.548Y0.144
G1 X-0.525Y0.197
G1 X-0.5Y0.246
G1 X-0.471Y0.293
G1 X-0.44Y0.336
G1 X-0.405Y0.378
G1 X-0.369Y0.415
G1 X-0.329Y0.45
G1 X-0.286Y0.482
G1 X-0.241Y0.512
G1 X-0.192Y0.537
G1 X-0.141Y0.56
G1 X-0.087Y0.581
G1 X-0.029Y0.598
G1 Y46.784
G1 X0.029Y0.598
G1 X0.087Y0.581
G1 X0.141Y0.56
G1 X0.192Y0.537
G1 X0.241Y0.512
G1 X0.286Y0.482
G1 X0.329Y0.45
G1 X0.369Y0.415
G1 X0.405Y0.378
G1 X0.44Y0.336
G1 X0.471Y0.293
G1 X0.5Y0.246
G1 X0.525Y0.197
G1 X0.548Y0.144
G1 X0.567Y0.089
G1 X0.584Y0.03
G1 X38.572
G1 X0.584Y-0.03
G1 X0.567Y-0.089
G1 X0.548Y-0.144
G1 X0.525Y-0.197
G1 X0.5Y-0.246
G1 X0.471Y-0.293
G1 X0.44Y-0.336
G1 X0.405Y-0.378
G1 X0.369Y-0.415
G1 X0.329Y-0.45
G1 X0.286Y-0.482
G1 X0.241Y-0.512
G1 X0.192Y-0.537
G1 X0.141Y-0.56
G1 X0.087Y-0.581
G1 X0.029Y-0.598
; Layer Trayectorias_de_corte_1 Pass 5 of 9
G1 Y-46.784
G1 X-0.029Y-0.598
G1 X-0.087Y-0.581
G1 X-0.141Y-0.56
G1 X-0.192Y-0.537
G1 X-0.241Y-0.512
G1 X-0.286Y-0.482
G1 X-0.329Y-0.45
G1 X-0.369Y-0.415
G1 X-0.405Y-0.378
G1 X-0.44Y-0.336
G1 X-0.471Y-0.293
G1 X-0.5Y-0.246
G1 X-0.525Y-0.197
G1 X-0.548Y-0.144
G1 X-0.567Y-0.089
G1 X-0.584Y-0.03
G1 X-38.572
G1 X-0.584Y0.03
G1 X-0.567Y0.089
G1 X-0.548Y0.144
G1 X-0.525Y0.197
G1 X-0.5Y0.246
G1 X-0.471Y0.293
G1 X-0.44Y0.336
G1 X-0.405Y0.378
G1 X-0.369Y0.415
G1 X-0.329Y0.45
G1 X-0.286Y0.482
G1 X-0.241Y0.512
G1 X-0.192Y0.537
G1 X-0.141Y0.56
G1 X-0.087Y0.581
G1 X-0.029Y0.598
G1 Y46.784
G1 X0.029Y0.598
G1 X0.087Y0.581
G1 X0.141Y0.56
G1 X0.192Y0.537
G1 X0.241Y0.512
G1 X0.286Y0.482
G1 X0.329Y0.45
G1 X0.369Y0.415
G1 X0.405Y0.378
G1 X0.44Y0.336
G1 X0.471Y0.293
G1 X0.5Y0.246
G1 X0.525Y0.197
G1 X0.548Y0.144
G1 X0.567Y0.089
G1 X0.584Y0.03
G1 X38.572
G1 X0.584Y-0.03
G1 X0.567Y-0.089
G1 X0.548Y-0.144
G1 X0.525Y-0.197
G1 X0.5Y-0.246
G1 X0.471Y-0.293
G1 X0.44Y-0.336
G1 X0.405Y-0.378
G1 X0.369Y-0.415
G1 X0.329Y-0.45
G1 X0.286Y-0.482
G1 X0.241Y-0.512
G1 X0.192Y-0.537
G1 X0.141Y-0.56
G1 X0.087Y-0.581
G1 X0.029Y-0.598
; Layer Trayectorias_de_corte_1 Pass 6 of 9
G1 Y-46.784
G1 X-0.029Y-0.598
G1 X-0.087Y-0.581
G1 X-0.141Y-0.56
G1 X-0.192Y-0.537
G1 X-0.241Y-0.512
G1 X-0.286Y-0.482
G1 X-0.329Y-0.45
G1 X-0.369Y-0.415
G1 X-0.405Y-0.378
G1 X-0.44Y-0.336
G1 X-0.471Y-0.293
G1 X-0.5Y-0.246
G1 X-0.525Y-0.197
G1 X-0.548Y-0.144
G1 X-0.567Y-0.089
G1 X-0.584Y-0.03
G1 X-38.572
G1 X-0.584Y0.03
G1 X-0.567Y0.089
G1 X-0.548Y0.144
G1 X-0.525Y0.197
G1 X-0.5Y0.246
G1 X-0.471Y0.293
G1 X-0.44Y0.336
G1 X-0.405Y0.378
G1 X-0.369Y0.415
G1 X-0.329Y0.45
G1 X-0.286Y0.482
G1 X-0.241Y0.512
G1 X-0.192Y0.537
G1 X-0.141Y0.56
G1 X-0.087Y0.581
G1 X-0.029Y0.598
G1 Y46.784
G1 X0.029Y0.598
G1 X0.087Y0.581
G1 X0.141Y0.56
G1 X0.192Y0.537
G1 X0.241Y0.512
G1 X0.286Y0.482
G1 X0.329Y0.45
G1 X0.369Y0.415
G1 X0.405Y0.378
G1 X0.44Y0.336
G1 X0.471Y0.293
G1 X0.5Y0.246
G1 X0.525Y0.197
G1 X0.548Y0.144
G1 X0.567Y0.089
G1 X0.584Y0.03
G1 X38.572
G1 X0.584Y-0.03
G1 X0.567Y-0.089
G1 X0.548Y-0.144
G1 X0.525Y-0.197
G1 X0.5Y-0.246
G1 X0.471Y-0.293
G1 X0.44Y-0.336
G1 X0.405Y-0.378
G1 X0.369Y-0.415
G1 X0.329Y-0.45
G1 X0.286Y-0.482
G1 X0.241Y-0.512
G1 X0.192Y-0.537
G1 X0.141Y-0.56
G1 X0.087Y-0.581
G1 X0.029Y-0.598
; Layer Trayectorias_de_corte_1 Pass 7 of 9
G1 Y-46.784
G1 X-0.029Y-0.598
G1 X-0.087Y-0.581
G1 X-0.141Y-0.56
G1 X-0.192Y-0.537
G1 X-0.241Y-0.512
G1 X-0.286Y-0.482
G1 X-0.329Y-0.45
G1 X-0.369Y-0.415
G1 X-0.405Y-0.378
G1 X-0.44Y-0.336
G1 X-0.471Y-0.293
G1 X-0.5Y-0.246
G1 X-0.525Y-0.197
G1 X-0.548Y-0.144
G1 X-0.567Y-0.089
G1 X-0.584Y-0.03
G1 X-38.572
G1 X-0.584Y0.03
G1 X-0.567Y0.089
G1 X-0.548Y0.144
G1 X-0.525Y0.197
G1 X-0.5Y0.246
G1 X-0.471Y0.293
G1 X-0.44Y0.336
G1 X-0.405Y0.378
G1 X-0.369Y0.415
G1 X-0.329Y0.45
G1 X-0.286Y0.482
G1 X-0.241Y0.512
G1 X-0.192Y0.537
G1 X-0.141Y0.56
G1 X-0.087Y0.581
G1 X-0.029Y0.598
G1 Y46.784
G1 X0.029Y0.598
G1 X0.087Y0.581
G1 X0.141Y0.56
G1 X0.192Y0.537
G1 X0.241Y0.512
G1 X0.286Y0.482
G1 X0.329Y0.45
G1 X0.369Y0.415
G1 X0.405Y0.378
G1 X0.44Y0.336
G1 X0.471Y0.293
G1 X0.5Y0.246
G1 X0.525Y0.197
G1 X0.548Y0.144
G1 X0.567Y0.089
G1 X0.584Y0.03
G1 X38.572
G1 X0.584Y-0.03
G1 X0.567Y-0.089
G1 X0.548Y-0.144
G1 X0.525Y-0.197
G1 X0.5Y-0.246
G1 X0.471Y-0.293
G1 X0.44Y-0.336
G1 X0.405Y-0.378
G1 X0.369Y-0.415
G1 X0.329Y-0.45
G1 X0.286Y-0.482
G1 X0.241Y-0.512
G1 X0.192Y-0.537
G1 X0.141Y-0.56
G1 X0.087Y-0.581
G1 X0.029Y-0.598
; Layer Trayectorias_de_corte_1 Pass 8 of 9
G1 Y-46.784
G1 X-0.029Y-0.598
G1 X-0.087Y-0.581
G1 X-0.141Y-0.56
G1 X-0.192Y-0.537
G1 X-0.241Y-0.512
G1 X-0.286Y-0.482
G1 X-0.329Y-0.45
G1 X-0.369Y-0.415
G1 X-0.405Y-0.378
G1 X-0.44Y-0.336
G1 X-0.471Y-0.293
G1 X-0.5Y-0.246
G1 X-0.525Y-0.197
G1 X-0.548Y-0.144
G1 X-0.567Y-0.089
G1 X-0.584Y-0.03
G1 X-38.572
G1 X-0.584Y0.03
G1 X-0.567Y0.089
G1 X-0.548Y0.144
G1 X-0.525Y0.197
G1 X-0.5Y0.246
G1 X-0.471Y0.293
G1 X-0.44Y0.336
G1 X-0.405Y0.378
G1 X-0.369Y0.415
G1 X-0.329Y0.45
G1 X-0.286Y0.482
G1 X-0.241Y0.512
G1 X-0.192Y0.537
G1 X-0.141Y0.56
G1 X-0.087Y0.581
G1 X-0.029Y0.598
G1 Y46.784
G1 X0.029Y0.598
G1 X0.087Y0.581
G1 X0.141Y0.56
G1 X0.192Y0.537
G1 X0.241Y0.512
G1 X0.286Y0.482
G1 X0.329Y0.45
G1 X0.369Y0.415
G1 X0.405Y0.378
G1 X0.44Y0.336
G1 X0.471Y0.293
G1 X0.5Y0.246
G1 X0.525Y0.197
G1 X0.548Y0.144
G1 X0.567Y0.089
G1 X0.584Y0.03
G1 X38.572
G1 X0.584Y-0.03
G1 X0.567Y-0.089
G1 X0.548Y-0.144
G1 X0.525Y-0.197
G1 X0.5Y-0.246
G1 X0.471Y-0.293
G1 X0.44Y-0.336
G1 X0.405Y-0.378
G1 X0.369Y-0.415
G1 X0.329Y-0.45
G1 X0.286Y-0.482
G1 X0.241Y-0.512
G1 X0.192Y-0.537
G1 X0.141Y-0.56
G1 X0.087Y-0.581
G1 X0.029Y-0.598
; Layer Trayectorias_de_corte_1 Pass 9 of 9
G1 Y-46.784
G1 X-0.029Y-0.598
G1 X-0.087Y-0.581
G1 X-0.141Y-0.56
G1 X-0.192Y-0.537
G1 X-0.241Y-0.512
G1 X-0.286Y-0.482
G1 X-0.329Y-0.45
G1 X-0.369Y-0.415
G1 X-0.405Y-0.378
G1 X-0.44Y-0.336
G1 X-0.471Y-0.293
G1 X-0.5Y-0.246
G1 X-0.525Y-0.197
G1 X-0.548Y-0.144
G1 X-0.567Y-0.089
G1 X-0.584Y-0.03
G1 X-38.572
G1 X-0.584Y0.03
G1 X-0.567Y0.089
G1 X-0.548Y0.144
G1 X-0.525Y0.197
G1 X-0.5Y0.246
G1 X-0.471Y0.293
G1 X-0.44Y0.336
G1 X-0.405Y0.378
G1 X-0.369Y0.415
G1 X-0.329Y0.45
G1 X-0.286Y0.482
G1 X-0.241Y0.512
G1 X-0.192Y0.537
G1 X-0.141Y0.56
G1 X-0.087Y0.581
G1 X-0.029Y0.598
G1 Y46.784
G1 X0.029Y0.598
G1 X0.087Y0.581
G1 X0.141Y0.56
G1 X0.192Y0.537
G1 X0.241Y0.512
G1 X0.286Y0.482
G1 X0.329Y0.45
G1 X0.369Y0.415
G1 X0.405Y0.378
G1 X0.44Y0.336
G1 X0.471Y0.293
G1 X0.5Y0.246
G1 X0.525Y0.197
G1 X0.548Y0.144
G1 X0.567Y0.089
G1 X0.584Y0.03
G1 X38.572
G1 X0.584Y-0.03
G1 X0.567Y-0.089
G1 X0.548Y-0.144
G1 X0.525Y-0.197
G1 X0.5Y-0.246
G1 X0.471Y-0.293
G1 X0.44Y-0.336
G1 X0.405Y-0.378
G1 X0.369Y-0.415
G1 X0.329Y-0.45
G1 X0.286Y-0.482
G1 X0.241Y-0.512
G1 X0.192Y-0.537
G1 X0.141Y-0.56
G1 X0.087Y-0.581
G1 X0.029Y-0.598
G0 X-57Y-60.892
; Layer Trayectorias_de_corte_1 Pass 1 of 9
G1 Y140
G1 X120
G1 Y-140
G1 X-120
; Layer Trayectorias_de_corte_1 Pass 2 of 9
G1 Y140
G1 X120
G1 Y-140
G1 X-120
; Layer Trayectorias_de_corte_1 Pass 3 of 9
G1 Y140
G1 X120
G1 Y-140
G1 X-120
; Layer Trayectorias_de_corte_1 Pass 4 of 9
G1 Y140
G1 X120
G1 Y-140
G1 X-120
; Layer Trayectorias_de_corte_1 Pass 5 of 9
G1 Y140
G1 X120
G1 Y-140
G1 X-120
; Layer Trayectorias_de_corte_1 Pass 6 of 9
G1 Y140
G1 X120
G1 Y-140
G1 X-120
; Layer Trayectorias_de_corte_1 Pass 7 of 9
G1 Y140
G1 X120
G1 Y-140
G1 X-120
; Layer Trayectorias_de_corte_1 Pass 8 of 9
G1 Y140
G1 X120
G1 Y-140
G1 X-120
; Layer Trayectorias_de_corte_1 Pass 9 of 9
G1 Y140
G1 X120
G1 Y-140
G1 X-120
M9
G1 S0
M5
G90
M2
