; LightBurn 1.3.01
; GRBL device profile, absolute coords
; Bounds: X0 Y11 to X440 Y500
G00 G17 G40 G21 G54
G90
M4
; Cut @ 600 mm/min, 95% power
M8
G0 X29.5Y13
; Layer WorkSpace Pass 1 of 10
G1 Y40S950F600
G1 X30.5
G1 Y13
G1 X29.5
; Layer WorkSpace Pass 2 of 10
G1 Y40
G1 X30.5
G1 Y13
G1 X29.5
; Layer WorkSpace Pass 3 of 10
G1 Y40
G1 X30.5
G1 Y13
G1 X29.5
; Layer WorkSpace Pass 4 of 10
G1 Y40
G1 X30.5
G1 Y13
G1 X29.5
; Layer WorkSpace Pass 5 of 10
G1 Y40
G1 X30.5
G1 Y13
G1 X29.5
; Layer WorkSpace Pass 6 of 10
G1 Y40
G1 X30.5
G1 Y13
G1 X29.5
; Layer WorkSpace Pass 7 of 10
G1 Y40
G1 X30.5
G1 Y13
G1 X29.5
; Layer WorkSpace Pass 8 of 10
G1 Y40
G1 X30.5
G1 Y13
G1 X29.5
; Layer WorkSpace Pass 9 of 10
G1 Y40
G1 X30.5
G1 Y13
G1 X29.5
; Layer WorkSpace Pass 10 of 10
G1 Y40
G1 X30.5
G1 Y13
G1 X29.5
G0 X25Y40
; Layer WorkSpace Pass 1 of 10
G1 X3
G1 Y42
G1 X25
G1 Y40
; Layer WorkSpace Pass 2 of 10
G1 X3
G1 Y42
G1 X25
G1 Y40
; Layer WorkSpace Pass 3 of 10
G1 X3
G1 Y42
G1 X25
G1 Y40
; Layer WorkSpace Pass 4 of 10
G1 X3
G1 Y42
G1 X25
G1 Y40
; Layer WorkSpace Pass 5 of 10
G1 X3
G1 Y42
G1 X25
G1 Y40
; Layer WorkSpace Pass 6 of 10
G1 X3
G1 Y42
G1 X25
G1 Y40
; Layer WorkSpace Pass 7 of 10
G1 X3
G1 Y42
G1 X25
G1 Y40
; Layer WorkSpace Pass 8 of 10
G1 X3
G1 Y42
G1 X25
G1 Y40
; Layer WorkSpace Pass 9 of 10
G1 X3
G1 Y42
G1 X25
G1 Y40
; Layer WorkSpace Pass 10 of 10
G1 X3
G1 Y42
G1 X25
G1 Y40
G0 X29Y46
; Layer WorkSpace Pass 1 of 10
G1 Y96
G1 X31
G1 Y46
G1 X29
; Layer WorkSpace Pass 2 of 10
G1 Y96
G1 X31
G1 Y46
G1 X29
; Layer WorkSpace Pass 3 of 10
G1 Y96
G1 X31
G1 Y46
G1 X29
; Layer WorkSpace Pass 4 of 10
G1 Y96
G1 X31
G1 Y46
G1 X29
; Layer WorkSpace Pass 5 of 10
G1 Y96
G1 X31
G1 Y46
G1 X29
; Layer WorkSpace Pass 6 of 10
G1 Y96
G1 X31
G1 Y46
G1 X29
; Layer WorkSpace Pass 7 of 10
G1 Y96
G1 X31
G1 Y46
G1 X29
; Layer WorkSpace Pass 8 of 10
G1 Y96
G1 X31
G1 Y46
G1 X29
; Layer WorkSpace Pass 9 of 10
G1 Y96
G1 X31
G1 Y46
G1 X29
; Layer WorkSpace Pass 10 of 10
G1 Y96
G1 X31
G1 Y46
G1 X29
G0 X35Y42
; Layer WorkSpace Pass 1 of 10
G1 X85
G1 Y40
G1 X35
G1 Y42
; Layer WorkSpace Pass 2 of 10
G1 X85
G1 Y40
G1 X35
G1 Y42
; Layer WorkSpace Pass 3 of 10
G1 X85
G1 Y40
G1 X35
G1 Y42
; Layer WorkSpace Pass 4 of 10
G1 X85
G1 Y40
G1 X35
G1 Y42
; Layer WorkSpace Pass 5 of 10
G1 X85
G1 Y40
G1 X35
G1 Y42
; Layer WorkSpace Pass 6 of 10
G1 X85
G1 Y40
G1 X35
G1 Y42
; Layer WorkSpace Pass 7 of 10
G1 X85
G1 Y40
G1 X35
G1 Y42
; Layer WorkSpace Pass 8 of 10
G1 X85
G1 Y40
G1 X35
G1 Y42
; Layer WorkSpace Pass 9 of 10
G1 X85
G1 Y40
G1 X35
G1 Y42
; Layer WorkSpace Pass 10 of 10
G1 X85
G1 Y40
G1 X35
G1 Y42
G0 X0Y61
; Layer WorkSpace Pass 1 of 10
G1 X0.954Y61.044
G1 X1.883Y61.176
G1 X2.784Y61.392
G1 X3.653Y61.687
G1 X4.485Y62.058
G1 X5.275Y62.5
G1 X6.02Y63.011
G1 X6.715Y63.585
G1 X7.355Y64.22
G1 X7.937Y64.91
G1 X8.456Y65.653
G1 X8.907Y66.444
G1 X9.287Y67.279
G1 X9.59Y68.155
G1 X9.814Y69.067
G1 X9.952Y70.011
; Layer WorkSpace Pass 2 of 10
G1 X9.814Y69.067
G1 X9.59Y68.155
G1 X9.287Y67.279
G1 X8.907Y66.444
G1 X8.456Y65.653
G1 X7.937Y64.91
G1 X7.355Y64.22
G1 X6.715Y63.585
G1 X6.02Y63.011
G1 X5.275Y62.5
G1 X4.485Y62.058
G1 X3.653Y61.687
G1 X2.784Y61.392
G1 X1.883Y61.176
G1 X0.954Y61.044
G1 X0Y61
; Layer WorkSpace Pass 3 of 10
G1 X0.954Y61.044
G1 X1.883Y61.176
G1 X2.784Y61.392
G1 X3.653Y61.687
G1 X4.485Y62.058
G1 X5.275Y62.5
G1 X6.02Y63.011
G1 X6.715Y63.585
G1 X7.355Y64.22
G1 X7.937Y64.91
G1 X8.456Y65.653
G1 X8.907Y66.444
G1 X9.287Y67.279
G1 X9.59Y68.155
G1 X9.814Y69.067
G1 X9.952Y70.011
; Layer WorkSpace Pass 4 of 10
G1 X9.814Y69.067
G1 X9.59Y68.155
G1 X9.287Y67.279
G1 X8.907Y66.444
G1 X8.456Y65.653
G1 X7.937Y64.91
G1 X7.355Y64.22
G1 X6.715Y63.585
G1 X6.02Y63.011
G1 X5.275Y62.5
G1 X4.485Y62.058
G1 X3.653Y61.687
G1 X2.784Y61.392
G1 X1.883Y61.176
G1 X0.954Y61.044
G1 X0Y61
; Layer WorkSpace Pass 5 of 10
G1 X0.954Y61.044
G1 X1.883Y61.176
G1 X2.784Y61.392
G1 X3.653Y61.687
G1 X4.485Y62.058
G1 X5.275Y62.5
G1 X6.02Y63.011
G1 X6.715Y63.585
G1 X7.355Y64.22
G1 X7.937Y64.91
G1 X8.456Y65.653
G1 X8.907Y66.444
G1 X9.287Y67.279
G1 X9.59Y68.155
G1 X9.814Y69.067
G1 X9.952Y70.011
; Layer WorkSpace Pass 6 of 10
G1 X9.814Y69.067
G1 X9.59Y68.155
G1 X9.287Y67.279
G1 X8.907Y66.444
G1 X8.456Y65.653
G1 X7.937Y64.91
G1 X7.355Y64.22
G1 X6.715Y63.585
G1 X6.02Y63.011
G1 X5.275Y62.5
G1 X4.485Y62.058
G1 X3.653Y61.687
G1 X2.784Y61.392
G1 X1.883Y61.176
G1 X0.954Y61.044
G1 X0Y61
; Layer WorkSpace Pass 7 of 10
G1 X0.954Y61.044
G1 X1.883Y61.176
G1 X2.784Y61.392
G1 X3.653Y61.687
G1 X4.485Y62.058
G1 X5.275Y62.5
G1 X6.02Y63.011
G1 X6.715Y63.585
G1 X7.355Y64.22
G1 X7.937Y64.91
G1 X8.456Y65.653
G1 X8.907Y66.444
G1 X9.287Y67.279
G1 X9.59Y68.155
G1 X9.814Y69.067
G1 X9.952Y70.011
; Layer WorkSpace Pass 8 of 10
G1 X9.814Y69.067
G1 X9.59Y68.155
G1 X9.287Y67.279
G1 X8.907Y66.444
G1 X8.456Y65.653
G1 X7.937Y64.91
G1 X7.355Y64.22
G1 X6.715Y63.585
G1 X6.02Y63.011
G1 X5.275Y62.5
G1 X4.485Y62.058
G1 X3.653Y61.687
G1 X2.784Y61.392
G1 X1.883Y61.176
G1 X0.954Y61.044
G1 X0Y61
; Layer WorkSpace Pass 9 of 10
G1 X0.954Y61.044
G1 X1.883Y61.176
G1 X2.784Y61.392
G1 X3.653Y61.687
G1 X4.485Y62.058
G1 X5.275Y62.5
G1 X6.02Y63.011
G1 X6.715Y63.585
G1 X7.355Y64.22
G1 X7.937Y64.91
G1 X8.456Y65.653
G1 X8.907Y66.444
G1 X9.287Y67.279
G1 X9.59Y68.155
G1 X9.814Y69.067
G1 X9.952Y70.011
; Layer WorkSpace Pass 10 of 10
G1 X9.814Y69.067
G1 X9.59Y68.155
G1 X9.287Y67.279
G1 X8.907Y66.444
G1 X8.456Y65.653
G1 X7.937Y64.91
G1 X7.355Y64.22
G1 X6.715Y63.585
G1 X6.02Y63.011
G1 X5.275Y62.5
G1 X4.485Y62.058
G1 X3.653Y61.687
G1 X2.784Y61.392
G1 X1.883Y61.176
G1 X0.954Y61.044
G1 X0Y61
G0 X9.952Y70.011
; Layer WorkSpace Pass 1 of 10
G1 X10.002Y71.003
G1 X9.955Y71.978
G1 X9.816Y72.93
G1 X9.588Y73.854
G1 X9.275Y74.745
G1 X8.883Y75.598
G1 X8.413Y76.408
G1 X7.872Y77.17
G1 X7.262Y77.877
G1 X6.588Y78.526
G1 X5.853Y79.112
G1 X5.062Y79.628
G1 X4.219Y80.07
G1 X3.328Y80.432
G1 X2.393Y80.711
G1 X1.418Y80.899
; Layer WorkSpace Pass 2 of 10
G1 X2.393Y80.711
G1 X3.328Y80.432
G1 X4.219Y80.07
G1 X5.062Y79.628
G1 X5.853Y79.112
G1 X6.588Y78.526
G1 X7.262Y77.877
G1 X7.872Y77.17
G1 X8.413Y76.408
G1 X8.883Y75.598
G1 X9.275Y74.745
G1 X9.588Y73.854
G1 X9.816Y72.93
G1 X9.955Y71.978
G1 X10.002Y71.003
G1 X9.952Y70.011
; Layer WorkSpace Pass 3 of 10
G1 X10.002Y71.003
G1 X9.955Y71.978
G1 X9.816Y72.93
G1 X9.588Y73.854
G1 X9.275Y74.745
G1 X8.883Y75.598
G1 X8.413Y76.408
G1 X7.872Y77.17
G1 X7.262Y77.877
G1 X6.588Y78.526
G1 X5.853Y79.112
G1 X5.062Y79.628
G1 X4.219Y80.07
G1 X3.328Y80.432
G1 X2.393Y80.711
G1 X1.418Y80.899
; Layer WorkSpace Pass 4 of 10
G1 X2.393Y80.711
G1 X3.328Y80.432
G1 X4.219Y80.07
G1 X5.062Y79.628
G1 X5.853Y79.112
G1 X6.588Y78.526
G1 X7.262Y77.877
G1 X7.872Y77.17
G1 X8.413Y76.408
G1 X8.883Y75.598
G1 X9.275Y74.745
G1 X9.588Y73.854
G1 X9.816Y72.93
G1 X9.955Y71.978
G1 X10.002Y71.003
G1 X9.952Y70.011
; Layer WorkSpace Pass 5 of 10
G1 X10.002Y71.003
G1 X9.955Y71.978
G1 X9.816Y72.93
G1 X9.588Y73.854
G1 X9.275Y74.745
G1 X8.883Y75.598
G1 X8.413Y76.408
G1 X7.872Y77.17
G1 X7.262Y77.877
G1 X6.588Y78.526
G1 X5.853Y79.112
G1 X5.062Y79.628
G1 X4.219Y80.07
G1 X3.328Y80.432
G1 X2.393Y80.711
G1 X1.418Y80.899
; Layer WorkSpace Pass 6 of 10
G1 X2.393Y80.711
G1 X3.328Y80.432
G1 X4.219Y80.07
G1 X5.062Y79.628
G1 X5.853Y79.112
G1 X6.588Y78.526
G1 X7.262Y77.877
G1 X7.872Y77.17
G1 X8.413Y76.408
G1 X8.883Y75.598
G1 X9.275Y74.745
G1 X9.588Y73.854
G1 X9.816Y72.93
G1 X9.955Y71.978
G1 X10.002Y71.003
G1 X9.952Y70.011
; Layer WorkSpace Pass 7 of 10
G1 X10.002Y71.003
G1 X9.955Y71.978
G1 X9.816Y72.93
G1 X9.588Y73.854
G1 X9.275Y74.745
G1 X8.883Y75.598
G1 X8.413Y76.408
G1 X7.872Y77.17
G1 X7.262Y77.877
G1 X6.588Y78.526
G1 X5.853Y79.112
G1 X5.062Y79.628
G1 X4.219Y80.07
G1 X3.328Y80.432
G1 X2.393Y80.711
G1 X1.418Y80.899
; Layer WorkSpace Pass 8 of 10
G1 X2.393Y80.711
G1 X3.328Y80.432
G1 X4.219Y80.07
G1 X5.062Y79.628
G1 X5.853Y79.112
G1 X6.588Y78.526
G1 X7.262Y77.877
G1 X7.872Y77.17
G1 X8.413Y76.408
G1 X8.883Y75.598
G1 X9.275Y74.745
G1 X9.588Y73.854
G1 X9.816Y72.93
G1 X9.955Y71.978
G1 X10.002Y71.003
G1 X9.952Y70.011
; Layer WorkSpace Pass 9 of 10
G1 X10.002Y71.003
G1 X9.955Y71.978
G1 X9.816Y72.93
G1 X9.588Y73.854
G1 X9.275Y74.745
G1 X8.883Y75.598
G1 X8.413Y76.408
G1 X7.872Y77.17
G1 X7.262Y77.877
G1 X6.588Y78.526
G1 X5.853Y79.112
G1 X5.062Y79.628
G1 X4.219Y80.07
G1 X3.328Y80.432
G1 X2.393Y80.711
G1 X1.418Y80.899
; Layer WorkSpace Pass 10 of 10
G1 X2.393Y80.711
G1 X3.328Y80.432
G1 X4.219Y80.07
G1 X5.062Y79.628
G1 X5.853Y79.112
G1 X6.588Y78.526
G1 X7.262Y77.877
G1 X7.872Y77.17
G1 X8.413Y76.408
G1 X8.883Y75.598
G1 X9.275Y74.745
G1 X9.588Y73.854
G1 X9.816Y72.93
G1 X9.955Y71.978
G1 X10.002Y71.003
G1 X9.952Y70.011
G0 X1.418Y80.899
; Layer WorkSpace Pass 1 of 10
G1 X0.951Y80.955
; Layer WorkSpace Pass 2 of 10
G1 X1.418Y80.899
; Layer WorkSpace Pass 3 of 10
G1 X0.951Y80.955
; Layer WorkSpace Pass 4 of 10
G1 X1.418Y80.899
; Layer WorkSpace Pass 5 of 10
G1 X0.951Y80.955
; Layer WorkSpace Pass 6 of 10
G1 X1.418Y80.899
; Layer WorkSpace Pass 7 of 10
G1 X0.951Y80.955
; Layer WorkSpace Pass 8 of 10
G1 X1.418Y80.899
; Layer WorkSpace Pass 9 of 10
G1 X0.951Y80.955
; Layer WorkSpace Pass 10 of 10
G1 X1.418Y80.899
G0 X0.951Y80.955
; Layer WorkSpace Pass 1 of 10
G1 X0.478Y80.988
; Layer WorkSpace Pass 2 of 10
G1 X0.951Y80.955
; Layer WorkSpace Pass 3 of 10
G1 X0.478Y80.988
; Layer WorkSpace Pass 4 of 10
G1 X0.951Y80.955
; Layer WorkSpace Pass 5 of 10
G1 X0.478Y80.988
; Layer WorkSpace Pass 6 of 10
G1 X0.951Y80.955
; Layer WorkSpace Pass 7 of 10
G1 X0.478Y80.988
; Layer WorkSpace Pass 8 of 10
G1 X0.951Y80.955
; Layer WorkSpace Pass 9 of 10
G1 X0.478Y80.988
; Layer WorkSpace Pass 10 of 10
G1 X0.951Y80.955
G0 X0.478Y80.988
; Layer WorkSpace Pass 1 of 10
G1 X0Y81
; Layer WorkSpace Pass 2 of 10
G1 X0.478Y80.988
; Layer WorkSpace Pass 3 of 10
G1 X0Y81
; Layer WorkSpace Pass 4 of 10
G1 X0.478Y80.988
; Layer WorkSpace Pass 5 of 10
G1 X0Y81
; Layer WorkSpace Pass 6 of 10
G1 X0.478Y80.988
; Layer WorkSpace Pass 7 of 10
G1 X0Y81
; Layer WorkSpace Pass 8 of 10
G1 X0.478Y80.988
; Layer WorkSpace Pass 9 of 10
G1 X0Y81
; Layer WorkSpace Pass 10 of 10
G1 X0.478Y80.988
G0 X3Y100
; Layer WorkSpace Pass 1 of 10
G1 Y102
G1 X25
G1 Y100
G1 X3
; Layer WorkSpace Pass 2 of 10
G1 Y102
G1 X25
G1 Y100
G1 X3
; Layer WorkSpace Pass 3 of 10
G1 Y102
G1 X25
G1 Y100
G1 X3
; Layer WorkSpace Pass 4 of 10
G1 Y102
G1 X25
G1 Y100
G1 X3
; Layer WorkSpace Pass 5 of 10
G1 Y102
G1 X25
G1 Y100
G1 X3
; Layer WorkSpace Pass 6 of 10
G1 Y102
G1 X25
G1 Y100
G1 X3
; Layer WorkSpace Pass 7 of 10
G1 Y102
G1 X25
G1 Y100
G1 X3
; Layer WorkSpace Pass 8 of 10
G1 Y102
G1 X25
G1 Y100
G1 X3
; Layer WorkSpace Pass 9 of 10
G1 Y102
G1 X25
G1 Y100
G1 X3
; Layer WorkSpace Pass 10 of 10
G1 Y102
G1 X25
G1 Y100
G1 X3
G0 X29.5Y102
; Layer WorkSpace Pass 1 of 10
G1 Y129
G1 X30.5
G1 Y102
G1 X29.5
; Layer WorkSpace Pass 2 of 10
G1 Y129
G1 X30.5
G1 Y102
G1 X29.5
; Layer WorkSpace Pass 3 of 10
G1 Y129
G1 X30.5
G1 Y102
G1 X29.5
; Layer WorkSpace Pass 4 of 10
G1 Y129
G1 X30.5
G1 Y102
G1 X29.5
; Layer WorkSpace Pass 5 of 10
G1 Y129
G1 X30.5
G1 Y102
G1 X29.5
; Layer WorkSpace Pass 6 of 10
G1 Y129
G1 X30.5
G1 Y102
G1 X29.5
; Layer WorkSpace Pass 7 of 10
G1 Y129
G1 X30.5
G1 Y102
G1 X29.5
; Layer WorkSpace Pass 8 of 10
G1 Y129
G1 X30.5
G1 Y102
G1 X29.5
; Layer WorkSpace Pass 9 of 10
G1 Y129
G1 X30.5
G1 Y102
G1 X29.5
; Layer WorkSpace Pass 10 of 10
G1 Y129
G1 X30.5
G1 Y102
G1 X29.5
G0 X35Y102
; Layer WorkSpace Pass 1 of 10
G1 X85
G1 Y100
G1 X35
G1 Y102
; Layer WorkSpace Pass 2 of 10
G1 X85
G1 Y100
G1 X35
G1 Y102
; Layer WorkSpace Pass 3 of 10
G1 X85
G1 Y100
G1 X35
G1 Y102
; Layer WorkSpace Pass 4 of 10
G1 X85
G1 Y100
G1 X35
G1 Y102
; Layer WorkSpace Pass 5 of 10
G1 X85
G1 Y100
G1 X35
G1 Y102
; Layer WorkSpace Pass 6 of 10
G1 X85
G1 Y100
G1 X35
G1 Y102
; Layer WorkSpace Pass 7 of 10
G1 X85
G1 Y100
G1 X35
G1 Y102
; Layer WorkSpace Pass 8 of 10
G1 X85
G1 Y100
G1 X35
G1 Y102
; Layer WorkSpace Pass 9 of 10
G1 X85
G1 Y100
G1 X35
G1 Y102
; Layer WorkSpace Pass 10 of 10
G1 X85
G1 Y100
G1 X35
G1 Y102
G0 X0Y81
; Layer WorkSpace Pass 1 of 10
G1 Y101
G1 X30Y131
G1 X90
G1 Y101
; Layer WorkSpace Pass 2 of 10
G1 Y131
G1 X30
G1 X0Y101
G1 Y81
; Layer WorkSpace Pass 3 of 10
G1 Y101
G1 X30Y131
G1 X90
G1 Y101
; Layer WorkSpace Pass 4 of 10
G1 Y131
G1 X30
G1 X0Y101
G1 Y81
; Layer WorkSpace Pass 5 of 10
G1 Y101
G1 X30Y131
G1 X90
G1 Y101
; Layer WorkSpace Pass 6 of 10
G1 Y131
G1 X30
G1 X0Y101
G1 Y81
; Layer WorkSpace Pass 7 of 10
G1 Y101
G1 X30Y131
G1 X90
G1 Y101
; Layer WorkSpace Pass 8 of 10
G1 Y131
G1 X30
G1 X0Y101
G1 Y81
; Layer WorkSpace Pass 9 of 10
G1 Y101
G1 X30Y131
G1 X90
G1 Y101
; Layer WorkSpace Pass 10 of 10
G1 Y131
G1 X30
G1 X0Y101
G1 Y81
G0 X93Y100
; Layer WorkSpace Pass 1 of 10
G1 Y102
G1 X115
G1 Y100
G1 X93
; Layer WorkSpace Pass 2 of 10
G1 Y102
G1 X115
G1 Y100
G1 X93
; Layer WorkSpace Pass 3 of 10
G1 Y102
G1 X115
G1 Y100
G1 X93
; Layer WorkSpace Pass 4 of 10
G1 Y102
G1 X115
G1 Y100
G1 X93
; Layer WorkSpace Pass 5 of 10
G1 Y102
G1 X115
G1 Y100
G1 X93
; Layer WorkSpace Pass 6 of 10
G1 Y102
G1 X115
G1 Y100
G1 X93
; Layer WorkSpace Pass 7 of 10
G1 Y102
G1 X115
G1 Y100
G1 X93
; Layer WorkSpace Pass 8 of 10
G1 Y102
G1 X115
G1 Y100
G1 X93
; Layer WorkSpace Pass 9 of 10
G1 Y102
G1 X115
G1 Y100
G1 X93
; Layer WorkSpace Pass 10 of 10
G1 Y102
G1 X115
G1 Y100
G1 X93
G0 X91Y96
; Layer WorkSpace Pass 1 of 10
G1 Y46
G1 X89
G1 Y96
G1 X91
; Layer WorkSpace Pass 2 of 10
G1 Y46
G1 X89
G1 Y96
G1 X91
; Layer WorkSpace Pass 3 of 10
G1 Y46
G1 X89
G1 Y96
G1 X91
; Layer WorkSpace Pass 4 of 10
G1 Y46
G1 X89
G1 Y96
G1 X91
; Layer WorkSpace Pass 5 of 10
G1 Y46
G1 X89
G1 Y96
G1 X91
; Layer WorkSpace Pass 6 of 10
G1 Y46
G1 X89
G1 Y96
G1 X91
; Layer WorkSpace Pass 7 of 10
G1 Y46
G1 X89
G1 Y96
G1 X91
; Layer WorkSpace Pass 8 of 10
G1 Y46
G1 X89
G1 Y96
G1 X91
; Layer WorkSpace Pass 9 of 10
G1 Y46
G1 X89
G1 Y96
G1 X91
; Layer WorkSpace Pass 10 of 10
G1 Y46
G1 X89
G1 Y96
G1 X91
G0 X119Y96
; Layer WorkSpace Pass 1 of 10
G1 X121
G1 Y46
G1 X119
G1 Y96
; Layer WorkSpace Pass 2 of 10
G1 X121
G1 Y46
G1 X119
G1 Y96
; Layer WorkSpace Pass 3 of 10
G1 X121
G1 Y46
G1 X119
G1 Y96
; Layer WorkSpace Pass 4 of 10
G1 X121
G1 Y46
G1 X119
G1 Y96
; Layer WorkSpace Pass 5 of 10
G1 X121
G1 Y46
G1 X119
G1 Y96
; Layer WorkSpace Pass 6 of 10
G1 X121
G1 Y46
G1 X119
G1 Y96
; Layer WorkSpace Pass 7 of 10
G1 X121
G1 Y46
G1 X119
G1 Y96
; Layer WorkSpace Pass 8 of 10
G1 X121
G1 Y46
G1 X119
G1 Y96
; Layer WorkSpace Pass 9 of 10
G1 X121
G1 Y46
G1 X119
G1 Y96
; Layer WorkSpace Pass 10 of 10
G1 X121
G1 Y46
G1 X119
G1 Y96
G0 X125Y100
; Layer WorkSpace Pass 1 of 10
G1 Y102
G1 X175
G1 Y100
G1 X125
; Layer WorkSpace Pass 2 of 10
G1 Y102
G1 X175
G1 Y100
G1 X125
; Layer WorkSpace Pass 3 of 10
G1 Y102
G1 X175
G1 Y100
G1 X125
; Layer WorkSpace Pass 4 of 10
G1 Y102
G1 X175
G1 Y100
G1 X125
; Layer WorkSpace Pass 5 of 10
G1 Y102
G1 X175
G1 Y100
G1 X125
; Layer WorkSpace Pass 6 of 10
G1 Y102
G1 X175
G1 Y100
G1 X125
; Layer WorkSpace Pass 7 of 10
G1 Y102
G1 X175
G1 Y100
G1 X125
; Layer WorkSpace Pass 8 of 10
G1 Y102
G1 X175
G1 Y100
G1 X125
; Layer WorkSpace Pass 9 of 10
G1 Y102
G1 X175
G1 Y100
G1 X125
; Layer WorkSpace Pass 10 of 10
G1 Y102
G1 X175
G1 Y100
G1 X125
G0 X120.5Y102
; Layer WorkSpace Pass 1 of 10
G1 X119.5
G1 Y129
G1 X120.5
G1 Y102
; Layer WorkSpace Pass 2 of 10
G1 X119.5
G1 Y129
G1 X120.5
G1 Y102
; Layer WorkSpace Pass 3 of 10
G1 X119.5
G1 Y129
G1 X120.5
G1 Y102
; Layer WorkSpace Pass 4 of 10
G1 X119.5
G1 Y129
G1 X120.5
G1 Y102
; Layer WorkSpace Pass 5 of 10
G1 X119.5
G1 Y129
G1 X120.5
G1 Y102
; Layer WorkSpace Pass 6 of 10
G1 X119.5
G1 Y129
G1 X120.5
G1 Y102
; Layer WorkSpace Pass 7 of 10
G1 X119.5
G1 Y129
G1 X120.5
G1 Y102
; Layer WorkSpace Pass 8 of 10
G1 X119.5
G1 Y129
G1 X120.5
G1 Y102
; Layer WorkSpace Pass 9 of 10
G1 X119.5
G1 Y129
G1 X120.5
G1 Y102
; Layer WorkSpace Pass 10 of 10
G1 X119.5
G1 Y129
G1 X120.5
G1 Y102
G0 X120.5Y136
; Layer WorkSpace Pass 1 of 10
G1 X119.5
G1 Y163
G1 X120.5
G1 Y136
; Layer WorkSpace Pass 2 of 10
G1 X119.5
G1 Y163
G1 X120.5
G1 Y136
; Layer WorkSpace Pass 3 of 10
G1 X119.5
G1 Y163
G1 X120.5
G1 Y136
; Layer WorkSpace Pass 4 of 10
G1 X119.5
G1 Y163
G1 X120.5
G1 Y136
; Layer WorkSpace Pass 5 of 10
G1 X119.5
G1 Y163
G1 X120.5
G1 Y136
; Layer WorkSpace Pass 6 of 10
G1 X119.5
G1 Y163
G1 X120.5
G1 Y136
; Layer WorkSpace Pass 7 of 10
G1 X119.5
G1 Y163
G1 X120.5
G1 Y136
; Layer WorkSpace Pass 8 of 10
G1 X119.5
G1 Y163
G1 X120.5
G1 Y136
; Layer WorkSpace Pass 9 of 10
G1 X119.5
G1 Y163
G1 X120.5
G1 Y136
; Layer WorkSpace Pass 10 of 10
G1 X119.5
G1 Y163
G1 X120.5
G1 Y136
G0 X125Y163
; Layer WorkSpace Pass 1 of 10
G1 Y165
G1 X175
G1 Y163
G1 X125
; Layer WorkSpace Pass 2 of 10
G1 Y165
G1 X175
G1 Y163
G1 X125
; Layer WorkSpace Pass 3 of 10
G1 Y165
G1 X175
G1 Y163
G1 X125
; Layer WorkSpace Pass 4 of 10
G1 Y165
G1 X175
G1 Y163
G1 X125
; Layer WorkSpace Pass 5 of 10
G1 Y165
G1 X175
G1 Y163
G1 X125
; Layer WorkSpace Pass 6 of 10
G1 Y165
G1 X175
G1 Y163
G1 X125
; Layer WorkSpace Pass 7 of 10
G1 Y165
G1 X175
G1 Y163
G1 X125
; Layer WorkSpace Pass 8 of 10
G1 Y165
G1 X175
G1 Y163
G1 X125
; Layer WorkSpace Pass 9 of 10
G1 Y165
G1 X175
G1 Y163
G1 X125
; Layer WorkSpace Pass 10 of 10
G1 Y165
G1 X175
G1 Y163
G1 X125
G0 X121Y169
; Layer WorkSpace Pass 1 of 10
G1 X119
G1 Y219
G1 X121
G1 Y169
; Layer WorkSpace Pass 2 of 10
G1 X119
G1 Y219
G1 X121
G1 Y169
; Layer WorkSpace Pass 3 of 10
G1 X119
G1 Y219
G1 X121
G1 Y169
; Layer WorkSpace Pass 4 of 10
G1 X119
G1 Y219
G1 X121
G1 Y169
; Layer WorkSpace Pass 5 of 10
G1 X119
G1 Y219
G1 X121
G1 Y169
; Layer WorkSpace Pass 6 of 10
G1 X119
G1 Y219
G1 X121
G1 Y169
; Layer WorkSpace Pass 7 of 10
G1 X119
G1 Y219
G1 X121
G1 Y169
; Layer WorkSpace Pass 8 of 10
G1 X119
G1 Y219
G1 X121
G1 Y169
; Layer WorkSpace Pass 9 of 10
G1 X119
G1 Y219
G1 X121
G1 Y169
; Layer WorkSpace Pass 10 of 10
G1 X119
G1 Y219
G1 X121
G1 Y169
G0 X115Y165
; Layer WorkSpace Pass 1 of 10
G1 Y163
G1 X93
G1 Y165
G1 X115
; Layer WorkSpace Pass 2 of 10
G1 Y163
G1 X93
G1 Y165
G1 X115
; Layer WorkSpace Pass 3 of 10
G1 Y163
G1 X93
G1 Y165
G1 X115
; Layer WorkSpace Pass 4 of 10
G1 Y163
G1 X93
G1 Y165
G1 X115
; Layer WorkSpace Pass 5 of 10
G1 Y163
G1 X93
G1 Y165
G1 X115
; Layer WorkSpace Pass 6 of 10
G1 Y163
G1 X93
G1 Y165
G1 X115
; Layer WorkSpace Pass 7 of 10
G1 Y163
G1 X93
G1 Y165
G1 X115
; Layer WorkSpace Pass 8 of 10
G1 Y163
G1 X93
G1 Y165
G1 X115
; Layer WorkSpace Pass 9 of 10
G1 Y163
G1 X93
G1 Y165
G1 X115
; Layer WorkSpace Pass 10 of 10
G1 Y163
G1 X93
G1 Y165
G1 X115
G0 X91Y169
; Layer WorkSpace Pass 1 of 10
G1 X89
G1 Y219
G1 X91
G1 Y169
; Layer WorkSpace Pass 2 of 10
G1 X89
G1 Y219
G1 X91
G1 Y169
; Layer WorkSpace Pass 3 of 10
G1 X89
G1 Y219
G1 X91
G1 Y169
; Layer WorkSpace Pass 4 of 10
G1 X89
G1 Y219
G1 X91
G1 Y169
; Layer WorkSpace Pass 5 of 10
G1 X89
G1 Y219
G1 X91
G1 Y169
; Layer WorkSpace Pass 6 of 10
G1 X89
G1 Y219
G1 X91
G1 Y169
; Layer WorkSpace Pass 7 of 10
G1 X89
G1 Y219
G1 X91
G1 Y169
; Layer WorkSpace Pass 8 of 10
G1 X89
G1 Y219
G1 X91
G1 Y169
; Layer WorkSpace Pass 9 of 10
G1 X89
G1 Y219
G1 X91
G1 Y169
; Layer WorkSpace Pass 10 of 10
G1 X89
G1 Y219
G1 X91
G1 Y169
G0 X85Y165
; Layer WorkSpace Pass 1 of 10
G1 Y163
G1 X35
G1 Y165
G1 X85
; Layer WorkSpace Pass 2 of 10
G1 Y163
G1 X35
G1 Y165
G1 X85
; Layer WorkSpace Pass 3 of 10
G1 Y163
G1 X35
G1 Y165
G1 X85
; Layer WorkSpace Pass 4 of 10
G1 Y163
G1 X35
G1 Y165
G1 X85
; Layer WorkSpace Pass 5 of 10
G1 Y163
G1 X35
G1 Y165
G1 X85
; Layer WorkSpace Pass 6 of 10
G1 Y163
G1 X35
G1 Y165
G1 X85
; Layer WorkSpace Pass 7 of 10
G1 Y163
G1 X35
G1 Y165
G1 X85
; Layer WorkSpace Pass 8 of 10
G1 Y163
G1 X35
G1 Y165
G1 X85
; Layer WorkSpace Pass 9 of 10
G1 Y163
G1 X35
G1 Y165
G1 X85
; Layer WorkSpace Pass 10 of 10
G1 Y163
G1 X35
G1 Y165
G1 X85
G0 X31Y169
; Layer WorkSpace Pass 1 of 10
G1 X29
G1 Y219
G1 X31
G1 Y169
; Layer WorkSpace Pass 2 of 10
G1 X29
G1 Y219
G1 X31
G1 Y169
; Layer WorkSpace Pass 3 of 10
G1 X29
G1 Y219
G1 X31
G1 Y169
; Layer WorkSpace Pass 4 of 10
G1 X29
G1 Y219
G1 X31
G1 Y169
; Layer WorkSpace Pass 5 of 10
G1 X29
G1 Y219
G1 X31
G1 Y169
; Layer WorkSpace Pass 6 of 10
G1 X29
G1 Y219
G1 X31
G1 Y169
; Layer WorkSpace Pass 7 of 10
G1 X29
G1 Y219
G1 X31
G1 Y169
; Layer WorkSpace Pass 8 of 10
G1 X29
G1 Y219
G1 X31
G1 Y169
; Layer WorkSpace Pass 9 of 10
G1 X29
G1 Y219
G1 X31
G1 Y169
; Layer WorkSpace Pass 10 of 10
G1 X29
G1 Y219
G1 X31
G1 Y169
G0 X25Y165
; Layer WorkSpace Pass 1 of 10
G1 Y163
G1 X3
G1 Y165
G1 X25
; Layer WorkSpace Pass 2 of 10
G1 Y163
G1 X3
G1 Y165
G1 X25
; Layer WorkSpace Pass 3 of 10
G1 Y163
G1 X3
G1 Y165
G1 X25
; Layer WorkSpace Pass 4 of 10
G1 Y163
G1 X3
G1 Y165
G1 X25
; Layer WorkSpace Pass 5 of 10
G1 Y163
G1 X3
G1 Y165
G1 X25
; Layer WorkSpace Pass 6 of 10
G1 Y163
G1 X3
G1 Y165
G1 X25
; Layer WorkSpace Pass 7 of 10
G1 Y163
G1 X3
G1 Y165
G1 X25
; Layer WorkSpace Pass 8 of 10
G1 Y163
G1 X3
G1 Y165
G1 X25
; Layer WorkSpace Pass 9 of 10
G1 Y163
G1 X3
G1 Y165
G1 X25
; Layer WorkSpace Pass 10 of 10
G1 Y163
G1 X3
G1 Y165
G1 X25
G0 X29.5Y163
; Layer WorkSpace Pass 1 of 10
G1 X30.5
G1 Y136
G1 X29.5
G1 Y163
; Layer WorkSpace Pass 2 of 10
G1 X30.5
G1 Y136
G1 X29.5
G1 Y163
; Layer WorkSpace Pass 3 of 10
G1 X30.5
G1 Y136
G1 X29.5
G1 Y163
; Layer WorkSpace Pass 4 of 10
G1 X30.5
G1 Y136
G1 X29.5
G1 Y163
; Layer WorkSpace Pass 5 of 10
G1 X30.5
G1 Y136
G1 X29.5
G1 Y163
; Layer WorkSpace Pass 6 of 10
G1 X30.5
G1 Y136
G1 X29.5
G1 Y163
; Layer WorkSpace Pass 7 of 10
G1 X30.5
G1 Y136
G1 X29.5
G1 Y163
; Layer WorkSpace Pass 8 of 10
G1 X30.5
G1 Y136
G1 X29.5
G1 Y163
; Layer WorkSpace Pass 9 of 10
G1 X30.5
G1 Y136
G1 X29.5
G1 Y163
; Layer WorkSpace Pass 10 of 10
G1 X30.5
G1 Y136
G1 X29.5
G1 Y163
G0 X0Y184
; Layer WorkSpace Pass 1 of 10
G1 X0.954Y184.044
G1 X1.883Y184.176
G1 X2.784Y184.392
G1 X3.653Y184.687
G1 X4.485Y185.058
G1 X5.275Y185.5
G1 X6.02Y186.011
G1 X6.715Y186.585
G1 X7.355Y187.22
G1 X7.937Y187.91
G1 X8.456Y188.653
G1 X8.907Y189.444
G1 X9.287Y190.279
G1 X9.59Y191.155
G1 X9.814Y192.067
G1 X9.952Y193.011
; Layer WorkSpace Pass 2 of 10
G1 X9.814Y192.067
G1 X9.59Y191.155
G1 X9.287Y190.279
G1 X8.907Y189.444
G1 X8.456Y188.653
G1 X7.937Y187.91
G1 X7.355Y187.22
G1 X6.715Y186.585
G1 X6.02Y186.011
G1 X5.275Y185.5
G1 X4.485Y185.058
G1 X3.653Y184.687
G1 X2.784Y184.392
G1 X1.883Y184.176
G1 X0.954Y184.044
G1 X0Y184
; Layer WorkSpace Pass 3 of 10
G1 X0.954Y184.044
G1 X1.883Y184.176
G1 X2.784Y184.392
G1 X3.653Y184.687
G1 X4.485Y185.058
G1 X5.275Y185.5
G1 X6.02Y186.011
G1 X6.715Y186.585
G1 X7.355Y187.22
G1 X7.937Y187.91
G1 X8.456Y188.653
G1 X8.907Y189.444
G1 X9.287Y190.279
G1 X9.59Y191.155
G1 X9.814Y192.067
G1 X9.952Y193.011
; Layer WorkSpace Pass 4 of 10
G1 X9.814Y192.067
G1 X9.59Y191.155
G1 X9.287Y190.279
G1 X8.907Y189.444
G1 X8.456Y188.653
G1 X7.937Y187.91
G1 X7.355Y187.22
G1 X6.715Y186.585
G1 X6.02Y186.011
G1 X5.275Y185.5
G1 X4.485Y185.058
G1 X3.653Y184.687
G1 X2.784Y184.392
G1 X1.883Y184.176
G1 X0.954Y184.044
G1 X0Y184
; Layer WorkSpace Pass 5 of 10
G1 X0.954Y184.044
G1 X1.883Y184.176
G1 X2.784Y184.392
G1 X3.653Y184.687
G1 X4.485Y185.058
G1 X5.275Y185.5
G1 X6.02Y186.011
G1 X6.715Y186.585
G1 X7.355Y187.22
G1 X7.937Y187.91
G1 X8.456Y188.653
G1 X8.907Y189.444
G1 X9.287Y190.279
G1 X9.59Y191.155
G1 X9.814Y192.067
G1 X9.952Y193.011
; Layer WorkSpace Pass 6 of 10
G1 X9.814Y192.067
G1 X9.59Y191.155
G1 X9.287Y190.279
G1 X8.907Y189.444
G1 X8.456Y188.653
G1 X7.937Y187.91
G1 X7.355Y187.22
G1 X6.715Y186.585
G1 X6.02Y186.011
G1 X5.275Y185.5
G1 X4.485Y185.058
G1 X3.653Y184.687
G1 X2.784Y184.392
G1 X1.883Y184.176
G1 X0.954Y184.044
G1 X0Y184
; Layer WorkSpace Pass 7 of 10
G1 X0.954Y184.044
G1 X1.883Y184.176
G1 X2.784Y184.392
G1 X3.653Y184.687
G1 X4.485Y185.058
G1 X5.275Y185.5
G1 X6.02Y186.011
G1 X6.715Y186.585
G1 X7.355Y187.22
G1 X7.937Y187.91
G1 X8.456Y188.653
G1 X8.907Y189.444
G1 X9.287Y190.279
G1 X9.59Y191.155
G1 X9.814Y192.067
G1 X9.952Y193.011
; Layer WorkSpace Pass 8 of 10
G1 X9.814Y192.067
G1 X9.59Y191.155
G1 X9.287Y190.279
G1 X8.907Y189.444
G1 X8.456Y188.653
G1 X7.937Y187.91
G1 X7.355Y187.22
G1 X6.715Y186.585
G1 X6.02Y186.011
G1 X5.275Y185.5
G1 X4.485Y185.058
G1 X3.653Y184.687
G1 X2.784Y184.392
G1 X1.883Y184.176
G1 X0.954Y184.044
G1 X0Y184
; Layer WorkSpace Pass 9 of 10
G1 X0.954Y184.044
G1 X1.883Y184.176
G1 X2.784Y184.392
G1 X3.653Y184.687
G1 X4.485Y185.058
G1 X5.275Y185.5
G1 X6.02Y186.011
G1 X6.715Y186.585
G1 X7.355Y187.22
G1 X7.937Y187.91
G1 X8.456Y188.653
G1 X8.907Y189.444
G1 X9.287Y190.279
G1 X9.59Y191.155
G1 X9.814Y192.067
G1 X9.952Y193.011
; Layer WorkSpace Pass 10 of 10
G1 X9.814Y192.067
G1 X9.59Y191.155
G1 X9.287Y190.279
G1 X8.907Y189.444
G1 X8.456Y188.653
G1 X7.937Y187.91
G1 X7.355Y187.22
G1 X6.715Y186.585
G1 X6.02Y186.011
G1 X5.275Y185.5
G1 X4.485Y185.058
G1 X3.653Y184.687
G1 X2.784Y184.392
G1 X1.883Y184.176
G1 X0.954Y184.044
G1 X0Y184
G0 X9.952Y193.011
; Layer WorkSpace Pass 1 of 10
G1 X10.002Y194.003
G1 X9.955Y194.978
G1 X9.816Y195.93
G1 X9.588Y196.854
G1 X9.276Y197.745
G1 X8.883Y198.598
G1 X8.413Y199.408
G1 X7.872Y200.17
G1 X7.262Y200.877
G1 X6.588Y201.526
G1 X5.853Y202.112
G1 X5.062Y202.628
G1 X4.22Y203.07
G1 X3.328Y203.432
G1 X2.393Y203.711
G1 X1.418Y203.899
; Layer WorkSpace Pass 2 of 10
G1 X2.393Y203.711
G1 X3.328Y203.432
G1 X4.22Y203.07
G1 X5.062Y202.628
G1 X5.853Y202.112
G1 X6.588Y201.526
G1 X7.262Y200.877
G1 X7.872Y200.17
G1 X8.413Y199.408
G1 X8.883Y198.598
G1 X9.276Y197.745
G1 X9.588Y196.854
G1 X9.816Y195.93
G1 X9.955Y194.978
G1 X10.002Y194.003
G1 X9.952Y193.011
; Layer WorkSpace Pass 3 of 10
G1 X10.002Y194.003
G1 X9.955Y194.978
G1 X9.816Y195.93
G1 X9.588Y196.854
G1 X9.276Y197.745
G1 X8.883Y198.598
G1 X8.413Y199.408
G1 X7.872Y200.17
G1 X7.262Y200.877
G1 X6.588Y201.526
G1 X5.853Y202.112
G1 X5.062Y202.628
G1 X4.22Y203.07
G1 X3.328Y203.432
G1 X2.393Y203.711
G1 X1.418Y203.899
; Layer WorkSpace Pass 4 of 10
G1 X2.393Y203.711
G1 X3.328Y203.432
G1 X4.22Y203.07
G1 X5.062Y202.628
G1 X5.853Y202.112
G1 X6.588Y201.526
G1 X7.262Y200.877
G1 X7.872Y200.17
G1 X8.413Y199.408
G1 X8.883Y198.598
G1 X9.276Y197.745
G1 X9.588Y196.854
G1 X9.816Y195.93
G1 X9.955Y194.978
G1 X10.002Y194.003
G1 X9.952Y193.011
; Layer WorkSpace Pass 5 of 10
G1 X10.002Y194.003
G1 X9.955Y194.978
G1 X9.816Y195.93
G1 X9.588Y196.854
G1 X9.276Y197.745
G1 X8.883Y198.598
G1 X8.413Y199.408
G1 X7.872Y200.17
G1 X7.262Y200.877
G1 X6.588Y201.526
G1 X5.853Y202.112
G1 X5.062Y202.628
G1 X4.22Y203.07
G1 X3.328Y203.432
G1 X2.393Y203.711
G1 X1.418Y203.899
; Layer WorkSpace Pass 6 of 10
G1 X2.393Y203.711
G1 X3.328Y203.432
G1 X4.22Y203.07
G1 X5.062Y202.628
G1 X5.853Y202.112
G1 X6.588Y201.526
G1 X7.262Y200.877
G1 X7.872Y200.17
G1 X8.413Y199.408
G1 X8.883Y198.598
G1 X9.276Y197.745
G1 X9.588Y196.854
G1 X9.816Y195.93
G1 X9.955Y194.978
G1 X10.002Y194.003
G1 X9.952Y193.011
; Layer WorkSpace Pass 7 of 10
G1 X10.002Y194.003
G1 X9.955Y194.978
G1 X9.816Y195.93
G1 X9.588Y196.854
G1 X9.276Y197.745
G1 X8.883Y198.598
G1 X8.413Y199.408
G1 X7.872Y200.17
G1 X7.262Y200.877
G1 X6.588Y201.526
G1 X5.853Y202.112
G1 X5.062Y202.628
G1 X4.22Y203.07
G1 X3.328Y203.432
G1 X2.393Y203.711
G1 X1.418Y203.899
; Layer WorkSpace Pass 8 of 10
G1 X2.393Y203.711
G1 X3.328Y203.432
G1 X4.22Y203.07
G1 X5.062Y202.628
G1 X5.853Y202.112
G1 X6.588Y201.526
G1 X7.262Y200.877
G1 X7.872Y200.17
G1 X8.413Y199.408
G1 X8.883Y198.598
G1 X9.276Y197.745
G1 X9.588Y196.854
G1 X9.816Y195.93
G1 X9.955Y194.978
G1 X10.002Y194.003
G1 X9.952Y193.011
; Layer WorkSpace Pass 9 of 10
G1 X10.002Y194.003
G1 X9.955Y194.978
G1 X9.816Y195.93
G1 X9.588Y196.854
G1 X9.276Y197.745
G1 X8.883Y198.598
G1 X8.413Y199.408
G1 X7.872Y200.17
G1 X7.262Y200.877
G1 X6.588Y201.526
G1 X5.853Y202.112
G1 X5.062Y202.628
G1 X4.22Y203.07
G1 X3.328Y203.432
G1 X2.393Y203.711
G1 X1.418Y203.899
; Layer WorkSpace Pass 10 of 10
G1 X2.393Y203.711
G1 X3.328Y203.432
G1 X4.22Y203.07
G1 X5.062Y202.628
G1 X5.853Y202.112
G1 X6.588Y201.526
G1 X7.262Y200.877
G1 X7.872Y200.17
G1 X8.413Y199.408
G1 X8.883Y198.598
G1 X9.276Y197.745
G1 X9.588Y196.854
G1 X9.816Y195.93
G1 X9.955Y194.978
G1 X10.002Y194.003
G1 X9.952Y193.011
G0 X1.418Y203.899
; Layer WorkSpace Pass 1 of 10
G1 X0.951Y203.955
; Layer WorkSpace Pass 2 of 10
G1 X1.418Y203.899
; Layer WorkSpace Pass 3 of 10
G1 X0.951Y203.955
; Layer WorkSpace Pass 4 of 10
G1 X1.418Y203.899
; Layer WorkSpace Pass 5 of 10
G1 X0.951Y203.955
; Layer WorkSpace Pass 6 of 10
G1 X1.418Y203.899
; Layer WorkSpace Pass 7 of 10
G1 X0.951Y203.955
; Layer WorkSpace Pass 8 of 10
G1 X1.418Y203.899
; Layer WorkSpace Pass 9 of 10
G1 X0.951Y203.955
; Layer WorkSpace Pass 10 of 10
G1 X1.418Y203.899
G0 X0.951Y203.955
; Layer WorkSpace Pass 1 of 10
G1 X0.478Y203.988
; Layer WorkSpace Pass 2 of 10
G1 X0.951Y203.955
; Layer WorkSpace Pass 3 of 10
G1 X0.478Y203.988
; Layer WorkSpace Pass 4 of 10
G1 X0.951Y203.955
; Layer WorkSpace Pass 5 of 10
G1 X0.478Y203.988
; Layer WorkSpace Pass 6 of 10
G1 X0.951Y203.955
; Layer WorkSpace Pass 7 of 10
G1 X0.478Y203.988
; Layer WorkSpace Pass 8 of 10
G1 X0.951Y203.955
; Layer WorkSpace Pass 9 of 10
G1 X0.478Y203.988
; Layer WorkSpace Pass 10 of 10
G1 X0.951Y203.955
G0 X0.478Y203.988
; Layer WorkSpace Pass 1 of 10
G1 X0Y204
; Layer WorkSpace Pass 2 of 10
G1 X0.478Y203.988
; Layer WorkSpace Pass 3 of 10
G1 X0Y204
; Layer WorkSpace Pass 4 of 10
G1 X0.478Y203.988
; Layer WorkSpace Pass 5 of 10
G1 X0Y204
; Layer WorkSpace Pass 6 of 10
G1 X0.478Y203.988
; Layer WorkSpace Pass 7 of 10
G1 X0Y204
; Layer WorkSpace Pass 8 of 10
G1 X0.478Y203.988
; Layer WorkSpace Pass 9 of 10
G1 X0Y204
; Layer WorkSpace Pass 10 of 10
G1 X0.478Y203.988
G0 X3Y223
; Layer WorkSpace Pass 1 of 10
G1 Y225
G1 X25
G1 Y223
G1 X3
; Layer WorkSpace Pass 2 of 10
G1 Y225
G1 X25
G1 Y223
G1 X3
; Layer WorkSpace Pass 3 of 10
G1 Y225
G1 X25
G1 Y223
G1 X3
; Layer WorkSpace Pass 4 of 10
G1 Y225
G1 X25
G1 Y223
G1 X3
; Layer WorkSpace Pass 5 of 10
G1 Y225
G1 X25
G1 Y223
G1 X3
; Layer WorkSpace Pass 6 of 10
G1 Y225
G1 X25
G1 Y223
G1 X3
; Layer WorkSpace Pass 7 of 10
G1 Y225
G1 X25
G1 Y223
G1 X3
; Layer WorkSpace Pass 8 of 10
G1 Y225
G1 X25
G1 Y223
G1 X3
; Layer WorkSpace Pass 9 of 10
G1 Y225
G1 X25
G1 Y223
G1 X3
; Layer WorkSpace Pass 10 of 10
G1 Y225
G1 X25
G1 Y223
G1 X3
G0 X29.5Y225
; Layer WorkSpace Pass 1 of 10
G1 Y252
G1 X30.5
G1 Y225
G1 X29.5
; Layer WorkSpace Pass 2 of 10
G1 Y252
G1 X30.5
G1 Y225
G1 X29.5
; Layer WorkSpace Pass 3 of 10
G1 Y252
G1 X30.5
G1 Y225
G1 X29.5
; Layer WorkSpace Pass 4 of 10
G1 Y252
G1 X30.5
G1 Y225
G1 X29.5
; Layer WorkSpace Pass 5 of 10
G1 Y252
G1 X30.5
G1 Y225
G1 X29.5
; Layer WorkSpace Pass 6 of 10
G1 Y252
G1 X30.5
G1 Y225
G1 X29.5
; Layer WorkSpace Pass 7 of 10
G1 Y252
G1 X30.5
G1 Y225
G1 X29.5
; Layer WorkSpace Pass 8 of 10
G1 Y252
G1 X30.5
G1 Y225
G1 X29.5
; Layer WorkSpace Pass 9 of 10
G1 Y252
G1 X30.5
G1 Y225
G1 X29.5
; Layer WorkSpace Pass 10 of 10
G1 Y252
G1 X30.5
G1 Y225
G1 X29.5
G0 X35Y225
; Layer WorkSpace Pass 1 of 10
G1 X85
G1 Y223
G1 X35
G1 Y225
; Layer WorkSpace Pass 2 of 10
G1 X85
G1 Y223
G1 X35
G1 Y225
; Layer WorkSpace Pass 3 of 10
G1 X85
G1 Y223
G1 X35
G1 Y225
; Layer WorkSpace Pass 4 of 10
G1 X85
G1 Y223
G1 X35
G1 Y225
; Layer WorkSpace Pass 5 of 10
G1 X85
G1 Y223
G1 X35
G1 Y225
; Layer WorkSpace Pass 6 of 10
G1 X85
G1 Y223
G1 X35
G1 Y225
; Layer WorkSpace Pass 7 of 10
G1 X85
G1 Y223
G1 X35
G1 Y225
; Layer WorkSpace Pass 8 of 10
G1 X85
G1 Y223
G1 X35
G1 Y225
; Layer WorkSpace Pass 9 of 10
G1 X85
G1 Y223
G1 X35
G1 Y225
; Layer WorkSpace Pass 10 of 10
G1 X85
G1 Y223
G1 X35
G1 Y225
G0 X0Y204
; Layer WorkSpace Pass 1 of 10
G1 Y224
G1 X30Y254
G1 X90
G1 Y224
; Layer WorkSpace Pass 2 of 10
G1 Y254
G1 X30
G1 X0Y224
G1 Y204
; Layer WorkSpace Pass 3 of 10
G1 Y224
G1 X30Y254
G1 X90
G1 Y224
; Layer WorkSpace Pass 4 of 10
G1 Y254
G1 X30
G1 X0Y224
G1 Y204
; Layer WorkSpace Pass 5 of 10
G1 Y224
G1 X30Y254
G1 X90
G1 Y224
; Layer WorkSpace Pass 6 of 10
G1 Y254
G1 X30
G1 X0Y224
G1 Y204
; Layer WorkSpace Pass 7 of 10
G1 Y224
G1 X30Y254
G1 X90
G1 Y224
; Layer WorkSpace Pass 8 of 10
G1 Y254
G1 X30
G1 X0Y224
G1 Y204
; Layer WorkSpace Pass 9 of 10
G1 Y224
G1 X30Y254
G1 X90
G1 Y224
; Layer WorkSpace Pass 10 of 10
G1 Y254
G1 X30
G1 X0Y224
G1 Y204
G0 X93Y223
; Layer WorkSpace Pass 1 of 10
G1 Y225
G1 X115
G1 Y223
G1 X93
; Layer WorkSpace Pass 2 of 10
G1 Y225
G1 X115
G1 Y223
G1 X93
; Layer WorkSpace Pass 3 of 10
G1 Y225
G1 X115
G1 Y223
G1 X93
; Layer WorkSpace Pass 4 of 10
G1 Y225
G1 X115
G1 Y223
G1 X93
; Layer WorkSpace Pass 5 of 10
G1 Y225
G1 X115
G1 Y223
G1 X93
; Layer WorkSpace Pass 6 of 10
G1 Y225
G1 X115
G1 Y223
G1 X93
; Layer WorkSpace Pass 7 of 10
G1 Y225
G1 X115
G1 Y223
G1 X93
; Layer WorkSpace Pass 8 of 10
G1 Y225
G1 X115
G1 Y223
G1 X93
; Layer WorkSpace Pass 9 of 10
G1 Y225
G1 X115
G1 Y223
G1 X93
; Layer WorkSpace Pass 10 of 10
G1 Y225
G1 X115
G1 Y223
G1 X93
G0 X119.5Y225
; Layer WorkSpace Pass 1 of 10
G1 Y252
G1 X120.5
G1 Y225
G1 X119.5
; Layer WorkSpace Pass 2 of 10
G1 Y252
G1 X120.5
G1 Y225
G1 X119.5
; Layer WorkSpace Pass 3 of 10
G1 Y252
G1 X120.5
G1 Y225
G1 X119.5
; Layer WorkSpace Pass 4 of 10
G1 Y252
G1 X120.5
G1 Y225
G1 X119.5
; Layer WorkSpace Pass 5 of 10
G1 Y252
G1 X120.5
G1 Y225
G1 X119.5
; Layer WorkSpace Pass 6 of 10
G1 Y252
G1 X120.5
G1 Y225
G1 X119.5
; Layer WorkSpace Pass 7 of 10
G1 Y252
G1 X120.5
G1 Y225
G1 X119.5
; Layer WorkSpace Pass 8 of 10
G1 Y252
G1 X120.5
G1 Y225
G1 X119.5
; Layer WorkSpace Pass 9 of 10
G1 Y252
G1 X120.5
G1 Y225
G1 X119.5
; Layer WorkSpace Pass 10 of 10
G1 Y252
G1 X120.5
G1 Y225
G1 X119.5
G0 X125Y225
; Layer WorkSpace Pass 1 of 10
G1 X175
G1 Y223
G1 X125
G1 Y225
; Layer WorkSpace Pass 2 of 10
G1 X175
G1 Y223
G1 X125
G1 Y225
; Layer WorkSpace Pass 3 of 10
G1 X175
G1 Y223
G1 X125
G1 Y225
; Layer WorkSpace Pass 4 of 10
G1 X175
G1 Y223
G1 X125
G1 Y225
; Layer WorkSpace Pass 5 of 10
G1 X175
G1 Y223
G1 X125
G1 Y225
; Layer WorkSpace Pass 6 of 10
G1 X175
G1 Y223
G1 X125
G1 Y225
; Layer WorkSpace Pass 7 of 10
G1 X175
G1 Y223
G1 X125
G1 Y225
; Layer WorkSpace Pass 8 of 10
G1 X175
G1 Y223
G1 X125
G1 Y225
; Layer WorkSpace Pass 9 of 10
G1 X175
G1 Y223
G1 X125
G1 Y225
; Layer WorkSpace Pass 10 of 10
G1 X175
G1 Y223
G1 X125
G1 Y225
G0 X120.5Y259
; Layer WorkSpace Pass 1 of 10
G1 X119.5
G1 Y286
G1 X120.5
G1 Y259
; Layer WorkSpace Pass 2 of 10
G1 X119.5
G1 Y286
G1 X120.5
G1 Y259
; Layer WorkSpace Pass 3 of 10
G1 X119.5
G1 Y286
G1 X120.5
G1 Y259
; Layer WorkSpace Pass 4 of 10
G1 X119.5
G1 Y286
G1 X120.5
G1 Y259
; Layer WorkSpace Pass 5 of 10
G1 X119.5
G1 Y286
G1 X120.5
G1 Y259
; Layer WorkSpace Pass 6 of 10
G1 X119.5
G1 Y286
G1 X120.5
G1 Y259
; Layer WorkSpace Pass 7 of 10
G1 X119.5
G1 Y286
G1 X120.5
G1 Y259
; Layer WorkSpace Pass 8 of 10
G1 X119.5
G1 Y286
G1 X120.5
G1 Y259
; Layer WorkSpace Pass 9 of 10
G1 X119.5
G1 Y286
G1 X120.5
G1 Y259
; Layer WorkSpace Pass 10 of 10
G1 X119.5
G1 Y286
G1 X120.5
G1 Y259
G0 X125Y286
; Layer WorkSpace Pass 1 of 10
G1 Y288
G1 X175
G1 Y286
G1 X125
; Layer WorkSpace Pass 2 of 10
G1 Y288
G1 X175
G1 Y286
G1 X125
; Layer WorkSpace Pass 3 of 10
G1 Y288
G1 X175
G1 Y286
G1 X125
; Layer WorkSpace Pass 4 of 10
G1 Y288
G1 X175
G1 Y286
G1 X125
; Layer WorkSpace Pass 5 of 10
G1 Y288
G1 X175
G1 Y286
G1 X125
; Layer WorkSpace Pass 6 of 10
G1 Y288
G1 X175
G1 Y286
G1 X125
; Layer WorkSpace Pass 7 of 10
G1 Y288
G1 X175
G1 Y286
G1 X125
; Layer WorkSpace Pass 8 of 10
G1 Y288
G1 X175
G1 Y286
G1 X125
; Layer WorkSpace Pass 9 of 10
G1 Y288
G1 X175
G1 Y286
G1 X125
; Layer WorkSpace Pass 10 of 10
G1 Y288
G1 X175
G1 Y286
G1 X125
G0 X121Y292
; Layer WorkSpace Pass 1 of 10
G1 X119
G1 Y342
G1 X121
G1 Y292
; Layer WorkSpace Pass 2 of 10
G1 X119
G1 Y342
G1 X121
G1 Y292
; Layer WorkSpace Pass 3 of 10
G1 X119
G1 Y342
G1 X121
G1 Y292
; Layer WorkSpace Pass 4 of 10
G1 X119
G1 Y342
G1 X121
G1 Y292
; Layer WorkSpace Pass 5 of 10
G1 X119
G1 Y342
G1 X121
G1 Y292
; Layer WorkSpace Pass 6 of 10
G1 X119
G1 Y342
G1 X121
G1 Y292
; Layer WorkSpace Pass 7 of 10
G1 X119
G1 Y342
G1 X121
G1 Y292
; Layer WorkSpace Pass 8 of 10
G1 X119
G1 Y342
G1 X121
G1 Y292
; Layer WorkSpace Pass 9 of 10
G1 X119
G1 Y342
G1 X121
G1 Y292
; Layer WorkSpace Pass 10 of 10
G1 X119
G1 Y342
G1 X121
G1 Y292
G0 X115Y288
; Layer WorkSpace Pass 1 of 10
G1 Y286
G1 X93
G1 Y288
G1 X115
; Layer WorkSpace Pass 2 of 10
G1 Y286
G1 X93
G1 Y288
G1 X115
; Layer WorkSpace Pass 3 of 10
G1 Y286
G1 X93
G1 Y288
G1 X115
; Layer WorkSpace Pass 4 of 10
G1 Y286
G1 X93
G1 Y288
G1 X115
; Layer WorkSpace Pass 5 of 10
G1 Y286
G1 X93
G1 Y288
G1 X115
; Layer WorkSpace Pass 6 of 10
G1 Y286
G1 X93
G1 Y288
G1 X115
; Layer WorkSpace Pass 7 of 10
G1 Y286
G1 X93
G1 Y288
G1 X115
; Layer WorkSpace Pass 8 of 10
G1 Y286
G1 X93
G1 Y288
G1 X115
; Layer WorkSpace Pass 9 of 10
G1 Y286
G1 X93
G1 Y288
G1 X115
; Layer WorkSpace Pass 10 of 10
G1 Y286
G1 X93
G1 Y288
G1 X115
G0 X91Y292
; Layer WorkSpace Pass 1 of 10
G1 X89
G1 Y342
G1 X91
G1 Y292
; Layer WorkSpace Pass 2 of 10
G1 X89
G1 Y342
G1 X91
G1 Y292
; Layer WorkSpace Pass 3 of 10
G1 X89
G1 Y342
G1 X91
G1 Y292
; Layer WorkSpace Pass 4 of 10
G1 X89
G1 Y342
G1 X91
G1 Y292
; Layer WorkSpace Pass 5 of 10
G1 X89
G1 Y342
G1 X91
G1 Y292
; Layer WorkSpace Pass 6 of 10
G1 X89
G1 Y342
G1 X91
G1 Y292
; Layer WorkSpace Pass 7 of 10
G1 X89
G1 Y342
G1 X91
G1 Y292
; Layer WorkSpace Pass 8 of 10
G1 X89
G1 Y342
G1 X91
G1 Y292
; Layer WorkSpace Pass 9 of 10
G1 X89
G1 Y342
G1 X91
G1 Y292
; Layer WorkSpace Pass 10 of 10
G1 X89
G1 Y342
G1 X91
G1 Y292
G0 X85Y288
; Layer WorkSpace Pass 1 of 10
G1 Y286
G1 X35
G1 Y288
G1 X85
; Layer WorkSpace Pass 2 of 10
G1 Y286
G1 X35
G1 Y288
G1 X85
; Layer WorkSpace Pass 3 of 10
G1 Y286
G1 X35
G1 Y288
G1 X85
; Layer WorkSpace Pass 4 of 10
G1 Y286
G1 X35
G1 Y288
G1 X85
; Layer WorkSpace Pass 5 of 10
G1 Y286
G1 X35
G1 Y288
G1 X85
; Layer WorkSpace Pass 6 of 10
G1 Y286
G1 X35
G1 Y288
G1 X85
; Layer WorkSpace Pass 7 of 10
G1 Y286
G1 X35
G1 Y288
G1 X85
; Layer WorkSpace Pass 8 of 10
G1 Y286
G1 X35
G1 Y288
G1 X85
; Layer WorkSpace Pass 9 of 10
G1 Y286
G1 X35
G1 Y288
G1 X85
; Layer WorkSpace Pass 10 of 10
G1 Y286
G1 X35
G1 Y288
G1 X85
G0 X31Y292
; Layer WorkSpace Pass 1 of 10
G1 X29
G1 Y342
G1 X31
G1 Y292
; Layer WorkSpace Pass 2 of 10
G1 X29
G1 Y342
G1 X31
G1 Y292
; Layer WorkSpace Pass 3 of 10
G1 X29
G1 Y342
G1 X31
G1 Y292
; Layer WorkSpace Pass 4 of 10
G1 X29
G1 Y342
G1 X31
G1 Y292
; Layer WorkSpace Pass 5 of 10
G1 X29
G1 Y342
G1 X31
G1 Y292
; Layer WorkSpace Pass 6 of 10
G1 X29
G1 Y342
G1 X31
G1 Y292
; Layer WorkSpace Pass 7 of 10
G1 X29
G1 Y342
G1 X31
G1 Y292
; Layer WorkSpace Pass 8 of 10
G1 X29
G1 Y342
G1 X31
G1 Y292
; Layer WorkSpace Pass 9 of 10
G1 X29
G1 Y342
G1 X31
G1 Y292
; Layer WorkSpace Pass 10 of 10
G1 X29
G1 Y342
G1 X31
G1 Y292
G0 X25Y288
; Layer WorkSpace Pass 1 of 10
G1 Y286
G1 X3
G1 Y288
G1 X25
; Layer WorkSpace Pass 2 of 10
G1 Y286
G1 X3
G1 Y288
G1 X25
; Layer WorkSpace Pass 3 of 10
G1 Y286
G1 X3
G1 Y288
G1 X25
; Layer WorkSpace Pass 4 of 10
G1 Y286
G1 X3
G1 Y288
G1 X25
; Layer WorkSpace Pass 5 of 10
G1 Y286
G1 X3
G1 Y288
G1 X25
; Layer WorkSpace Pass 6 of 10
G1 Y286
G1 X3
G1 Y288
G1 X25
; Layer WorkSpace Pass 7 of 10
G1 Y286
G1 X3
G1 Y288
G1 X25
; Layer WorkSpace Pass 8 of 10
G1 Y286
G1 X3
G1 Y288
G1 X25
; Layer WorkSpace Pass 9 of 10
G1 Y286
G1 X3
G1 Y288
G1 X25
; Layer WorkSpace Pass 10 of 10
G1 Y286
G1 X3
G1 Y288
G1 X25
G0 X29.5Y286
; Layer WorkSpace Pass 1 of 10
G1 X30.5
G1 Y259
G1 X29.5
G1 Y286
; Layer WorkSpace Pass 2 of 10
G1 X30.5
G1 Y259
G1 X29.5
G1 Y286
; Layer WorkSpace Pass 3 of 10
G1 X30.5
G1 Y259
G1 X29.5
G1 Y286
; Layer WorkSpace Pass 4 of 10
G1 X30.5
G1 Y259
G1 X29.5
G1 Y286
; Layer WorkSpace Pass 5 of 10
G1 X30.5
G1 Y259
G1 X29.5
G1 Y286
; Layer WorkSpace Pass 6 of 10
G1 X30.5
G1 Y259
G1 X29.5
G1 Y286
; Layer WorkSpace Pass 7 of 10
G1 X30.5
G1 Y259
G1 X29.5
G1 Y286
; Layer WorkSpace Pass 8 of 10
G1 X30.5
G1 Y259
G1 X29.5
G1 Y286
; Layer WorkSpace Pass 9 of 10
G1 X30.5
G1 Y259
G1 X29.5
G1 Y286
; Layer WorkSpace Pass 10 of 10
G1 X30.5
G1 Y259
G1 X29.5
G1 Y286
G0 X0Y307
; Layer WorkSpace Pass 1 of 10
G1 X0.954Y307.044
G1 X1.883Y307.176
G1 X2.784Y307.392
G1 X3.653Y307.687
G1 X4.485Y308.058
G1 X5.275Y308.5
G1 X6.02Y309.011
G1 X6.715Y309.585
G1 X7.355Y310.22
G1 X7.937Y310.91
G1 X8.456Y311.653
G1 X8.907Y312.444
G1 X9.287Y313.279
G1 X9.59Y314.155
G1 X9.814Y315.067
G1 X9.952Y316.011
; Layer WorkSpace Pass 2 of 10
G1 X9.814Y315.067
G1 X9.59Y314.155
G1 X9.287Y313.279
G1 X8.907Y312.444
G1 X8.456Y311.653
G1 X7.937Y310.91
G1 X7.355Y310.22
G1 X6.715Y309.585
G1 X6.02Y309.011
G1 X5.275Y308.5
G1 X4.485Y308.058
G1 X3.653Y307.687
G1 X2.784Y307.392
G1 X1.883Y307.176
G1 X0.954Y307.044
G1 X0Y307
; Layer WorkSpace Pass 3 of 10
G1 X0.954Y307.044
G1 X1.883Y307.176
G1 X2.784Y307.392
G1 X3.653Y307.687
G1 X4.485Y308.058
G1 X5.275Y308.5
G1 X6.02Y309.011
G1 X6.715Y309.585
G1 X7.355Y310.22
G1 X7.937Y310.91
G1 X8.456Y311.653
G1 X8.907Y312.444
G1 X9.287Y313.279
G1 X9.59Y314.155
G1 X9.814Y315.067
G1 X9.952Y316.011
; Layer WorkSpace Pass 4 of 10
G1 X9.814Y315.067
G1 X9.59Y314.155
G1 X9.287Y313.279
G1 X8.907Y312.444
G1 X8.456Y311.653
G1 X7.937Y310.91
G1 X7.355Y310.22
G1 X6.715Y309.585
G1 X6.02Y309.011
G1 X5.275Y308.5
G1 X4.485Y308.058
G1 X3.653Y307.687
G1 X2.784Y307.392
G1 X1.883Y307.176
G1 X0.954Y307.044
G1 X0Y307
; Layer WorkSpace Pass 5 of 10
G1 X0.954Y307.044
G1 X1.883Y307.176
G1 X2.784Y307.392
G1 X3.653Y307.687
G1 X4.485Y308.058
G1 X5.275Y308.5
G1 X6.02Y309.011
G1 X6.715Y309.585
G1 X7.355Y310.22
G1 X7.937Y310.91
G1 X8.456Y311.653
G1 X8.907Y312.444
G1 X9.287Y313.279
G1 X9.59Y314.155
G1 X9.814Y315.067
G1 X9.952Y316.011
; Layer WorkSpace Pass 6 of 10
G1 X9.814Y315.067
G1 X9.59Y314.155
G1 X9.287Y313.279
G1 X8.907Y312.444
G1 X8.456Y311.653
G1 X7.937Y310.91
G1 X7.355Y310.22
G1 X6.715Y309.585
G1 X6.02Y309.011
G1 X5.275Y308.5
G1 X4.485Y308.058
G1 X3.653Y307.687
G1 X2.784Y307.392
G1 X1.883Y307.176
G1 X0.954Y307.044
G1 X0Y307
; Layer WorkSpace Pass 7 of 10
G1 X0.954Y307.044
G1 X1.883Y307.176
G1 X2.784Y307.392
G1 X3.653Y307.687
G1 X4.485Y308.058
G1 X5.275Y308.5
G1 X6.02Y309.011
G1 X6.715Y309.585
G1 X7.355Y310.22
G1 X7.937Y310.91
G1 X8.456Y311.653
G1 X8.907Y312.444
G1 X9.287Y313.279
G1 X9.59Y314.155
G1 X9.814Y315.067
G1 X9.952Y316.011
; Layer WorkSpace Pass 8 of 10
G1 X9.814Y315.067
G1 X9.59Y314.155
G1 X9.287Y313.279
G1 X8.907Y312.444
G1 X8.456Y311.653
G1 X7.937Y310.91
G1 X7.355Y310.22
G1 X6.715Y309.585
G1 X6.02Y309.011
G1 X5.275Y308.5
G1 X4.485Y308.058
G1 X3.653Y307.687
G1 X2.784Y307.392
G1 X1.883Y307.176
G1 X0.954Y307.044
G1 X0Y307
; Layer WorkSpace Pass 9 of 10
G1 X0.954Y307.044
G1 X1.883Y307.176
G1 X2.784Y307.392
G1 X3.653Y307.687
G1 X4.485Y308.058
G1 X5.275Y308.5
G1 X6.02Y309.011
G1 X6.715Y309.585
G1 X7.355Y310.22
G1 X7.937Y310.91
G1 X8.456Y311.653
G1 X8.907Y312.444
G1 X9.287Y313.279
G1 X9.59Y314.155
G1 X9.814Y315.067
G1 X9.952Y316.011
; Layer WorkSpace Pass 10 of 10
G1 X9.814Y315.067
G1 X9.59Y314.155
G1 X9.287Y313.279
G1 X8.907Y312.444
G1 X8.456Y311.653
G1 X7.937Y310.91
G1 X7.355Y310.22
G1 X6.715Y309.585
G1 X6.02Y309.011
G1 X5.275Y308.5
G1 X4.485Y308.058
G1 X3.653Y307.687
G1 X2.784Y307.392
G1 X1.883Y307.176
G1 X0.954Y307.044
G1 X0Y307
G0 X9.952Y316.011
; Layer WorkSpace Pass 1 of 10
G1 X10.002Y317.003
G1 X9.955Y317.978
G1 X9.816Y318.93
G1 X9.588Y319.854
G1 X9.275Y320.745
G1 X8.883Y321.598
G1 X8.413Y322.408
G1 X7.872Y323.17
G1 X7.262Y323.877
G1 X6.588Y324.526
G1 X5.853Y325.112
G1 X5.062Y325.628
G1 X4.219Y326.07
G1 X3.328Y326.432
G1 X2.393Y326.711
G1 X1.418Y326.899
; Layer WorkSpace Pass 2 of 10
G1 X2.393Y326.711
G1 X3.328Y326.432
G1 X4.219Y326.07
G1 X5.062Y325.628
G1 X5.853Y325.112
G1 X6.588Y324.526
G1 X7.262Y323.877
G1 X7.872Y323.17
G1 X8.413Y322.408
G1 X8.883Y321.598
G1 X9.275Y320.745
G1 X9.588Y319.854
G1 X9.816Y318.93
G1 X9.955Y317.978
G1 X10.002Y317.003
G1 X9.952Y316.011
; Layer WorkSpace Pass 3 of 10
G1 X10.002Y317.003
G1 X9.955Y317.978
G1 X9.816Y318.93
G1 X9.588Y319.854
G1 X9.275Y320.745
G1 X8.883Y321.598
G1 X8.413Y322.408
G1 X7.872Y323.17
G1 X7.262Y323.877
G1 X6.588Y324.526
G1 X5.853Y325.112
G1 X5.062Y325.628
G1 X4.219Y326.07
G1 X3.328Y326.432
G1 X2.393Y326.711
G1 X1.418Y326.899
; Layer WorkSpace Pass 4 of 10
G1 X2.393Y326.711
G1 X3.328Y326.432
G1 X4.219Y326.07
G1 X5.062Y325.628
G1 X5.853Y325.112
G1 X6.588Y324.526
G1 X7.262Y323.877
G1 X7.872Y323.17
G1 X8.413Y322.408
G1 X8.883Y321.598
G1 X9.275Y320.745
G1 X9.588Y319.854
G1 X9.816Y318.93
G1 X9.955Y317.978
G1 X10.002Y317.003
G1 X9.952Y316.011
; Layer WorkSpace Pass 5 of 10
G1 X10.002Y317.003
G1 X9.955Y317.978
G1 X9.816Y318.93
G1 X9.588Y319.854
G1 X9.275Y320.745
G1 X8.883Y321.598
G1 X8.413Y322.408
G1 X7.872Y323.17
G1 X7.262Y323.877
G1 X6.588Y324.526
G1 X5.853Y325.112
G1 X5.062Y325.628
G1 X4.219Y326.07
G1 X3.328Y326.432
G1 X2.393Y326.711
G1 X1.418Y326.899
; Layer WorkSpace Pass 6 of 10
G1 X2.393Y326.711
G1 X3.328Y326.432
G1 X4.219Y326.07
G1 X5.062Y325.628
G1 X5.853Y325.112
G1 X6.588Y324.526
G1 X7.262Y323.877
G1 X7.872Y323.17
G1 X8.413Y322.408
G1 X8.883Y321.598
G1 X9.275Y320.745
G1 X9.588Y319.854
G1 X9.816Y318.93
G1 X9.955Y317.978
G1 X10.002Y317.003
G1 X9.952Y316.011
; Layer WorkSpace Pass 7 of 10
G1 X10.002Y317.003
G1 X9.955Y317.978
G1 X9.816Y318.93
G1 X9.588Y319.854
G1 X9.275Y320.745
G1 X8.883Y321.598
G1 X8.413Y322.408
G1 X7.872Y323.17
G1 X7.262Y323.877
G1 X6.588Y324.526
G1 X5.853Y325.112
G1 X5.062Y325.628
G1 X4.219Y326.07
G1 X3.328Y326.432
G1 X2.393Y326.711
G1 X1.418Y326.899
; Layer WorkSpace Pass 8 of 10
G1 X2.393Y326.711
G1 X3.328Y326.432
G1 X4.219Y326.07
G1 X5.062Y325.628
G1 X5.853Y325.112
G1 X6.588Y324.526
G1 X7.262Y323.877
G1 X7.872Y323.17
G1 X8.413Y322.408
G1 X8.883Y321.598
G1 X9.275Y320.745
G1 X9.588Y319.854
G1 X9.816Y318.93
G1 X9.955Y317.978
G1 X10.002Y317.003
G1 X9.952Y316.011
; Layer WorkSpace Pass 9 of 10
G1 X10.002Y317.003
G1 X9.955Y317.978
G1 X9.816Y318.93
G1 X9.588Y319.854
G1 X9.275Y320.745
G1 X8.883Y321.598
G1 X8.413Y322.408
G1 X7.872Y323.17
G1 X7.262Y323.877
G1 X6.588Y324.526
G1 X5.853Y325.112
G1 X5.062Y325.628
G1 X4.219Y326.07
G1 X3.328Y326.432
G1 X2.393Y326.711
G1 X1.418Y326.899
; Layer WorkSpace Pass 10 of 10
G1 X2.393Y326.711
G1 X3.328Y326.432
G1 X4.219Y326.07
G1 X5.062Y325.628
G1 X5.853Y325.112
G1 X6.588Y324.526
G1 X7.262Y323.877
G1 X7.872Y323.17
G1 X8.413Y322.408
G1 X8.883Y321.598
G1 X9.275Y320.745
G1 X9.588Y319.854
G1 X9.816Y318.93
G1 X9.955Y317.978
G1 X10.002Y317.003
G1 X9.952Y316.011
G0 X1.418Y326.899
; Layer WorkSpace Pass 1 of 10
G1 X0.951Y326.955
; Layer WorkSpace Pass 2 of 10
G1 X1.418Y326.899
; Layer WorkSpace Pass 3 of 10
G1 X0.951Y326.955
; Layer WorkSpace Pass 4 of 10
G1 X1.418Y326.899
; Layer WorkSpace Pass 5 of 10
G1 X0.951Y326.955
; Layer WorkSpace Pass 6 of 10
G1 X1.418Y326.899
; Layer WorkSpace Pass 7 of 10
G1 X0.951Y326.955
; Layer WorkSpace Pass 8 of 10
G1 X1.418Y326.899
; Layer WorkSpace Pass 9 of 10
G1 X0.951Y326.955
; Layer WorkSpace Pass 10 of 10
G1 X1.418Y326.899
G0 X0.951Y326.955
; Layer WorkSpace Pass 1 of 10
G1 X0.478Y326.988
; Layer WorkSpace Pass 2 of 10
G1 X0.951Y326.955
; Layer WorkSpace Pass 3 of 10
G1 X0.478Y326.988
; Layer WorkSpace Pass 4 of 10
G1 X0.951Y326.955
; Layer WorkSpace Pass 5 of 10
G1 X0.478Y326.988
; Layer WorkSpace Pass 6 of 10
G1 X0.951Y326.955
; Layer WorkSpace Pass 7 of 10
G1 X0.478Y326.988
; Layer WorkSpace Pass 8 of 10
G1 X0.951Y326.955
; Layer WorkSpace Pass 9 of 10
G1 X0.478Y326.988
; Layer WorkSpace Pass 10 of 10
G1 X0.951Y326.955
G0 X0.478Y326.988
; Layer WorkSpace Pass 1 of 10
G1 X0Y327
; Layer WorkSpace Pass 2 of 10
G1 X0.478Y326.988
; Layer WorkSpace Pass 3 of 10
G1 X0Y327
; Layer WorkSpace Pass 4 of 10
G1 X0.478Y326.988
; Layer WorkSpace Pass 5 of 10
G1 X0Y327
; Layer WorkSpace Pass 6 of 10
G1 X0.478Y326.988
; Layer WorkSpace Pass 7 of 10
G1 X0Y327
; Layer WorkSpace Pass 8 of 10
G1 X0.478Y326.988
; Layer WorkSpace Pass 9 of 10
G1 X0Y327
; Layer WorkSpace Pass 10 of 10
G1 X0.478Y326.988
G0 X3Y346
; Layer WorkSpace Pass 1 of 10
G1 Y348
G1 X25
G1 Y346
G1 X3
; Layer WorkSpace Pass 2 of 10
G1 Y348
G1 X25
G1 Y346
G1 X3
; Layer WorkSpace Pass 3 of 10
G1 Y348
G1 X25
G1 Y346
G1 X3
; Layer WorkSpace Pass 4 of 10
G1 Y348
G1 X25
G1 Y346
G1 X3
; Layer WorkSpace Pass 5 of 10
G1 Y348
G1 X25
G1 Y346
G1 X3
; Layer WorkSpace Pass 6 of 10
G1 Y348
G1 X25
G1 Y346
G1 X3
; Layer WorkSpace Pass 7 of 10
G1 Y348
G1 X25
G1 Y346
G1 X3
; Layer WorkSpace Pass 8 of 10
G1 Y348
G1 X25
G1 Y346
G1 X3
; Layer WorkSpace Pass 9 of 10
G1 Y348
G1 X25
G1 Y346
G1 X3
; Layer WorkSpace Pass 10 of 10
G1 Y348
G1 X25
G1 Y346
G1 X3
G0 X29.5Y348
; Layer WorkSpace Pass 1 of 10
G1 Y375
G1 X30.5
G1 Y348
G1 X29.5
; Layer WorkSpace Pass 2 of 10
G1 Y375
G1 X30.5
G1 Y348
G1 X29.5
; Layer WorkSpace Pass 3 of 10
G1 Y375
G1 X30.5
G1 Y348
G1 X29.5
; Layer WorkSpace Pass 4 of 10
G1 Y375
G1 X30.5
G1 Y348
G1 X29.5
; Layer WorkSpace Pass 5 of 10
G1 Y375
G1 X30.5
G1 Y348
G1 X29.5
; Layer WorkSpace Pass 6 of 10
G1 Y375
G1 X30.5
G1 Y348
G1 X29.5
; Layer WorkSpace Pass 7 of 10
G1 Y375
G1 X30.5
G1 Y348
G1 X29.5
; Layer WorkSpace Pass 8 of 10
G1 Y375
G1 X30.5
G1 Y348
G1 X29.5
; Layer WorkSpace Pass 9 of 10
G1 Y375
G1 X30.5
G1 Y348
G1 X29.5
; Layer WorkSpace Pass 10 of 10
G1 Y375
G1 X30.5
G1 Y348
G1 X29.5
G0 X35Y348
; Layer WorkSpace Pass 1 of 10
G1 X85
G1 Y346
G1 X35
G1 Y348
; Layer WorkSpace Pass 2 of 10
G1 X85
G1 Y346
G1 X35
G1 Y348
; Layer WorkSpace Pass 3 of 10
G1 X85
G1 Y346
G1 X35
G1 Y348
; Layer WorkSpace Pass 4 of 10
G1 X85
G1 Y346
G1 X35
G1 Y348
; Layer WorkSpace Pass 5 of 10
G1 X85
G1 Y346
G1 X35
G1 Y348
; Layer WorkSpace Pass 6 of 10
G1 X85
G1 Y346
G1 X35
G1 Y348
; Layer WorkSpace Pass 7 of 10
G1 X85
G1 Y346
G1 X35
G1 Y348
; Layer WorkSpace Pass 8 of 10
G1 X85
G1 Y346
G1 X35
G1 Y348
; Layer WorkSpace Pass 9 of 10
G1 X85
G1 Y346
G1 X35
G1 Y348
; Layer WorkSpace Pass 10 of 10
G1 X85
G1 Y346
G1 X35
G1 Y348
G0 X0Y327
; Layer WorkSpace Pass 1 of 10
G1 Y347
G1 X30Y377
G1 X90
G1 Y347
; Layer WorkSpace Pass 2 of 10
G1 Y377
G1 X30
G1 X0Y347
G1 Y327
; Layer WorkSpace Pass 3 of 10
G1 Y347
G1 X30Y377
G1 X90
G1 Y347
; Layer WorkSpace Pass 4 of 10
G1 Y377
G1 X30
G1 X0Y347
G1 Y327
; Layer WorkSpace Pass 5 of 10
G1 Y347
G1 X30Y377
G1 X90
G1 Y347
; Layer WorkSpace Pass 6 of 10
G1 Y377
G1 X30
G1 X0Y347
G1 Y327
; Layer WorkSpace Pass 7 of 10
G1 Y347
G1 X30Y377
G1 X90
G1 Y347
; Layer WorkSpace Pass 8 of 10
G1 Y377
G1 X30
G1 X0Y347
G1 Y327
; Layer WorkSpace Pass 9 of 10
G1 Y347
G1 X30Y377
G1 X90
G1 Y347
; Layer WorkSpace Pass 10 of 10
G1 Y377
G1 X30
G1 X0Y347
G1 Y327
G0 X93Y346
; Layer WorkSpace Pass 1 of 10
G1 Y348
G1 X115
G1 Y346
G1 X93
; Layer WorkSpace Pass 2 of 10
G1 Y348
G1 X115
G1 Y346
G1 X93
; Layer WorkSpace Pass 3 of 10
G1 Y348
G1 X115
G1 Y346
G1 X93
; Layer WorkSpace Pass 4 of 10
G1 Y348
G1 X115
G1 Y346
G1 X93
; Layer WorkSpace Pass 5 of 10
G1 Y348
G1 X115
G1 Y346
G1 X93
; Layer WorkSpace Pass 6 of 10
G1 Y348
G1 X115
G1 Y346
G1 X93
; Layer WorkSpace Pass 7 of 10
G1 Y348
G1 X115
G1 Y346
G1 X93
; Layer WorkSpace Pass 8 of 10
G1 Y348
G1 X115
G1 Y346
G1 X93
; Layer WorkSpace Pass 9 of 10
G1 Y348
G1 X115
G1 Y346
G1 X93
; Layer WorkSpace Pass 10 of 10
G1 Y348
G1 X115
G1 Y346
G1 X93
G0 X119.5Y348
; Layer WorkSpace Pass 1 of 10
G1 Y375
G1 X120.5
G1 Y348
G1 X119.5
; Layer WorkSpace Pass 2 of 10
G1 Y375
G1 X120.5
G1 Y348
G1 X119.5
; Layer WorkSpace Pass 3 of 10
G1 Y375
G1 X120.5
G1 Y348
G1 X119.5
; Layer WorkSpace Pass 4 of 10
G1 Y375
G1 X120.5
G1 Y348
G1 X119.5
; Layer WorkSpace Pass 5 of 10
G1 Y375
G1 X120.5
G1 Y348
G1 X119.5
; Layer WorkSpace Pass 6 of 10
G1 Y375
G1 X120.5
G1 Y348
G1 X119.5
; Layer WorkSpace Pass 7 of 10
G1 Y375
G1 X120.5
G1 Y348
G1 X119.5
; Layer WorkSpace Pass 8 of 10
G1 Y375
G1 X120.5
G1 Y348
G1 X119.5
; Layer WorkSpace Pass 9 of 10
G1 Y375
G1 X120.5
G1 Y348
G1 X119.5
; Layer WorkSpace Pass 10 of 10
G1 Y375
G1 X120.5
G1 Y348
G1 X119.5
G0 X125Y348
; Layer WorkSpace Pass 1 of 10
G1 X175
G1 Y346
G1 X125
G1 Y348
; Layer WorkSpace Pass 2 of 10
G1 X175
G1 Y346
G1 X125
G1 Y348
; Layer WorkSpace Pass 3 of 10
G1 X175
G1 Y346
G1 X125
G1 Y348
; Layer WorkSpace Pass 4 of 10
G1 X175
G1 Y346
G1 X125
G1 Y348
; Layer WorkSpace Pass 5 of 10
G1 X175
G1 Y346
G1 X125
G1 Y348
; Layer WorkSpace Pass 6 of 10
G1 X175
G1 Y346
G1 X125
G1 Y348
; Layer WorkSpace Pass 7 of 10
G1 X175
G1 Y346
G1 X125
G1 Y348
; Layer WorkSpace Pass 8 of 10
G1 X175
G1 Y346
G1 X125
G1 Y348
; Layer WorkSpace Pass 9 of 10
G1 X175
G1 Y346
G1 X125
G1 Y348
; Layer WorkSpace Pass 10 of 10
G1 X175
G1 Y346
G1 X125
G1 Y348
G0 X120.5Y382
; Layer WorkSpace Pass 1 of 10
G1 X119.5
G1 Y409
G1 X120.5
G1 Y382
; Layer WorkSpace Pass 2 of 10
G1 X119.5
G1 Y409
G1 X120.5
G1 Y382
; Layer WorkSpace Pass 3 of 10
G1 X119.5
G1 Y409
G1 X120.5
G1 Y382
; Layer WorkSpace Pass 4 of 10
G1 X119.5
G1 Y409
G1 X120.5
G1 Y382
; Layer WorkSpace Pass 5 of 10
G1 X119.5
G1 Y409
G1 X120.5
G1 Y382
; Layer WorkSpace Pass 6 of 10
G1 X119.5
G1 Y409
G1 X120.5
G1 Y382
; Layer WorkSpace Pass 7 of 10
G1 X119.5
G1 Y409
G1 X120.5
G1 Y382
; Layer WorkSpace Pass 8 of 10
G1 X119.5
G1 Y409
G1 X120.5
G1 Y382
; Layer WorkSpace Pass 9 of 10
G1 X119.5
G1 Y409
G1 X120.5
G1 Y382
; Layer WorkSpace Pass 10 of 10
G1 X119.5
G1 Y409
G1 X120.5
G1 Y382
G0 X125Y409
; Layer WorkSpace Pass 1 of 10
G1 Y411
G1 X175
G1 Y409
G1 X125
; Layer WorkSpace Pass 2 of 10
G1 Y411
G1 X175
G1 Y409
G1 X125
; Layer WorkSpace Pass 3 of 10
G1 Y411
G1 X175
G1 Y409
G1 X125
; Layer WorkSpace Pass 4 of 10
G1 Y411
G1 X175
G1 Y409
G1 X125
; Layer WorkSpace Pass 5 of 10
G1 Y411
G1 X175
G1 Y409
G1 X125
; Layer WorkSpace Pass 6 of 10
G1 Y411
G1 X175
G1 Y409
G1 X125
; Layer WorkSpace Pass 7 of 10
G1 Y411
G1 X175
G1 Y409
G1 X125
; Layer WorkSpace Pass 8 of 10
G1 Y411
G1 X175
G1 Y409
G1 X125
; Layer WorkSpace Pass 9 of 10
G1 Y411
G1 X175
G1 Y409
G1 X125
; Layer WorkSpace Pass 10 of 10
G1 Y411
G1 X175
G1 Y409
G1 X125
G0 X121Y415
; Layer WorkSpace Pass 1 of 10
G1 X119
G1 Y465
G1 X121
G1 Y415
; Layer WorkSpace Pass 2 of 10
G1 X119
G1 Y465
G1 X121
G1 Y415
; Layer WorkSpace Pass 3 of 10
G1 X119
G1 Y465
G1 X121
G1 Y415
; Layer WorkSpace Pass 4 of 10
G1 X119
G1 Y465
G1 X121
G1 Y415
; Layer WorkSpace Pass 5 of 10
G1 X119
G1 Y465
G1 X121
G1 Y415
; Layer WorkSpace Pass 6 of 10
G1 X119
G1 Y465
G1 X121
G1 Y415
; Layer WorkSpace Pass 7 of 10
G1 X119
G1 Y465
G1 X121
G1 Y415
; Layer WorkSpace Pass 8 of 10
G1 X119
G1 Y465
G1 X121
G1 Y415
; Layer WorkSpace Pass 9 of 10
G1 X119
G1 Y465
G1 X121
G1 Y415
; Layer WorkSpace Pass 10 of 10
G1 X119
G1 Y465
G1 X121
G1 Y415
G0 X115Y411
; Layer WorkSpace Pass 1 of 10
G1 Y409
G1 X93
G1 Y411
G1 X115
; Layer WorkSpace Pass 2 of 10
G1 Y409
G1 X93
G1 Y411
G1 X115
; Layer WorkSpace Pass 3 of 10
G1 Y409
G1 X93
G1 Y411
G1 X115
; Layer WorkSpace Pass 4 of 10
G1 Y409
G1 X93
G1 Y411
G1 X115
; Layer WorkSpace Pass 5 of 10
G1 Y409
G1 X93
G1 Y411
G1 X115
; Layer WorkSpace Pass 6 of 10
G1 Y409
G1 X93
G1 Y411
G1 X115
; Layer WorkSpace Pass 7 of 10
G1 Y409
G1 X93
G1 Y411
G1 X115
; Layer WorkSpace Pass 8 of 10
G1 Y409
G1 X93
G1 Y411
G1 X115
; Layer WorkSpace Pass 9 of 10
G1 Y409
G1 X93
G1 Y411
G1 X115
; Layer WorkSpace Pass 10 of 10
G1 Y409
G1 X93
G1 Y411
G1 X115
G0 X91Y415
; Layer WorkSpace Pass 1 of 10
G1 X89
G1 Y465
G1 X91
G1 Y415
; Layer WorkSpace Pass 2 of 10
G1 X89
G1 Y465
G1 X91
G1 Y415
; Layer WorkSpace Pass 3 of 10
G1 X89
G1 Y465
G1 X91
G1 Y415
; Layer WorkSpace Pass 4 of 10
G1 X89
G1 Y465
G1 X91
G1 Y415
; Layer WorkSpace Pass 5 of 10
G1 X89
G1 Y465
G1 X91
G1 Y415
; Layer WorkSpace Pass 6 of 10
G1 X89
G1 Y465
G1 X91
G1 Y415
; Layer WorkSpace Pass 7 of 10
G1 X89
G1 Y465
G1 X91
G1 Y415
; Layer WorkSpace Pass 8 of 10
G1 X89
G1 Y465
G1 X91
G1 Y415
; Layer WorkSpace Pass 9 of 10
G1 X89
G1 Y465
G1 X91
G1 Y415
; Layer WorkSpace Pass 10 of 10
G1 X89
G1 Y465
G1 X91
G1 Y415
G0 X85Y411
; Layer WorkSpace Pass 1 of 10
G1 Y409
G1 X35
G1 Y411
G1 X85
; Layer WorkSpace Pass 2 of 10
G1 Y409
G1 X35
G1 Y411
G1 X85
; Layer WorkSpace Pass 3 of 10
G1 Y409
G1 X35
G1 Y411
G1 X85
; Layer WorkSpace Pass 4 of 10
G1 Y409
G1 X35
G1 Y411
G1 X85
; Layer WorkSpace Pass 5 of 10
G1 Y409
G1 X35
G1 Y411
G1 X85
; Layer WorkSpace Pass 6 of 10
G1 Y409
G1 X35
G1 Y411
G1 X85
; Layer WorkSpace Pass 7 of 10
G1 Y409
G1 X35
G1 Y411
G1 X85
; Layer WorkSpace Pass 8 of 10
G1 Y409
G1 X35
G1 Y411
G1 X85
; Layer WorkSpace Pass 9 of 10
G1 Y409
G1 X35
G1 Y411
G1 X85
; Layer WorkSpace Pass 10 of 10
G1 Y409
G1 X35
G1 Y411
G1 X85
G0 X31Y415
; Layer WorkSpace Pass 1 of 10
G1 X29
G1 Y465
G1 X31
G1 Y415
; Layer WorkSpace Pass 2 of 10
G1 X29
G1 Y465
G1 X31
G1 Y415
; Layer WorkSpace Pass 3 of 10
G1 X29
G1 Y465
G1 X31
G1 Y415
; Layer WorkSpace Pass 4 of 10
G1 X29
G1 Y465
G1 X31
G1 Y415
; Layer WorkSpace Pass 5 of 10
G1 X29
G1 Y465
G1 X31
G1 Y415
; Layer WorkSpace Pass 6 of 10
G1 X29
G1 Y465
G1 X31
G1 Y415
; Layer WorkSpace Pass 7 of 10
G1 X29
G1 Y465
G1 X31
G1 Y415
; Layer WorkSpace Pass 8 of 10
G1 X29
G1 Y465
G1 X31
G1 Y415
; Layer WorkSpace Pass 9 of 10
G1 X29
G1 Y465
G1 X31
G1 Y415
; Layer WorkSpace Pass 10 of 10
G1 X29
G1 Y465
G1 X31
G1 Y415
G0 X25Y411
; Layer WorkSpace Pass 1 of 10
G1 Y409
G1 X3
G1 Y411
G1 X25
; Layer WorkSpace Pass 2 of 10
G1 Y409
G1 X3
G1 Y411
G1 X25
; Layer WorkSpace Pass 3 of 10
G1 Y409
G1 X3
G1 Y411
G1 X25
; Layer WorkSpace Pass 4 of 10
G1 Y409
G1 X3
G1 Y411
G1 X25
; Layer WorkSpace Pass 5 of 10
G1 Y409
G1 X3
G1 Y411
G1 X25
; Layer WorkSpace Pass 6 of 10
G1 Y409
G1 X3
G1 Y411
G1 X25
; Layer WorkSpace Pass 7 of 10
G1 Y409
G1 X3
G1 Y411
G1 X25
; Layer WorkSpace Pass 8 of 10
G1 Y409
G1 X3
G1 Y411
G1 X25
; Layer WorkSpace Pass 9 of 10
G1 Y409
G1 X3
G1 Y411
G1 X25
; Layer WorkSpace Pass 10 of 10
G1 Y409
G1 X3
G1 Y411
G1 X25
G0 X29.5Y409
; Layer WorkSpace Pass 1 of 10
G1 X30.5
G1 Y382
G1 X29.5
G1 Y409
; Layer WorkSpace Pass 2 of 10
G1 X30.5
G1 Y382
G1 X29.5
G1 Y409
; Layer WorkSpace Pass 3 of 10
G1 X30.5
G1 Y382
G1 X29.5
G1 Y409
; Layer WorkSpace Pass 4 of 10
G1 X30.5
G1 Y382
G1 X29.5
G1 Y409
; Layer WorkSpace Pass 5 of 10
G1 X30.5
G1 Y382
G1 X29.5
G1 Y409
; Layer WorkSpace Pass 6 of 10
G1 X30.5
G1 Y382
G1 X29.5
G1 Y409
; Layer WorkSpace Pass 7 of 10
G1 X30.5
G1 Y382
G1 X29.5
G1 Y409
; Layer WorkSpace Pass 8 of 10
G1 X30.5
G1 Y382
G1 X29.5
G1 Y409
; Layer WorkSpace Pass 9 of 10
G1 X30.5
G1 Y382
G1 X29.5
G1 Y409
; Layer WorkSpace Pass 10 of 10
G1 X30.5
G1 Y382
G1 X29.5
G1 Y409
G0 X0Y430
; Layer WorkSpace Pass 1 of 10
G1 X0.954Y430.044
G1 X1.883Y430.176
G1 X2.784Y430.392
G1 X3.653Y430.687
G1 X4.485Y431.058
G1 X5.275Y431.5
G1 X6.02Y432.011
G1 X6.715Y432.585
G1 X7.355Y433.22
G1 X7.937Y433.91
G1 X8.456Y434.653
G1 X8.907Y435.444
G1 X9.287Y436.279
G1 X9.59Y437.155
G1 X9.814Y438.067
G1 X9.952Y439.011
; Layer WorkSpace Pass 2 of 10
G1 X9.814Y438.067
G1 X9.59Y437.155
G1 X9.287Y436.279
G1 X8.907Y435.444
G1 X8.456Y434.653
G1 X7.937Y433.91
G1 X7.355Y433.22
G1 X6.715Y432.585
G1 X6.02Y432.011
G1 X5.275Y431.5
G1 X4.485Y431.058
G1 X3.653Y430.687
G1 X2.784Y430.392
G1 X1.883Y430.176
G1 X0.954Y430.044
G1 X0Y430
; Layer WorkSpace Pass 3 of 10
G1 X0.954Y430.044
G1 X1.883Y430.176
G1 X2.784Y430.392
G1 X3.653Y430.687
G1 X4.485Y431.058
G1 X5.275Y431.5
G1 X6.02Y432.011
G1 X6.715Y432.585
G1 X7.355Y433.22
G1 X7.937Y433.91
G1 X8.456Y434.653
G1 X8.907Y435.444
G1 X9.287Y436.279
G1 X9.59Y437.155
G1 X9.814Y438.067
G1 X9.952Y439.011
; Layer WorkSpace Pass 4 of 10
G1 X9.814Y438.067
G1 X9.59Y437.155
G1 X9.287Y436.279
G1 X8.907Y435.444
G1 X8.456Y434.653
G1 X7.937Y433.91
G1 X7.355Y433.22
G1 X6.715Y432.585
G1 X6.02Y432.011
G1 X5.275Y431.5
G1 X4.485Y431.058
G1 X3.653Y430.687
G1 X2.784Y430.392
G1 X1.883Y430.176
G1 X0.954Y430.044
G1 X0Y430
; Layer WorkSpace Pass 5 of 10
G1 X0.954Y430.044
G1 X1.883Y430.176
G1 X2.784Y430.392
G1 X3.653Y430.687
G1 X4.485Y431.058
G1 X5.275Y431.5
G1 X6.02Y432.011
G1 X6.715Y432.585
G1 X7.355Y433.22
G1 X7.937Y433.91
G1 X8.456Y434.653
G1 X8.907Y435.444
G1 X9.287Y436.279
G1 X9.59Y437.155
G1 X9.814Y438.067
G1 X9.952Y439.011
; Layer WorkSpace Pass 6 of 10
G1 X9.814Y438.067
G1 X9.59Y437.155
G1 X9.287Y436.279
G1 X8.907Y435.444
G1 X8.456Y434.653
G1 X7.937Y433.91
G1 X7.355Y433.22
G1 X6.715Y432.585
G1 X6.02Y432.011
G1 X5.275Y431.5
G1 X4.485Y431.058
G1 X3.653Y430.687
G1 X2.784Y430.392
G1 X1.883Y430.176
G1 X0.954Y430.044
G1 X0Y430
; Layer WorkSpace Pass 7 of 10
G1 X0.954Y430.044
G1 X1.883Y430.176
G1 X2.784Y430.392
G1 X3.653Y430.687
G1 X4.485Y431.058
G1 X5.275Y431.5
G1 X6.02Y432.011
G1 X6.715Y432.585
G1 X7.355Y433.22
G1 X7.937Y433.91
G1 X8.456Y434.653
G1 X8.907Y435.444
G1 X9.287Y436.279
G1 X9.59Y437.155
G1 X9.814Y438.067
G1 X9.952Y439.011
; Layer WorkSpace Pass 8 of 10
G1 X9.814Y438.067
G1 X9.59Y437.155
G1 X9.287Y436.279
G1 X8.907Y435.444
G1 X8.456Y434.653
G1 X7.937Y433.91
G1 X7.355Y433.22
G1 X6.715Y432.585
G1 X6.02Y432.011
G1 X5.275Y431.5
G1 X4.485Y431.058
G1 X3.653Y430.687
G1 X2.784Y430.392
G1 X1.883Y430.176
G1 X0.954Y430.044
G1 X0Y430
; Layer WorkSpace Pass 9 of 10
G1 X0.954Y430.044
G1 X1.883Y430.176
G1 X2.784Y430.392
G1 X3.653Y430.687
G1 X4.485Y431.058
G1 X5.275Y431.5
G1 X6.02Y432.011
G1 X6.715Y432.585
G1 X7.355Y433.22
G1 X7.937Y433.91
G1 X8.456Y434.653
G1 X8.907Y435.444
G1 X9.287Y436.279
G1 X9.59Y437.155
G1 X9.814Y438.067
G1 X9.952Y439.011
; Layer WorkSpace Pass 10 of 10
G1 X9.814Y438.067
G1 X9.59Y437.155
G1 X9.287Y436.279
G1 X8.907Y435.444
G1 X8.456Y434.653
G1 X7.937Y433.91
G1 X7.355Y433.22
G1 X6.715Y432.585
G1 X6.02Y432.011
G1 X5.275Y431.5
G1 X4.485Y431.058
G1 X3.653Y430.687
G1 X2.784Y430.392
G1 X1.883Y430.176
G1 X0.954Y430.044
G1 X0Y430
G0 X9.952Y439.011
; Layer WorkSpace Pass 1 of 10
G1 X10.002Y440.003
G1 X9.955Y440.978
G1 X9.816Y441.93
G1 X9.588Y442.854
G1 X9.275Y443.745
G1 X8.883Y444.598
G1 X8.413Y445.408
G1 X7.872Y446.17
G1 X7.262Y446.877
G1 X6.588Y447.526
G1 X5.853Y448.112
G1 X5.062Y448.628
G1 X4.219Y449.07
G1 X3.328Y449.433
G1 X2.393Y449.711
G1 X1.418Y449.899
; Layer WorkSpace Pass 2 of 10
G1 X2.393Y449.711
G1 X3.328Y449.433
G1 X4.219Y449.07
G1 X5.062Y448.628
G1 X5.853Y448.112
G1 X6.588Y447.526
G1 X7.262Y446.877
G1 X7.872Y446.17
G1 X8.413Y445.408
G1 X8.883Y444.598
G1 X9.275Y443.745
G1 X9.588Y442.854
G1 X9.816Y441.93
G1 X9.955Y440.978
G1 X10.002Y440.003
G1 X9.952Y439.011
; Layer WorkSpace Pass 3 of 10
G1 X10.002Y440.003
G1 X9.955Y440.978
G1 X9.816Y441.93
G1 X9.588Y442.854
G1 X9.275Y443.745
G1 X8.883Y444.598
G1 X8.413Y445.408
G1 X7.872Y446.17
G1 X7.262Y446.877
G1 X6.588Y447.526
G1 X5.853Y448.112
G1 X5.062Y448.628
G1 X4.219Y449.07
G1 X3.328Y449.433
G1 X2.393Y449.711
G1 X1.418Y449.899
; Layer WorkSpace Pass 4 of 10
G1 X2.393Y449.711
G1 X3.328Y449.433
G1 X4.219Y449.07
G1 X5.062Y448.628
G1 X5.853Y448.112
G1 X6.588Y447.526
G1 X7.262Y446.877
G1 X7.872Y446.17
G1 X8.413Y445.408
G1 X8.883Y444.598
G1 X9.275Y443.745
G1 X9.588Y442.854
G1 X9.816Y441.93
G1 X9.955Y440.978
G1 X10.002Y440.003
G1 X9.952Y439.011
; Layer WorkSpace Pass 5 of 10
G1 X10.002Y440.003
G1 X9.955Y440.978
G1 X9.816Y441.93
G1 X9.588Y442.854
G1 X9.275Y443.745
G1 X8.883Y444.598
G1 X8.413Y445.408
G1 X7.872Y446.17
G1 X7.262Y446.877
G1 X6.588Y447.526
G1 X5.853Y448.112
G1 X5.062Y448.628
G1 X4.219Y449.07
G1 X3.328Y449.433
G1 X2.393Y449.711
G1 X1.418Y449.899
; Layer WorkSpace Pass 6 of 10
G1 X2.393Y449.711
G1 X3.328Y449.433
G1 X4.219Y449.07
G1 X5.062Y448.628
G1 X5.853Y448.112
G1 X6.588Y447.526
G1 X7.262Y446.877
G1 X7.872Y446.17
G1 X8.413Y445.408
G1 X8.883Y444.598
G1 X9.275Y443.745
G1 X9.588Y442.854
G1 X9.816Y441.93
G1 X9.955Y440.978
G1 X10.002Y440.003
G1 X9.952Y439.011
; Layer WorkSpace Pass 7 of 10
G1 X10.002Y440.003
G1 X9.955Y440.978
G1 X9.816Y441.93
G1 X9.588Y442.854
G1 X9.275Y443.745
G1 X8.883Y444.598
G1 X8.413Y445.408
G1 X7.872Y446.17
G1 X7.262Y446.877
G1 X6.588Y447.526
G1 X5.853Y448.112
G1 X5.062Y448.628
G1 X4.219Y449.07
G1 X3.328Y449.433
G1 X2.393Y449.711
G1 X1.418Y449.899
; Layer WorkSpace Pass 8 of 10
G1 X2.393Y449.711
G1 X3.328Y449.433
G1 X4.219Y449.07
G1 X5.062Y448.628
G1 X5.853Y448.112
G1 X6.588Y447.526
G1 X7.262Y446.877
G1 X7.872Y446.17
G1 X8.413Y445.408
G1 X8.883Y444.598
G1 X9.275Y443.745
G1 X9.588Y442.854
G1 X9.816Y441.93
G1 X9.955Y440.978
G1 X10.002Y440.003
G1 X9.952Y439.011
; Layer WorkSpace Pass 9 of 10
G1 X10.002Y440.003
G1 X9.955Y440.978
G1 X9.816Y441.93
G1 X9.588Y442.854
G1 X9.275Y443.745
G1 X8.883Y444.598
G1 X8.413Y445.408
G1 X7.872Y446.17
G1 X7.262Y446.877
G1 X6.588Y447.526
G1 X5.853Y448.112
G1 X5.062Y448.628
G1 X4.219Y449.07
G1 X3.328Y449.433
G1 X2.393Y449.711
G1 X1.418Y449.899
; Layer WorkSpace Pass 10 of 10
G1 X2.393Y449.711
G1 X3.328Y449.433
G1 X4.219Y449.07
G1 X5.062Y448.628
G1 X5.853Y448.112
G1 X6.588Y447.526
G1 X7.262Y446.877
G1 X7.872Y446.17
G1 X8.413Y445.408
G1 X8.883Y444.598
G1 X9.275Y443.745
G1 X9.588Y442.854
G1 X9.816Y441.93
G1 X9.955Y440.978
G1 X10.002Y440.003
G1 X9.952Y439.011
G0 X1.418Y449.899
; Layer WorkSpace Pass 1 of 10
G1 X0.951Y449.955
; Layer WorkSpace Pass 2 of 10
G1 X1.418Y449.899
; Layer WorkSpace Pass 3 of 10
G1 X0.951Y449.955
; Layer WorkSpace Pass 4 of 10
G1 X1.418Y449.899
; Layer WorkSpace Pass 5 of 10
G1 X0.951Y449.955
; Layer WorkSpace Pass 6 of 10
G1 X1.418Y449.899
; Layer WorkSpace Pass 7 of 10
G1 X0.951Y449.955
; Layer WorkSpace Pass 8 of 10
G1 X1.418Y449.899
; Layer WorkSpace Pass 9 of 10
G1 X0.951Y449.955
; Layer WorkSpace Pass 10 of 10
G1 X1.418Y449.899
G0 X0.951Y449.955
; Layer WorkSpace Pass 1 of 10
G1 X0.478Y449.989
; Layer WorkSpace Pass 2 of 10
G1 X0.951Y449.955
; Layer WorkSpace Pass 3 of 10
G1 X0.478Y449.989
; Layer WorkSpace Pass 4 of 10
G1 X0.951Y449.955
; Layer WorkSpace Pass 5 of 10
G1 X0.478Y449.989
; Layer WorkSpace Pass 6 of 10
G1 X0.951Y449.955
; Layer WorkSpace Pass 7 of 10
G1 X0.478Y449.989
; Layer WorkSpace Pass 8 of 10
G1 X0.951Y449.955
; Layer WorkSpace Pass 9 of 10
G1 X0.478Y449.989
; Layer WorkSpace Pass 10 of 10
G1 X0.951Y449.955
G0 X0.478Y449.989
; Layer WorkSpace Pass 1 of 10
G1 X0Y450
; Layer WorkSpace Pass 2 of 10
G1 X0.478Y449.989
; Layer WorkSpace Pass 3 of 10
G1 X0Y450
; Layer WorkSpace Pass 4 of 10
G1 X0.478Y449.989
; Layer WorkSpace Pass 5 of 10
G1 X0Y450
; Layer WorkSpace Pass 6 of 10
G1 X0.478Y449.989
; Layer WorkSpace Pass 7 of 10
G1 X0Y450
; Layer WorkSpace Pass 8 of 10
G1 X0.478Y449.989
; Layer WorkSpace Pass 9 of 10
G1 X0Y450
; Layer WorkSpace Pass 10 of 10
G1 X0.478Y449.989
G0 X3Y469
; Layer WorkSpace Pass 1 of 10
G1 Y471
G1 X25
G1 Y469
G1 X3
; Layer WorkSpace Pass 2 of 10
G1 Y471
G1 X25
G1 Y469
G1 X3
; Layer WorkSpace Pass 3 of 10
G1 Y471
G1 X25
G1 Y469
G1 X3
; Layer WorkSpace Pass 4 of 10
G1 Y471
G1 X25
G1 Y469
G1 X3
; Layer WorkSpace Pass 5 of 10
G1 Y471
G1 X25
G1 Y469
G1 X3
; Layer WorkSpace Pass 6 of 10
G1 Y471
G1 X25
G1 Y469
G1 X3
; Layer WorkSpace Pass 7 of 10
G1 Y471
G1 X25
G1 Y469
G1 X3
; Layer WorkSpace Pass 8 of 10
G1 Y471
G1 X25
G1 Y469
G1 X3
; Layer WorkSpace Pass 9 of 10
G1 Y471
G1 X25
G1 Y469
G1 X3
; Layer WorkSpace Pass 10 of 10
G1 Y471
G1 X25
G1 Y469
G1 X3
G0 X29.5Y471
; Layer WorkSpace Pass 1 of 10
G1 Y498
G1 X30.5
G1 Y471
G1 X29.5
; Layer WorkSpace Pass 2 of 10
G1 Y498
G1 X30.5
G1 Y471
G1 X29.5
; Layer WorkSpace Pass 3 of 10
G1 Y498
G1 X30.5
G1 Y471
G1 X29.5
; Layer WorkSpace Pass 4 of 10
G1 Y498
G1 X30.5
G1 Y471
G1 X29.5
; Layer WorkSpace Pass 5 of 10
G1 Y498
G1 X30.5
G1 Y471
G1 X29.5
; Layer WorkSpace Pass 6 of 10
G1 Y498
G1 X30.5
G1 Y471
G1 X29.5
; Layer WorkSpace Pass 7 of 10
G1 Y498
G1 X30.5
G1 Y471
G1 X29.5
; Layer WorkSpace Pass 8 of 10
G1 Y498
G1 X30.5
G1 Y471
G1 X29.5
; Layer WorkSpace Pass 9 of 10
G1 Y498
G1 X30.5
G1 Y471
G1 X29.5
; Layer WorkSpace Pass 10 of 10
G1 Y498
G1 X30.5
G1 Y471
G1 X29.5
G0 X35Y471
; Layer WorkSpace Pass 1 of 10
G1 X85
G1 Y469
G1 X35
G1 Y471
; Layer WorkSpace Pass 2 of 10
G1 X85
G1 Y469
G1 X35
G1 Y471
; Layer WorkSpace Pass 3 of 10
G1 X85
G1 Y469
G1 X35
G1 Y471
; Layer WorkSpace Pass 4 of 10
G1 X85
G1 Y469
G1 X35
G1 Y471
; Layer WorkSpace Pass 5 of 10
G1 X85
G1 Y469
G1 X35
G1 Y471
; Layer WorkSpace Pass 6 of 10
G1 X85
G1 Y469
G1 X35
G1 Y471
; Layer WorkSpace Pass 7 of 10
G1 X85
G1 Y469
G1 X35
G1 Y471
; Layer WorkSpace Pass 8 of 10
G1 X85
G1 Y469
G1 X35
G1 Y471
; Layer WorkSpace Pass 9 of 10
G1 X85
G1 Y469
G1 X35
G1 Y471
; Layer WorkSpace Pass 10 of 10
G1 X85
G1 Y469
G1 X35
G1 Y471
G0 X30Y500
; Layer WorkSpace Pass 1 of 10
G1 X0
; Layer WorkSpace Pass 2 of 10
G1 X30
; Layer WorkSpace Pass 3 of 10
G1 X0
; Layer WorkSpace Pass 4 of 10
G1 X30
; Layer WorkSpace Pass 5 of 10
G1 X0
; Layer WorkSpace Pass 6 of 10
G1 X30
; Layer WorkSpace Pass 7 of 10
G1 X0
; Layer WorkSpace Pass 8 of 10
G1 X30
; Layer WorkSpace Pass 9 of 10
G1 X0
; Layer WorkSpace Pass 10 of 10
G1 X30
G0 X0Y450
; Layer WorkSpace Pass 1 of 10
G1 Y470
G1 X30Y500
G1 X90
G1 Y470
; Layer WorkSpace Pass 2 of 10
G1 Y500
G1 X30
G1 X0Y470
G1 Y450
; Layer WorkSpace Pass 3 of 10
G1 Y470
G1 X30Y500
G1 X90
G1 Y470
; Layer WorkSpace Pass 4 of 10
G1 Y500
G1 X30
G1 X0Y470
G1 Y450
; Layer WorkSpace Pass 5 of 10
G1 Y470
G1 X30Y500
G1 X90
G1 Y470
; Layer WorkSpace Pass 6 of 10
G1 Y500
G1 X30
G1 X0Y470
G1 Y450
; Layer WorkSpace Pass 7 of 10
G1 Y470
G1 X30Y500
G1 X90
G1 Y470
; Layer WorkSpace Pass 8 of 10
G1 Y500
G1 X30
G1 X0Y470
G1 Y450
; Layer WorkSpace Pass 9 of 10
G1 Y470
G1 X30Y500
G1 X90
G1 Y470
; Layer WorkSpace Pass 10 of 10
G1 Y500
G1 X30
G1 X0Y470
G1 Y450
G0 X93Y469
; Layer WorkSpace Pass 1 of 10
G1 Y471
G1 X115
G1 Y469
G1 X93
; Layer WorkSpace Pass 2 of 10
G1 Y471
G1 X115
G1 Y469
G1 X93
; Layer WorkSpace Pass 3 of 10
G1 Y471
G1 X115
G1 Y469
G1 X93
; Layer WorkSpace Pass 4 of 10
G1 Y471
G1 X115
G1 Y469
G1 X93
; Layer WorkSpace Pass 5 of 10
G1 Y471
G1 X115
G1 Y469
G1 X93
; Layer WorkSpace Pass 6 of 10
G1 Y471
G1 X115
G1 Y469
G1 X93
; Layer WorkSpace Pass 7 of 10
G1 Y471
G1 X115
G1 Y469
G1 X93
; Layer WorkSpace Pass 8 of 10
G1 Y471
G1 X115
G1 Y469
G1 X93
; Layer WorkSpace Pass 9 of 10
G1 Y471
G1 X115
G1 Y469
G1 X93
; Layer WorkSpace Pass 10 of 10
G1 Y471
G1 X115
G1 Y469
G1 X93
G0 X119.5Y471
; Layer WorkSpace Pass 1 of 10
G1 Y498
G1 X120.5
G1 Y471
G1 X119.5
; Layer WorkSpace Pass 2 of 10
G1 Y498
G1 X120.5
G1 Y471
G1 X119.5
; Layer WorkSpace Pass 3 of 10
G1 Y498
G1 X120.5
G1 Y471
G1 X119.5
; Layer WorkSpace Pass 4 of 10
G1 Y498
G1 X120.5
G1 Y471
G1 X119.5
; Layer WorkSpace Pass 5 of 10
G1 Y498
G1 X120.5
G1 Y471
G1 X119.5
; Layer WorkSpace Pass 6 of 10
G1 Y498
G1 X120.5
G1 Y471
G1 X119.5
; Layer WorkSpace Pass 7 of 10
G1 Y498
G1 X120.5
G1 Y471
G1 X119.5
; Layer WorkSpace Pass 8 of 10
G1 Y498
G1 X120.5
G1 Y471
G1 X119.5
; Layer WorkSpace Pass 9 of 10
G1 Y498
G1 X120.5
G1 Y471
G1 X119.5
; Layer WorkSpace Pass 10 of 10
G1 Y498
G1 X120.5
G1 Y471
G1 X119.5
G0 X125Y471
; Layer WorkSpace Pass 1 of 10
G1 X175
G1 Y469
G1 X125
G1 Y471
; Layer WorkSpace Pass 2 of 10
G1 X175
G1 Y469
G1 X125
G1 Y471
; Layer WorkSpace Pass 3 of 10
G1 X175
G1 Y469
G1 X125
G1 Y471
; Layer WorkSpace Pass 4 of 10
G1 X175
G1 Y469
G1 X125
G1 Y471
; Layer WorkSpace Pass 5 of 10
G1 X175
G1 Y469
G1 X125
G1 Y471
; Layer WorkSpace Pass 6 of 10
G1 X175
G1 Y469
G1 X125
G1 Y471
; Layer WorkSpace Pass 7 of 10
G1 X175
G1 Y469
G1 X125
G1 Y471
; Layer WorkSpace Pass 8 of 10
G1 X175
G1 Y469
G1 X125
G1 Y471
; Layer WorkSpace Pass 9 of 10
G1 X175
G1 Y469
G1 X125
G1 Y471
; Layer WorkSpace Pass 10 of 10
G1 X175
G1 Y469
G1 X125
G1 Y471
G0 X120Y500
; Layer WorkSpace Pass 1 of 10
G1 X90
; Layer WorkSpace Pass 2 of 10
G1 X120
; Layer WorkSpace Pass 3 of 10
G1 X90
; Layer WorkSpace Pass 4 of 10
G1 X120
; Layer WorkSpace Pass 5 of 10
G1 X90
; Layer WorkSpace Pass 6 of 10
G1 X120
; Layer WorkSpace Pass 7 of 10
G1 X90
; Layer WorkSpace Pass 8 of 10
G1 X120
; Layer WorkSpace Pass 9 of 10
G1 X90
; Layer WorkSpace Pass 10 of 10
G1 X120
G0 X179.5Y498
; Layer WorkSpace Pass 1 of 10
G1 X180.5
G1 Y471
G1 X179.5
G1 Y498
; Layer WorkSpace Pass 2 of 10
G1 X180.5
G1 Y471
G1 X179.5
G1 Y498
; Layer WorkSpace Pass 3 of 10
G1 X180.5
G1 Y471
G1 X179.5
G1 Y498
; Layer WorkSpace Pass 4 of 10
G1 X180.5
G1 Y471
G1 X179.5
G1 Y498
; Layer WorkSpace Pass 5 of 10
G1 X180.5
G1 Y471
G1 X179.5
G1 Y498
; Layer WorkSpace Pass 6 of 10
G1 X180.5
G1 Y471
G1 X179.5
G1 Y498
; Layer WorkSpace Pass 7 of 10
G1 X180.5
G1 Y471
G1 X179.5
G1 Y498
; Layer WorkSpace Pass 8 of 10
G1 X180.5
G1 Y471
G1 X179.5
G1 Y498
; Layer WorkSpace Pass 9 of 10
G1 X180.5
G1 Y471
G1 X179.5
G1 Y498
; Layer WorkSpace Pass 10 of 10
G1 X180.5
G1 Y471
G1 X179.5
G1 Y498
G0 X180Y500
; Layer WorkSpace Pass 1 of 10
G1 X242
; Layer WorkSpace Pass 2 of 10
G1 X180
; Layer WorkSpace Pass 3 of 10
G1 X242
; Layer WorkSpace Pass 4 of 10
G1 X180
; Layer WorkSpace Pass 5 of 10
G1 X242
; Layer WorkSpace Pass 6 of 10
G1 X180
; Layer WorkSpace Pass 7 of 10
G1 X242
; Layer WorkSpace Pass 8 of 10
G1 X180
; Layer WorkSpace Pass 9 of 10
G1 X242
; Layer WorkSpace Pass 10 of 10
G1 X180
G0 X242.5Y498
; Layer WorkSpace Pass 1 of 10
G1 Y471
G1 X241.5
G1 Y498
G1 X242.5
; Layer WorkSpace Pass 2 of 10
G1 Y471
G1 X241.5
G1 Y498
G1 X242.5
; Layer WorkSpace Pass 3 of 10
G1 Y471
G1 X241.5
G1 Y498
G1 X242.5
; Layer WorkSpace Pass 4 of 10
G1 Y471
G1 X241.5
G1 Y498
G1 X242.5
; Layer WorkSpace Pass 5 of 10
G1 Y471
G1 X241.5
G1 Y498
G1 X242.5
; Layer WorkSpace Pass 6 of 10
G1 Y471
G1 X241.5
G1 Y498
G1 X242.5
; Layer WorkSpace Pass 7 of 10
G1 Y471
G1 X241.5
G1 Y498
G1 X242.5
; Layer WorkSpace Pass 8 of 10
G1 Y471
G1 X241.5
G1 Y498
G1 X242.5
; Layer WorkSpace Pass 9 of 10
G1 Y471
G1 X241.5
G1 Y498
G1 X242.5
; Layer WorkSpace Pass 10 of 10
G1 Y471
G1 X241.5
G1 Y498
G1 X242.5
G0 X247Y471
; Layer WorkSpace Pass 1 of 10
G1 X297
G1 Y469
G1 X247
G1 Y471
; Layer WorkSpace Pass 2 of 10
G1 X297
G1 Y469
G1 X247
G1 Y471
; Layer WorkSpace Pass 3 of 10
G1 X297
G1 Y469
G1 X247
G1 Y471
; Layer WorkSpace Pass 4 of 10
G1 X297
G1 Y469
G1 X247
G1 Y471
; Layer WorkSpace Pass 5 of 10
G1 X297
G1 Y469
G1 X247
G1 Y471
; Layer WorkSpace Pass 6 of 10
G1 X297
G1 Y469
G1 X247
G1 Y471
; Layer WorkSpace Pass 7 of 10
G1 X297
G1 Y469
G1 X247
G1 Y471
; Layer WorkSpace Pass 8 of 10
G1 X297
G1 Y469
G1 X247
G1 Y471
; Layer WorkSpace Pass 9 of 10
G1 X297
G1 Y469
G1 X247
G1 Y471
; Layer WorkSpace Pass 10 of 10
G1 X297
G1 Y469
G1 X247
G1 Y471
G0 X243Y465
; Layer WorkSpace Pass 1 of 10
G1 Y415
G1 X241
G1 Y465
G1 X243
; Layer WorkSpace Pass 2 of 10
G1 Y415
G1 X241
G1 Y465
G1 X243
; Layer WorkSpace Pass 3 of 10
G1 Y415
G1 X241
G1 Y465
G1 X243
; Layer WorkSpace Pass 4 of 10
G1 Y415
G1 X241
G1 Y465
G1 X243
; Layer WorkSpace Pass 5 of 10
G1 Y415
G1 X241
G1 Y465
G1 X243
; Layer WorkSpace Pass 6 of 10
G1 Y415
G1 X241
G1 Y465
G1 X243
; Layer WorkSpace Pass 7 of 10
G1 Y415
G1 X241
G1 Y465
G1 X243
; Layer WorkSpace Pass 8 of 10
G1 Y415
G1 X241
G1 Y465
G1 X243
; Layer WorkSpace Pass 9 of 10
G1 Y415
G1 X241
G1 Y465
G1 X243
; Layer WorkSpace Pass 10 of 10
G1 Y415
G1 X241
G1 Y465
G1 X243
G0 X237Y469
; Layer WorkSpace Pass 1 of 10
G1 X215
G1 Y471
G1 X237
G1 Y469
; Layer WorkSpace Pass 2 of 10
G1 X215
G1 Y471
G1 X237
G1 Y469
; Layer WorkSpace Pass 3 of 10
G1 X215
G1 Y471
G1 X237
G1 Y469
; Layer WorkSpace Pass 4 of 10
G1 X215
G1 Y471
G1 X237
G1 Y469
; Layer WorkSpace Pass 5 of 10
G1 X215
G1 Y471
G1 X237
G1 Y469
; Layer WorkSpace Pass 6 of 10
G1 X215
G1 Y471
G1 X237
G1 Y469
; Layer WorkSpace Pass 7 of 10
G1 X215
G1 Y471
G1 X237
G1 Y469
; Layer WorkSpace Pass 8 of 10
G1 X215
G1 Y471
G1 X237
G1 Y469
; Layer WorkSpace Pass 9 of 10
G1 X215
G1 Y471
G1 X237
G1 Y469
; Layer WorkSpace Pass 10 of 10
G1 X215
G1 Y471
G1 X237
G1 Y469
G0 X207Y469
; Layer WorkSpace Pass 1 of 10
G1 X185
G1 Y471
G1 X207
G1 Y469
; Layer WorkSpace Pass 2 of 10
G1 X185
G1 Y471
G1 X207
G1 Y469
; Layer WorkSpace Pass 3 of 10
G1 X185
G1 Y471
G1 X207
G1 Y469
; Layer WorkSpace Pass 4 of 10
G1 X185
G1 Y471
G1 X207
G1 Y469
; Layer WorkSpace Pass 5 of 10
G1 X185
G1 Y471
G1 X207
G1 Y469
; Layer WorkSpace Pass 6 of 10
G1 X185
G1 Y471
G1 X207
G1 Y469
; Layer WorkSpace Pass 7 of 10
G1 X185
G1 Y471
G1 X207
G1 Y469
; Layer WorkSpace Pass 8 of 10
G1 X185
G1 Y471
G1 X207
G1 Y469
; Layer WorkSpace Pass 9 of 10
G1 X185
G1 Y471
G1 X207
G1 Y469
; Layer WorkSpace Pass 10 of 10
G1 X185
G1 Y471
G1 X207
G1 Y469
G0 X181Y465
; Layer WorkSpace Pass 1 of 10
G1 Y415
G1 X179
G1 Y465
G1 X181
; Layer WorkSpace Pass 2 of 10
G1 Y415
G1 X179
G1 Y465
G1 X181
; Layer WorkSpace Pass 3 of 10
G1 Y415
G1 X179
G1 Y465
G1 X181
; Layer WorkSpace Pass 4 of 10
G1 Y415
G1 X179
G1 Y465
G1 X181
; Layer WorkSpace Pass 5 of 10
G1 Y415
G1 X179
G1 Y465
G1 X181
; Layer WorkSpace Pass 6 of 10
G1 Y415
G1 X179
G1 Y465
G1 X181
; Layer WorkSpace Pass 7 of 10
G1 Y415
G1 X179
G1 Y465
G1 X181
; Layer WorkSpace Pass 8 of 10
G1 Y415
G1 X179
G1 Y465
G1 X181
; Layer WorkSpace Pass 9 of 10
G1 Y415
G1 X179
G1 Y465
G1 X181
; Layer WorkSpace Pass 10 of 10
G1 Y415
G1 X179
G1 Y465
G1 X181
G0 X198.054Y444.607
; Layer WorkSpace Pass 1 of 10
G1 X198.513Y444.775
G1 X198.992Y444.898
G1 X199.489Y444.974
G1 X200Y445
G1 X200.511Y444.974
G1 X201.007Y444.898
G1 X201.487Y444.775
G1 X201.946Y444.607
G1 X202.383Y444.397
G1 X202.795Y444.146
G1 X203.18Y443.858
G1 X203.535Y443.536
G1 X203.858Y443.18
G1 X204.146Y442.796
G1 X204.396Y442.383
G1 X204.607Y441.946
G1 X204.775Y441.487
G1 X204.898Y441.008
G1 X204.974Y440.511
G1 X205Y440
G1 X204.974Y439.489
G1 X204.898Y438.992
G1 X204.775Y438.513
G1 X204.607Y438.054
G1 X204.396Y437.617
G1 X204.146Y437.204
G1 X203.858Y436.82
G1 X203.535Y436.464
G1 X203.18Y436.142
G1 X202.795Y435.854
G1 X202.383Y435.603
G1 X201.946Y435.393
G1 X201.487Y435.225
G1 X201.007Y435.102
G1 X200.511Y435.026
G1 X200Y435
G1 X199.489Y435.026
G1 X198.992Y435.102
G1 X198.513Y435.225
G1 X198.054Y435.393
G1 X197.617Y435.603
G1 X197.204Y435.854
G1 X196.819Y436.142
G1 X196.464Y436.464
G1 X196.142Y436.82
G1 X195.854Y437.204
G1 X195.603Y437.617
G1 X195.393Y438.054
G1 X195.225Y438.513
G1 X195.101Y438.992
G1 X195.026Y439.489
G1 X195Y440
G1 X195.026Y440.511
G1 X195.101Y441.008
G1 X195.225Y441.487
G1 X195.393Y441.946
G1 X195.603Y442.383
G1 X195.854Y442.796
G1 X196.142Y443.18
G1 X196.464Y443.536
G1 X196.819Y443.858
G1 X197.204Y444.146
G1 X197.617Y444.397
G1 X198.054Y444.607
; Layer WorkSpace Pass 2 of 10
G1 X198.513Y444.775
G1 X198.992Y444.898
G1 X199.489Y444.974
G1 X200Y445
G1 X200.511Y444.974
G1 X201.007Y444.898
G1 X201.487Y444.775
G1 X201.946Y444.607
G1 X202.383Y444.397
G1 X202.795Y444.146
G1 X203.18Y443.858
G1 X203.535Y443.536
G1 X203.858Y443.18
G1 X204.146Y442.796
G1 X204.396Y442.383
G1 X204.607Y441.946
G1 X204.775Y441.487
G1 X204.898Y441.008
G1 X204.974Y440.511
G1 X205Y440
G1 X204.974Y439.489
G1 X204.898Y438.992
G1 X204.775Y438.513
G1 X204.607Y438.054
G1 X204.396Y437.617
G1 X204.146Y437.204
G1 X203.858Y436.82
G1 X203.535Y436.464
G1 X203.18Y436.142
G1 X202.795Y435.854
G1 X202.383Y435.603
G1 X201.946Y435.393
G1 X201.487Y435.225
G1 X201.007Y435.102
G1 X200.511Y435.026
G1 X200Y435
G1 X199.489Y435.026
G1 X198.992Y435.102
G1 X198.513Y435.225
G1 X198.054Y435.393
G1 X197.617Y435.603
G1 X197.204Y435.854
G1 X196.819Y436.142
G1 X196.464Y436.464
G1 X196.142Y436.82
G1 X195.854Y437.204
G1 X195.603Y437.617
G1 X195.393Y438.054
G1 X195.225Y438.513
G1 X195.101Y438.992
G1 X195.026Y439.489
G1 X195Y440
G1 X195.026Y440.511
G1 X195.101Y441.008
G1 X195.225Y441.487
G1 X195.393Y441.946
G1 X195.603Y442.383
G1 X195.854Y442.796
G1 X196.142Y443.18
G1 X196.464Y443.536
G1 X196.819Y443.858
G1 X197.204Y444.146
G1 X197.617Y444.397
G1 X198.054Y444.607
; Layer WorkSpace Pass 3 of 10
G1 X198.513Y444.775
G1 X198.992Y444.898
G1 X199.489Y444.974
G1 X200Y445
G1 X200.511Y444.974
G1 X201.007Y444.898
G1 X201.487Y444.775
G1 X201.946Y444.607
G1 X202.383Y444.397
G1 X202.795Y444.146
G1 X203.18Y443.858
G1 X203.535Y443.536
G1 X203.858Y443.18
G1 X204.146Y442.796
G1 X204.396Y442.383
G1 X204.607Y441.946
G1 X204.775Y441.487
G1 X204.898Y441.008
G1 X204.974Y440.511
G1 X205Y440
G1 X204.974Y439.489
G1 X204.898Y438.992
G1 X204.775Y438.513
G1 X204.607Y438.054
G1 X204.396Y437.617
G1 X204.146Y437.204
G1 X203.858Y436.82
G1 X203.535Y436.464
G1 X203.18Y436.142
G1 X202.795Y435.854
G1 X202.383Y435.603
G1 X201.946Y435.393
G1 X201.487Y435.225
G1 X201.007Y435.102
G1 X200.511Y435.026
G1 X200Y435
G1 X199.489Y435.026
G1 X198.992Y435.102
G1 X198.513Y435.225
G1 X198.054Y435.393
G1 X197.617Y435.603
G1 X197.204Y435.854
G1 X196.819Y436.142
G1 X196.464Y436.464
G1 X196.142Y436.82
G1 X195.854Y437.204
G1 X195.603Y437.617
G1 X195.393Y438.054
G1 X195.225Y438.513
G1 X195.101Y438.992
G1 X195.026Y439.489
G1 X195Y440
G1 X195.026Y440.511
G1 X195.101Y441.008
G1 X195.225Y441.487
G1 X195.393Y441.946
G1 X195.603Y442.383
G1 X195.854Y442.796
G1 X196.142Y443.18
G1 X196.464Y443.536
G1 X196.819Y443.858
G1 X197.204Y444.146
G1 X197.617Y444.397
G1 X198.054Y444.607
; Layer WorkSpace Pass 4 of 10
G1 X198.513Y444.775
G1 X198.992Y444.898
G1 X199.489Y444.974
G1 X200Y445
G1 X200.511Y444.974
G1 X201.007Y444.898
G1 X201.487Y444.775
G1 X201.946Y444.607
G1 X202.383Y444.397
G1 X202.795Y444.146
G1 X203.18Y443.858
G1 X203.535Y443.536
G1 X203.858Y443.18
G1 X204.146Y442.796
G1 X204.396Y442.383
G1 X204.607Y441.946
G1 X204.775Y441.487
G1 X204.898Y441.008
G1 X204.974Y440.511
G1 X205Y440
G1 X204.974Y439.489
G1 X204.898Y438.992
G1 X204.775Y438.513
G1 X204.607Y438.054
G1 X204.396Y437.617
G1 X204.146Y437.204
G1 X203.858Y436.82
G1 X203.535Y436.464
G1 X203.18Y436.142
G1 X202.795Y435.854
G1 X202.383Y435.603
G1 X201.946Y435.393
G1 X201.487Y435.225
G1 X201.007Y435.102
G1 X200.511Y435.026
G1 X200Y435
G1 X199.489Y435.026
G1 X198.992Y435.102
G1 X198.513Y435.225
G1 X198.054Y435.393
G1 X197.617Y435.603
G1 X197.204Y435.854
G1 X196.819Y436.142
G1 X196.464Y436.464
G1 X196.142Y436.82
G1 X195.854Y437.204
G1 X195.603Y437.617
G1 X195.393Y438.054
G1 X195.225Y438.513
G1 X195.101Y438.992
G1 X195.026Y439.489
G1 X195Y440
G1 X195.026Y440.511
G1 X195.101Y441.008
G1 X195.225Y441.487
G1 X195.393Y441.946
G1 X195.603Y442.383
G1 X195.854Y442.796
G1 X196.142Y443.18
G1 X196.464Y443.536
G1 X196.819Y443.858
G1 X197.204Y444.146
G1 X197.617Y444.397
G1 X198.054Y444.607
; Layer WorkSpace Pass 5 of 10
G1 X198.513Y444.775
G1 X198.992Y444.898
G1 X199.489Y444.974
G1 X200Y445
G1 X200.511Y444.974
G1 X201.007Y444.898
G1 X201.487Y444.775
G1 X201.946Y444.607
G1 X202.383Y444.397
G1 X202.795Y444.146
G1 X203.18Y443.858
G1 X203.535Y443.536
G1 X203.858Y443.18
G1 X204.146Y442.796
G1 X204.396Y442.383
G1 X204.607Y441.946
G1 X204.775Y441.487
G1 X204.898Y441.008
G1 X204.974Y440.511
G1 X205Y440
G1 X204.974Y439.489
G1 X204.898Y438.992
G1 X204.775Y438.513
G1 X204.607Y438.054
G1 X204.396Y437.617
G1 X204.146Y437.204
G1 X203.858Y436.82
G1 X203.535Y436.464
G1 X203.18Y436.142
G1 X202.795Y435.854
G1 X202.383Y435.603
G1 X201.946Y435.393
G1 X201.487Y435.225
G1 X201.007Y435.102
G1 X200.511Y435.026
G1 X200Y435
G1 X199.489Y435.026
G1 X198.992Y435.102
G1 X198.513Y435.225
G1 X198.054Y435.393
G1 X197.617Y435.603
G1 X197.204Y435.854
G1 X196.819Y436.142
G1 X196.464Y436.464
G1 X196.142Y436.82
G1 X195.854Y437.204
G1 X195.603Y437.617
G1 X195.393Y438.054
G1 X195.225Y438.513
G1 X195.101Y438.992
G1 X195.026Y439.489
G1 X195Y440
G1 X195.026Y440.511
G1 X195.101Y441.008
G1 X195.225Y441.487
G1 X195.393Y441.946
G1 X195.603Y442.383
G1 X195.854Y442.796
G1 X196.142Y443.18
G1 X196.464Y443.536
G1 X196.819Y443.858
G1 X197.204Y444.146
G1 X197.617Y444.397
G1 X198.054Y444.607
; Layer WorkSpace Pass 6 of 10
G1 X198.513Y444.775
G1 X198.992Y444.898
G1 X199.489Y444.974
G1 X200Y445
G1 X200.511Y444.974
G1 X201.007Y444.898
G1 X201.487Y444.775
G1 X201.946Y444.607
G1 X202.383Y444.397
G1 X202.795Y444.146
G1 X203.18Y443.858
G1 X203.535Y443.536
G1 X203.858Y443.18
G1 X204.146Y442.796
G1 X204.396Y442.383
G1 X204.607Y441.946
G1 X204.775Y441.487
G1 X204.898Y441.008
G1 X204.974Y440.511
G1 X205Y440
G1 X204.974Y439.489
G1 X204.898Y438.992
G1 X204.775Y438.513
G1 X204.607Y438.054
G1 X204.396Y437.617
G1 X204.146Y437.204
G1 X203.858Y436.82
G1 X203.535Y436.464
G1 X203.18Y436.142
G1 X202.795Y435.854
G1 X202.383Y435.603
G1 X201.946Y435.393
G1 X201.487Y435.225
G1 X201.007Y435.102
G1 X200.511Y435.026
G1 X200Y435
G1 X199.489Y435.026
G1 X198.992Y435.102
G1 X198.513Y435.225
G1 X198.054Y435.393
G1 X197.617Y435.603
G1 X197.204Y435.854
G1 X196.819Y436.142
G1 X196.464Y436.464
G1 X196.142Y436.82
G1 X195.854Y437.204
G1 X195.603Y437.617
G1 X195.393Y438.054
G1 X195.225Y438.513
G1 X195.101Y438.992
G1 X195.026Y439.489
G1 X195Y440
G1 X195.026Y440.511
G1 X195.101Y441.008
G1 X195.225Y441.487
G1 X195.393Y441.946
G1 X195.603Y442.383
G1 X195.854Y442.796
G1 X196.142Y443.18
G1 X196.464Y443.536
G1 X196.819Y443.858
G1 X197.204Y444.146
G1 X197.617Y444.397
G1 X198.054Y444.607
; Layer WorkSpace Pass 7 of 10
G1 X198.513Y444.775
G1 X198.992Y444.898
G1 X199.489Y444.974
G1 X200Y445
G1 X200.511Y444.974
G1 X201.007Y444.898
G1 X201.487Y444.775
G1 X201.946Y444.607
G1 X202.383Y444.397
G1 X202.795Y444.146
G1 X203.18Y443.858
G1 X203.535Y443.536
G1 X203.858Y443.18
G1 X204.146Y442.796
G1 X204.396Y442.383
G1 X204.607Y441.946
G1 X204.775Y441.487
G1 X204.898Y441.008
G1 X204.974Y440.511
G1 X205Y440
G1 X204.974Y439.489
G1 X204.898Y438.992
G1 X204.775Y438.513
G1 X204.607Y438.054
G1 X204.396Y437.617
G1 X204.146Y437.204
G1 X203.858Y436.82
G1 X203.535Y436.464
G1 X203.18Y436.142
G1 X202.795Y435.854
G1 X202.383Y435.603
G1 X201.946Y435.393
G1 X201.487Y435.225
G1 X201.007Y435.102
G1 X200.511Y435.026
G1 X200Y435
G1 X199.489Y435.026
G1 X198.992Y435.102
G1 X198.513Y435.225
G1 X198.054Y435.393
G1 X197.617Y435.603
G1 X197.204Y435.854
G1 X196.819Y436.142
G1 X196.464Y436.464
G1 X196.142Y436.82
G1 X195.854Y437.204
G1 X195.603Y437.617
G1 X195.393Y438.054
G1 X195.225Y438.513
G1 X195.101Y438.992
G1 X195.026Y439.489
G1 X195Y440
G1 X195.026Y440.511
G1 X195.101Y441.008
G1 X195.225Y441.487
G1 X195.393Y441.946
G1 X195.603Y442.383
G1 X195.854Y442.796
G1 X196.142Y443.18
G1 X196.464Y443.536
G1 X196.819Y443.858
G1 X197.204Y444.146
G1 X197.617Y444.397
G1 X198.054Y444.607
; Layer WorkSpace Pass 8 of 10
G1 X198.513Y444.775
G1 X198.992Y444.898
G1 X199.489Y444.974
G1 X200Y445
G1 X200.511Y444.974
G1 X201.007Y444.898
G1 X201.487Y444.775
G1 X201.946Y444.607
G1 X202.383Y444.397
G1 X202.795Y444.146
G1 X203.18Y443.858
G1 X203.535Y443.536
G1 X203.858Y443.18
G1 X204.146Y442.796
G1 X204.396Y442.383
G1 X204.607Y441.946
G1 X204.775Y441.487
G1 X204.898Y441.008
G1 X204.974Y440.511
G1 X205Y440
G1 X204.974Y439.489
G1 X204.898Y438.992
G1 X204.775Y438.513
G1 X204.607Y438.054
G1 X204.396Y437.617
G1 X204.146Y437.204
G1 X203.858Y436.82
G1 X203.535Y436.464
G1 X203.18Y436.142
G1 X202.795Y435.854
G1 X202.383Y435.603
G1 X201.946Y435.393
G1 X201.487Y435.225
G1 X201.007Y435.102
G1 X200.511Y435.026
G1 X200Y435
G1 X199.489Y435.026
G1 X198.992Y435.102
G1 X198.513Y435.225
G1 X198.054Y435.393
G1 X197.617Y435.603
G1 X197.204Y435.854
G1 X196.819Y436.142
G1 X196.464Y436.464
G1 X196.142Y436.82
G1 X195.854Y437.204
G1 X195.603Y437.617
G1 X195.393Y438.054
G1 X195.225Y438.513
G1 X195.101Y438.992
G1 X195.026Y439.489
G1 X195Y440
G1 X195.026Y440.511
G1 X195.101Y441.008
G1 X195.225Y441.487
G1 X195.393Y441.946
G1 X195.603Y442.383
G1 X195.854Y442.796
G1 X196.142Y443.18
G1 X196.464Y443.536
G1 X196.819Y443.858
G1 X197.204Y444.146
G1 X197.617Y444.397
G1 X198.054Y444.607
; Layer WorkSpace Pass 9 of 10
G1 X198.513Y444.775
G1 X198.992Y444.898
G1 X199.489Y444.974
G1 X200Y445
G1 X200.511Y444.974
G1 X201.007Y444.898
G1 X201.487Y444.775
G1 X201.946Y444.607
G1 X202.383Y444.397
G1 X202.795Y444.146
G1 X203.18Y443.858
G1 X203.535Y443.536
G1 X203.858Y443.18
G1 X204.146Y442.796
G1 X204.396Y442.383
G1 X204.607Y441.946
G1 X204.775Y441.487
G1 X204.898Y441.008
G1 X204.974Y440.511
G1 X205Y440
G1 X204.974Y439.489
G1 X204.898Y438.992
G1 X204.775Y438.513
G1 X204.607Y438.054
G1 X204.396Y437.617
G1 X204.146Y437.204
G1 X203.858Y436.82
G1 X203.535Y436.464
G1 X203.18Y436.142
G1 X202.795Y435.854
G1 X202.383Y435.603
G1 X201.946Y435.393
G1 X201.487Y435.225
G1 X201.007Y435.102
G1 X200.511Y435.026
G1 X200Y435
G1 X199.489Y435.026
G1 X198.992Y435.102
G1 X198.513Y435.225
G1 X198.054Y435.393
G1 X197.617Y435.603
G1 X197.204Y435.854
G1 X196.819Y436.142
G1 X196.464Y436.464
G1 X196.142Y436.82
G1 X195.854Y437.204
G1 X195.603Y437.617
G1 X195.393Y438.054
G1 X195.225Y438.513
G1 X195.101Y438.992
G1 X195.026Y439.489
G1 X195Y440
G1 X195.026Y440.511
G1 X195.101Y441.008
G1 X195.225Y441.487
G1 X195.393Y441.946
G1 X195.603Y442.383
G1 X195.854Y442.796
G1 X196.142Y443.18
G1 X196.464Y443.536
G1 X196.819Y443.858
G1 X197.204Y444.146
G1 X197.617Y444.397
G1 X198.054Y444.607
; Layer WorkSpace Pass 10 of 10
G1 X198.513Y444.775
G1 X198.992Y444.898
G1 X199.489Y444.974
G1 X200Y445
G1 X200.511Y444.974
G1 X201.007Y444.898
G1 X201.487Y444.775
G1 X201.946Y444.607
G1 X202.383Y444.397
G1 X202.795Y444.146
G1 X203.18Y443.858
G1 X203.535Y443.536
G1 X203.858Y443.18
G1 X204.146Y442.796
G1 X204.396Y442.383
G1 X204.607Y441.946
G1 X204.775Y441.487
G1 X204.898Y441.008
G1 X204.974Y440.511
G1 X205Y440
G1 X204.974Y439.489
G1 X204.898Y438.992
G1 X204.775Y438.513
G1 X204.607Y438.054
G1 X204.396Y437.617
G1 X204.146Y437.204
G1 X203.858Y436.82
G1 X203.535Y436.464
G1 X203.18Y436.142
G1 X202.795Y435.854
G1 X202.383Y435.603
G1 X201.946Y435.393
G1 X201.487Y435.225
G1 X201.007Y435.102
G1 X200.511Y435.026
G1 X200Y435
G1 X199.489Y435.026
G1 X198.992Y435.102
G1 X198.513Y435.225
G1 X198.054Y435.393
G1 X197.617Y435.603
G1 X197.204Y435.854
G1 X196.819Y436.142
G1 X196.464Y436.464
G1 X196.142Y436.82
G1 X195.854Y437.204
G1 X195.603Y437.617
G1 X195.393Y438.054
G1 X195.225Y438.513
G1 X195.101Y438.992
G1 X195.026Y439.489
G1 X195Y440
G1 X195.026Y440.511
G1 X195.101Y441.008
G1 X195.225Y441.487
G1 X195.393Y441.946
G1 X195.603Y442.383
G1 X195.854Y442.796
G1 X196.142Y443.18
G1 X196.464Y443.536
G1 X196.819Y443.858
G1 X197.204Y444.146
G1 X197.617Y444.397
G1 X198.054Y444.607
G0 X212Y450
; Layer WorkSpace Pass 1 of 10
G1 X212.478Y449.989
; Layer WorkSpace Pass 2 of 10
G1 X212Y450
; Layer WorkSpace Pass 3 of 10
G1 X212.478Y449.989
; Layer WorkSpace Pass 4 of 10
G1 X212Y450
; Layer WorkSpace Pass 5 of 10
G1 X212.478Y449.989
; Layer WorkSpace Pass 6 of 10
G1 X212Y450
; Layer WorkSpace Pass 7 of 10
G1 X212.478Y449.989
; Layer WorkSpace Pass 8 of 10
G1 X212Y450
; Layer WorkSpace Pass 9 of 10
G1 X212.478Y449.989
; Layer WorkSpace Pass 10 of 10
G1 X212Y450
G0 X212.478Y449.989
; Layer WorkSpace Pass 1 of 10
G1 X212.951Y449.955
; Layer WorkSpace Pass 2 of 10
G1 X212.478Y449.989
; Layer WorkSpace Pass 3 of 10
G1 X212.951Y449.955
; Layer WorkSpace Pass 4 of 10
G1 X212.478Y449.989
; Layer WorkSpace Pass 5 of 10
G1 X212.951Y449.955
; Layer WorkSpace Pass 6 of 10
G1 X212.478Y449.989
; Layer WorkSpace Pass 7 of 10
G1 X212.951Y449.955
; Layer WorkSpace Pass 8 of 10
G1 X212.478Y449.989
; Layer WorkSpace Pass 9 of 10
G1 X212.951Y449.955
; Layer WorkSpace Pass 10 of 10
G1 X212.478Y449.989
G0 X212.951Y449.955
; Layer WorkSpace Pass 1 of 10
G1 X213.418Y449.899
; Layer WorkSpace Pass 2 of 10
G1 X212.951Y449.955
; Layer WorkSpace Pass 3 of 10
G1 X213.418Y449.899
; Layer WorkSpace Pass 4 of 10
G1 X212.951Y449.955
; Layer WorkSpace Pass 5 of 10
G1 X213.418Y449.899
; Layer WorkSpace Pass 6 of 10
G1 X212.951Y449.955
; Layer WorkSpace Pass 7 of 10
G1 X213.418Y449.899
; Layer WorkSpace Pass 8 of 10
G1 X212.951Y449.955
; Layer WorkSpace Pass 9 of 10
G1 X213.418Y449.899
; Layer WorkSpace Pass 10 of 10
G1 X212.951Y449.955
G0 X213.418Y449.899
; Layer WorkSpace Pass 1 of 10
G1 X214.393Y449.711
G1 X215.328Y449.433
G1 X216.219Y449.07
G1 X217.062Y448.628
G1 X217.853Y448.112
G1 X218.588Y447.526
G1 X219.262Y446.877
G1 X219.872Y446.17
G1 X220.413Y445.408
G1 X220.883Y444.598
G1 X221.275Y443.745
G1 X221.588Y442.854
G1 X221.816Y441.93
G1 X221.955Y440.978
G1 X222.002Y440.003
G1 X221.952Y439.011
; Layer WorkSpace Pass 2 of 10
G1 X222.002Y440.003
G1 X221.955Y440.978
G1 X221.816Y441.93
G1 X221.588Y442.854
G1 X221.275Y443.745
G1 X220.883Y444.598
G1 X220.413Y445.408
G1 X219.872Y446.17
G1 X219.262Y446.877
G1 X218.588Y447.526
G1 X217.853Y448.112
G1 X217.062Y448.628
G1 X216.219Y449.07
G1 X215.328Y449.433
G1 X214.393Y449.711
G1 X213.418Y449.899
; Layer WorkSpace Pass 3 of 10
G1 X214.393Y449.711
G1 X215.328Y449.433
G1 X216.219Y449.07
G1 X217.062Y448.628
G1 X217.853Y448.112
G1 X218.588Y447.526
G1 X219.262Y446.877
G1 X219.872Y446.17
G1 X220.413Y445.408
G1 X220.883Y444.598
G1 X221.275Y443.745
G1 X221.588Y442.854
G1 X221.816Y441.93
G1 X221.955Y440.978
G1 X222.002Y440.003
G1 X221.952Y439.011
; Layer WorkSpace Pass 4 of 10
G1 X222.002Y440.003
G1 X221.955Y440.978
G1 X221.816Y441.93
G1 X221.588Y442.854
G1 X221.275Y443.745
G1 X220.883Y444.598
G1 X220.413Y445.408
G1 X219.872Y446.17
G1 X219.262Y446.877
G1 X218.588Y447.526
G1 X217.853Y448.112
G1 X217.062Y448.628
G1 X216.219Y449.07
G1 X215.328Y449.433
G1 X214.393Y449.711
G1 X213.418Y449.899
; Layer WorkSpace Pass 5 of 10
G1 X214.393Y449.711
G1 X215.328Y449.433
G1 X216.219Y449.07
G1 X217.062Y448.628
G1 X217.853Y448.112
G1 X218.588Y447.526
G1 X219.262Y446.877
G1 X219.872Y446.17
G1 X220.413Y445.408
G1 X220.883Y444.598
G1 X221.275Y443.745
G1 X221.588Y442.854
G1 X221.816Y441.93
G1 X221.955Y440.978
G1 X222.002Y440.003
G1 X221.952Y439.011
; Layer WorkSpace Pass 6 of 10
G1 X222.002Y440.003
G1 X221.955Y440.978
G1 X221.816Y441.93
G1 X221.588Y442.854
G1 X221.275Y443.745
G1 X220.883Y444.598
G1 X220.413Y445.408
G1 X219.872Y446.17
G1 X219.262Y446.877
G1 X218.588Y447.526
G1 X217.853Y448.112
G1 X217.062Y448.628
G1 X216.219Y449.07
G1 X215.328Y449.433
G1 X214.393Y449.711
G1 X213.418Y449.899
; Layer WorkSpace Pass 7 of 10
G1 X214.393Y449.711
G1 X215.328Y449.433
G1 X216.219Y449.07
G1 X217.062Y448.628
G1 X217.853Y448.112
G1 X218.588Y447.526
G1 X219.262Y446.877
G1 X219.872Y446.17
G1 X220.413Y445.408
G1 X220.883Y444.598
G1 X221.275Y443.745
G1 X221.588Y442.854
G1 X221.816Y441.93
G1 X221.955Y440.978
G1 X222.002Y440.003
G1 X221.952Y439.011
; Layer WorkSpace Pass 8 of 10
G1 X222.002Y440.003
G1 X221.955Y440.978
G1 X221.816Y441.93
G1 X221.588Y442.854
G1 X221.275Y443.745
G1 X220.883Y444.598
G1 X220.413Y445.408
G1 X219.872Y446.17
G1 X219.262Y446.877
G1 X218.588Y447.526
G1 X217.853Y448.112
G1 X217.062Y448.628
G1 X216.219Y449.07
G1 X215.328Y449.433
G1 X214.393Y449.711
G1 X213.418Y449.899
; Layer WorkSpace Pass 9 of 10
G1 X214.393Y449.711
G1 X215.328Y449.433
G1 X216.219Y449.07
G1 X217.062Y448.628
G1 X217.853Y448.112
G1 X218.588Y447.526
G1 X219.262Y446.877
G1 X219.872Y446.17
G1 X220.413Y445.408
G1 X220.883Y444.598
G1 X221.275Y443.745
G1 X221.588Y442.854
G1 X221.816Y441.93
G1 X221.955Y440.978
G1 X222.002Y440.003
G1 X221.952Y439.011
; Layer WorkSpace Pass 10 of 10
G1 X222.002Y440.003
G1 X221.955Y440.978
G1 X221.816Y441.93
G1 X221.588Y442.854
G1 X221.275Y443.745
G1 X220.883Y444.598
G1 X220.413Y445.408
G1 X219.872Y446.17
G1 X219.262Y446.877
G1 X218.588Y447.526
G1 X217.853Y448.112
G1 X217.062Y448.628
G1 X216.219Y449.07
G1 X215.328Y449.433
G1 X214.393Y449.711
G1 X213.418Y449.899
G0 X221.952Y439.011
; Layer WorkSpace Pass 1 of 10
G1 X221.814Y438.067
G1 X221.59Y437.155
G1 X221.287Y436.279
G1 X220.907Y435.444
G1 X220.456Y434.653
G1 X219.937Y433.91
G1 X219.355Y433.22
G1 X218.715Y432.585
G1 X218.02Y432.011
G1 X217.275Y431.5
G1 X216.485Y431.058
G1 X215.653Y430.687
G1 X214.784Y430.392
G1 X213.883Y430.176
G1 X212.954Y430.044
G1 X212Y430
; Layer WorkSpace Pass 2 of 10
G1 X212.954Y430.044
G1 X213.883Y430.176
G1 X214.784Y430.392
G1 X215.653Y430.687
G1 X216.485Y431.058
G1 X217.275Y431.5
G1 X218.02Y432.011
G1 X218.715Y432.585
G1 X219.355Y433.22
G1 X219.937Y433.91
G1 X220.456Y434.653
G1 X220.907Y435.444
G1 X221.287Y436.279
G1 X221.59Y437.155
G1 X221.814Y438.067
G1 X221.952Y439.011
; Layer WorkSpace Pass 3 of 10
G1 X221.814Y438.067
G1 X221.59Y437.155
G1 X221.287Y436.279
G1 X220.907Y435.444
G1 X220.456Y434.653
G1 X219.937Y433.91
G1 X219.355Y433.22
G1 X218.715Y432.585
G1 X218.02Y432.011
G1 X217.275Y431.5
G1 X216.485Y431.058
G1 X215.653Y430.687
G1 X214.784Y430.392
G1 X213.883Y430.176
G1 X212.954Y430.044
G1 X212Y430
; Layer WorkSpace Pass 4 of 10
G1 X212.954Y430.044
G1 X213.883Y430.176
G1 X214.784Y430.392
G1 X215.653Y430.687
G1 X216.485Y431.058
G1 X217.275Y431.5
G1 X218.02Y432.011
G1 X218.715Y432.585
G1 X219.355Y433.22
G1 X219.937Y433.91
G1 X220.456Y434.653
G1 X220.907Y435.444
G1 X221.287Y436.279
G1 X221.59Y437.155
G1 X221.814Y438.067
G1 X221.952Y439.011
; Layer WorkSpace Pass 5 of 10
G1 X221.814Y438.067
G1 X221.59Y437.155
G1 X221.287Y436.279
G1 X220.907Y435.444
G1 X220.456Y434.653
G1 X219.937Y433.91
G1 X219.355Y433.22
G1 X218.715Y432.585
G1 X218.02Y432.011
G1 X217.275Y431.5
G1 X216.485Y431.058
G1 X215.653Y430.687
G1 X214.784Y430.392
G1 X213.883Y430.176
G1 X212.954Y430.044
G1 X212Y430
; Layer WorkSpace Pass 6 of 10
G1 X212.954Y430.044
G1 X213.883Y430.176
G1 X214.784Y430.392
G1 X215.653Y430.687
G1 X216.485Y431.058
G1 X217.275Y431.5
G1 X218.02Y432.011
G1 X218.715Y432.585
G1 X219.355Y433.22
G1 X219.937Y433.91
G1 X220.456Y434.653
G1 X220.907Y435.444
G1 X221.287Y436.279
G1 X221.59Y437.155
G1 X221.814Y438.067
G1 X221.952Y439.011
; Layer WorkSpace Pass 7 of 10
G1 X221.814Y438.067
G1 X221.59Y437.155
G1 X221.287Y436.279
G1 X220.907Y435.444
G1 X220.456Y434.653
G1 X219.937Y433.91
G1 X219.355Y433.22
G1 X218.715Y432.585
G1 X218.02Y432.011
G1 X217.275Y431.5
G1 X216.485Y431.058
G1 X215.653Y430.687
G1 X214.784Y430.392
G1 X213.883Y430.176
G1 X212.954Y430.044
G1 X212Y430
; Layer WorkSpace Pass 8 of 10
G1 X212.954Y430.044
G1 X213.883Y430.176
G1 X214.784Y430.392
G1 X215.653Y430.687
G1 X216.485Y431.058
G1 X217.275Y431.5
G1 X218.02Y432.011
G1 X218.715Y432.585
G1 X219.355Y433.22
G1 X219.937Y433.91
G1 X220.456Y434.653
G1 X220.907Y435.444
G1 X221.287Y436.279
G1 X221.59Y437.155
G1 X221.814Y438.067
G1 X221.952Y439.011
; Layer WorkSpace Pass 9 of 10
G1 X221.814Y438.067
G1 X221.59Y437.155
G1 X221.287Y436.279
G1 X220.907Y435.444
G1 X220.456Y434.653
G1 X219.937Y433.91
G1 X219.355Y433.22
G1 X218.715Y432.585
G1 X218.02Y432.011
G1 X217.275Y431.5
G1 X216.485Y431.058
G1 X215.653Y430.687
G1 X214.784Y430.392
G1 X213.883Y430.176
G1 X212.954Y430.044
G1 X212Y430
; Layer WorkSpace Pass 10 of 10
G1 X212.954Y430.044
G1 X213.883Y430.176
G1 X214.784Y430.392
G1 X215.653Y430.687
G1 X216.485Y431.058
G1 X217.275Y431.5
G1 X218.02Y432.011
G1 X218.715Y432.585
G1 X219.355Y433.22
G1 X219.937Y433.91
G1 X220.456Y434.653
G1 X220.907Y435.444
G1 X221.287Y436.279
G1 X221.59Y437.155
G1 X221.814Y438.067
G1 X221.952Y439.011
G0 X215Y411
; Layer WorkSpace Pass 1 of 10
G1 X237
G1 Y409
G1 X215
G1 Y411
; Layer WorkSpace Pass 2 of 10
G1 X237
G1 Y409
G1 X215
G1 Y411
; Layer WorkSpace Pass 3 of 10
G1 X237
G1 Y409
G1 X215
G1 Y411
; Layer WorkSpace Pass 4 of 10
G1 X237
G1 Y409
G1 X215
G1 Y411
; Layer WorkSpace Pass 5 of 10
G1 X237
G1 Y409
G1 X215
G1 Y411
; Layer WorkSpace Pass 6 of 10
G1 X237
G1 Y409
G1 X215
G1 Y411
; Layer WorkSpace Pass 7 of 10
G1 X237
G1 Y409
G1 X215
G1 Y411
; Layer WorkSpace Pass 8 of 10
G1 X237
G1 Y409
G1 X215
G1 Y411
; Layer WorkSpace Pass 9 of 10
G1 X237
G1 Y409
G1 X215
G1 Y411
; Layer WorkSpace Pass 10 of 10
G1 X237
G1 Y409
G1 X215
G1 Y411
G0 X207Y411
; Layer WorkSpace Pass 1 of 10
G1 Y409
G1 X185
G1 Y411
G1 X207
; Layer WorkSpace Pass 2 of 10
G1 Y409
G1 X185
G1 Y411
G1 X207
; Layer WorkSpace Pass 3 of 10
G1 Y409
G1 X185
G1 Y411
G1 X207
; Layer WorkSpace Pass 4 of 10
G1 Y409
G1 X185
G1 Y411
G1 X207
; Layer WorkSpace Pass 5 of 10
G1 Y409
G1 X185
G1 Y411
G1 X207
; Layer WorkSpace Pass 6 of 10
G1 Y409
G1 X185
G1 Y411
G1 X207
; Layer WorkSpace Pass 7 of 10
G1 Y409
G1 X185
G1 Y411
G1 X207
; Layer WorkSpace Pass 8 of 10
G1 Y409
G1 X185
G1 Y411
G1 X207
; Layer WorkSpace Pass 9 of 10
G1 Y409
G1 X185
G1 Y411
G1 X207
; Layer WorkSpace Pass 10 of 10
G1 Y409
G1 X185
G1 Y411
G1 X207
G0 X180.5Y409
; Layer WorkSpace Pass 1 of 10
G1 Y382
G1 X179.5
G1 Y409
G1 X180.5
; Layer WorkSpace Pass 2 of 10
G1 Y382
G1 X179.5
G1 Y409
G1 X180.5
; Layer WorkSpace Pass 3 of 10
G1 Y382
G1 X179.5
G1 Y409
G1 X180.5
; Layer WorkSpace Pass 4 of 10
G1 Y382
G1 X179.5
G1 Y409
G1 X180.5
; Layer WorkSpace Pass 5 of 10
G1 Y382
G1 X179.5
G1 Y409
G1 X180.5
; Layer WorkSpace Pass 6 of 10
G1 Y382
G1 X179.5
G1 Y409
G1 X180.5
; Layer WorkSpace Pass 7 of 10
G1 Y382
G1 X179.5
G1 Y409
G1 X180.5
; Layer WorkSpace Pass 8 of 10
G1 Y382
G1 X179.5
G1 Y409
G1 X180.5
; Layer WorkSpace Pass 9 of 10
G1 Y382
G1 X179.5
G1 Y409
G1 X180.5
; Layer WorkSpace Pass 10 of 10
G1 Y382
G1 X179.5
G1 Y409
G1 X180.5
G0 X180.5Y375
; Layer WorkSpace Pass 1 of 10
G1 Y348
G1 X179.5
G1 Y375
G1 X180.5
; Layer WorkSpace Pass 2 of 10
G1 Y348
G1 X179.5
G1 Y375
G1 X180.5
; Layer WorkSpace Pass 3 of 10
G1 Y348
G1 X179.5
G1 Y375
G1 X180.5
; Layer WorkSpace Pass 4 of 10
G1 Y348
G1 X179.5
G1 Y375
G1 X180.5
; Layer WorkSpace Pass 5 of 10
G1 Y348
G1 X179.5
G1 Y375
G1 X180.5
; Layer WorkSpace Pass 6 of 10
G1 Y348
G1 X179.5
G1 Y375
G1 X180.5
; Layer WorkSpace Pass 7 of 10
G1 Y348
G1 X179.5
G1 Y375
G1 X180.5
; Layer WorkSpace Pass 8 of 10
G1 Y348
G1 X179.5
G1 Y375
G1 X180.5
; Layer WorkSpace Pass 9 of 10
G1 Y348
G1 X179.5
G1 Y375
G1 X180.5
; Layer WorkSpace Pass 10 of 10
G1 Y348
G1 X179.5
G1 Y375
G1 X180.5
G0 X185Y348
; Layer WorkSpace Pass 1 of 10
G1 X207
G1 Y346
G1 X185
G1 Y348
; Layer WorkSpace Pass 2 of 10
G1 X207
G1 Y346
G1 X185
G1 Y348
; Layer WorkSpace Pass 3 of 10
G1 X207
G1 Y346
G1 X185
G1 Y348
; Layer WorkSpace Pass 4 of 10
G1 X207
G1 Y346
G1 X185
G1 Y348
; Layer WorkSpace Pass 5 of 10
G1 X207
G1 Y346
G1 X185
G1 Y348
; Layer WorkSpace Pass 6 of 10
G1 X207
G1 Y346
G1 X185
G1 Y348
; Layer WorkSpace Pass 7 of 10
G1 X207
G1 Y346
G1 X185
G1 Y348
; Layer WorkSpace Pass 8 of 10
G1 X207
G1 Y346
