; LightBurn 1.3.01
; GRBL device profile, absolute coords
; Bounds: X5 Y531.94 to X669.82 Y785.85
G00 G17 G40 G21 G54
G90
M4
; Cut @ 600 mm/min, 95% power
M8
G0 X54.582Y548.867
; Layer WorkSpace Pass 1 of 10
G1 X54.786Y548.605S950F600
G1 X55.013Y548.339
G1 X55.266Y548.064
G1 X55.546Y547.777
G1 X56.043Y547.318
G1 X56.558Y546.926
G1 X57.096Y546.602
G1 X57.667Y546.347
G1 X58.277Y546.162
G1 X58.933Y546.046
G1 X59.643Y546
G1 X60.413Y546.026
G1 X60.824Y546.065
G1 X61.252Y546.123
G1 X61.699Y546.198
G1 X62.166Y546.292
G1 X62.654Y546.403
G1 X63.163Y546.533
G1 X63.695Y546.681
G1 X64.25Y546.848
G1 X64.829Y547.032
G1 X65.434Y547.236
G1 X66.064Y547.458
G1 X66.722Y547.698
G1 X67.408Y547.957
G1 X68.122Y548.235
G1 X68.866Y548.532
G1 X69.641Y548.848
G1 X71.18Y549.493
G1 X72.674Y550.148
G1 X74.162Y550.837
G1 X75.683Y551.583
G1 X76.467Y551.984
G1 X77.275Y552.409
G1 X78.109Y552.859
G1 X78.977Y553.338
G1 X79.881Y553.849
G1 X80.828Y554.394
G1 X81.821Y554.977
G1 X82.866Y555.6
G1 X83.968Y556.266
G1 X85.132Y556.979
G1 X86.361Y557.741
G1 X87.662Y558.555
G1 X89.039Y559.424
G1 X90.497Y560.351
G1 X91.258Y560.837
G1 X92.846Y561.857
G1 X94.528Y562.941
G1 X97.235Y564.697
G1 X100.178Y566.615
G1 X104.499Y569.444
G1 X112.834Y574.92
G1 X115.017Y576.351
G1 X118.153Y578.399
G1 X121.09Y580.309
G1 X123.79Y582.056
G1 X126.214Y583.615
G1 X127.658Y584.538
G1 X128.95Y585.359
G1 X130.08Y586.071
G1 X131.036Y586.666
G1 X131.445Y586.918
G1 X131.806Y587.138
G1 X132.118Y587.325
G1 X132.379Y587.479
G1 X132.588Y587.598
G1 X132.744Y587.681
G1 X132.845Y587.728
G1 X132.889
G1 X148.529Y578.242
G1 X150.391Y577.115
G1 X152.216Y576.015
G1 X154.003Y574.939
G1 X155.754Y573.889
G1 X157.469Y572.864
G1 X159.149Y571.864
G1 X160.793Y570.889
G1 X162.402Y569.939
G1 X163.977Y569.012
G1 X165.518Y568.11
G1 X167.025Y567.232
G1 X168.499Y566.378
G1 X169.94Y565.547
G1 X171.348Y564.739
G1 X172.725Y563.955
G1 X174.07Y563.194
G1 X175.384Y562.456
G1 X176.667Y561.74
G1 X177.919Y561.047
G1 X179.142Y560.375
G1 X180.335Y559.726
G1 X181.499Y559.099
G1 X182.634Y558.494
G1 X183.741Y557.91
G1 X184.82Y557.347
G1 X185.871Y556.805
G1 X186.895Y556.284
G1 X187.892Y555.784
G1 X188.863Y555.305
G1 X189.809Y554.845
G1 X190.728Y554.406
G1 X191.623Y553.987
G1 X192.493Y553.587
G1 X193.338Y553.207
G1 X194.16Y552.847
G1 X194.958Y552.505
G1 X195.734Y552.183
G1 X196.486Y551.879
G1 X197.216Y551.594
G1 X197.925Y551.327
G1 X198.612Y551.079
G1 X199.278Y550.848
G1 X199.923Y550.635
G1 X200.549Y550.44
G1 X201.154Y550.262
G1 X201.74Y550.102
G1 X202.307Y549.958
G1 X203.385Y549.722
G1 X204.393Y549.551
G1 X205.333Y549.445
G1 X206.208Y549.401
G1 X207.022Y549.419
G1 X207.777Y549.496
G1 X208.478Y549.631
G1 X209.128Y549.823
G1 X209.578Y550.03
G1 X210.016Y550.328
G1 X210.438Y550.708
G1 X210.842Y551.165
G1 X211.225Y551.692
G1 X211.585Y552.282
G1 X211.918Y552.929
G1 X212.223Y553.626
G1 X212.497Y554.366
G1 X212.736Y555.143
G1 X212.938Y555.951
G1 X213.101Y556.782
G1 X213.222Y557.63
G1 X213.298Y558.488
G1 X213.327Y559.35
G1 X213.306Y560.209
G1 X213.247Y561.132
G1 X213.17Y562.089
G1 X213.076Y563.081
G1 X212.962Y564.112
G1 X212.829Y565.183
G1 X212.677Y566.296
G1 X212.504Y567.454
G1 X212.31Y568.659
G1 X212.096Y569.912
G1 X211.859Y571.217
G1 X211.6Y572.575
G1 X211.319Y573.989
G1 X211.014Y575.461
G1 X210.686Y576.992
G1 X210.333Y578.585
G1 X209.955Y580.243
G1 X209.552Y581.966
G1 X209.124Y583.759
G1 X208.669Y585.622
G1 X208.187Y587.558
G1 X207.678Y589.57
G1 X207.142Y591.658
G1 X206.577Y593.827
G1 X205.983Y596.076
G1 X205.36Y598.41
G1 X204.707Y600.829
G1 X204.024Y603.337
G1 X203.31Y605.935
G1 X202.565Y608.626
G1 X201.787Y611.411
G1 X201.387Y612.84
G1 X200.561Y615.772
G1 X194.94Y635.617
G1 X214.078Y652.398
G1 X218.054Y655.895
G1 X222.017Y659.402
G1 X223.962Y661.129
G1 X225.864Y662.824
G1 X227.711Y664.473
G1 X229.489Y666.067
G1 X231.185Y667.592
G1 X232.787Y669.036
G1 X234.28Y670.389
G1 X235.652Y671.639
G1 X236.89Y672.773
G1 X237.981Y673.78
G1 X238.911Y674.648
G1 X239.312Y675.026
G1 X239.668Y675.365
G1 X240.655Y676.321
G1 X241.613Y677.268
G1 X242.543Y678.208
G1 X243.444Y679.138
G1 X244.315Y680.058
G1 X245.157Y680.967
G1 X245.968Y681.865
G1 X246.748Y682.751
G1 X247.496Y683.624
G1 X248.213Y684.483
G1 X248.897Y685.328
G1 X249.549Y686.159
G1 X250.167Y686.973
G1 X250.751Y687.771
G1 X251.301Y688.552
G1 X251.816Y689.314
G1 X252.296Y690.058
G1 X252.741Y690.783
G1 X253.149Y691.488
G1 X253.52Y692.172
G1 X253.854Y692.834
G1 X254.151Y693.474
G1 X254.409Y694.091
G1 X254.629Y694.685
G1 X254.81Y695.253
G1 X254.951Y695.797
G1 X255.053Y696.315
G1 X255.113Y696.806
G1 X255.133Y697.27
G1 X255.111Y697.706
G1 X255.048Y698.113
G1 X254.941Y698.491
G1 X254.816Y698.75
G1 X254.61Y699.059
G1 X254.333Y699.406
G1 X253.998Y699.78
G1 X253.613Y700.169
G1 X253.192Y700.562
G1 X252.744Y700.947
G1 X252.28Y701.312
G1 X251.739Y701.695
G1 X251.153Y702.063
G1 X250.517Y702.418
G1 X249.828Y702.759
G1 X249.082Y703.088
G1 X248.275Y703.404
G1 X247.405Y703.709
G1 X246.467Y704.002
G1 X245.457Y704.285
G1 X244.373Y704.556
G1 X243.21Y704.818
G1 X241.965Y705.071
G1 X240.634Y705.314
G1 X239.214Y705.549
G1 X237.7Y705.776
G1 X236.09Y705.996
G1 X235.248Y706.103
G1 X234.38Y706.208
G1 X233.486Y706.312
G1 X232.566Y706.414
G1 X231.619Y706.514
G1 X230.644Y706.613
G1 X229.642Y706.711
G1 X228.611Y706.807
G1 X227.552Y706.902
G1 X226.463Y706.995
G1 X225.345Y707.088
G1 X224.197Y707.179
G1 X223.018Y707.269
G1 X221.809Y707.359
G1 X220.567Y707.447
G1 X219.295Y707.534
G1 X217.989Y707.621
G1 X216.651Y707.706
G1 X215.28Y707.792
G1 X213.875Y707.876
G1 X212.436Y707.96
G1 X210.962Y708.043
G1 X209.453Y708.126
G1 X207.909Y708.208
G1 X206.329Y708.29
G1 X204.712Y708.372
G1 X203.059Y708.453
G1 X199.639Y708.615
G1 X196.067Y708.778
G1 X168.795Y709.965
G1 X164.593Y719.964
G1 X163.616Y722.28
G1 X162.66Y724.543
G1 X161.724Y726.753
G1 X160.807Y728.911
G1 X159.909Y731.017
G1 X159.03Y733.073
G1 X158.169Y735.078
G1 X157.327Y737.034
G1 X156.503Y738.941
G1 X155.696Y740.799
G1 X154.906Y742.609
G1 X154.134Y744.372
G1 X153.378Y746.089
G1 X152.638Y747.759
G1 X151.915Y749.383
G1 X151.207Y750.963
G1 X150.515Y752.498
G1 X149.838Y753.989
G1 X149.175Y755.437
G1 X148.528Y756.843
G1 X147.894Y758.206
G1 X147.274Y759.528
G1 X146.668Y760.809
G1 X146.075Y762.05
G1 X145.495Y763.251
G1 X144.928Y764.413
G1 X144.373Y765.537
G1 X143.83Y766.622
G1 X143.299Y767.671
G1 X142.779Y768.682
G1 X142.271Y769.657
G1 X141.773Y770.597
G1 X141.286Y771.502
G1 X140.809Y772.372
G1 X140.342Y773.209
G1 X139.884Y774.012
G1 X139.436Y774.782
G1 X138.996Y775.521
G1 X138.565Y776.228
G1 X138.143Y776.904
G1 X137.729Y777.55
G1 X137.322Y778.166
G1 X136.923Y778.753
G1 X136.531Y779.311
G1 X136.145Y779.842
G1 X135.767Y780.345
G1 X135.394Y780.821
G1 X135.027Y781.271
G1 X134.666Y781.696
G1 X134.31Y782.095
G1 X133.959Y782.471
G1 X133.271Y783.15
G1 X132.598Y783.738
G1 X131.94Y784.241
G1 X131.292Y784.662
G1 X130.653Y785.006
G1 X130.021Y785.279
G1 X129.445Y785.482
G1 X128.902Y785.643
G1 X128.386Y785.759
G1 X127.892Y785.829
G1 X127.415Y785.851
G1 X126.951Y785.823
G1 X126.494Y785.744
G1 X126.039Y785.612
G1 X125.582Y785.424
G1 X125.117Y785.18
G1 X124.639Y784.878
G1 X124.144Y784.515
G1 X123.627Y784.091
G1 X123.081Y783.603
G1 X122.504Y783.05
G1 X121.889Y782.429
G1 X121.412Y781.917
G1 X120.929Y781.356
G1 X120.44Y780.746
G1 X119.943Y780.082
G1 X119.437Y779.363
G1 X118.921Y778.586
G1 X118.394Y777.748
G1 X117.854Y776.847
G1 X117.301Y775.879
G1 X116.732Y774.843
G1 X116.148Y773.735
G1 X115.547Y772.553
G1 X114.927Y771.295
G1 X114.288Y769.957
G1 X113.628Y768.538
G1 X112.946Y767.033
G1 X112.241Y765.442
G1 X111.512Y763.761
G1 X110.757Y761.987
G1 X109.976Y760.119
G1 X109.575Y759.148
G1 X109.167Y758.152
G1 X108.752Y757.131
G1 X108.329Y756.085
G1 X107.899Y755.013
G1 X107.461Y753.915
G1 X107.015Y752.791
G1 X106.561Y751.64
G1 X106.099Y750.462
G1 X105.629Y749.256
G1 X105.151Y748.023
G1 X104.663Y746.761
G1 X104.168Y745.472
G1 X103.149Y742.806
G1 X102.094Y740.022
G1 X101.001Y737.118
G1 X99.869Y734.092
G1 X98.696Y730.94
G1 X95.147Y721.356
G1 X91.494Y711.521
G1 X90.215Y708.129
G1 X64.051Y705.654
G1 X58.177Y705.096
G1 X52.902Y704.586
G1 X49.31Y704.233
G1 X46.011Y703.901
G1 X43.965Y703.691
G1 X42.034Y703.488
G1 X40.214Y703.292
G1 X38.499Y703.103
G1 X36.883Y702.919
G1 X35.361Y702.74
G1 X33.926Y702.564
G1 X32.574Y702.392
G1 X31.298Y702.223
G1 X30.094Y702.054
G1 X28.955Y701.887
G1 X27.876Y701.72
G1 X26.852Y701.552
G1 X25.876Y701.383
G1 X24.944Y701.212
G1 X24.049Y701.037
G1 X23.186Y700.859
G1 X21.534Y700.489
G1 X19.943Y700.095
G1 X18.367Y699.671
G1 X16.763Y699.211
G1 X15.956Y698.971
G1 X15.186Y698.735
G1 X14.451Y698.504
G1 X13.751Y698.276
G1 X13.085Y698.051
G1 X12.452Y697.829
G1 X11.852Y697.608
G1 X11.283Y697.389
G1 X10.745Y697.171
G1 X10.237Y696.954
G1 X9.759Y696.736
G1 X9.309Y696.517
G1 X8.887Y696.297
G1 X8.491Y696.075
G1 X8.122Y695.85
G1 X7.779Y695.623
G1 X7.164Y695.158
G1 X6.642Y694.674
G1 X6.206Y694.168
G1 X5.849Y693.635
G1 X5.566Y693.07
G1 X5.349Y692.471
G1 X5.194Y691.831
G1 X5.093Y691.147
G1 X5.048Y690.706
G1 X5.017Y690.305
G1 X5Y689.936
G1 Y689.592
G1 X5.025Y689.264
G1 X5.072Y688.947
G1 X5.144Y688.631
G1 X5.246Y688.309
G1 X5.38Y687.974
G1 X5.548Y687.617
G1 X5.754Y687.232
G1 X6Y686.81
G1 X6.288Y686.344
G1 X6.623Y685.827
G1 X7.005Y685.25
G1 X7.438Y684.606
G1 X7.907Y683.931
G1 X8.411Y683.241
G1 X8.952Y682.535
G1 X9.533Y681.811
G1 X10.155Y681.066
G1 X10.821Y680.298
G1 X11.534Y679.506
G1 X12.295Y678.688
G1 X13.107Y677.84
G1 X13.971Y676.963
G1 X14.891Y676.053
G1 X15.869Y675.108
G1 X16.906Y674.127
G1 X18.005Y673.108
G1 X19.168Y672.047
G1 X20.398Y670.945
G1 X21.696Y669.798
G1 X23.065Y668.604
G1 X24.508Y667.363
G1 X26.026Y666.07
G1 X27.621Y664.725
G1 X29.297Y663.326
G1 X30.165Y662.605
G1 X31.054Y661.87
G1 X31.964Y661.12
G1 X32.896Y660.356
G1 X33.849Y659.576
G1 X34.825Y658.781
G1 X36.842Y657.144
G1 X38.951Y655.442
G1 X41.152Y653.674
G1 X43.45Y651.837
G1 X45.845Y649.93
G1 X48.341Y647.951
G1 X52.551Y644.621
G1 X54.122Y643.37
G1 X55.643Y642.152
G1 X57.105Y640.973
G1 X58.501Y639.841
G1 X59.823Y638.762
G1 X60.452Y638.245
G1 X61.646Y637.26
G1 X62.744Y636.345
G1 X63.738Y635.507
G1 X64.193Y635.12
G1 X64.62Y634.754
G1 X65.016Y634.412
G1 X65.381Y634.093
G1 X65.714Y633.799
G1 X66.014Y633.53
G1 X66.28Y633.287
G1 X66.51Y633.072
G1 X66.704Y632.884
G1 X66.861Y632.726
G1 X66.979Y632.597
G1 X67.058Y632.499
G1 X67.096Y632.432
G1 X67.108Y632.356
G1 Y632.23
G1 X67.096Y632.056
G1 X67.073Y631.834
G1 X67.039Y631.566
G1 X66.995Y631.254
G1 X66.939Y630.899
G1 X66.874Y630.501
G1 X66.798Y630.063
G1 X66.713Y629.586
G1 X66.618Y629.071
G1 X66.515Y628.519
G1 X66.402Y627.932
G1 X66.28Y627.31
G1 X66.013Y625.971
G1 X65.714Y624.511
G1 X65.386Y622.942
G1 X65.031Y621.274
G1 X64.65Y619.518
G1 X64.247Y617.683
G1 X63.824Y615.781
G1 X63.382Y613.822
G1 X62.552Y610.202
G1 X61.833Y607.053
G1 X61.146Y604.013
G1 X60.489Y601.08
G1 X59.863Y598.251
G1 X59.266Y595.526
G1 X58.7Y592.901
G1 X58.428Y591.625
G1 X58.163Y590.374
G1 X57.905Y589.147
G1 X57.412Y586.764
G1 X56.947Y584.475
G1 X56.511Y582.276
G1 X56.102Y580.167
G1 X55.721Y578.145
G1 X55.367Y576.208
G1 X55.039Y574.355
G1 X54.739Y572.581
G1 X54.464Y570.887
G1 X54.216Y569.27
G1 X53.993Y567.727
G1 X53.795Y566.257
G1 X53.622Y564.857
G1 X53.473Y563.526
G1 X53.348Y562.261
G1 X53.248Y561.061
G1 X53.17Y559.923
G1 X53.116Y558.845
G1 X53.084Y557.825
G1 Y556.861
G1 Y555.951
G1 X53.123Y555.093
G1 X53.179Y554.285
G1 X53.256Y553.524
G1 X53.33Y552.923
G1 X53.404Y552.376
G1 X53.481Y551.88
G1 X53.561Y551.429
G1 X53.647Y551.018
G1 X53.742Y550.643
G1 X53.846Y550.299
G1 X53.962Y549.981
G1 X54.236Y549.402
G1 X54.582Y548.867
; Layer WorkSpace Pass 2 of 10
G1 X54.786Y548.605
G1 X55.013Y548.339
G1 X55.266Y548.064
G1 X55.546Y547.777
G1 X56.043Y547.318
G1 X56.558Y546.926
G1 X57.096Y546.602
G1 X57.667Y546.347
G1 X58.277Y546.162
G1 X58.933Y546.046
G1 X59.643Y546
G1 X60.413Y546.026
G1 X60.824Y546.065
G1 X61.252Y546.123
G1 X61.699Y546.198
G1 X62.166Y546.292
G1 X62.654Y546.403
G1 X63.163Y546.533
G1 X63.695Y546.681
G1 X64.25Y546.848
G1 X64.829Y547.032
G1 X65.434Y547.236
G1 X66.064Y547.458
G1 X66.722Y547.698
G1 X67.408Y547.957
G1 X68.122Y548.235
G1 X68.866Y548.532
G1 X69.641Y548.848
G1 X71.18Y549.493
G1 X72.674Y550.148
G1 X74.162Y550.837
G1 X75.683Y551.583
G1 X76.467Y551.984
G1 X77.275Y552.409
G1 X78.109Y552.859
G1 X78.977Y553.338
G1 X79.881Y553.849
G1 X80.828Y554.394
G1 X81.821Y554.977
G1 X82.866Y555.6
G1 X83.968Y556.266
G1 X85.132Y556.979
G1 X86.361Y557.741
G1 X87.662Y558.555
G1 X89.039Y559.424
G1 X90.497Y560.351
G1 X91.258Y560.837
G1 X92.846Y561.857
G1 X94.528Y562.941
G1 X97.235Y564.697
G1 X100.178Y566.615
G1 X104.499Y569.444
G1 X112.834Y574.92
G1 X115.017Y576.351
G1 X118.153Y578.399
G1 X121.09Y580.309
G1 X123.79Y582.056
G1 X126.214Y583.615
G1 X127.658Y584.538
G1 X128.95Y585.359
G1 X130.08Y586.071
G1 X131.036Y586.666
G1 X131.445Y586.918
G1 X131.806Y587.138
G1 X132.118Y587.325
G1 X132.379Y587.479
G1 X132.588Y587.598
G1 X132.744Y587.681
G1 X132.845Y587.728
G1 X132.889
G1 X148.529Y578.242
G1 X150.391Y577.115
G1 X152.216Y576.015
G1 X154.003Y574.939
G1 X155.754Y573.889
G1 X157.469Y572.864
G1 X159.149Y571.864
G1 X160.793Y570.889
G1 X162.402Y569.939
G1 X163.977Y569.012
G1 X165.518Y568.11
G1 X167.025Y567.232
G1 X168.499Y566.378
G1 X169.94Y565.547
G1 X171.348Y564.739
G1 X172.725Y563.955
G1 X174.07Y563.194
G1 X175.384Y562.456
G1 X176.667Y561.74
G1 X177.919Y561.047
G1 X179.142Y560.375
G1 X180.335Y559.726
G1 X181.499Y559.099
G1 X182.634Y558.494
G1 X183.741Y557.91
G1 X184.82Y557.347
G1 X185.871Y556.805
G1 X186.895Y556.284
G1 X187.892Y555.784
G1 X188.863Y555.305
G1 X189.809Y554.845
G1 X190.728Y554.406
G1 X191.623Y553.987
G1 X192.493Y553.587
G1 X193.338Y553.207
G1 X194.16Y552.847
G1 X194.958Y552.505
G1 X195.734Y552.183
G1 X196.486Y551.879
G1 X197.216Y551.594
G1 X197.925Y551.327
G1 X198.612Y551.079
G1 X199.278Y550.848
G1 X199.923Y550.635
G1 X200.549Y550.44
G1 X201.154Y550.262
G1 X201.74Y550.102
G1 X202.307Y549.958
G1 X203.385Y549.722
G1 X204.393Y549.551
G1 X205.333Y549.445
G1 X206.208Y549.401
G1 X207.022Y549.419
G1 X207.777Y549.496
G1 X208.478Y549.631
G1 X209.128Y549.823
G1 X209.578Y550.03
G1 X210.016Y550.328
G1 X210.438Y550.708
G1 X210.842Y551.165
G1 X211.225Y551.692
G1 X211.585Y552.282
G1 X211.918Y552.929
G1 X212.223Y553.626
G1 X212.497Y554.366
G1 X212.736Y555.143
G1 X212.938Y555.951
G1 X213.101Y556.782
G1 X213.222Y557.63
G1 X213.298Y558.488
G1 X213.327Y559.35
G1 X213.306Y560.209
G1 X213.247Y561.132
G1 X213.17Y562.089
G1 X213.076Y563.081
G1 X212.962Y564.112
G1 X212.829Y565.183
G1 X212.677Y566.296
G1 X212.504Y567.454
G1 X212.31Y568.659
G1 X212.096Y569.912
G1 X211.859Y571.217
G1 X211.6Y572.575
G1 X211.319Y573.989
G1 X211.014Y575.461
G1 X210.686Y576.992
G1 X210.333Y578.585
G1 X209.955Y580.243
G1 X209.552Y581.966
G1 X209.124Y583.759
G1 X208.669Y585.622
G1 X208.187Y587.558
G1 X207.678Y589.57
G1 X207.142Y591.658
G1 X206.577Y593.827
G1 X205.983Y596.076
G1 X205.36Y598.41
G1 X204.707Y600.829
G1 X204.024Y603.337
G1 X203.31Y605.935
G1 X202.565Y608.626
G1 X201.787Y611.411
G1 X201.387Y612.84
G1 X200.561Y615.772
G1 X194.94Y635.617
G1 X214.078Y652.398
G1 X218.054Y655.895
G1 X222.017Y659.402
G1 X223.962Y661.129
G1 X225.864Y662.824
G1 X227.711Y664.473
G1 X229.489Y666.067
G1 X231.185Y667.592
G1 X232.787Y669.036
G1 X234.28Y670.389
G1 X235.652Y671.639
G1 X236.89Y672.773
G1 X237.981Y673.78
G1 X238.911Y674.648
G1 X239.312Y675.026
G1 X239.668Y675.365
G1 X240.655Y676.321
G1 X241.613Y677.268
G1 X242.543Y678.208
G1 X243.444Y679.138
G1 X244.315Y680.058
G1 X245.157Y680.967
G1 X245.968Y681.865
G1 X246.748Y682.751
G1 X247.496Y683.624
G1 X248.213Y684.483
G1 X248.897Y685.328
G1 X249.549Y686.159
G1 X250.167Y686.973
G1 X250.751Y687.771
G1 X251.301Y688.552
G1 X251.816Y689.314
G1 X252.296Y690.058
G1 X252.741Y690.783
G1 X253.149Y691.488
G1 X253.52Y692.172
G1 X253.854Y692.834
G1 X254.151Y693.474
G1 X254.409Y694.091
G1 X254.629Y694.685
G1 X254.81Y695.253
G1 X254.951Y695.797
G1 X255.053Y696.315
G1 X255.113Y696.806
G1 X255.133Y697.27
G1 X255.111Y697.706
G1 X255.048Y698.113
G1 X254.941Y698.491
G1 X254.816Y698.75
G1 X254.61Y699.059
G1 X254.333Y699.406
G1 X253.998Y699.78
G1 X253.613Y700.169
G1 X253.192Y700.562
G1 X252.744Y700.947
G1 X252.28Y701.312
G1 X251.739Y701.695
G1 X251.153Y702.063
G1 X250.517Y702.418
G1 X249.828Y702.759
G1 X249.082Y703.088
G1 X248.275Y703.404
G1 X247.405Y703.709
G1 X246.467Y704.002
G1 X245.457Y704.285
G1 X244.373Y704.556
G1 X243.21Y704.818
G1 X241.965Y705.071
G1 X240.634Y705.314
G1 X239.214Y705.549
G1 X237.7Y705.776
G1 X236.09Y705.996
G1 X235.248Y706.103
G1 X234.38Y706.208
G1 X233.486Y706.312
G1 X232.566Y706.414
G1 X231.619Y706.514
G1 X230.644Y706.613
G1 X229.642Y706.711
G1 X228.611Y706.807
G1 X227.552Y706.902
G1 X226.463Y706.995
G1 X225.345Y707.088
G1 X224.197Y707.179
G1 X223.018Y707.269
G1 X221.809Y707.359
G1 X220.567Y707.447
G1 X219.295Y707.534
G1 X217.989Y707.621
G1 X216.651Y707.706
G1 X215.28Y707.792
G1 X213.875Y707.876
G1 X212.436Y707.96
G1 X210.962Y708.043
G1 X209.453Y708.126
G1 X207.909Y708.208
G1 X206.329Y708.29
G1 X204.712Y708.372
G1 X203.059Y708.453
G1 X199.639Y708.615
G1 X196.067Y708.778
G1 X168.795Y709.965
G1 X164.593Y719.964
G1 X163.616Y722.28
G1 X162.66Y724.543
G1 X161.724Y726.753
G1 X160.807Y728.911
G1 X159.909Y731.017
G1 X159.03Y733.073
G1 X158.169Y735.078
G1 X157.327Y737.034
G1 X156.503Y738.941
G1 X155.696Y740.799
G1 X154.906Y742.609
G1 X154.134Y744.372
G1 X153.378Y746.089
G1 X152.638Y747.759
G1 X151.915Y749.383
G1 X151.207Y750.963
G1 X150.515Y752.498
G1 X149.838Y753.989
G1 X149.175Y755.437
G1 X148.528Y756.843
G1 X147.894Y758.206
G1 X147.274Y759.528
G1 X146.668Y760.809
G1 X146.075Y762.05
G1 X145.495Y763.251
G1 X144.928Y764.413
G1 X144.373Y765.537
G1 X143.83Y766.622
G1 X143.299Y767.671
G1 X142.779Y768.682
G1 X142.271Y769.657
G1 X141.773Y770.597
G1 X141.286Y771.502
G1 X140.809Y772.372
G1 X140.342Y773.209
G1 X139.884Y774.012
G1 X139.436Y774.782
G1 X138.996Y775.521
G1 X138.565Y776.228
G1 X138.143Y776.904
G1 X137.729Y777.55
G1 X137.322Y778.166
G1 X136.923Y778.753
G1 X136.531Y779.311
G1 X136.145Y779.842
G1 X135.767Y780.345
G1 X135.394Y780.821
G1 X135.027Y781.271
G1 X134.666Y781.696
G1 X134.31Y782.095
G1 X133.959Y782.471
G1 X133.271Y783.15
G1 X132.598Y783.738
G1 X131.94Y784.241
G1 X131.292Y784.662
G1 X130.653Y785.006
G1 X130.021Y785.279
G1 X129.445Y785.482
G1 X128.902Y785.643
G1 X128.386Y785.759
G1 X127.892Y785.829
G1 X127.415Y785.851
G1 X126.951Y785.823
G1 X126.494Y785.744
G1 X126.039Y785.612
G1 X125.582Y785.424
G1 X125.117Y785.18
G1 X124.639Y784.878
G1 X124.144Y784.515
G1 X123.627Y784.091
G1 X123.081Y783.603
G1 X122.504Y783.05
G1 X121.889Y782.429
G1 X121.412Y781.917
G1 X120.929Y781.356
G1 X120.44Y780.746
G1 X119.943Y780.082
G1 X119.437Y779.363
G1 X118.921Y778.586
G1 X118.394Y777.748
G1 X117.854Y776.847
G1 X117.301Y775.879
G1 X116.732Y774.843
G1 X116.148Y773.735
G1 X115.547Y772.553
G1 X114.927Y771.295
G1 X114.288Y769.957
G1 X113.628Y768.538
G1 X112.946Y767.033
G1 X112.241Y765.442
G1 X111.512Y763.761
G1 X110.757Y761.987
G1 X109.976Y760.119
G1 X109.575Y759.148
G1 X109.167Y758.152
G1 X108.752Y757.131
G1 X108.329Y756.085
G1 X107.899Y755.013
G1 X107.461Y753.915
G1 X107.015Y752.791
G1 X106.561Y751.64
G1 X106.099Y750.462
G1 X105.629Y749.256
G1 X105.151Y748.023
G1 X104.663Y746.761
G1 X104.168Y745.472
G1 X103.149Y742.806
G1 X102.094Y740.022
G1 X101.001Y737.118
G1 X99.869Y734.092
G1 X98.696Y730.94
G1 X95.147Y721.356
G1 X91.494Y711.521
G1 X90.215Y708.129
G1 X64.051Y705.654
G1 X58.177Y705.096
G1 X52.902Y704.586
G1 X49.31Y704.233
G1 X46.011Y703.901
G1 X43.965Y703.691
G1 X42.034Y703.488
G1 X40.214Y703.292
G1 X38.499Y703.103
G1 X36.883Y702.919
G1 X35.361Y702.74
G1 X33.926Y702.564
G1 X32.574Y702.392
G1 X31.298Y702.223
G1 X30.094Y702.054
G1 X28.955Y701.887
G1 X27.876Y701.72
G1 X26.852Y701.552
G1 X25.876Y701.383
G1 X24.944Y701.212
G1 X24.049Y701.037
G1 X23.186Y700.859
G1 X21.534Y700.489
G1 X19.943Y700.095
G1 X18.367Y699.671
G1 X16.763Y699.211
G1 X15.956Y698.971
G1 X15.186Y698.735
G1 X14.451Y698.504
G1 X13.751Y698.276
G1 X13.085Y698.051
G1 X12.452Y697.829
G1 X11.852Y697.608
G1 X11.283Y697.389
G1 X10.745Y697.171
G1 X10.237Y696.954
G1 X9.759Y696.736
G1 X9.309Y696.517
G1 X8.887Y696.297
G1 X8.491Y696.075
G1 X8.122Y695.85
G1 X7.779Y695.623
G1 X7.164Y695.158
G1 X6.642Y694.674
G1 X6.206Y694.168
G1 X5.849Y693.635
G1 X5.566Y693.07
G1 X5.349Y692.471
G1 X5.194Y691.831
G1 X5.093Y691.147
G1 X5.048Y690.706
G1 X5.017Y690.305
G1 X5Y689.936
G1 Y689.592
G1 X5.025Y689.264
G1 X5.072Y688.947
G1 X5.144Y688.631
G1 X5.246Y688.309
G1 X5.38Y687.974
G1 X5.548Y687.617
G1 X5.754Y687.232
G1 X6Y686.81
G1 X6.288Y686.344
G1 X6.623Y685.827
G1 X7.005Y685.25
G1 X7.438Y684.606
G1 X7.907Y683.931
G1 X8.411Y683.241
G1 X8.952Y682.535
G1 X9.533Y681.811
G1 X10.155Y681.066
G1 X10.821Y680.298
G1 X11.534Y679.506
G1 X12.295Y678.688
G1 X13.107Y677.84
G1 X13.971Y676.963
G1 X14.891Y676.053
G1 X15.869Y675.108
G1 X16.906Y674.127
G1 X18.005Y673.108
G1 X19.168Y672.047
G1 X20.398Y670.945
G1 X21.696Y669.798
G1 X23.065Y668.604
G1 X24.508Y667.363
G1 X26.026Y666.07
G1 X27.621Y664.725
G1 X29.297Y663.326
G1 X30.165Y662.605
G1 X31.054Y661.87
G1 X31.964Y661.12
G1 X32.896Y660.356
G1 X33.849Y659.576
G1 X34.825Y658.781
G1 X36.842Y657.144
G1 X38.951Y655.442
G1 X41.152Y653.674
G1 X43.45Y651.837
G1 X45.845Y649.93
G1 X48.341Y647.951
G1 X52.551Y644.621
G1 X54.122Y643.37
G1 X55.643Y642.152
G1 X57.105Y640.973
G1 X58.501Y639.841
G1 X59.823Y638.762
G1 X60.452Y638.245
G1 X61.646Y637.26
G1 X62.744Y636.345
G1 X63.738Y635.507
G1 X64.193Y635.12
G1 X64.62Y634.754
G1 X65.016Y634.412
G1 X65.381Y634.093
G1 X65.714Y633.799
G1 X66.014Y633.53
G1 X66.28Y633.287
G1 X66.51Y633.072
G1 X66.704Y632.884
G1 X66.861Y632.726
G1 X66.979Y632.597
G1 X67.058Y632.499
G1 X67.096Y632.432
G1 X67.108Y632.356
G1 Y632.23
G1 X67.096Y632.056
G1 X67.073Y631.834
G1 X67.039Y631.566
G1 X66.995Y631.254
G1 X66.939Y630.899
G1 X66.874Y630.501
G1 X66.798Y630.063
G1 X66.713Y629.586
G1 X66.618Y629.071
G1 X66.515Y628.519
G1 X66.402Y627.932
G1 X66.28Y627.31
G1 X66.013Y625.971
G1 X65.714Y624.511
G1 X65.386Y622.942
G1 X65.031Y621.274
G1 X64.65Y619.518
G1 X64.247Y617.683
G1 X63.824Y615.781
G1 X63.382Y613.822
G1 X62.552Y610.202
G1 X61.833Y607.053
G1 X61.146Y604.013
G1 X60.489Y601.08
G1 X59.863Y598.251
G1 X59.266Y595.526
G1 X58.7Y592.901
G1 X58.428Y591.625
G1 X58.163Y590.374
G1 X57.905Y589.147
G1 X57.412Y586.764
G1 X56.947Y584.475
G1 X56.511Y582.276
G1 X56.102Y580.167
G1 X55.721Y578.145
G1 X55.367Y576.208
G1 X55.039Y574.355
G1 X54.739Y572.581
G1 X54.464Y570.887
G1 X54.216Y569.27
G1 X53.993Y567.727
G1 X53.795Y566.257
G1 X53.622Y564.857
G1 X53.473Y563.526
G1 X53.348Y562.261
G1 X53.248Y561.061
G1 X53.17Y559.923
G1 X53.116Y558.845
G1 X53.084Y557.825
G1 Y556.861
G1 Y555.951
G1 X53.123Y555.093
G1 X53.179Y554.285
G1 X53.256Y553.524
G1 X53.33Y552.923
G1 X53.404Y552.376
G1 X53.481Y551.88
G1 X53.561Y551.429
G1 X53.647Y551.018
G1 X53.742Y550.643
G1 X53.846Y550.299
G1 X53.962Y549.981
G1 X54.236Y549.402
G1 X54.582Y548.867
; Layer WorkSpace Pass 3 of 10
G1 X54.786Y548.605
G1 X55.013Y548.339
G1 X55.266Y548.064
G1 X55.546Y547.777
G1 X56.043Y547.318
G1 X56.558Y546.926
G1 X57.096Y546.602
G1 X57.667Y546.347
G1 X58.277Y546.162
G1 X58.933Y546.046
G1 X59.643Y546
G1 X60.413Y546.026
G1 X60.824Y546.065
G1 X61.252Y546.123
G1 X61.699Y546.198
G1 X62.166Y546.292
G1 X62.654Y546.403
G1 X63.163Y546.533
G1 X63.695Y546.681
G1 X64.25Y546.848
G1 X64.829Y547.032
G1 X65.434Y547.236
G1 X66.064Y547.458
G1 X66.722Y547.698
G1 X67.408Y547.957
G1 X68.122Y548.235
G1 X68.866Y548.532
G1 X69.641Y548.848
G1 X71.18Y549.493
G1 X72.674Y550.148
G1 X74.162Y550.837
G1 X75.683Y551.583
G1 X76.467Y551.984
G1 X77.275Y552.409
G1 X78.109Y552.859
G1 X78.977Y553.338
G1 X79.881Y553.849
G1 X80.828Y554.394
G1 X81.821Y554.977
G1 X82.866Y555.6
G1 X83.968Y556.266
G1 X85.132Y556.979
G1 X86.361Y557.741
G1 X87.662Y558.555
G1 X89.039Y559.424
G1 X90.497Y560.351
G1 X91.258Y560.837
G1 X92.846Y561.857
G1 X94.528Y562.941
G1 X97.235Y564.697
G1 X100.178Y566.615
G1 X104.499Y569.444
G1 X112.834Y574.92
G1 X115.017Y576.351
G1 X118.153Y578.399
G1 X121.09Y580.309
G1 X123.79Y582.056
G1 X126.214Y583.615
G1 X127.658Y584.538
G1 X128.95Y585.359
G1 X130.08Y586.071
G1 X131.036Y586.666
G1 X131.445Y586.918
G1 X131.806Y587.138
G1 X132.118Y587.325
G1 X132.379Y587.479
G1 X132.588Y587.598
G1 X132.744Y587.681
G1 X132.845Y587.728
G1 X132.889
G1 X148.529Y578.242
G1 X150.391Y577.115
G1 X152.216Y576.015
G1 X154.003Y574.939
G1 X155.754Y573.889
G1 X157.469Y572.864
G1 X159.149Y571.864
G1 X160.793Y570.889
G1 X162.402Y569.939
G1 X163.977Y569.012
G1 X165.518Y568.11
G1 X167.025Y567.232
G1 X168.499Y566.378
G1 X169.94Y565.547
G1 X171.348Y564.739
G1 X172.725Y563.955
G1 X174.07Y563.194
G1 X175.384Y562.456
G1 X176.667Y561.74
G1 X177.919Y561.047
G1 X179.142Y560.375
G1 X180.335Y559.726
G1 X181.499Y559.099
G1 X182.634Y558.494
G1 X183.741Y557.91
G1 X184.82Y557.347
G1 X185.871Y556.805
G1 X186.895Y556.284
G1 X187.892Y555.784
G1 X188.863Y555.305
G1 X189.809Y554.845
G1 X190.728Y554.406
G1 X191.623Y553.987
G1 X192.493Y553.587
G1 X193.338Y553.207
G1 X194.16Y552.847
G1 X194.958Y552.505
G1 X195.734Y552.183
G1 X196.486Y551.879
G1 X197.216Y551.594
G1 X197.925Y551.327
G1 X198.612Y551.079
G1 X199.278Y550.848
G1 X199.923Y550.635
G1 X200.549Y550.44
G1 X201.154Y550.262
G1 X201.74Y550.102
G1 X202.307Y549.958
G1 X203.385Y549.722
G1 X204.393Y549.551
G1 X205.333Y549.445
G1 X206.208Y549.401
G1 X207.022Y549.419
G1 X207.777Y549.496
G1 X208.478Y549.631
G1 X209.128Y549.823
G1 X209.578Y550.03
G1 X210.016Y550.328
G1 X210.438Y550.708
G1 X210.842Y551.165
G1 X211.225Y551.692
G1 X211.585Y552.282
G1 X211.918Y552.929
G1 X212.223Y553.626
G1 X212.497Y554.366
G1 X212.736Y555.143
G1 X212.938Y555.951
G1 X213.101Y556.782
G1 X213.222Y557.63
G1 X213.298Y558.488
G1 X213.327Y559.35
G1 X213.306Y560.209
G1 X213.247Y561.132
G1 X213.17Y562.089
G1 X213.076Y563.081
G1 X212.962Y564.112
G1 X212.829Y565.183
G1 X212.677Y566.296
G1 X212.504Y567.454
G1 X212.31Y568.659
G1 X212.096Y569.912
G1 X211.859Y571.217
G1 X211.6Y572.575
G1 X211.319Y573.989
G1 X211.014Y575.461
G1 X210.686Y576.992
G1 X210.333Y578.585
G1 X209.955Y580.243
G1 X209.552Y581.966
G1 X209.124Y583.759
G1 X208.669Y585.622
G1 X208.187Y587.558
G1 X207.678Y589.57
G1 X207.142Y591.658
G1 X206.577Y593.827
G1 X205.983Y596.076
G1 X205.36Y598.41
G1 X204.707Y600.829
G1 X204.024Y603.337
G1 X203.31Y605.935
G1 X202.565Y608.626
G1 X201.787Y611.411
G1 X201.387Y612.84
G1 X200.561Y615.772
G1 X194.94Y635.617
G1 X214.078Y652.398
G1 X218.054Y655.895
G1 X222.017Y659.402
G1 X223.962Y661.129
G1 X225.864Y662.824
G1 X227.711Y664.473
G1 X229.489Y666.067
G1 X231.185Y667.592
G1 X232.787Y669.036
G1 X234.28Y670.389
G1 X235.652Y671.639
G1 X236.89Y672.773
G1 X237.981Y673.78
G1 X238.911Y674.648
G1 X239.312Y675.026
G1 X239.668Y675.365
G1 X240.655Y676.321
G1 X241.613Y677.268
G1 X242.543Y678.208
G1 X243.444Y679.138
G1 X244.315Y680.058
G1 X245.157Y680.967
G1 X245.968Y681.865
G1 X246.748Y682.751
G1 X247.496Y683.624
G1 X248.213Y684.483
G1 X248.897Y685.328
G1 X249.549Y686.159
G1 X250.167Y686.973
G1 X250.751Y687.771
G1 X251.301Y688.552
G1 X251.816Y689.314
G1 X252.296Y690.058
G1 X252.741Y690.783
G1 X253.149Y691.488
G1 X253.52Y692.172
G1 X253.854Y692.834
G1 X254.151Y693.474
G1 X254.409Y694.091
G1 X254.629Y694.685
G1 X254.81Y695.253
G1 X254.951Y695.797
G1 X255.053Y696.315
G1 X255.113Y696.806
G1 X255.133Y697.27
G1 X255.111Y697.706
G1 X255.048Y698.113
G1 X254.941Y698.491
G1 X254.816Y698.75
G1 X254.61Y699.059
G1 X254.333Y699.406
G1 X253.998Y699.78
G1 X253.613Y700.169
G1 X253.192Y700.562
G1 X252.744Y700.947
G1 X252.28Y701.312
G1 X251.739Y701.695
G1 X251.153Y702.063
G1 X250.517Y702.418
G1 X249.828Y702.759
G1 X249.082Y703.088
G1 X248.275Y703.404
G1 X247.405Y703.709
G1 X246.467Y704.002
G1 X245.457Y704.285
G1 X244.373Y704.556
G1 X243.21Y704.818
G1 X241.965Y705.071
G1 X240.634Y705.314
G1 X239.214Y705.549
G1 X237.7Y705.776
G1 X236.09Y705.996
G1 X235.248Y706.103
G1 X234.38Y706.208
G1 X233.486Y706.312
G1 X232.566Y706.414
G1 X231.619Y706.514
G1 X230.644Y706.613
G1 X229.642Y706.711
G1 X228.611Y706.807
G1 X227.552Y706.902
G1 X226.463Y706.995
G1 X225.345Y707.088
G1 X224.197Y707.179
G1 X223.018Y707.269
G1 X221.809Y707.359
G1 X220.567Y707.447
G1 X219.295Y707.534
G1 X217.989Y707.621
G1 X216.651Y707.706
G1 X215.28Y707.792
G1 X213.875Y707.876
G1 X212.436Y707.96
G1 X210.962Y708.043
G1 X209.453Y708.126
G1 X207.909Y708.208
G1 X206.329Y708.29
G1 X204.712Y708.372
G1 X203.059Y708.453
G1 X199.639Y708.615
G1 X196.067Y708.778
G1 X168.795Y709.965
G1 X164.593Y719.964
G1 X163.616Y722.28
G1 X162.66Y724.543
G1 X161.724Y726.753
G1 X160.807Y728.911
G1 X159.909Y731.017
G1 X159.03Y733.073
G1 X158.169Y735.078
G1 X157.327Y737.034
G1 X156.503Y738.941
G1 X155.696Y740.799
G1 X154.906Y742.609
G1 X154.134Y744.372
G1 X153.378Y746.089
G1 X152.638Y747.759
G1 X151.915Y749.383
G1 X151.207Y750.963
G1 X150.515Y752.498
G1 X149.838Y753.989
G1 X149.175Y755.437
G1 X148.528Y756.843
G1 X147.894Y758.206
G1 X147.274Y759.528
G1 X146.668Y760.809
G1 X146.075Y762.05
G1 X145.495Y763.251
G1 X144.928Y764.413
G1 X144.373Y765.537
G1 X143.83Y766.622
G1 X143.299Y767.671
G1 X142.779Y768.682
G1 X142.271Y769.657
G1 X141.773Y770.597
G1 X141.286Y771.502
G1 X140.809Y772.372
G1 X140.342Y773.209
G1 X139.884Y774.012
G1 X139.436Y774.782
G1 X138.996Y775.521
G1 X138.565Y776.228
G1 X138.143Y776.904
G1 X137.729Y777.55
G1 X137.322Y778.166
G1 X136.923Y778.753
G1 X136.531Y779.311
G1 X136.145Y779.842
G1 X135.767Y780.345
G1 X135.394Y780.821
G1 X135.027Y781.271
G1 X134.666Y781.696
G1 X134.31Y782.095
G1 X133.959Y782.471
G1 X133.271Y783.15
G1 X132.598Y783.738
G1 X131.94Y784.241
G1 X131.292Y784.662
G1 X130.653Y785.006
G1 X130.021Y785.279
G1 X129.445Y785.482
G1 X128.902Y785.643
G1 X128.386Y785.759
G1 X127.892Y785.829
G1 X127.415Y785.851
G1 X126.951Y785.823
G1 X126.494Y785.744
G1 X126.039Y785.612
G1 X125.582Y785.424
G1 X125.117Y785.18
G1 X124.639Y784.878
G1 X124.144Y784.515
G1 X123.627Y784.091
G1 X123.081Y783.603
G1 X122.504Y783.05
G1 X121.889Y782.429
G1 X121.412Y781.917
G1 X120.929Y781.356
G1 X120.44Y780.746
G1 X119.943Y780.082
G1 X119.437Y779.363
G1 X118.921Y778.586
G1 X118.394Y777.748
G1 X117.854Y776.847
G1 X117.301Y775.879
G1 X116.732Y774.843
G1 X116.148Y773.735
G1 X115.547Y772.553
G1 X114.927Y771.295
G1 X114.288Y769.957
G1 X113.628Y768.538
G1 X112.946Y767.033
G1 X112.241Y765.442
G1 X111.512Y763.761
G1 X110.757Y761.987
G1 X109.976Y760.119
G1 X109.575Y759.148
G1 X109.167Y758.152
G1 X108.752Y757.131
G1 X108.329Y756.085
G1 X107.899Y755.013
G1 X107.461Y753.915
G1 X107.015Y752.791
G1 X106.561Y751.64
G1 X106.099Y750.462
G1 X105.629Y749.256
G1 X105.151Y748.023
G1 X104.663Y746.761
G1 X104.168Y745.472
G1 X103.149Y742.806
G1 X102.094Y740.022
G1 X101.001Y737.118
G1 X99.869Y734.092
G1 X98.696Y730.94
G1 X95.147Y721.356
G1 X91.494Y711.521
G1 X90.215Y708.129
G1 X64.051Y705.654
G1 X58.177Y705.096
G1 X52.902Y704.586
G1 X49.31Y704.233
G1 X46.011Y703.901
G1 X43.965Y703.691
G1 X42.034Y703.488
G1 X40.214Y703.292
G1 X38.499Y703.103
G1 X36.883Y702.919
G1 X35.361Y702.74
G1 X33.926Y702.564
G1 X32.574Y702.392
G1 X31.298Y702.223
G1 X30.094Y702.054
G1 X28.955Y701.887
G1 X27.876Y701.72
G1 X26.852Y701.552
G1 X25.876Y701.383
G1 X24.944Y701.212
G1 X24.049Y701.037
G1 X23.186Y700.859
G1 X21.534Y700.489
G1 X19.943Y700.095
G1 X18.367Y699.671
G1 X16.763Y699.211
G1 X15.956Y698.971
G1 X15.186Y698.735
G1 X14.451Y698.504
G1 X13.751Y698.276
G1 X13.085Y698.051
G1 X12.452Y697.829
G1 X11.852Y697.608
G1 X11.283Y697.389
G1 X10.745Y697.171
G1 X10.237Y696.954
G1 X9.759Y696.736
G1 X9.309Y696.517
G1 X8.887Y696.297
G1 X8.491Y696.075
G1 X8.122Y695.85
G1 X7.779Y695.623
G1 X7.164Y695.158
G1 X6.642Y694.674
G1 X6.206Y694.168
G1 X5.849Y693.635
G1 X5.566Y693.07
G1 X5.349Y692.471
G1 X5.194Y691.831
G1 X5.093Y691.147
G1 X5.048Y690.706
G1 X5.017Y690.305
G1 X5Y689.936
G1 Y689.592
G1 X5.025Y689.264
G1 X5.072Y688.947
G1 X5.144Y688.631
G1 X5.246Y688.309
G1 X5.38Y687.974
G1 X5.548Y687.617
G1 X5.754Y687.232
G1 X6Y686.81
G1 X6.288Y686.344
G1 X6.623Y685.827
G1 X7.005Y685.25
G1 X7.438Y684.606
G1 X7.907Y683.931
G1 X8.411Y683.241
G1 X8.952Y682.535
G1 X9.533Y681.811
G1 X10.155Y681.066
G1 X10.821Y680.298
G1 X11.534Y679.506
G1 X12.295Y678.688
G1 X13.107Y677.84
G1 X13.971Y676.963
G1 X14.891Y676.053
G1 X15.869Y675.108
G1 X16.906Y674.127
G1 X18.005Y673.108
G1 X19.168Y672.047
G1 X20.398Y670.945
G1 X21.696Y669.798
G1 X23.065Y668.604
G1 X24.508Y667.363
G1 X26.026Y666.07
G1 X27.621Y664.725
G1 X29.297Y663.326
G1 X30.165Y662.605
G1 X31.054Y661.87
G1 X31.964Y661.12
G1 X32.896Y660.356
G1 X33.849Y659.576
G1 X34.825Y658.781
G1 X36.842Y657.144
G1 X38.951Y655.442
G1 X41.152Y653.674
G1 X43.45Y651.837
G1 X45.845Y649.93
G1 X48.341Y647.951
G1 X52.551Y644.621
G1 X54.122Y643.37
G1 X55.643Y642.152
G1 X57.105Y640.973
G1 X58.501Y639.841
G1 X59.823Y638.762
G1 X60.452Y638.245
G1 X61.646Y637.26
G1 X62.744Y636.345
G1 X63.738Y635.507
G1 X64.193Y635.12
G1 X64.62Y634.754
G1 X65.016Y634.412
G1 X65.381Y634.093
G1 X65.714Y633.799
G1 X66.014Y633.53
G1 X66.28Y633.287
G1 X66.51Y633.072
G1 X66.704Y632.884
G1 X66.861Y632.726
G1 X66.979Y632.597
G1 X67.058Y632.499
G1 X67.096Y632.432
G1 X67.108Y632.356
G1 Y632.23
G1 X67.096Y632.056
G1 X67.073Y631.834
G1 X67.039Y631.566
G1 X66.995Y631.254
G1 X66.939Y630.899
G1 X66.874Y630.501
G1 X66.798Y630.063
G1 X66.713Y629.586
G1 X66.618Y629.071
G1 X66.515Y628.519
G1 X66.402Y627.932
G1 X66.28Y627.31
G1 X66.013Y625.971
G1 X65.714Y624.511
G1 X65.386Y622.942
G1 X65.031Y621.274
G1 X64.65Y619.518
G1 X64.247Y617.683
G1 X63.824Y615.781
G1 X63.382Y613.822
G1 X62.552Y610.202
G1 X61.833Y607.053
G1 X61.146Y604.013
G1 X60.489Y601.08
G1 X59.863Y598.251
G1 X59.266Y595.526
G1 X58.7Y592.901
G1 X58.428Y591.625
G1 X58.163Y590.374
G1 X57.905Y589.147
G1 X57.412Y586.764
G1 X56.947Y584.475
G1 X56.511Y582.276
G1 X56.102Y580.167
G1 X55.721Y578.145
G1 X55.367Y576.208
G1 X55.039Y574.355
G1 X54.739Y572.581
G1 X54.464Y570.887
G1 X54.216Y569.27
G1 X53.993Y567.727
G1 X53.795Y566.257
G1 X53.622Y564.857
G1 X53.473Y563.526
G1 X53.348Y562.261
G1 X53.248Y561.061
G1 X53.17Y559.923
G1 X53.116Y558.845
G1 X53.084Y557.825
G1 Y556.861
G1 Y555.951
G1 X53.123Y555.093
G1 X53.179Y554.285
G1 X53.256Y553.524
G1 X53.33Y552.923
G1 X53.404Y552.376
G1 X53.481Y551.88
G1 X53.561Y551.429
G1 X53.647Y551.018
G1 X53.742Y550.643
G1 X53.846Y550.299
G1 X53.962Y549.981
G1 X54.236Y549.402
G1 X54.582Y548.867
; Layer WorkSpace Pass 4 of 10
G1 X54.786Y548.605
G1 X55.013Y548.339
G1 X55.266Y548.064
G1 X55.546Y547.777
G1 X56.043Y547.318
G1 X56.558Y546.926
G1 X57.096Y546.602
G1 X57.667Y546.347
G1 X58.277Y546.162
G1 X58.933Y546.046
G1 X59.643Y546
G1 X60.413Y546.026
G1 X60.824Y546.065
G1 X61.252Y546.123
G1 X61.699Y546.198
G1 X62.166Y546.292
G1 X62.654Y546.403
G1 X63.163Y546.533
G1 X63.695Y546.681
G1 X64.25Y546.848
G1 X64.829Y547.032
G1 X65.434Y547.236
G1 X66.064Y547.458
G1 X66.722Y547.698
G1 X67.408Y547.957
G1 X68.122Y548.235
G1 X68.866Y548.532
G1 X69.641Y548.848
G1 X71.18Y549.493
G1 X72.674Y550.148
G1 X74.162Y550.837
G1 X75.683Y551.583
G1 X76.467Y551.984
G1 X77.275Y552.409
G1 X78.109Y552.859
G1 X78.977Y553.338
G1 X79.881Y553.849
G1 X80.828Y554.394
G1 X81.821Y554.977
G1 X82.866Y555.6
G1 X83.968Y556.266
G1 X85.132Y556.979
G1 X86.361Y557.741
G1 X87.662Y558.555
G1 X89.039Y559.424
G1 X90.497Y560.351
G1 X91.258Y560.837
G1 X92.846Y561.857
G1 X94.528Y562.941
G1 X97.235Y564.697
G1 X100.178Y566.615
G1 X104.499Y569.444
G1 X112.834Y574.92
G1 X115.017Y576.351
G1 X118.153Y578.399
G1 X121.09Y580.309
G1 X123.79Y582.056
G1 X126.214Y583.615
G1 X127.658Y584.538
G1 X128.95Y585.359
G1 X130.08Y586.071
G1 X131.036Y586.666
G1 X131.445Y586.918
G1 X131.806Y587.138
G1 X132.118Y587.325
G1 X132.379Y587.479
G1 X132.588Y587.598
G1 X132.744Y587.681
G1 X132.845Y587.728
G1 X132.889
G1 X148.529Y578.242
G1 X150.391Y577.115
G1 X152.216Y576.015
G1 X154.003Y574.939
G1 X155.754Y573.889
G1 X157.469Y572.864
G1 X159.149Y571.864
G1 X160.793Y570.889
G1 X162.402Y569.939
G1 X163.977Y569.012
G1 X165.518Y568.11
G1 X167.025Y567.232
G1 X168.499Y566.378
G1 X169.94Y565.547
G1 X171.348Y564.739
G1 X172.725Y563.955
G1 X174.07Y563.194
G1 X175.384Y562.456
G1 X176.667Y561.74
G1 X177.919Y561.047
G1 X179.142Y560.375
G1 X180.335Y559.726
G1 X181.499Y559.099
G1 X182.634Y558.494
G1 X183.741Y557.91
G1 X184.82Y557.347
G1 X185.871Y556.805
G1 X186.895Y556.284
G1 X187.892Y555.784
G1 X188.863Y555.305
G1 X189.809Y554.845
G1 X190.728Y554.406
G1 X191.623Y553.987
G1 X192.493Y553.587
G1 X193.338Y553.207
G1 X194.16Y552.847
G1 X194.958Y552.505
G1 X195.734Y552.183
G1 X196.486Y551.879
G1 X197.216Y551.594
G1 X197.925Y551.327
G1 X198.612Y551.079
G1 X199.278Y550.848
G1 X199.923Y550.635
G1 X200.549Y550.44
G1 X201.154Y550.262
G1 X201.74Y550.102
G1 X202.307Y549.958
G1 X203.385Y549.722
G1 X204.393Y549.551
G1 X205.333Y549.445
G1 X206.208Y549.401
G1 X207.022Y549.419
G1 X207.777Y549.496
G1 X208.478Y549.631
G1 X209.128Y549.823
G1 X209.578Y550.03
G1 X210.016Y550.328
G1 X210.438Y550.708
G1 X210.842Y551.165
G1 X211.225Y551.692
G1 X211.585Y552.282
G1 X211.918Y552.929
G1 X212.223Y553.626
G1 X212.497Y554.366
G1 X212.736Y555.143
G1 X212.938Y555.951
G1 X213.101Y556.782
G1 X213.222Y557.63
G1 X213.298Y558.488
G1 X213.327Y559.35
G1 X213.306Y560.209
G1 X213.247Y561.132
G1 X213.17Y562.089
G1 X213.076Y563.081
G1 X212.962Y564.112
G1 X212.829Y565.183
G1 X212.677Y566.296
G1 X212.504Y567.454
G1 X212.31Y568.659
G1 X212.096Y569.912
G1 X211.859Y571.217
G1 X211.6Y572.575
G1 X211.319Y573.989
G1 X211.014Y575.461
G1 X210.686Y576.992
G1 X210.333Y578.585
G1 X209.955Y580.243
G1 X209.552Y581.966
G1 X209.124Y583.759
G1 X208.669Y585.622
G1 X208.187Y587.558
G1 X207.678Y589.57
G1 X207.142Y591.658
G1 X206.577Y593.827
G1 X205.983Y596.076
G1 X205.36Y598.41
G1 X204.707Y600.829
G1 X204.024Y603.337
G1 X203.31Y605.935
G1 X202.565Y608.626
G1 X201.787Y611.411
G1 X201.387Y612.84
G1 X200.561Y615.772
G1 X194.94Y635.617
G1 X214.078Y652.398
G1 X218.054Y655.895
G1 X222.017Y659.402
G1 X223.962Y661.129
G1 X225.864Y662.824
G1 X227.711Y664.473
G1 X229.489Y666.067
G1 X231.185Y667.592
G1 X232.787Y669.036
G1 X234.28Y670.389
G1 X235.652Y671.639
G1 X236.89Y672.773
G1 X237.981Y673.78
G1 X238.911Y674.648
G1 X239.312Y675.026
G1 X239.668Y675.365
G1 X240.655Y676.321
G1 X241.613Y677.268
G1 X242.543Y678.208
G1 X243.444Y679.138
G1 X244.315Y680.058
G1 X245.157Y680.967
G1 X245.968Y681.865
G1 X246.748Y682.751
G1 X247.496Y683.624
G1 X248.213Y684.483
G1 X248.897Y685.328
G1 X249.549Y686.159
G1 X250.167Y686.973
G1 X250.751Y687.771
G1 X251.301Y688.552
G1 X251.816Y689.314
G1 X252.296Y690.058
G1 X252.741Y690.783
G1 X253.149Y691.488
G1 X253.52Y692.172
G1 X253.854Y692.834
G1 X254.151Y693.474
G1 X254.409Y694.091
G1 X254.629Y694.685
G1 X254.81Y695.253
G1 X254.951Y695.797
G1 X255.053Y696.315
G1 X255.113Y696.806
G1 X255.133Y697.27
G1 X255.111Y697.706
G1 X255.048Y698.113
G1 X254.941Y698.491
G1 X254.816Y698.75
G1 X254.61Y699.059
G1 X254.333Y699.406
G1 X253.998Y699.78
G1 X253.613Y700.169
G1 X253.192Y700.562
G1 X252.744Y700.947
G1 X252.28Y701.312
G1 X251.739Y701.695
G1 X251.153Y702.063
G1 X250.517Y702.418
G1 X249.828Y702.759
G1 X249.082Y703.088
G1 X248.275Y703.404
G1 X247.405Y703.709
G1 X246.467Y704.002
G1 X245.457Y704.285
G1 X244.373Y704.556
G1 X243.21Y704.818
G1 X241.965Y705.071
G1 X240.634Y705.314
G1 X239.214Y705.549
G1 X237.7Y705.776
G1 X236.09Y705.996
G1 X235.248Y706.103
G1 X234.38Y706.208
G1 X233.486Y706.312
G1 X232.566Y706.414
G1 X231.619Y706.514
G1 X230.644Y706.613
G1 X229.642Y706.711
G1 X228.611Y706.807
G1 X227.552Y706.902
G1 X226.463Y706.995
G1 X225.345Y707.088
G1 X224.197Y707.179
G1 X223.018Y707.269
G1 X221.809Y707.359
G1 X220.567Y707.447
G1 X219.295Y707.534
G1 X217.989Y707.621
G1 X216.651Y707.706
G1 X215.28Y707.792
G1 X213.875Y707.876
G1 X212.436Y707.96
G1 X210.962Y708.043
G1 X209.453Y708.126
G1 X207.909Y708.208
G1 X206.329Y708.29
G1 X204.712Y708.372
G1 X203.059Y708.453
G1 X199.639Y708.615
G1 X196.067Y708.778
G1 X168.795Y709.965
G1 X164.593Y719.964
G1 X163.616Y722.28
G1 X162.66Y724.543
G1 X161.724Y726.753
G1 X160.807Y728.911
G1 X159.909Y731.017
G1 X159.03Y733.073
G1 X158.169Y735.078
G1 X157.327Y737.034
G1 X156.503Y738.941
G1 X155.696Y740.799
G1 X154.906Y742.609
G1 X154.134Y744.372
G1 X153.378Y746.089
G1 X152.638Y747.759
G1 X151.915Y749.383
G1 X151.207Y750.963
G1 X150.515Y752.498
G1 X149.838Y753.989
G1 X149.175Y755.437
G1 X148.528Y756.843
G1 X147.894Y758.206
G1 X147.274Y759.528
G1 X146.668Y760.809
G1 X146.075Y762.05
G1 X145.495Y763.251
G1 X144.928Y764.413
G1 X144.373Y765.537
G1 X143.83Y766.622
G1 X143.299Y767.671
G1 X142.779Y768.682
G1 X142.271Y769.657
G1 X141.773Y770.597
G1 X141.286Y771.502
G1 X140.809Y772.372
G1 X140.342Y773.209
G1 X139.884Y774.012
G1 X139.436Y774.782
G1 X138.996Y775.521
G1 X138.565Y776.228
G1 X138.143Y776.904
G1 X137.729Y777.55
G1 X137.322Y778.166
G1 X136.923Y778.753
G1 X136.531Y779.311
G1 X136.145Y779.842
G1 X135.767Y780.345
G1 X135.394Y780.821
G1 X135.027Y781.271
G1 X134.666Y781.696
G1 X134.31Y782.095
G1 X133.959Y782.471
G1 X133.271Y783.15
G1 X132.598Y783.738
G1 X131.94Y784.241
G1 X131.292Y784.662
G1 X130.653Y785.006
G1 X130.021Y785.279
G1 X129.445Y785.482
G1 X128.902Y785.643
G1 X128.386Y785.759
G1 X127.892Y785.829
G1 X127.415Y785.851
G1 X126.951Y785.823
G1 X126.494Y785.744
G1 X126.039Y785.612
G1 X125.582Y785.424
G1 X125.117Y785.18
G1 X124.639Y784.878
G1 X124.144Y784.515
G1 X123.627Y784.091
G1 X123.081Y783.603
G1 X122.504Y783.05
G1 X121.889Y782.429
G1 X121.412Y781.917
G1 X120.929Y781.356
G1 X120.44Y780.746
G1 X119.943Y780.082
G1 X119.437Y779.363
G1 X118.921Y778.586
G1 X118.394Y777.748
G1 X117.854Y776.847
G1 X117.301Y775.879
G1 X116.732Y774.843
G1 X116.148Y773.735
G1 X115.547Y772.553
G1 X114.927Y771.295
G1 X114.288Y769.957
G1 X113.628Y768.538
G1 X112.946Y767.033
G1 X112.241Y765.442
G1 X111.512Y763.761
G1 X110.757Y761.987
G1 X109.976Y760.119
G1 X109.575Y759.148
G1 X109.167Y758.152
G1 X108.752Y757.131
G1 X108.329Y756.085
G1 X107.899Y755.013
G1 X107.461Y753.915
G1 X107.015Y752.791
G1 X106.561Y751.64
G1 X106.099Y750.462
G1 X105.629Y749.256
G1 X105.151Y748.023
G1 X104.663Y746.761
G1 X104.168Y745.472
G1 X103.149Y742.806
G1 X102.094Y740.022
G1 X101.001Y737.118
G1 X99.869Y734.092
G1 X98.696Y730.94
G1 X95.147Y721.356
G1 X91.494Y711.521
G1 X90.215Y708.129
G1 X64.051Y705.654
G1 X58.177Y705.096
G1 X52.902Y704.586
G1 X49.31Y704.233
G1 X46.011Y703.901
G1 X43.965Y703.691
G1 X42.034Y703.488
G1 X40.214Y703.292
G1 X38.499Y703.103
G1 X36.883Y702.919
G1 X35.361Y702.74
G1 X33.926Y702.564
G1 X32.574Y702.392
G1 X31.298Y702.223
G1 X30.094Y702.054
G1 X28.955Y701.887
G1 X27.876Y701.72
G1 X26.852Y701.552
G1 X25.876Y701.383
G1 X24.944Y701.212
G1 X24.049Y701.037
G1 X23.186Y700.859
G1 X21.534Y700.489
G1 X19.943Y700.095
G1 X18.367Y699.671
G1 X16.763Y699.211
G1 X15.956Y698.971
G1 X15.186Y698.735
G1 X14.451Y698.504
G1 X13.751Y698.276
G1 X13.085Y698.051
G1 X12.452Y697.829
G1 X11.852Y697.608
G1 X11.283Y697.389
G1 X10.745Y697.171
G1 X10.237Y696.954
G1 X9.759Y696.736
G1 X9.309Y696.517
G1 X8.887Y696.297
G1 X8.491Y696.075
G1 X8.122Y695.85
G1 X7.779Y695.623
G1 X7.164Y695.158
G1 X6.642Y694.674
G1 X6.206Y694.168
G1 X5.849Y693.635
G1 X5.566Y693.07
G1 X5.349Y692.471
G1 X5.194Y691.831
G1 X5.093Y691.147
G1 X5.048Y690.706
G1 X5.017Y690.305
G1 X5Y689.936
G1 Y689.592
G1 X5.025Y689.264
G1 X5.072Y688.947
G1 X5.144Y688.631
G1 X5.246Y688.309
G1 X5.38Y687.974
G1 X5.548Y687.617
G1 X5.754Y687.232
G1 X6Y686.81
G1 X6.288Y686.344
G1 X6.623Y685.827
G1 X7.005Y685.25
G1 X7.438Y684.606
G1 X7.907Y683.931
G1 X8.411Y683.241
G1 X8.952Y682.535
G1 X9.533Y681.811
G1 X10.155Y681.066
G1 X10.821Y680.298
G1 X11.534Y679.506
G1 X12.295Y678.688
G1 X13.107Y677.84
G1 X13.971Y676.963
G1 X14.891Y676.053
G1 X15.869Y675.108
G1 X16.906Y674.127
G1 X18.005Y673.108
G1 X19.168Y672.047
G1 X20.398Y670.945
G1 X21.696Y669.798
G1 X23.065Y668.604
G1 X24.508Y667.363
G1 X26.026Y666.07
G1 X27.621Y664.725
G1 X29.297Y663.326
G1 X30.165Y662.605
G1 X31.054Y661.87
G1 X31.964Y661.12
G1 X32.896Y660.356
G1 X33.849Y659.576
G1 X34.825Y658.781
G1 X36.842Y657.144
G1 X38.951Y655.442
G1 X41.152Y653.674
G1 X43.45Y651.837
G1 X45.845Y649.93
G1 X48.341Y647.951
G1 X52.551Y644.621
G1 X54.122Y643.37
G1 X55.643Y642.152
G1 X57.105Y640.973
G1 X58.501Y639.841
G1 X59.823Y638.762
G1 X60.452Y638.245
G1 X61.646Y637.26
G1 X62.744Y636.345
G1 X63.738Y635.507
G1 X64.193Y635.12
G1 X64.62Y634.754
G1 X65.016Y634.412
G1 X65.381Y634.093
G1 X65.714Y633.799
G1 X66.014Y633.53
G1 X66.28Y633.287
G1 X66.51Y633.072
G1 X66.704Y632.884
G1 X66.861Y632.726
G1 X66.979Y632.597
G1 X67.058Y632.499
G1 X67.096Y632.432
G1 X67.108Y632.356
G1 Y632.23
G1 X67.096Y632.056
G1 X67.073Y631.834
G1 X67.039Y631.566
G1 X66.995Y631.254
G1 X66.939Y630.899
G1 X66.874Y630.501
G1 X66.798Y630.063
G1 X66.713Y629.586
G1 X66.618Y629.071
G1 X66.515Y628.519
G1 X66.402Y627.932
G1 X66.28Y627.31
G1 X66.013Y625.971
G1 X65.714Y624.511
G1 X65.386Y622.942
G1 X65.031Y621.274
G1 X64.65Y619.518
G1 X64.247Y617.683
G1 X63.824Y615.781
G1 X63.382Y613.822
G1 X62.552Y610.202
G1 X61.833Y607.053
G1 X61.146Y604.013
G1 X60.489Y601.08
G1 X59.863Y598.251
G1 X59.266Y595.526
G1 X58.7Y592.901
G1 X58.428Y591.625
G1 X58.163Y590.374
G1 X57.905Y589.147
G1 X57.412Y586.764
G1 X56.947Y584.475
G1 X56.511Y582.276
G1 X56.102Y580.167
G1 X55.721Y578.145
G1 X55.367Y576.208
G1 X55.039Y574.355
G1 X54.739Y572.581
G1 X54.464Y570.887
G1 X54.216Y569.27
G1 X53.993Y567.727
G1 X53.795Y566.257
G1 X53.622Y564.857
G1 X53.473Y563.526
G1 X53.348Y562.261
G1 X53.248Y561.061
G1 X53.17Y559.923
G1 X53.116Y558.845
G1 X53.084Y557.825
G1 Y556.861
G1 Y555.951
G1 X53.123Y555.093
G1 X53.179Y554.285
G1 X53.256Y553.524
G1 X53.33Y552.923
G1 X53.404Y552.376
G1 X53.481Y551.88
G1 X53.561Y551.429
G1 X53.647Y551.018
G1 X53.742Y550.643
G1 X53.846Y550.299
G1 X53.962Y549.981
G1 X54.236Y549.402
G1 X54.582Y548.867
; Layer WorkSpace Pass 5 of 10
G1 X54.786Y548.605
G1 X55.013Y548.339
G1 X55.266Y548.064
G1 X55.546Y547.777
G1 X56.043Y547.318
G1 X56.558Y546.926
G1 X57.096Y546.602
G1 X57.667Y546.347
G1 X58.277Y546.162
G1 X58.933Y546.046
G1 X59.643Y546
G1 X60.413Y546.026
G1 X60.824Y546.065
G1 X61.252Y546.123
G1 X61.699Y546.198
G1 X62.166Y546.292
G1 X62.654Y546.403
G1 X63.163Y546.533
G1 X63.695Y546.681
G1 X64.25Y546.848
G1 X64.829Y547.032
G1 X65.434Y547.236
G1 X66.064Y547.458
G1 X66.722Y547.698
G1 X67.408Y547.957
G1 X68.122Y548.235
G1 X68.866Y548.532
G1 X69.641Y548.848
G1 X71.18Y549.493
G1 X72.674Y550.148
G1 X74.162Y550.837
G1 X75.683Y551.583
G1 X76.467Y551.984
G1 X77.275Y552.409
G1 X78.109Y552.859
G1 X78.977Y553.338
G1 X79.881Y553.849
G1 X80.828Y554.394
G1 X81.821Y554.977
G1 X82.866Y555.6
G1 X83.968Y556.266
G1 X85.132Y556.979
G1 X86.361Y557.741
G1 X87.662Y558.555
G1 X89.039Y559.424
G1 X90.497Y560.351
G1 X91.258Y560.837
G1 X92.846Y561.857
G1 X94.528Y562.941
G1 X97.235Y564.697
G1 X100.178Y566.615
G1 X104.499Y569.444
G1 X112.834Y574.92
G1 X115.017Y576.351
G1 X118.153Y578.399
G1 X121.09Y580.309
G1 X123.79Y582.056
G1 X126.214Y583.615
G1 X127.658Y584.538
G1 X128.95Y585.359
G1 X130.08Y586.071
G1 X131.036Y586.666
G1 X131.445Y586.918
G1 X131.806Y587.138
G1 X132.118Y587.325
G1 X132.379Y587.479
G1 X132.588Y587.598
G1 X132.744Y587.681
G1 X132.845Y587.728
G1 X132.889
G1 X148.529Y578.242
G1 X150.391Y577.115
G1 X152.216Y576.015
G1 X154.003Y574.939
G1 X155.754Y573.889
G1 X157.469Y572.864
G1 X159.149Y571.864
G1 X160.793Y570.889
G1 X162.402Y569.939
G1 X163.977Y569.012
G1 X165.518Y568.11
G1 X167.025Y567.232
G1 X168.499Y566.378
G1 X169.94Y565.547
G1 X171.348Y564.739
G1 X172.725Y563.955
G1 X174.07Y563.194
G1 X175.384Y562.456
G1 X176.667Y561.74
G1 X177.919Y561.047
G1 X179.142Y560.375
G1 X180.335Y559.726
G1 X181.499Y559.099
G1 X182.634Y558.494
G1 X183.741Y557.91
G1 X184.82Y557.347
G1 X185.871Y556.805
G1 X186.895Y556.284
G1 X187.892Y555.784
G1 X188.863Y555.305
G1 X189.809Y554.845
G1 X190.728Y554.406
G1 X191.623Y553.987
G1 X192.493Y553.587
G1 X193.338Y553.207
G1 X194.16Y552.847
G1 X194.958Y552.505
G1 X195.734Y552.183
G1 X196.486Y551.879
G1 X197.216Y551.594
G1 X197.925Y551.327
G1 X198.612Y551.079
G1 X199.278Y550.848
G1 X199.923Y550.635
G1 X200.549Y550.44
G1 X201.154Y550.262
G1 X201.74Y550.102
G1 X202.307Y549.958
G1 X203.385Y549.722
G1 X204.393Y549.551
G1 X205.333Y549.445
G1 X206.208Y549.401
G1 X207.022Y549.419
G1 X207.777Y549.496
G1 X208.478Y549.631
G1 X209.128Y549.823
G1 X209.578Y550.03
G1 X210.016Y550.328
G1 X210.438Y550.708
G1 X210.842Y551.165
G1 X211.225Y551.692
G1 X211.585Y552.282
G1 X211.918Y552.929
G1 X212.223Y553.626
G1 X212.497Y554.366
G1 X212.736Y555.143
G1 X212.938Y555.951
G1 X213.101Y556.782
G1 X213.222Y557.63
G1 X213.298Y558.488
G1 X213.327Y559.35
G1 X213.306Y560.209
G1 X213.247Y561.132
G1 X213.17Y562.089
G1 X213.076Y563.081
G1 X212.962Y564.112
G1 X212.829Y565.183
G1 X212.677Y566.296
G1 X212.504Y567.454
G1 X212.31Y568.659
G1 X212.096Y569.912
G1 X211.859Y571.217
G1 X211.6Y572.575
G1 X211.319Y573.989
G1 X211.014Y575.461
G1 X210.686Y576.992
G1 X210.333Y578.585
G1 X209.955Y580.243
G1 X209.552Y581.966
G1 X209.124Y583.759
G1 X208.669Y585.622
G1 X208.187Y587.558
G1 X207.678Y589.57
G1 X207.142Y591.658
G1 X206.577Y593.827
G1 X205.983Y596.076
G1 X205.36Y598.41
G1 X204.707Y600.829
G1 X204.024Y603.337
G1 X203.31Y605.935
G1 X202.565Y608.626
G1 X201.787Y611.411
G1 X201.387Y612.84
G1 X200.561Y615.772
G1 X194.94Y635.617
G1 X214.078Y652.398
G1 X218.054Y655.895
G1 X222.017Y659.402
G1 X223.962Y661.129
G1 X225.864Y662.824
G1 X227.711Y664.473
G1 X229.489Y666.067
G1 X231.185Y667.592
G1 X232.787Y669.036
G1 X234.28Y670.389
G1 X235.652Y671.639
G1 X236.89Y672.773
G1 X237.981Y673.78
G1 X238.911Y674.648
G1 X239.312Y675.026
G1 X239.668Y675.365
G1 X240.655Y676.321
G1 X241.613Y677.268
G1 X242.543Y678.208
G1 X243.444Y679.138
G1 X244.315Y680.058
G1 X245.157Y680.967
G1 X245.968Y681.865
G1 X246.748Y682.751
G1 X247.496Y683.624
G1 X248.213Y684.483
G1 X248.897Y685.328
G1 X249.549Y686.159
G1 X250.167Y686.973
G1 X250.751Y687.771
G1 X251.301Y688.552
G1 X251.816Y689.314
G1 X252.296Y690.058
G1 X252.741Y690.783
G1 X253.149Y691.488
G1 X253.52Y692.172
G1 X253.854Y692.834
G1 X254.151Y693.474
G1 X254.409Y694.091
G1 X254.629Y694.685
G1 X254.81Y695.253
G1 X254.951Y695.797
G1 X255.053Y696.315
G1 X255.113Y696.806
G1 X255.133Y697.27
G1 X255.111Y697.706
G1 X255.048Y698.113
G1 X254.941Y698.491
G1 X254.816Y698.75
G1 X254.61Y699.059
G1 X254.333Y699.406
G1 X253.998Y699.78
G1 X253.613Y700.169
G1 X253.192Y700.562
G1 X252.744Y700.947
G1 X252.28Y701.312
G1 X251.739Y701.695
G1 X251.153Y702.063
G1 X250.517Y702.418
G1 X249.828Y702.759
G1 X249.082Y703.088
G1 X248.275Y703.404
G1 X247.405Y703.709
G1 X246.467Y704.002
G1 X245.457Y704.285
G1 X244.373Y704.556
G1 X243.21Y704.818
G1 X241.965Y705.071
G1 X240.634Y705.314
G1 X239.214Y705.549
G1 X237.7Y705.776
G1 X236.09Y705.996
G1 X235.248Y706.103
G1 X234.38Y706.208
G1 X233.486Y706.312
G1 X232.566Y706.414
G1 X231.619Y706.514
G1 X230.644Y706.613
G1 X229.642Y706.711
G1 X228.611Y706.807
G1 X227.552Y706.902
G1 X226.463Y706.995
G1 X225.345Y707.088
G1 X224.197Y707.179
G1 X223.018Y707.269
G1 X221.809Y707.359
G1 X220.567Y707.447
G1 X219.295Y707.534
G1 X217.989Y707.621
G1 X216.651Y707.706
G1 X215.28Y707.792
G1 X213.875Y707.876
G1 X212.436Y707.96
G1 X210.962Y708.043
G1 X209.453Y708.126
G1 X207.909Y708.208
G1 X206.329Y708.29
G1 X204.712Y708.372
G1 X203.059Y708.453
G1 X199.639Y708.615
G1 X196.067Y708.778
G1 X168.795Y709.965
G1 X164.593Y719.964
G1 X163.616Y722.28
G1 X162.66Y724.543
G1 X161.724Y726.753
G1 X160.807Y728.911
G1 X159.909Y731.017
G1 X159.03Y733.073
G1 X158.169Y735.078
G1 X157.327Y737.034
G1 X156.503Y738.941
G1 X155.696Y740.799
G1 X154.906Y742.609
G1 X154.134Y744.372
G1 X153.378Y746.089
G1 X152.638Y747.759
G1 X151.915Y749.383
G1 X151.207Y750.963
G1 X150.515Y752.498
G1 X149.838Y753.989
G1 X149.175Y755.437
G1 X148.528Y756.843
G1 X147.894Y758.206
G1 X147.274Y759.528
G1 X146.668Y760.809
G1 X146.075Y762.05
G1 X145.495Y763.251
G1 X144.928Y764.413
G1 X144.373Y765.537
G1 X143.83Y766.622
G1 X143.299Y767.671
G1 X142.779Y768.682
G1 X142.271Y769.657
G1 X141.773Y770.597
G1 X141.286Y771.502
G1 X140.809Y772.372
G1 X140.342Y773.209
G1 X139.884Y774.012
G1 X139.436Y774.782
G1 X138.996Y775.521
G1 X138.565Y776.228
G1 X138.143Y776.904
G1 X137.729Y777.55
G1 X137.322Y778.166
G1 X136.923Y778.753
G1 X136.531Y779.311
G1 X136.145Y779.842
G1 X135.767Y780.345
G1 X135.394Y780.821
G1 X135.027Y781.271
G1 X134.666Y781.696
G1 X134.31Y782.095
G1 X133.959Y782.471
G1 X133.271Y783.15
G1 X132.598Y783.738
G1 X131.94Y784.241
G1 X131.292Y784.662
G1 X130.653Y785.006
G1 X130.021Y785.279
G1 X129.445Y785.482
G1 X128.902Y785.643
G1 X128.386Y785.759
G1 X127.892Y785.829
G1 X127.415Y785.851
G1 X126.951Y785.823
G1 X126.494Y785.744
G1 X126.039Y785.612
G1 X125.582Y785.424
G1 X125.117Y785.18
G1 X124.639Y784.878
G1 X124.144Y784.515
G1 X123.627Y784.091
G1 X123.081Y783.603
G1 X122.504Y783.05
G1 X121.889Y782.429
G1 X121.412Y781.917
G1 X120.929Y781.356
G1 X120.44Y780.746
G1 X119.943Y780.082
G1 X119.437Y779.363
G1 X118.921Y778.586
G1 X118.394Y777.748
G1 X117.854Y776.847
G1 X117.301Y775.879
G1 X116.732Y774.843
G1 X116.148Y773.735
G1 X115.547Y772.553
G1 X114.927Y771.295
G1 X114.288Y769.957
G1 X113.628Y768.538
G1 X112.946Y767.033
G1 X112.241Y765.442
G1 X111.512Y763.761
G1 X110.757Y761.987
G1 X109.976Y760.119
G1 X109.575Y759.148
G1 X109.167Y758.152
G1 X108.752Y757.131
G1 X108.329Y756.085
G1 X107.899Y755.013
G1 X107.461Y753.915
G1 X107.015Y752.791
G1 X106.561Y751.64
G1 X106.099Y750.462
G1 X105.629Y749.256
G1 X105.151Y748.023
G1 X104.663Y746.761
G1 X104.168Y745.472
G1 X103.149Y742.806
G1 X102.094Y740.022
G1 X101.001Y737.118
G1 X99.869Y734.092
G1 X98.696Y730.94
G1 X95.147Y721.356
G1 X91.494Y711.521
G1 X90.215Y708.129
G1 X64.051Y705.654
G1 X58.177Y705.096
G1 X52.902Y704.586
G1 X49.31Y704.233
G1 X46.011Y703.901
G1 X43.965Y703.691
G1 X42.034Y703.488
G1 X40.214Y703.292
G1 X38.499Y703.103
G1 X36.883Y702.919
G1 X35.361Y702.74
G1 X33.926Y702.564
G1 X32.574Y702.392
G1 X31.298Y702.223
G1 X30.094Y702.054
G1 X28.955Y701.887
G1 X27.876Y701.72
G1 X26.852Y701.552
G1 X25.876Y701.383
G1 X24.944Y701.212
G1 X24.049Y701.037
G1 X23.186Y700.859
G1 X21.534Y700.489
G1 X19.943Y700.095
G1 X18.367Y699.671
G1 X16.763Y699.211
G1 X15.956Y698.971
G1 X15.186Y698.735
G1 X14.451Y698.504
G1 X13.751Y698.276
G1 X13.085Y698.051
G1 X12.452Y697.829
G1 X11.852Y697.608
G1 X11.283Y697.389
G1 X10.745Y697.171
G1 X10.237Y696.954
G1 X9.759Y696.736
G1 X9.309Y696.517
G1 X8.887Y696.297
G1 X8.491Y696.075
G1 X8.122Y695.85
G1 X7.779Y695.623
G1 X7.164Y695.158
G1 X6.642Y694.674
G1 X6.206Y694.168
G1 X5.849Y693.635
G1 X5.566Y693.07
G1 X5.349Y692.471
G1 X5.194Y691.831
G1 X5.093Y691.147
G1 X5.048Y690.706
G1 X5.017Y690.305
G1 X5Y689.936
G1 Y689.592
G1 X5.025Y689.264
G1 X5.072Y688.947
G1 X5.144Y688.631
G1 X5.246Y688.309
G1 X5.38Y687.974
G1 X5.548Y687.617
G1 X5.754Y687.232
G1 X6Y686.81
G1 X6.288Y686.344
G1 X6.623Y685.827
G1 X7.005Y685.25
G1 X7.438Y684.606
G1 X7.907Y683.931
G1 X8.411Y683.241
G1 X8.952Y682.535
G1 X9.533Y681.811
G1 X10.155Y681.066
G1 X10.821Y680.298
G1 X11.534Y679.506
G1 X12.295Y678.688
G1 X13.107Y677.84
G1 X13.971Y676.963
G1 X14.891Y676.053
G1 X15.869Y675.108
G1 X16.906Y674.127
G1 X18.005Y673.108
G1 X19.168Y672.047
G1 X20.398Y670.945
G1 X21.696Y669.798
G1 X23.065Y668.604
G1 X24.508Y667.363
G1 X26.026Y666.07
G1 X27.621Y664.725
G1 X29.297Y663.326
G1 X30.165Y662.605
G1 X31.054Y661.87
G1 X31.964Y661.12
G1 X32.896Y660.356
G1 X33.849Y659.576
G1 X34.825Y658.781
G1 X36.842Y657.144
G1 X38.951Y655.442
G1 X41.152Y653.674
G1 X43.45Y651.837
G1 X45.845Y649.93
G1 X48.341Y647.951
G1 X52.551Y644.621
G1 X54.122Y643.37
G1 X55.643Y642.152
G1 X57.105Y640.973
G1 X58.501Y639.841
G1 X59.823Y638.762
G1 X60.452Y638.245
G1 X61.646Y637.26
G1 X62.744Y636.345
G1 X63.738Y635.507
G1 X64.193Y635.12
G1 X64.62Y634.754
G1 X65.016Y634.412
G1 X65.381Y634.093
G1 X65.714Y633.799
G1 X66.014Y633.53
G1 X66.28Y633.287
G1 X66.51Y633.072
G1 X66.704Y632.884
G1 X66.861Y632.726
G1 X66.979Y632.597
G1 X67.058Y632.499
G1 X67.096Y632.432
G1 X67.108Y632.356
G1 Y632.23
G1 X67.096Y632.056
G1 X67.073Y631.834
G1 X67.039Y631.566
G1 X66.995Y631.254
G1 X66.939Y630.899
G1 X66.874Y630.501
G1 X66.798Y630.063
G1 X66.713Y629.586
G1 X66.618Y629.071
G1 X66.515Y628.519
G1 X66.402Y627.932
G1 X66.28Y627.31
G1 X66.013Y625.971
G1 X65.714Y624.511
G1 X65.386Y622.942
G1 X65.031Y621.274
G1 X64.65Y619.518
G1 X64.247Y617.683
G1 X63.824Y615.781
G1 X63.382Y613.822
G1 X62.552Y610.202
G1 X61.833Y607.053
G1 X61.146Y604.013
G1 X60.489Y601.08
G1 X59.863Y598.251
G1 X59.266Y595.526
G1 X58.7Y592.901
G1 X58.428Y591.625
G1 X58.163Y590.374
G1 X57.905Y589.147
G1 X57.412Y586.764
G1 X56.947Y584.475
G1 X56.511Y582.276
G1 X56.102Y580.167
G1 X55.721Y578.145
G1 X55.367Y576.208
G1 X55.039Y574.355
G1 X54.739Y572.581
G1 X54.464Y570.887
G1 X54.216Y569.27
G1 X53.993Y567.727
G1 X53.795Y566.257
G1 X53.622Y564.857
G1 X53.473Y563.526
G1 X53.348Y562.261
G1 X53.248Y561.061
G1 X53.17Y559.923
G1 X53.116Y558.845
G1 X53.084Y557.825
G1 Y556.861
G1 Y555.951
G1 X53.123Y555.093
G1 X53.179Y554.285
G1 X53.256Y553.524
G1 X53.33Y552.923
G1 X53.404Y552.376
G1 X53.481Y551.88
G1 X53.561Y551.429
G1 X53.647Y551.018
G1 X53.742Y550.643
G1 X53.846Y550.299
G1 X53.962Y549.981
G1 X54.236Y549.402
G1 X54.582Y548.867
; Layer WorkSpace Pass 6 of 10
G1 X54.786Y548.605
G1 X55.013Y548.339
G1 X55.266Y548.064
G1 X55.546Y547.777
G1 X56.043Y547.318
G1 X56.558Y546.926
G1 X57.096Y546.602
G1 X57.667Y546.347
G1 X58.277Y546.162
G1 X58.933Y546.046
G1 X59.643Y546
G1 X60.413Y546.026
G1 X60.824Y546.065
G1 X61.252Y546.123
G1 X61.699Y546.198
G1 X62.166Y546.292
G1 X62.654Y546.403
G1 X63.163Y546.533
G1 X63.695Y546.681
G1 X64.25Y546.848
G1 X64.829Y547.032
G1 X65.434Y547.236
G1 X66.064Y547.458
G1 X66.722Y547.698
G1 X67.408Y547.957
G1 X68.122Y548.235
G1 X68.866Y548.532
G1 X69.641Y548.848
G1 X71.18Y549.493
G1 X72.674Y550.148
G1 X74.162Y550.837
G1 X75.683Y551.583
G1 X76.467Y551.984
G1 X77.275Y552.409
G1 X78.109Y552.859
G1 X78.977Y553.338
G1 X79.881Y553.849
G1 X80.828Y554.394
G1 X81.821Y554.977
G1 X82.866Y555.6
G1 X83.968Y556.266
G1 X85.132Y556.979
G1 X86.361Y557.741
G1 X87.662Y558.555
G1 X89.039Y559.424
G1 X90.497Y560.351
G1 X91.258Y560.837
G1 X92.846Y561.857
G1 X94.528Y562.941
G1 X97.235Y564.697
G1 X100.178Y566.615
G1 X104.499Y569.444
G1 X112.834Y574.92
G1 X115.017Y576.351
G1 X118.153Y578.399
G1 X121.09Y580.309
G1 X123.79Y582.056
G1 X126.214Y583.615
G1 X127.658Y584.538
G1 X128.95Y585.359
G1 X130.08Y586.071
G1 X131.036Y586.666
G1 X131.445Y586.918
G1 X131.806Y587.138
G1 X132.118Y587.325
G1 X132.379Y587.479
G1 X132.588Y587.598
G1 X132.744Y587.681
G1 X132.845Y587.728
G1 X132.889
G1 X148.529Y578.242
G1 X150.391Y577.115
G1 X152.216Y576.015
G1 X154.003Y574.939
G1 X155.754Y573.889
G1 X157.469Y572.864
G1 X159.149Y571.864
G1 X160.793Y570.889
G1 X162.402Y569.939
G1 X163.977Y569.012
G1 X165.518Y568.11
G1 X167.025Y567.232
G1 X168.499Y566.378
G1 X169.94Y565.547
G1 X171.348Y564.739
G1 X172.725Y563.955
G1 X174.07Y563.194
G1 X175.384Y562.456
G1 X176.667Y561.74
G1 X177.919Y561.047
G1 X179.142Y560.375
G1 X180.335Y559.726
G1 X181.499Y559.099
G1 X182.634Y558.494
G1 X183.741Y557.91
G1 X184.82Y557.347
G1 X185.871Y556.805
G1 X186.895Y556.284
G1 X187.892Y555.784
G1 X188.863Y555.305
G1 X189.809Y554.845
G1 X190.728Y554.406
G1 X191.623Y553.987
G1 X192.493Y553.587
G1 X193.338Y553.207
G1 X194.16Y552.847
G1 X194.958Y552.505
G1 X195.734Y552.183
G1 X196.486Y551.879
G1 X197.216Y551.594
G1 X197.925Y551.327
G1 X198.612Y551.079
G1 X199.278Y550.848
G1 X199.923Y550.635
G1 X200.549Y550.44
G1 X201.154Y550.262
G1 X201.74Y550.102
G1 X202.307Y549.958
G1 X203.385Y549.722
G1 X204.393Y549.551
G1 X205.333Y549.445
G1 X206.208Y549.401
G1 X207.022Y549.419
G1 X207.777Y549.496
G1 X208.478Y549.631
G1 X209.128Y549.823
G1 X209.578Y550.03
G1 X210.016Y550.328
G1 X210.438Y550.708
G1 X210.842Y551.165
G1 X211.225Y551.692
G1 X211.585Y552.282
G1 X211.918Y552.929
G1 X212.223Y553.626
G1 X212.497Y554.366
G1 X212.736Y555.143
G1 X212.938Y555.951
G1 X213.101Y556.782
G1 X213.222Y557.63
G1 X213.298Y558.488
G1 X213.327Y559.35
G1 X213.306Y560.209
G1 X213.247Y561.132
G1 X213.17Y562.089
G1 X213.076Y563.081
G1 X212.962Y564.112
G1 X212.829Y565.183
G1 X212.677Y566.296
G1 X212.504Y567.454
G1 X212.31Y568.659
G1 X212.096Y569.912
G1 X211.859Y571.217
G1 X211.6Y572.575
G1 X211.319Y573.989
G1 X211.014Y575.461
G1 X210.686Y576.992
G1 X210.333Y578.585
G1 X209.955Y580.243
G1 X209.552Y581.966
G1 X209.124Y583.759
G1 X208.669Y585.622
G1 X208.187Y587.558
G1 X207.678Y589.57
G1 X207.142Y591.658
G1 X206.577Y593.827
G1 X205.983Y596.076
G1 X205.36Y598.41
G1 X204.707Y600.829
G1 X204.024Y603.337
G1 X203.31Y605.935
G1 X202.565Y608.626
G1 X201.787Y611.411
G1 X201.387Y612.84
G1 X200.561Y615.772
G1 X194.94Y635.617
G1 X214.078Y652.398
G1 X218.054Y655.895
G1 X222.017Y659.402
G1 X223.962Y661.129
G1 X225.864Y662.824
G1 X227.711Y664.473
G1 X229.489Y666.067
G1 X231.185Y667.592
G1 X232.787Y669.036
G1 X234.28Y670.389
G1 X235.652Y671.639
G1 X236.89Y672.773
G1 X237.981Y673.78
G1 X238.911Y674.648
G1 X239.312Y675.026
G1 X239.668Y675.365
G1 X240.655Y676.321
G1 X241.613Y677.268
G1 X242.543Y678.208
G1 X243.444Y679.138
G1 X244.315Y680.058
G1 X245.157Y680.967
G1 X245.968Y681.865
G1 X246.748Y682.751
G1 X247.496Y683.624
G1 X248.213Y684.483
G1 X248.897Y685.328
G1 X249.549Y686.159
G1 X250.167Y686.973
G1 X250.751Y687.771
G1 X251.301Y688.552
G1 X251.816Y689.314
G1 X252.296Y690.058
G1 X252.741Y690.783
G1 X253.149Y691.488
G1 X253.52Y692.172
G1 X253.854Y692.834
G1 X254.151Y693.474
G1 X254.409Y694.091
G1 X254.629Y694.685
G1 X254.81Y695.253
G1 X254.951Y695.797
G1 X255.053Y696.315
G1 X255.113Y696.806
G1 X255.133Y697.27
G1 X255.111Y697.706
G1 X255.048Y698.113
G1 X254.941Y698.491
G1 X254.816Y698.75
G1 X254.61Y699.059
G1 X254.333Y699.406
G1 X253.998Y699.78
G1 X253.613Y700.169
G1 X253.192Y700.562
G1 X252.744Y700.947
G1 X252.28Y701.312
G1 X251.739Y701.695
G1 X251.153Y702.063
G1 X250.517Y702.418
G1 X249.828Y702.759
G1 X249.082Y703.088
G1 X248.275Y703.404
G1 X247.405Y703.709
G1 X246.467Y704.002
G1 X245.457Y704.285
G1 X244.373Y704.556
G1 X243.21Y704.818
G1 X241.965Y705.071
G1 X240.634Y705.314
G1 X239.214Y705.549
G1 X237.7Y705.776
G1 X236.09Y705.996
G1 X235.248Y706.103
G1 X234.38Y706.208
G1 X233.486Y706.312
G1 X232.566Y706.414
G1 X231.619Y706.514
G1 X230.644Y706.613
G1 X229.642Y706.711
G1 X228.611Y706.807
G1 X227.552Y706.902
G1 X226.463Y706.995
G1 X225.345Y707.088
G1 X224.197Y707.179
G1 X223.018Y707.269
G1 X221.809Y707.359
G1 X220.567Y707.447
G1 X219.295Y707.534
G1 X217.989Y707.621
G1 X216.651Y707.706
G1 X215.28Y707.792
G1 X213.875Y707.876
G1 X212.436Y707.96
G1 X210.962Y708.043
G1 X209.453Y708.126
G1 X207.909Y708.208
G1 X206.329Y708.29
G1 X204.712Y708.372
G1 X203.059Y708.453
G1 X199.639Y708.615
G1 X196.067Y708.778
G1 X168.795Y709.965
G1 X164.593Y719.964
G1 X163.616Y722.28
G1 X162.66Y724.543
G1 X161.724Y726.753
G1 X160.807Y728.911
G1 X159.909Y731.017
G1 X159.03Y733.073
G1 X158.169Y735.078
G1 X157.327Y737.034
G1 X156.503Y738.941
G1 X155.696Y740.799
G1 X154.906Y742.609
G1 X154.134Y744.372
G1 X153.378Y746.089
G1 X152.638Y747.759
G1 X151.915Y749.383
G1 X151.207Y750.963
G1 X150.515Y752.498
G1 X149.838Y753.989
G1 X149.175Y755.437
G1 X148.528Y756.843
G1 X147.894Y758.206
G1 X147.274Y759.528
G1 X146.668Y760.809
G1 X146.075Y762.05
G1 X145.495Y763.251
G1 X144.928Y764.413
G1 X144.373Y765.537
G1 X143.83Y766.622
G1 X143.299Y767.671
G1 X142.779Y768.682
G1 X142.271Y769.657
G1 X141.773Y770.597
G1 X141.286Y771.502
G1 X140.809Y772.372
G1 X140.342Y773.209
G1 X139.884Y774.012
G1 X139.436Y774.782
G1 X138.996Y775.521
G1 X138.565Y776.228
G1 X138.143Y776.904
G1 X137.729Y777.55
G1 X137.322Y778.166
G1 X136.923Y778.753
G1 X136.531Y779.311
G1 X136.145Y779.842
G1 X135.767Y780.345
G1 X135.394Y780.821
G1 X135.027Y781.271
G1 X134.666Y781.696
G1 X134.31Y782.095
G1 X133.959Y782.471
G1 X133.271Y783.15
G1 X132.598Y783.738
G1 X131.94Y784.241
G1 X131.292Y784.662
G1 X130.653Y785.006
G1 X130.021Y785.279
G1 X129.445Y785.482
G1 X128.902Y785.643
G1 X128.386Y785.759
G1 X127.892Y785.829
G1 X127.415Y785.851
G1 X126.951Y785.823
G1 X126.494Y785.744
G1 X126.039Y785.612
G1 X125.582Y785.424
G1 X125.117Y785.18
G1 X124.639Y784.878
G1 X124.144Y784.515
G1 X123.627Y784.091
G1 X123.081Y783.603
G1 X122.504Y783.05
G1 X121.889Y782.429
G1 X121.412Y781.917
G1 X120.929Y781.356
G1 X120.44Y780.746
G1 X119.943Y780.082
G1 X119.437Y779.363
G1 X118.921Y778.586
G1 X118.394Y777.748
G1 X117.854Y776.847
G1 X117.301Y775.879
G1 X116.732Y774.843
G1 X116.148Y773.735
G1 X115.547Y772.553
G1 X114.927Y771.295
G1 X114.288Y769.957
G1 X113.628Y768.538
G1 X112.946Y767.033
G1 X112.241Y765.442
G1 X111.512Y763.761
G1 X110.757Y761.987
G1 X109.976Y760.119
G1 X109.575Y759.148
G1 X109.167Y758.152
G1 X108.752Y757.131
G1 X108.329Y756.085
G1 X107.899Y755.013
G1 X107.461Y753.915
G1 X107.015Y752.791
G1 X106.561Y751.64
G1 X106.099Y750.462
G1 X105.629Y749.256
G1 X105.151Y748.023
G1 X104.663Y746.761
G1 X104.168Y745.472
G1 X103.149Y742.806
G1 X102.094Y740.022
G1 X101.001Y737.118
G1 X99.869Y734.092
G1 X98.696Y730.94
G1 X95.147Y721.356
G1 X91.494Y711.521
G1 X90.215Y708.129
G1 X64.051Y705.654
G1 X58.177Y705.096
G1 X52.902Y704.586
G1 X49.31Y704.233
G1 X46.011Y703.901
G1 X43.965Y703.691
G1 X42.034Y703.488
G1 X40.214Y703.292
G1 X38.499Y703.103
G1 X36.883Y702.919
G1 X35.361Y702.74
G1 X33.926Y702.564
G1 X32.574Y702.392
G1 X31.298Y702.223
G1 X30.094Y702.054
G1 X28.955Y701.887
G1 X27.876Y701.72
G1 X26.852Y701.552
G1 X25.876Y701.383
G1 X24.944Y701.212
G1 X24.049Y701.037
G1 X23.186Y700.859
G1 X21.534Y700.489
G1 X19.943Y700.095
G1 X18.367Y699.671
G1 X16.763Y699.211
G1 X15.956Y698.971
G1 X15.186Y698.735
G1 X14.451Y698.504
G1 X13.751Y698.276
G1 X13.085Y698.051
G1 X12.452Y697.829
G1 X11.852Y697.608
G1 X11.283Y697.389
G1 X10.745Y697.171
G1 X10.237Y696.954
G1 X9.759Y696.736
G1 X9.309Y696.517
G1 X8.887Y696.297
G1 X8.491Y696.075
G1 X8.122Y695.85
G1 X7.779Y695.623
G1 X7.164Y695.158
G1 X6.642Y694.674
G1 X6.206Y694.168
G1 X5.849Y693.635
G1 X5.566Y693.07
G1 X5.349Y692.471
G1 X5.194Y691.831
G1 X5.093Y691.147
G1 X5.048Y690.706
G1 X5.017Y690.305
G1 X5Y689.936
G1 Y689.592
G1 X5.025Y689.264
G1 X5.072Y688.947
G1 X5.144Y688.631
G1 X5.246Y688.309
G1 X5.38Y687.974
G1 X5.548Y687.617
G1 X5.754Y687.232
G1 X6Y686.81
G1 X6.288Y686.344
G1 X6.623Y685.827
G1 X7.005Y685.25
G1 X7.438Y684.606
G1 X7.907Y683.931
G1 X8.411Y683.241
G1 X8.952Y682.535
G1 X9.533Y681.811
G1 X10.155Y681.066
G1 X10.821Y680.298
G1 X11.534Y679.506
G1 X12.295Y678.688
G1 X13.107Y677.84
G1 X13.971Y676.963
G1 X14.891Y676.053
G1 X15.869Y675.108
G1 X16.906Y674.127
G1 X18.005Y673.108
G1 X19.168Y672.047
G1 X20.398Y670.945
G1 X21.696Y669.798
G1 X23.065Y668.604
G1 X24.508Y667.363
G1 X26.026Y666.07
G1 X27.621Y664.725
G1 X29.297Y663.326
G1 X30.165Y662.605
G1 X31.054Y661.87
G1 X31.964Y661.12
G1 X32.896Y660.356
G1 X33.849Y659.576
G1 X34.825Y658.781
G1 X36.842Y657.144
G1 X38.951Y655.442
G1 X41.152Y653.674
G1 X43.45Y651.837
G1 X45.845Y649.93
G1 X48.341Y647.951
G1 X52.551Y644.621
G1 X54.122Y643.37
G1 X55.643Y642.152
G1 X57.105Y640.973
G1 X58.501Y639.841
G1 X59.823Y638.762
G1 X60.452Y638.245
G1 X61.646Y637.26
G1 X62.744Y636.345
G1 X63.738Y635.507
G1 X64.193Y635.12
G1 X64.62Y634.754
G1 X65.016Y634.412
G1 X65.381Y634.093
G1 X65.714Y633.799
G1 X66.014Y633.53
G1 X66.28Y633.287
G1 X66.51Y633.072
G1 X66.704Y632.884
G1 X66.861Y632.726
G1 X66.979Y632.597
G1 X67.058Y632.499
G1 X67.096Y632.432
G1 X67.108Y632.356
G1 Y632.23
G1 X67.096Y632.056
G1 X67.073Y631.834
G1 X67.039Y631.566
G1 X66.995Y631.254
G1 X66.939Y630.899
G1 X66.874Y630.501
G1 X66.798Y630.063
G1 X66.713Y629.586
G1 X66.618Y629.071
G1 X66.515Y628.519
G1 X66.402Y627.932
G1 X66.28Y627.31
G1 X66.013Y625.971
G1 X65.714Y624.511
G1 X65.386Y622.942
G1 X65.031Y621.274
G1 X64.65Y619.518
G1 X64.247Y617.683
G1 X63.824Y615.781
G1 X63.382Y613.822
G1 X62.552Y610.202
G1 X61.833Y607.053
G1 X61.146Y604.013
G1 X60.489Y601.08
G1 X59.863Y598.251
G1 X59.266Y595.526
G1 X58.7Y592.901
G1 X58.428Y591.625
G1 X58.163Y590.374
G1 X57.905Y589.147
G1 X57.412Y586.764
G1 X56.947Y584.475
G1 X56.511Y582.276
G1 X56.102Y580.167
G1 X55.721Y578.145
G1 X55.367Y576.208
G1 X55.039Y574.355
G1 X54.739Y572.581
G1 X54.464Y570.887
G1 X54.216Y569.27
G1 X53.993Y567.727
G1 X53.795Y566.257
G1 X53.622Y564.857
G1 X53.473Y563.526
G1 X53.348Y562.261
G1 X53.248Y561.061
G1 X53.17Y559.923
G1 X53.116Y558.845
G1 X53.084Y557.825
G1 Y556.861
G1 Y555.951
G1 X53.123Y555.093
G1 X53.179Y554.285
G1 X53.256Y553.524
G1 X53.33Y552.923
G1 X53.404Y552.376
G1 X53.481Y551.88
G1 X53.561Y551.429
G1 X53.647Y551.018
G1 X53.742Y550.643
G1 X53.846Y550.299
G1 X53.962Y549.981
G1 X54.236Y549.402
G1 X54.582Y548.867
; Layer WorkSpace Pass 7 of 10
G1 X54.786Y548.605
G1 X55.013Y548.339
G1 X55.266Y548.064
G1 X55.546Y547.777
G1 X56.043Y547.318
G1 X56.558Y546.926
G1 X57.096Y546.602
G1 X57.667Y546.347
G1 X58.277Y546.162
G1 X58.933Y546.046
G1 X59.643Y546
G1 X60.413Y546.026
G1 X60.824Y546.065
G1 X61.252Y546.123
G1 X61.699Y546.198
G1 X62.166Y546.292
G1 X62.654Y546.403
G1 X63.163Y546.533
G1 X63.695Y546.681
G1 X64.25Y546.848
G1 X64.829Y547.032
G1 X65.434Y547.236
G1 X66.064Y547.458
G1 X66.722Y547.698
G1 X67.408Y547.957
G1 X68.122Y548.235
G1 X68.866Y548.532
G1 X69.641Y548.848
G1 X71.18Y549.493
G1 X72.674Y550.148
G1 X74.162Y550.837
G1 X75.683Y551.583
G1 X76.467Y551.984
G1 X77.275Y552.409
G1 X78.109Y552.859
G1 X78.977Y553.338
G1 X79.881Y553.849
G1 X80.828Y554.394
G1 X81.821Y554.977
G1 X82.866Y555.6
G1 X83.968Y556.266
G1 X85.132Y556.979
G1 X86.361Y557.741
G1 X87.662Y558.555
G1 X89.039Y559.424
G1 X90.497Y560.351
G1 X91.258Y560.837
G1 X92.846Y561.857
G1 X94.528Y562.941
G1 X97.235Y564.697
G1 X100.178Y566.615
G1 X104.499Y569.444
G1 X112.834Y574.92
G1 X115.017Y576.351
G1 X118.153Y578.399
G1 X121.09Y580.309
G1 X123.79Y582.056
G1 X126.214Y583.615
G1 X127.658Y584.538
G1 X128.95Y585.359
G1 X130.08Y586.071
G1 X131.036Y586.666
G1 X131.445Y586.918
G1 X131.806Y587.138
G1 X132.118Y587.325
G1 X132.379Y587.479
G1 X132.588Y587.598
G1 X132.744Y587.681
G1 X132.845Y587.728
G1 X132.889
G1 X148.529Y578.242
G1 X150.391Y577.115
G1 X152.216Y576.015
G1 X154.003Y574.939
G1 X155.754Y573.889
G1 X157.469Y572.864
G1 X159.149Y571.864
G1 X160.793Y570.889
G1 X162.402Y569.939
G1 X163.977Y569.012
G1 X165.518Y568.11
G1 X167.025Y567.232
G1 X168.499Y566.378
G1 X169.94Y565.547
G1 X171.348Y564.739
G1 X172.725Y563.955
G1 X174.07Y563.194
G1 X175.384Y562.456
G1 X176.667Y561.74
G1 X177.919Y561.047
G1 X179.142Y560.375
G1 X180.335Y559.726
G1 X181.499Y559.099
G1 X182.634Y558.494
G1 X183.741Y557.91
G1 X184.82Y557.347
G1 X185.871Y556.805
G1 X186.895Y556.284
G1 X187.892Y555.784
G1 X188.863Y555.305
G1 X189.809Y554.845
G1 X190.728Y554.406
G1 X191.623Y553.987
G1 X192.493Y553.587
G1 X193.338Y553.207
G1 X194.16Y552.847
G1 X194.958Y552.505
G1 X195.734Y552.183
G1 X196.486Y551.879
G1 X197.216Y551.594
G1 X197.925Y551.327
G1 X198.612Y551.079
G1 X199.278Y550.848
G1 X199.923Y550.635
G1 X200.549Y550.44
G1 X201.154Y550.262
G1 X201.74Y550.102
G1 X202.307Y549.958
G1 X203.385Y549.722
G1 X204.393Y549.551
G1 X205.333Y549.445
G1 X206.208Y549.401
G1 X207.022Y549.419
G1 X207.777Y549.496
G1 X208.478Y549.631
G1 X209.128Y549.823
G1 X209.578Y550.03
G1 X210.016Y550.328
G1 X210.438Y550.708
G1 X210.842Y551.165
G1 X211.225Y551.692
G1 X211.585Y552.282
G1 X211.918Y552.929
G1 X212.223Y553.626
G1 X212.497Y554.366
G1 X212.736Y555.143
G1 X212.938Y555.951
G1 X213.101Y556.782
G1 X213.222Y557.63
G1 X213.298Y558.488
G1 X213.327Y559.35
G1 X213.306Y560.209
G1 X213.247Y561.132
G1 X213.17Y562.089
G1 X213.076Y563.081
G1 X212.962Y564.112
G1 X212.829Y565.183
G1 X212.677Y566.296
G1 X212.504Y567.454
G1 X212.31Y568.659
G1 X212.096Y569.912
G1 X211.859Y571.217
G1 X211.6Y572.575
G1 X211.319Y573.989
G1 X211.014Y575.461
G1 X210.686Y576.992
G1 X210.333Y578.585
G1 X209.955Y580.243
G1 X209.552Y581.966
G1 X209.124Y583.759
G1 X208.669Y585.622
G1 X208.187Y587.558
G1 X207.678Y589.57
G1 X207.142Y591.658
G1 X206.577Y593.827
G1 X205.983Y596.076
G1 X205.36Y598.41
G1 X204.707Y600.829
G1 X204.024Y603.337
G1 X203.31Y605.935
G1 X202.565Y608.626
G1 X201.787Y611.411
G1 X201.387Y612.84
G1 X200.561Y615.772
G1 X194.94Y635.617
G1 X214.078Y652.398
G1 X218.054Y655.895
G1 X222.017Y659.402
G1 X223.962Y661.129
G1 X225.864Y662.824
G1 X227.711Y664.473
G1 X229.489Y666.067
G1 X231.185Y667.592
G1 X232.787Y669.036
G1 X234.28Y670.389
G1 X235.652Y671.639
G1 X236.89Y672.773
G1 X237.981Y673.78
G1 X238.911Y674.648
G1 X239.312Y675.026
G1 X239.668Y675.365
G1 X240.655Y676.321
G1 X241.613Y677.268
G1 X242.543Y678.208
G1 X243.444Y679.138
G1 X244.315Y680.058
G1 X245.157Y680.967
G1 X245.968Y681.865
G1 X246.748Y682.751
G1 X247.496Y683.624
G1 X248.213Y684.483
G1 X248.897Y685.328
G1 X249.549Y686.159
G1 X250.167Y686.973
G1 X250.751Y687.771
G1 X251.301Y688.552
G1 X251.816Y689.314
G1 X252.296Y690.058
G1 X252.741Y690.783
G1 X253.149Y691.488
G1 X253.52Y692.172
G1 X253.854Y692.834
G1 X254.151Y693.474
G1 X254.409Y694.091
G1 X254.629Y694.685
G1 X254.81Y695.253
G1 X254.951Y695.797
G1 X255.053Y696.315
G1 X255.113Y696.806
G1 X255.133Y697.27
G1 X255.111Y697.706
G1 X255.048Y698.113
G1 X254.941Y698.491
G1 X254.816Y698.75
G1 X254.61Y699.059
G1 X254.333Y699.406
G1 X253.998Y699.78
G1 X253.613Y700.169
G1 X253.192Y700.562
G1 X252.744Y700.947
G1 X252.28Y701.312
G1 X251.739Y701.695
G1 X251.153Y702.063
G1 X250.517Y702.418
G1 X249.828Y702.759
G1 X249.082Y703.088
G1 X248.275Y703.404
G1 X247.405Y703.709
G1 X246.467Y704.002
G1 X245.457Y704.285
G1 X244.373Y704.556
G1 X243.21Y704.818
G1 X241.965Y705.071
G1 X240.634Y705.314
G1 X239.214Y705.549
G1 X237.7Y705.776
G1 X236.09Y705.996
G1 X235.248Y706.103
G1 X234.38Y706.208
G1 X233.486Y706.312
G1 X232.566Y706.414
G1 X231.619Y706.514
G1 X230.644Y706.613
G1 X229.642Y706.711
G1 X228.611Y706.807
G1 X227.552Y706.902
G1 X226.463Y706.995
G1 X225.345Y707.088
G1 X224.197Y707.179
G1 X223.018Y707.269
G1 X221.809Y707.359
G1 X220.567Y707.447
G1 X219.295Y707.534
G1 X217.989Y707.621
G1 X216.651Y707.706
G1 X215.28Y707.792
G1 X213.875Y707.876
G1 X212.436Y707.96
G1 X210.962Y708.043
G1 X209.453Y708.126
G1 X207.909Y708.208
G1 X206.329Y708.29
G1 X204.712Y708.372
G1 X203.059Y708.453
G1 X199.639Y708.615
G1 X196.067Y708.778
G1 X168.795Y709.965
G1 X164.593Y719.964
G1 X163.616Y722.28
G1 X162.66Y724.543
G1 X161.724Y726.753
G1 X160.807Y728.911
G1 X159.909Y731.017
G1 X159.03Y733.073
G1 X158.169Y735.078
G1 X157.327Y737.034
G1 X156.503Y738.941
G1 X155.696Y740.799
G1 X154.906Y742.609
G1 X154.134Y744.372
G1 X153.378Y746.089
G1 X152.638Y747.759
G1 X151.915Y749.383
G1 X151.207Y750.963
G1 X150.515Y752.498
G1 X149.838Y753.989
G1 X149.175Y755.437
G1 X148.528Y756.843
G1 X147.894Y758.206
G1 X147.274Y759.528
G1 X146.668Y760.809
G1 X146.075Y762.05
G1 X145.495Y763.251
G1 X144.928Y764.413
G1 X144.373Y765.537
G1 X143.83Y766.622
G1 X143.299Y767.671
G1 X142.779Y768.682
G1 X142.271Y769.657
G1 X141.773Y770.597
G1 X141.286Y771.502
G1 X140.809Y772.372
G1 X140.342Y773.209
G1 X139.884Y774.012
G1 X139.436Y774.782
G1 X138.996Y775.521
G1 X138.565Y776.228
G1 X138.143Y776.904
G1 X137.729Y777.55
G1 X137.322Y778.166
G1 X136.923Y778.753
G1 X136.531Y779.311
G1 X136.145Y779.842
G1 X135.767Y780.345
G1 X135.394Y780.821
G1 X135.027Y781.271
G1 X134.666Y781.696
G1 X134.31Y782.095
G1 X133.959Y782.471
G1 X133.271Y783.15
G1 X132.598Y783.738
G1 X131.94Y784.241
G1 X131.292Y784.662
G1 X130.653Y785.006
G1 X130.021Y785.279
G1 X129.445Y785.482
G1 X128.902Y785.643
G1 X128.386Y785.759
G1 X127.892Y785.829
G1 X127.415Y785.851
G1 X126.951Y785.823
G1 X126.494Y785.744
G1 X126.039Y785.612
G1 X125.582Y785.424
G1 X125.117Y785.18
G1 X124.639Y784.878
G1 X124.144Y784.515
G1 X123.627Y784.091
G1 X123.081Y783.603
G1 X122.504Y783.05
G1 X121.889Y782.429
G1 X121.412Y781.917
G1 X120.929Y781.356
G1 X120.44Y780.746
G1 X119.943Y780.082
G1 X119.437Y779.363
G1 X118.921Y778.586
G1 X118.394Y777.748
G1 X117.854Y776.847
G1 X117.301Y775.879
G1 X116.732Y774.843
G1 X116.148Y773.735
G1 X115.547Y772.553
G1 X114.927Y771.295
G1 X114.288Y769.957
G1 X113.628Y768.538
G1 X112.946Y767.033
G1 X112.241Y765.442
G1 X111.512Y763.761
G1 X110.757Y761.987
G1 X109.976Y760.119
G1 X109.575Y759.148
G1 X109.167Y758.152
G1 X108.752Y757.131
G1 X108.329Y756.085
G1 X107.899Y755.013
G1 X107.461Y753.915
G1 X107.015Y752.791
G1 X106.561Y751.64
G1 X106.099Y750.462
G1 X105.629Y749.256
G1 X105.151Y748.023
G1 X104.663Y746.761
G1 X104.168Y745.472
G1 X103.149Y742.806
G1 X102.094Y740.022
G1 X101.001Y737.118
G1 X99.869Y734.092
G1 X98.696Y730.94
G1 X95.147Y721.356
G1 X91.494Y711.521
G1 X90.215Y708.129
G1 X64.051Y705.654
G1 X58.177Y705.096
G1 X52.902Y704.586
G1 X49.31Y704.233
G1 X46.011Y703.901
G1 X43.965Y703.691
G1 X42.034Y703.488
G1 X40.214Y703.292
G1 X38.499Y703.103
G1 X36.883Y702.919
G1 X35.361Y702.74
G1 X33.926Y702.564
G1 X32.574Y702.392
G1 X31.298Y702.223
G1 X30.094Y702.054
G1 X28.955Y701.887
G1 X27.876Y701.72
G1 X26.852Y701.552
G1 X25.876Y701.383
G1 X24.944Y701.212
G1 X24.049Y701.037
G1 X23.186Y700.859
G1 X21.534Y700.489
G1 X19.943Y700.095
G1 X18.367Y699.671
G1 X16.763Y699.211
G1 X15.956Y698.971
G1 X15.186Y698.735
G1 X14.451Y698.504
G1 X13.751Y698.276
G1 X13.085Y698.051
G1 X12.452Y697.829
G1 X11.852Y697.608
G1 X11.283Y697.389
G1 X10.745Y697.171
G1 X10.237Y696.954
G1 X9.759Y696.736
G1 X9.309Y696.517
G1 X8.887Y696.297
G1 X8.491Y696.075
G1 X8.122Y695.85
G1 X7.779Y695.623
G1 X7.164Y695.158
G1 X6.642Y694.674
G1 X6.206Y694.168
G1 X5.849Y693.635
G1 X5.566Y693.07
G1 X5.349Y692.471
G1 X5.194Y691.831
G1 X5.093Y691.147
G1 X5.048Y690.706
G1 X5.017Y690.305
G1 X5Y689.936
G1 Y689.592
G1 X5.025Y689.264
G1 X5.072Y688.947
G1 X5.144Y688.631
G1 X5.246Y688.309
G1 X5.38Y687.974
G1 X5.548Y687.617
G1 X5.754Y687.232
G1 X6Y686.81
G1 X6.288Y686.344
G1 X6.623Y685.827
G1 X7.005Y685.25
G1 X7.438Y684.606
G1 X7.907Y683.931
G1 X8.411Y683.241
G1 X8.952Y682.535
G1 X9.533Y681.811
G1 X10.155Y681.066
G1 X10.821Y680.298
G1 X11.534Y679.506
G1 X12.295Y678.688
G1 X13.107Y677.84
G1 X13.971Y676.963
G1 X14.891Y676.053
G1 X15.869Y675.108
G1 X16.906Y674.127
G1 X18.005Y673.108
G1 X19.168Y672.047
G1 X20.398Y670.945
G1 X21.696Y669.798
G1 X23.065Y668.604
G1 X24.508Y667.363
G1 X26.026Y666.07
G1 X27.621Y664.725
G1 X29.297Y663.326
G1 X30.165Y662.605
G1 X31.054Y661.87
G1 X31.964Y661.12
G1 X32.896Y660.356
G1 X33.849Y659.576
G1 X34.825Y658.781
G1 X36.842Y657.144
G1 X38.951Y655.442
G1 X41.152Y653.674
G1 X43.45Y651.837
G1 X45.845Y649.93
G1 X48.341Y647.951
G1 X52.551Y644.621
G1 X54.122Y643.37
G1 X55.643Y642.152
G1 X57.105Y640.973
G1 X58.501Y639.841
G1 X59.823Y638.762
G1 X60.452Y638.245
G1 X61.646Y637.26
G1 X62.744Y636.345
G1 X63.738Y635.507
G1 X64.193Y635.12
G1 X64.62Y634.754
G1 X65.016Y634.412
G1 X65.381Y634.093
G1 X65.714Y633.799
G1 X66.014Y633.53
G1 X66.28Y633.287
G1 X66.51Y633.072
G1 X66.704Y632.884
G1 X66.861Y632.726
G1 X66.979Y632.597
G1 X67.058Y632.499
G1 X67.096Y632.432
G1 X67.108Y632.356
G1 Y632.23
G1 X67.096Y632.056
G1 X67.073Y631.834
G1 X67.039Y631.566
G1 X66.995Y631.254
G1 X66.939Y630.899
G1 X66.874Y630.501
G1 X66.798Y630.063
G1 X66.713Y629.586
G1 X66.618Y629.071
G1 X66.515Y628.519
G1 X66.402Y627.932
G1 X66.28Y627.31
G1 X66.013Y625.971
G1 X65.714Y624.511
G1 X65.386Y622.942
G1 X65.031Y621.274
G1 X64.65Y619.518
G1 X64.247Y617.683
G1 X63.824Y615.781
G1 X63.382Y613.822
G1 X62.552Y610.202
G1 X61.833Y607.053
G1 X61.146Y604.013
G1 X60.489Y601.08
G1 X59.863Y598.251
G1 X59.266Y595.526
G1 X58.7Y592.901
G1 X58.428Y591.625
G1 X58.163Y590.374
G1 X57.905Y589.147
G1 X57.412Y586.764
G1 X56.947Y584.475
G1 X56.511Y582.276
G1 X56.102Y580.167
G1 X55.721Y578.145
G1 X55.367Y576.208
G1 X55.039Y574.355
G1 X54.739Y572.581
G1 X54.464Y570.887
G1 X54.216Y569.27
G1 X53.993Y567.727
G1 X53.795Y566.257
G1 X53.622Y564.857
G1 X53.473Y563.526
G1 X53.348Y562.261
G1 X53.248Y561.061
G1 X53.17Y559.923
G1 X53.116Y558.845
G1 X53.084Y557.825
G1 Y556.861
G1 Y555.951
G1 X53.123Y555.093
G1 X53.179Y554.285
G1 X53.256Y553.524
G1 X53.33Y552.923
G1 X53.404Y552.376
G1 X53.481Y551.88
G1 X53.561Y551.429
G1 X53.647Y551.018
G1 X53.742Y550.643
G1 X53.846Y550.299
G1 X53.962Y549.981
G1 X54.236Y549.402
G1 X54.582Y548.867
; Layer WorkSpace Pass 8 of 10
G1 X54.786Y548.605
G1 X55.013Y548.339
G1 X55.266Y548.064
G1 X55.546Y547.777
G1 X56.043Y547.318
G1 X56.558Y546.926
G1 X57.096Y546.602
G1 X57.667Y546.347
G1 X58.277Y546.162
G1 X58.933Y546.046
G1 X59.643Y546
G1 X60.413Y546.026
G1 X60.824Y546.065
G1 X61.252Y546.123
G1 X61.699Y546.198
G1 X62.166Y546.292
G1 X62.654Y546.403
G1 X63.163Y546.533
G1 X63.695Y546.681
G1 X64.25Y546.848
G1 X64.829Y547.032
G1 X65.434Y547.236
G1 X66.064Y547.458
G1 X66.722Y547.698
G1 X67.408Y547.957
G1 X68.122Y548.235
G1 X68.866Y548.532
G1 X69.641Y548.848
G1 X71.18Y549.493
G1 X72.674Y550.148
G1 X74.162Y550.837
G1 X75.683Y551.583
G1 X76.467Y551.984
G1 X77.275Y552.409
G1 X78.109Y552.859
G1 X78.977Y553.338
G1 X79.881Y553.849
G1 X80.828Y554.394
G1 X81.821Y554.977
G1 X82.866Y555.6
G1 X83.968Y556.266
G1 X85.132Y556.979
G1 X86.361Y557.741
G1 X87.662Y558.555
G1 X89.039Y559.424
G1 X90.497Y560.351
G1 X91.258Y560.837
G1 X92.846Y561.857
G1 X94.528Y562.941
G1 X97.235Y564.697
G1 X100.178Y566.615
G1 X104.499Y569.444
G1 X112.834Y574.92
G1 X115.017Y576.351
G1 X118.153Y578.399
G1 X121.09Y580.309
G1 X123.79Y582.056
G1 X126.214Y583.615
G1 X127.658Y584.538
G1 X128.95Y585.359
G1 X130.08Y586.071
G1 X131.036Y586.666
G1 X131.445Y586.918
G1 X131.806Y587.138
G1 X132.118Y587.325
G1 X132.379Y587.479
G1 X132.588Y587.598
G1 X132.744Y587.681
G1 X132.845Y587.728
G1 X132.889
G1 X148.529Y578.242
G1 X150.391Y577.115
G1 X152.216Y576.015
G1 X154.003Y574.939
G1 X155.754Y573.889
G1 X157.469Y572.864
G1 X159.149Y571.864
G1 X160.793Y570.889
G1 X162.402Y569.939
G1 X163.977Y569.012
G1 X165.518Y568.11
G1 X167.025Y567.232
G1 X168.499Y566.378
G1 X169.94Y565.547
G1 X171.348Y564.739
G1 X172.725Y563.955
G1 X174.07Y563.194
G1 X175.384Y562.456
G1 X176.667Y561.74
G1 X177.919Y561.047
G1 X179.142Y560.375
G1 X180.335Y559.726
G1 X181.499Y559.099
G1 X182.634Y558.494
G1 X183.741Y557.91
G1 X184.82Y557.347
G1 X185.871Y556.805
G1 X186.895Y556.284
G1 X187.892Y555.784
G1 X188.863Y555.305
G1 X189.809Y554.845
G1 X190.728Y554.406
G1 X191.623Y553.987
G1 X192.493Y553.587
G1 X193.338Y553.207
G1 X194.16Y552.847
G1 X194.958Y552.505
G1 X195.734Y552.183
G1 X196.486Y551.879
G1 X197.216Y551.594
G1 X197.925Y551.327
G1 X198.612Y551.079
G1 X199.278Y550.848
G1 X199.923Y550.635
G1 X200.549Y550.44
G1 X201.154Y550.262
G1 X201.74Y550.102
G1 X202.307Y549.958
G1 X203.385Y549.722
G1 X204.393Y549.551
G1 X205.333Y549.445
G1 X206.208Y549.401
G1 X207.022Y549.419
G1 X207.777Y549.496
G1 X208.478Y549.631
G1 X209.128Y549.823
G1 X209.578Y550.03
G1 X210.016Y550.328
G1 X210.438Y550.708
G1 X210.842Y551.165
G1 X211.225Y551.692
G1 X211.585Y552.282
G1 X211.918Y552.929
G1 X212.223Y553.626
G1 X212.497Y554.366
G1 X212.736Y555.143
G1 X212.938Y555.951
G1 X213.101Y556.782
G1 X213.222Y557.63
G1 X213.298Y558.488
G1 X213.327Y559.35
G1 X213.306Y560.209
G1 X213.247Y561.132
G1 X213.17Y562.089
G1 X213.076Y563.081
G1 X212.962Y564.112
G1 X212.829Y565.183
G1 X212.677Y566.296
G1 X212.504Y567.454
G1 X212.31Y568.659
G1 X212.096Y569.912
G1 X211.859Y571.217
G1 X211.6Y572.575
G1 X211.319Y573.989
G1 X211.014Y575.461
G1 X210.686Y576.992
G1 X210.333Y578.585
G1 X209.955Y580.243
G1 X209.552Y581.966
G1 X209.124Y583.759
G1 X208.669Y585.622
G1 X208.187Y587.558
G1 X207.678Y589.57
G1 X207.142Y591.658
G1 X206.577Y593.827
G1 X205.983Y596.076
G1 X205.36Y598.41
G1 X204.707Y600.829
G1 X204.024Y603.337
G1 X203.31Y605.935
G1 X202.565Y608.626
G1 X201.787Y611.411
G1 X201.387Y612.84
G1 X200.561Y615.772
G1 X194.94Y635.617
G1 X214.078Y652.398
G1 X218.054Y655.895
G1 X222.017Y659.402
G1 X223.962Y661.129
G1 X225.864Y662.824
G1 X227.711Y664.473
G1 X229.489Y666.067
G1 X231.185Y667.592
G1 X232.787Y669.036
G1 X234.28Y670.389
G1 X235.652Y671.639
G1 X236.89Y672.773
G1 X237.981Y673.78
G1 X238.911Y674.648
G1 X239.312Y675.026
G1 X239.668Y675.365
G1 X240.655Y676.321
G1 X241.613Y677.268
G1 X242.543Y678.208
G1 X243.444Y679.138
G1 X244.315Y680.058
G1 X245.157Y680.967
G1 X245.968Y681.865
G1 X246.748Y682.751
G1 X247.496Y683.624
G1 X248.213Y684.483
G1 X248.897Y685.328
G1 X249.549Y686.159
G1 X250.167Y686.973
G1 X250.751Y687.771
G1 X251.301Y688.552
G1 X251.816Y689.314
G1 X252.296Y690.058
G1 X252.741Y690.783
G1 X253.149Y691.488
G1 X253.52Y692.172
G1 X253.854Y692.834
G1 X254.151Y693.474
G1 X254.409Y694.091
G1 X254.629Y694.685
G1 X254.81Y695.253
G1 X254.951Y695.797
G1 X255.053Y696.315
G1 X255.113Y696.806
G1 X255.133Y697.27
G1 X255.111Y697.706
G1 X255.048Y698.113
G1 X254.941Y698.491
G1 X254.816Y698.75
G1 X254.61Y699.059
G1 X254.333Y699.406
G1 X253.998Y699.78
G1 X253.613Y700.169
G1 X253.192Y700.562
G1 X252.744Y700.947
G1 X252.28Y701.312
G1 X251.739Y701.695
G1 X251.153Y702.063
G1 X250.517Y702.418
G1 X249.828Y702.759
G1 X249.082Y703.088
G1 X248.275Y703.404
G1 X247.405Y703.709
G1 X246.467Y704.002
G1 X245.457Y704.285
G1 X244.373Y704.556
G1 X243.21Y704.818
G1 X241.965Y705.071
G1 X240.634Y705.314
G1 X239.214Y705.549
G1 X237.7Y705.776
G1 X236.09Y705.996
G1 X235.248Y706.103
G1 X234.38Y706.208
G1 X233.486Y706.312
G1 X232.566Y706.414
G1 X231.619Y706.514
G1 X230.644Y706.613
G1 X229.642Y706.711
G1 X228.611Y706.807
G1 X227.552Y706.902
G1 X226.463Y706.995
G1 X225.345Y707.088
G1 X224.197Y707.179
G1 X223.018Y707.269
G1 X221.809Y707.359
G1 X220.567Y707.447
G1 X219.295Y707.534
G1 X217.989Y707.621
G1 X216.651Y707.706
G1 X215.28Y707.792
G1 X213.875Y707.876
G1 X212.436Y707.96
G1 X210.962Y708.043
G1 X209.453Y708.126
G1 X207.909Y708.208
G1 X206.329Y708.29
G1 X204.712Y708.372
G1 X203.059Y708.453
G1 X199.639Y708.615
G1 X196.067Y708.778
G1 X168.795Y709.965
G1 X164.593Y719.964
G1 X163.616Y722.28
G1 X162.66Y724.543
G1 X161.724Y726.753
G1 X160.807Y728.911
G1 X159.909Y731.017
G1 X159.03Y733.073
G1 X158.169Y735.078
G1 X157.327Y737.034
G1 X156.503Y738.941
G1 X155.696Y740.799
G1 X154.906Y742.609
G1 X154.134Y744.372
G1 X153.378Y746.089
G1 X152.638Y747.759
G1 X151.915Y749.383
G1 X151.207Y750.963
G1 X150.515Y752.498
G1 X149.838Y753.989
G1 X149.175Y755.437
G1 X148.528Y756.843
G1 X147.894Y758.206
G1 X147.274Y759.528
G1 X146.668Y760.809
G1 X146.075Y762.05
G1 X145.495Y763.251
G1 X144.928Y764.413
G1 X144.373Y765.537
G1 X143.83Y766.622
G1 X143.299Y767.671
G1 X142.779Y768.682
G1 X142.271Y769.657
G1 X141.773Y770.597
G1 X141.286Y771.502
G1 X140.809Y772.372
G1 X140.342Y773.209
G1 X139.884Y774.012
G1 X139.436Y774.782
G1 X138.996Y775.521
G1 X138.565Y776.228
G1 X138.143Y776.904
G1 X137.729Y777.55
G1 X137.322Y778.166
G1 X136.923Y778.753
G1 X136.531Y779.311
G1 X136.145Y779.842
G1 X135.767Y780.345
G1 X135.394Y780.821
G1 X135.027Y781.271
G1 X134.666Y781.696
G1 X134.31Y782.095
G1 X133.959Y782.471
G1 X133.271Y783.15
G1 X132.598Y783.738
G1 X131.94Y784.241
G1 X131.292Y784.662
G1 X130.653Y785.006
G1 X130.021Y785.279
G1 X129.445Y785.482
G1 X128.902Y785.643
G1 X128.386Y785.759
G1 X127.892Y785.829
G1 X127.415Y785.851
G1 X126.951Y785.823
G1 X126.494Y785.744
G1 X126.039Y785.612
G1 X125.582Y785.424
G1 X125.117Y785.18
G1 X124.639Y784.878
G1 X124.144Y784.515
G1 X123.627Y784.091
G1 X123.081Y783.603
G1 X122.504Y783.05
G1 X121.889Y782.429
G1 X121.412Y781.917
G1 X120.929Y781.356
G1 X120.44Y780.746
G1 X119.943Y780.082
G1 X119.437Y779.363
G1 X118.921Y778.586
G1 X118.394Y777.748
G1 X117.854Y776.847
G1 X117.301Y775.879
G1 X116.732Y774.843
G1 X116.148Y773.735
G1 X115.547Y772.553
G1 X114.927Y771.295
G1 X114.288Y769.957
G1 X113.628Y768.538
G1 X112.946Y767.033
G1 X112.241Y765.442
G1 X111.512Y763.761
G1 X110.757Y761.987
G1 X109.976Y760.119
G1 X109.575Y759.148
G1 X109.167Y758.152
G1 X108.752Y757.131
G1 X108.329Y756.085
G1 X107.899Y755.013
G1 X107.461Y753.915
G1 X107.015Y752.791
G1 X106.561Y751.64
G1 X106.099Y750.462
G1 X105.629Y749.256
G1 X105.151Y748.023
G1 X104.663Y746.761
G1 X104.168Y745.472
G1 X103.149Y742.806
G1 X102.094Y740.022
G1 X101.001Y737.118
G1 X99.869Y734.092
G1 X98.696Y730.94
G1 X95.147Y721.356
G1 X91.494Y711.521
G1 X90.215Y708.129
G1 X64.051Y705.654
G1 X58.177Y705.096
G1 X52.902Y704.586
G1 X49.31Y704.233
G1 X46.011Y703.901
G1 X43.965Y703.691
G1 X42.034Y703.488
G1 X40.214Y703.292
G1 X38.499Y703.103
G1 X36.883Y702.919
G1 X35.361Y702.74
G1 X33.926Y702.564
G1 X32.574Y702.392
G1 X31.298Y702.223
G1 X30.094Y702.054
G1 X28.955Y701.887
G1 X27.876Y701.72
G1 X26.852Y701.552
G1 X25.876Y701.383
G1 X24.944Y701.212
G1 X24.049Y701.037
G1 X23.186Y700.859
G1 X21.534Y700.489
G1 X19.943Y700.095
G1 X18.367Y699.671
G1 X16.763Y699.211
G1 X15.956Y698.971
G1 X15.186Y698.735
G1 X14.451Y698.504
G1 X13.751Y698.276
G1 X13.085Y698.051
G1 X12.452Y697.829
G1 X11.852Y697.608
G1 X11.283Y697.389
G1 X10.745Y697.171
G1 X10.237Y696.954
G1 X9.759Y696.736
G1 X9.309Y696.517
G1 X8.887Y696.297
G1 X8.491Y696.075
G1 X8.122Y695.85
G1 X7.779Y695.623
G1 X7.164Y695.158
G1 X6.642Y694.674
G1 X6.206Y694.168
G1 X5.849Y693.635
G1 X5.566Y693.07
G1 X5.349Y692.471
G1 X5.194Y691.831
G1 X5.093Y691.147
G1 X5.048Y690.706
G1 X5.017Y690.305
G1 X5Y689.936
G1 Y689.592
G1 X5.025Y689.264
G1 X5.072Y688.947
G1 X5.144Y688.631
G1 X5.246Y688.309
G1 X5.38Y687.974
G1 X5.548Y687.617
G1 X5.754Y687.232
G1 X6Y686.81
G1 X6.288Y686.344
G1 X6.623Y685.827
G1 X7.005Y685.25
G1 X7.438Y684.606
G1 X7.907Y683.931
G1 X8.411Y683.241
G1 X8.952Y682.535
G1 X9.533Y681.811
G1 X10.155Y681.066
G1 X10.821Y680.298
G1 X11.534Y679.506
G1 X12.295Y678.688
G1 X13.107Y677.84
G1 X13.971Y676.963
G1 X14.891Y676.053
G1 X15.869Y675.108
G1 X16.906Y674.127
G1 X18.005Y673.108
G1 X19.168Y672.047
G1 X20.398Y670.945
G1 X21.696Y669.798
G1 X23.065Y668.604
G1 X24.508Y667.363
G1 X26.026Y666.07
G1 X27.621Y664.725
G1 X29.297Y663.326
G1 X30.165Y662.605
G1 X31.054Y661.87
G1 X31.964Y661.12
G1 X32.896Y660.356
G1 X33.849Y659.576
G1 X34.825Y658.781
G1 X36.842Y657.144
G1 X38.951Y655.442
G1 X41.152Y653.674
G1 X43.45Y651.837
G1 X45.845Y649.93
G1 X48.341Y647.951
G1 X52.551Y644.621
G1 X54.122Y643.37
G1 X55.643Y642.152
G1 X57.105Y640.973
G1 X58.501Y639.841
G1 X59.823Y638.762
G1 X60.452Y638.245
G1 X61.646Y637.26
G1 X62.744Y636.345
G1 X63.738Y635.507
G1 X64.193Y635.12
G1 X64.62Y634.754
G1 X65.016Y634.412
G1 X65.381Y634.093
G1 X65.714Y633.799
G1 X66.014Y633.53
G1 X66.28Y633.287
G1 X66.51Y633.072
G1 X66.704Y632.884
G1 X66.861Y632.726
G1 X66.979Y632.597
G1 X67.058Y632.499
G1 X67.096Y632.432
G1 X67.108Y632.356
G1 Y632.23
G1 X67.096Y632.056
G1 X67.073Y631.834
G1 X67.039Y631.566
G1 X66.995Y631.254
G1 X66.939Y630.899
G1 X66.874Y630.501
G1 X66.798Y630.063
G1 X66.713Y629.586
G1 X66.618Y629.071
G1 X66.515Y628.519
G1 X66.402Y627.932
G1 X66.28Y627.31
G1 X66.013Y625.971
G1 X65.714Y624.511
G1 X65.386Y622.942
G1 X65.031Y621.274
G1 X64.65Y619.518
G1 X64.247Y617.683
G1 X63.824Y615.781
G1 X63.382Y613.822
G1 X62.552Y610.202
G1 X61.833Y607.053
G1 X61.146Y604.013
G1 X60.489Y601.08
G1 X59.863Y598.251
G1 X59.266Y595.526
G1 X58.7Y592.901
G1 X58.428Y591.625
G1 X58.163Y590.374
G1 X57.905Y589.147
G1 X57.412Y586.764
G1 X56.947Y584.475
G1 X56.511Y582.276
G1 X56.102Y580.167
G1 X55.721Y578.145
G1 X55.367Y576.208
G1 X55.039Y574.355
G1 X54.739Y572.581
G1 X54.464Y570.887
G1 X54.216Y569.27
G1 X53.993Y567.727
G1 X53.795Y566.257
G1 X53.622Y564.857
G1 X53.473Y563.526
G1 X53.348Y562.261
G1 X53.248Y561.061
G1 X53.17Y559.923
G1 X53.116Y558.845
G1 X53.084Y557.825
G1 Y556.861
G1 Y555.951
G1 X53.123Y555.093
G1 X53.179Y554.285
G1 X53.256Y553.524
G1 X53.33Y552.923
G1 X53.404Y552.376
G1 X53.481Y551.88
G1 X53.561Y551.429
G1 X53.647Y551.018
G1 X53.742Y550.643
G1 X53.846Y550.299
G1 X53.962Y549.981
G1 X54.236Y549.402
G1 X54.582Y548.867
; Layer WorkSpace Pass 9 of 10
G1 X54.786Y548.605
G1 X55.013Y548.339
G1 X55.266Y548.064
G1 X55.546Y547.777
G1 X56.043Y547.318
G1 X56.558Y546.926
G1 X57.096Y546.602
G1 X57.667Y546.347
G1 X58.277Y546.162
G1 X58.933Y546.046
G1 X59.643Y546
G1 X60.413Y546.026
G1 X60.824Y546.065
G1 X61.252Y546.123
G1 X61.699Y546.198
G1 X62.166Y546.292
G1 X62.654Y546.403
G1 X63.163Y546.533
G1 X63.695Y546.681
G1 X64.25Y546.848
G1 X64.829Y547.032
G1 X65.434Y547.236
G1 X66.064Y547.458
G1 X66.722Y547.698
G1 X67.408Y547.957
G1 X68.122Y548.235
G1 X68.866Y548.532
G1 X69.641Y548.848
G1 X71.18Y549.493
G1 X72.674Y550.148
G1 X74.162Y550.837
G1 X75.683Y551.583
G1 X76.467Y551.984
G1 X77.275Y552.409
G1 X78.109Y552.859
G1 X78.977Y553.338
G1 X79.881Y553.849
G1 X80.828Y554.394
G1 X81.821Y554.977
G1 X82.866Y555.6
G1 X83.968Y556.266
G1 X85.132Y556.979
G1 X86.361Y557.741
G1 X87.662Y558.555
G1 X89.039Y559.424
G1 X90.497Y560.351
G1 X91.258Y560.837
G1 X92.846Y561.857
G1 X94.528Y562.941
G1 X97.235Y564.697
G1 X100.178Y566.615
G1 X104.499Y569.444
G1 X112.834Y574.92
G1 X115.017Y576.351
G1 X118.153Y578.399
G1 X121.09Y580.309
G1 X123.79Y582.056
G1 X126.214Y583.615
G1 X127.658Y584.538
G1 X128.95Y585.359
G1 X130.08Y586.071
G1 X131.036Y586.666
G1 X131.445Y586.918
G1 X131.806Y587.138
G1 X132.118Y587.325
G1 X132.379Y587.479
G1 X132.588Y587.598
G1 X132.744Y587.681
G1 X132.845Y587.728
G1 X132.889
G1 X148.529Y578.242
G1 X150.391Y577.115
G1 X152.216Y576.015
G1 X154.003Y574.939
G1 X155.754Y573.889
G1 X157.469Y572.864
G1 X159.149Y571.864
G1 X160.793Y570.889
G1 X162.402Y569.939
G1 X163.977Y569.012
G1 X165.518Y568.11
G1 X167.025Y567.232
G1 X168.499Y566.378
G1 X169.94Y565.547
G1 X171.348Y564.739
G1 X172.725Y563.955
G1 X174.07Y563.194
G1 X175.384Y562.456
G1 X176.667Y561.74
G1 X177.919Y561.047
G1 X179.142Y560.375
G1 X180.335Y559.726
G1 X181.499Y559.099
G1 X182.634Y558.494
G1 X183.741Y557.91
G1 X184.82Y557.347
G1 X185.871Y556.805
G1 X186.895Y556.284
G1 X187.892Y555.784
G1 X188.863Y555.305
G1 X189.809Y554.845
G1 X190.728Y554.406
G1 X191.623Y553.987
G1 X192.493Y553.587
G1 X193.338Y553.207
G1 X194.16Y552.847
G1 X194.958Y552.505
G1 X195.734Y552.183
G1 X196.486Y551.879
G1 X197.216Y551.594
G1 X197.925Y551.327
G1 X198.612Y551.079
G1 X199.278Y550.848
G1 X199.923Y550.635
G1 X200.549Y550.44
G1 X201.154Y550.262
G1 X201.74Y550.102
G1 X202.307Y549.958
G1 X203.385Y549.722
G1 X204.393Y549.551
G1 X205.333Y549.445
G1 X206.208Y549.401
G1 X207.022Y549.419
G1 X207.777Y549.496
G1 X208.478Y549.631
G1 X209.128Y549.823
G1 X209.578Y550.03
G1 X210.016Y550.328
G1 X210.438Y550.708
G1 X210.842Y551.165
G1 X211.225Y551.692
G1 X211.585Y552.282
G1 X211.918Y552.929
G1 X212.223Y553.626
G1 X212.497Y554.366
G1 X212.736Y555.143
G1 X212.938Y555.951
G1 X213.101Y556.782
G1 X213.222Y557.63
G1 X213.298Y558.488
G1 X213.327Y559.35
G1 X213.306Y560.209
G1 X213.247Y561.132
G1 X213.17Y562.089
G1 X213.076Y563.081
G1 X212.962Y564.112
G1 X212.829Y565.183
G1 X212.677Y566.296
G1 X212.504Y567.454
G1 X212.31Y568.659
G1 X212.096Y569.912
G1 X211.859Y571.217
G1 X211.6Y572.575
G1 X211.319Y573.989
G1 X211.014Y575.461
G1 X210.686Y576.992
G1 X210.333Y578.585
G1 X209.955Y580.243
G1 X209.552Y581.966
G1 X209.124Y583.759
G1 X208.669Y585.622
G1 X208.187Y587.558
G1 X207.678Y589.57
G1 X207.142Y591.658
G1 X206.577Y593.827
G1 X205.983Y596.076
G1 X205.36Y598.41
G1 X204.707Y600.829
G1 X204.024Y603.337
G1 X203.31Y605.935
G1 X202.565Y608.626
G1 X201.787Y611.411
G1 X201.387Y612.84
G1 X200.561Y615.772
G1 X194.94Y635.617
G1 X214.078Y652.398
G1 X218.054Y655.895
G1 X222.017Y659.402
G1 X223.962Y661.129
G1 X225.864Y662.824
G1 X227.711Y664.473
G1 X229.489Y666.067
G1 X231.185Y667.592
G1 X232.787Y669.036
G1 X234.28Y670.389
G1 X235.652Y671.639
G1 X236.89Y672.773
G1 X237.981Y673.78
G1 X238.911Y674.648
G1 X239.312Y675.026
G1 X239.668Y675.365
G1 X240.655Y676.321
G1 X241.613Y677.268
G1 X242.543Y678.208
G1 X243.444Y679.138
G1 X244.315Y680.058
G1 X245.157Y680.967
G1 X245.968Y681.865
G1 X246.748Y682.751
G1 X247.496Y683.624
G1 X248.213Y684.483
G1 X248.897Y685.328
G1 X249.549Y686.159
G1 X250.167Y686.973
G1 X250.751Y687.771
G1 X251.301Y688.552
G1 X251.816Y689.314
G1 X252.296Y690.058
G1 X252.741Y690.783
G1 X253.149Y691.488
G1 X253.52Y692.172
G1 X253.854Y692.834
G1 X254.151Y693.474
G1 X254.409Y694.091
G1 X254.629Y694.685
G1 X254.81Y695.253
G1 X254.951Y695.797
G1 X255.053Y696.315
G1 X255.113Y696.806
G1 X255.133Y697.27
G1 X255.111Y697.706
G1 X255.048Y698.113
G1 X254.941Y698.491
G1 X254.816Y698.75
G1 X254.61Y699.059
G1 X254.333Y699.406
G1 X253.998Y699.78
G1 X253.613Y700.169
G1 X253.192Y700.562
G1 X252.744Y700.947
G1 X252.28Y701.312
G1 X251.739Y701.695
G1 X251.153Y702.063
G1 X250.517Y702.418
G1 X249.828Y702.759
G1 X249.082Y703.088
G1 X248.275Y703.404
G1 X247.405Y703.709
G1 X246.467Y704.002
G1 X245.457Y704.285
G1 X244.373Y704.556
G1 X243.21Y704.818
G1 X241.965Y705.071
G1 X240.634Y705.314
G1 X239.214Y705.549
G1 X237.7Y705.776
G1 X236.09Y705.996
G1 X235.248Y706.103
G1 X234.38Y706.208
G1 X233.486Y706.312
G1 X232.566Y706.414
G1 X231.619Y706.514
G1 X230.644Y706.613
G1 X229.642Y706.711
G1 X228.611Y706.807
G1 X227.552Y706.902
G1 X226.463Y706.995
G1 X225.345Y707.088
G1 X224.197Y707.179
G1 X223.018Y707.269
G1 X221.809Y707.359
G1 X220.567Y707.447
G1 X219.295Y707.534
G1 X217.989Y707.621
G1 X216.651Y707.706
G1 X215.28Y707.792
G1 X213.875Y707.876
G1 X212.436Y707.96
G1 X210.962Y708.043
G1 X209.453Y708.126
G1 X207.909Y708.208
G1 X206.329Y708.29
G1 X204.712Y708.372
G1 X203.059Y708.453
G1 X199.639Y708.615
G1 X196.067Y708.778
G1 X168.795Y709.965
G1 X164.593Y719.964
G1 X163.616Y722.28
G1 X162.66Y724.543
G1 X161.724Y726.753
G1 X160.807Y728.911
G1 X159.909Y731.017
G1 X159.03Y733.073
G1 X158.169Y735.078
G1 X157.327Y737.034
G1 X156.503Y738.941
G1 X155.696Y740.799
G1 X154.906Y742.609
G1 X154.134Y744.372
G1 X153.378Y746.089
G1 X152.638Y747.759
G1 X151.915Y749.383
G1 X151.207Y750.963
G1 X150.515Y752.498
G1 X149.838Y753.989
G1 X149.175Y755.437
G1 X148.528Y756.843
G1 X147.894Y758.206
G1 X147.274Y759.528
G1 X146.668Y760.809
G1 X146.075Y762.05
G1 X145.495Y763.251
G1 X144.928Y764.413
G1 X144.373Y765.537
G1 X143.83Y766.622
G1 X143.299Y767.671
G1 X142.779Y768.682
G1 X142.271Y769.657
G1 X141.773Y770.597
G1 X141.286Y771.502
G1 X140.809Y772.372
G1 X140.342Y773.209
G1 X139.884Y774.012
G1 X139.436Y774.782
G1 X138.996Y775.521
G1 X138.565Y776.228
G1 X138.143Y776.904
G1 X137.729Y777.55
G1 X137.322Y778.166
G1 X136.923Y778.753
G1 X136.531Y779.311
G1 X136.145Y779.842
G1 X135.767Y780.345
G1 X135.394Y780.821
G1 X135.027Y781.271
G1 X134.666Y781.696
G1 X134.31Y782.095
G1 X133.959Y782.471
G1 X133.271Y783.15
G1 X132.598Y783.738
G1 X131.94Y784.241
G1 X131.292Y784.662
G1 X130.653Y785.006
G1 X130.021Y785.279
G1 X129.445Y785.482
G1 X128.902Y785.643
G1 X128.386Y785.759
G1 X127.892Y785.829
G1 X127.415Y785.851
G1 X126.951Y785.823
G1 X126.494Y785.744
G1 X126.039Y785.612
G1 X125.582Y785.424
G1 X125.117Y785.18
G1 X124.639Y784.878
G1 X124.144Y784.515
G1 X123.627Y784.091
G1 X123.081Y783.603
G1 X122.504Y783.05
G1 X121.889Y782.429
G1 X121.412Y781.917
G1 X120.929Y781.356
G1 X120.44Y780.746
G1 X119.943Y780.082
G1 X119.437Y779.363
G1 X118.921Y778.586
G1 X118.394Y777.748
G1 X117.854Y776.847
G1 X117.301Y775.879
G1 X116.732Y774.843
G1 X116.148Y773.735
G1 X115.547Y772.553
G1 X114.927Y771.295
G1 X114.288Y769.957
G1 X113.628Y768.538
G1 X112.946Y767.033
G1 X112.241Y765.442
G1 X111.512Y763.761
G1 X110.757Y761.987
G1 X109.976Y760.119
G1 X109.575Y759.148
G1 X109.167Y758.152
G1 X108.752Y757.131
G1 X108.329Y756.085
G1 X107.899Y755.013
G1 X107.461Y753.915
G1 X107.015Y752.791
G1 X106.561Y751.64
G1 X106.099Y750.462
G1 X105.629Y749.256
G1 X105.151Y748.023
G1 X104.663Y746.761
G1 X104.168Y745.472
G1 X103.149Y742.806
G1 X102.094Y740.022
G1 X101.001Y737.118
G1 X99.869Y734.092
G1 X98.696Y730.94
G1 X95.147Y721.356
G1 X91.494Y711.521
G1 X90.215Y708.129
G1 X64.051Y705.654
G1 X58.177Y705.096
G1 X52.902Y704.586
G1 X49.31Y704.233
G1 X46.011Y703.901
G1 X43.965Y703.691
G1 X42.034Y703.488
G1 X40.214Y703.292
G1 X38.499Y703.103
G1 X36.883Y702.919
G1 X35.361Y702.74
G1 X33.926Y702.564
G1 X32.574Y702.392
G1 X31.298Y702.223
G1 X30.094Y702.054
G1 X28.955Y701.887
G1 X27.876Y701.72
G1 X26.852Y701.552
G1 X25.876Y701.383
G1 X24.944Y701.212
G1 X24.049Y701.037
G1 X23.186Y700.859
G1 X21.534Y700.489
G1 X19.943Y700.095
G1 X18.367Y699.671
G1 X16.763Y699.211
G1 X15.956Y698.971
G1 X15.186Y698.735
G1 X14.451Y698.504
G1 X13.751Y698.276
G1 X13.085Y698.051
G1 X12.452Y697.829
G1 X11.852Y697.608
G1 X11.283Y697.389
G1 X10.745Y697.171
G1 X10.237Y696.954
G1 X9.759Y696.736
G1 X9.309Y696.517
G1 X8.887Y696.297
G1 X8.491Y696.075
G1 X8.122Y695.85
G1 X7.779Y695.623
G1 X7.164Y695.158
G1 X6.642Y694.674
G1 X6.206Y694.168
G1 X5.849Y693.635
G1 X5.566Y693.07
G1 X5.349Y692.471
G1 X5.194Y691.831
G1 X5.093Y691.147
G1 X5.048Y690.706
G1 X5.017Y690.305
G1 X5Y689.936
G1 Y689.592
G1 X5.025Y689.264
G1 X5.072Y688.947
G1 X5.144Y688.631
G1 X5.246Y688.309
G1 X5.38Y687.974
G1 X5.548Y687.617
G1 X5.754Y687.232
G1 X6Y686.81
G1 X6.288Y686.344
G1 X6.623Y685.827
G1 X7.005Y685.25
G1 X7.438Y684.606
G1 X7.907Y683.931
G1 X8.411Y683.241
G1 X8.952Y682.535
G1 X9.533Y681.811
G1 X10.155Y681.066
G1 X10.821Y680.298
G1 X11.534Y679.506
G1 X12.295Y678.688
G1 X13.107Y677.84
G1 X13.971Y676.963
G1 X14.891Y676.053
G1 X15.869Y675.108
G1 X16.906Y674.127
G1 X18.005Y673.108
G1 X19.168Y672.047
G1 X20.398Y670.945
G1 X21.696Y669.798
G1 X23.065Y668.604
G1 X24.508Y667.363
G1 X26.026Y666.07
G1 X27.621Y664.725
G1 X29.297Y663.326
G1 X30.165Y662.605
G1 X31.054Y661.87
G1 X31.964Y661.12
G1 X32.896Y660.356
G1 X33.849Y659.576
G1 X34.825Y658.781
G1 X36.842Y657.144
G1 X38.951Y655.442
G1 X41.152Y653.674
G1 X43.45Y651.837
G1 X45.845Y649.93
G1 X48.341Y647.951
G1 X52.551Y644.621
G1 X54.122Y643.37
G1 X55.643Y642.152
G1 X57.105Y640.973
G1 X58.501Y639.841
G1 X59.823Y638.762
G1 X60.452Y638.245
G1 X61.646Y637.26
G1 X62.744Y636.345
G1 X63.738Y635.507
G1 X64.193Y635.12
G1 X64.62Y634.754
G1 X65.016Y634.412
G1 X65.381Y634.093
G1 X65.714Y633.799
G1 X66.014Y633.53
G1 X66.28Y633.287
G1 X66.51Y633.072
G1 X66.704Y632.884
G1 X66.861Y632.726
