; LightBurn 1.3.01
; GRBL device profile, absolute coords
; Bounds: X5 Y531.94 to X669.82 Y785.85
G00 G17 G40 G21 G54
G90
M4
; Cut @ 600 mm/min, 95% power
M8
G0 X54.581Y548.867
; Layer WorkSpace Pass 1 of 10
G1 X54.785Y548.604S950F600
G1 X55.013Y548.338
G1 X55.266Y548.064
G1 X55.546Y547.776
G1 X56.043Y547.317
G1 X56.557Y546.925
G1 X57.096Y546.602
G1 X57.667Y546.347
G1 X58.276Y546.161
G1 X58.932Y546.046
G1 X59.642Y546
G1 X60.413Y546.025
G1 X60.823Y546.065
G1 X61.252Y546.122
G1 X61.699Y546.198
G1 X62.166Y546.291
G1 X62.653Y546.403
G1 X63.163Y546.533
G1 X63.694Y546.681
G1 X64.249Y546.847
G1 X64.829Y547.032
G1 X65.433Y547.235
G1 X66.064Y547.457
G1 X66.721Y547.698
G1 X67.407Y547.957
G1 X68.121Y548.235
G1 X68.865Y548.532
G1 X69.64Y548.847
G1 X71.18Y549.493
G1 X72.674Y550.148
G1 X74.162Y550.837
G1 X75.682Y551.582
G1 X76.467Y551.984
G1 X77.274Y552.408
G1 X78.109Y552.858
G1 X78.976Y553.337
G1 X79.881Y553.848
G1 X80.827Y554.393
G1 X81.821Y554.976
G1 X82.866Y555.599
G1 X83.968Y556.266
G1 X85.131Y556.979
G1 X86.361Y557.741
G1 X87.662Y558.555
G1 X89.039Y559.424
G1 X90.497Y560.351
G1 X91.257Y560.837
G1 X92.846Y561.856
G1 X94.527Y562.941
G1 X97.234Y564.696
G1 X100.178Y566.615
G1 X104.499Y569.443
G1 X112.834Y574.92
G1 X115.016Y576.35
G1 X118.152Y578.398
G1 X121.09Y580.308
G1 X123.79Y582.055
G1 X126.214Y583.614
G1 X127.657Y584.537
G1 X128.95Y585.358
G1 X130.08Y586.07
G1 X131.035Y586.666
G1 X131.444Y586.918
G1 X131.806Y587.138
G1 X132.117Y587.325
G1 X132.379Y587.478
G1 X132.588Y587.597
G1 X132.744Y587.681
G1 X132.844Y587.728
G1 X132.889
G1 X148.529Y578.241
G1 X150.39Y577.115
G1 X152.215Y576.014
G1 X154.003Y574.939
G1 X155.754Y573.889
G1 X157.469Y572.864
G1 X159.148Y571.864
G1 X160.792Y570.889
G1 X162.402Y569.938
G1 X163.977Y569.012
G1 X165.517Y568.11
G1 X167.024Y567.232
G1 X168.498Y566.377
G1 X169.939Y565.546
G1 X171.348Y564.739
G1 X172.724Y563.955
G1 X174.069Y563.193
G1 X175.383Y562.455
G1 X176.666Y561.739
G1 X177.919Y561.046
G1 X179.141Y560.375
G1 X180.334Y559.726
G1 X181.498Y559.099
G1 X182.633Y558.493
G1 X183.74Y557.909
G1 X184.819Y557.346
G1 X185.87Y556.805
G1 X186.894Y556.284
G1 X187.892Y555.784
G1 X188.863Y555.304
G1 X189.808Y554.845
G1 X190.728Y554.406
G1 X191.622Y553.987
G1 X192.492Y553.587
G1 X193.338Y553.207
G1 X194.16Y552.846
G1 X194.958Y552.505
G1 X195.733Y552.182
G1 X196.486Y551.879
G1 X197.216Y551.594
G1 X197.924Y551.327
G1 X198.611Y551.078
G1 X199.277Y550.848
G1 X199.923Y550.635
G1 X200.548Y550.44
G1 X201.153Y550.262
G1 X201.739Y550.101
G1 X202.306Y549.958
G1 X203.385Y549.721
G1 X204.392Y549.551
G1 X205.332Y549.444
G1 X206.207Y549.4
G1 X207.021Y549.418
G1 X207.777Y549.495
G1 X208.478Y549.63
G1 X209.127Y549.822
G1 X209.578Y550.03
G1 X210.015Y550.327
G1 X210.437Y550.707
G1 X210.841Y551.164
G1 X211.225Y551.691
G1 X211.584Y552.281
G1 X211.918Y552.928
G1 X212.223Y553.625
G1 X212.496Y554.366
G1 X212.735Y555.143
G1 X212.938Y555.95
G1 X213.101Y556.781
G1 X213.222Y557.629
G1 X213.298Y558.488
G1 X213.327Y559.35
G1 X213.305Y560.209
G1 X213.246Y561.132
G1 X213.17Y562.088
G1 X213.075Y563.081
G1 X212.962Y564.111
G1 X212.829Y565.182
G1 X212.676Y566.296
G1 X212.503Y567.453
G1 X212.31Y568.658
G1 X212.095Y569.912
G1 X211.859Y571.217
G1 X211.6Y572.575
G1 X211.318Y573.988
G1 X211.014Y575.46
G1 X210.685Y576.991
G1 X210.332Y578.584
G1 X209.955Y580.242
G1 X209.552Y581.966
G1 X209.123Y583.758
G1 X208.669Y585.622
G1 X208.187Y587.558
G1 X207.678Y589.569
G1 X207.141Y591.658
G1 X206.576Y593.826
G1 X205.982Y596.076
G1 X205.359Y598.409
G1 X204.706Y600.829
G1 X204.023Y603.337
G1 X203.309Y605.935
G1 X202.564Y608.626
G1 X201.787Y611.411
G1 X201.386Y612.84
G1 X200.561Y615.771
G1 X194.94Y635.617
G1 X214.077Y652.397
G1 X218.053Y655.894
G1 X222.017Y659.401
G1 X223.962Y661.128
G1 X225.864Y662.823
G1 X227.71Y664.473
G1 X229.489Y666.066
G1 X231.185Y667.591
G1 X232.786Y669.036
G1 X234.28Y670.389
G1 X235.652Y671.638
G1 X236.89Y672.772
G1 X237.981Y673.779
G1 X238.911Y674.647
G1 X239.312Y675.026
G1 X239.668Y675.365
G1 X240.654Y676.32
G1 X241.613Y677.268
G1 X242.543Y678.207
G1 X243.444Y679.137
G1 X244.315Y680.057
G1 X245.156Y680.967
G1 X245.967Y681.865
G1 X246.747Y682.75
G1 X247.496Y683.623
G1 X248.213Y684.483
G1 X248.897Y685.328
G1 X249.548Y686.158
G1 X250.166Y686.972
G1 X250.751Y687.77
G1 X251.301Y688.551
G1 X251.816Y689.314
G1 X252.296Y690.058
G1 X252.74Y690.783
G1 X253.148Y691.487
G1 X253.52Y692.171
G1 X253.854Y692.833
G1 X254.151Y693.474
G1 X254.409Y694.091
G1 X254.629Y694.684
G1 X254.81Y695.253
G1 X254.951Y695.797
G1 X255.052Y696.315
G1 X255.113Y696.806
G1 X255.133Y697.27
G1 X255.111Y697.706
G1 X255.047Y698.113
G1 X254.941Y698.49
G1 X254.816Y698.749
G1 X254.61Y699.058
G1 X254.333Y699.406
G1 X253.997Y699.78
G1 X253.613Y700.169
G1 X253.192Y700.562
G1 X252.743Y700.946
G1 X252.28Y701.312
G1 X251.739Y701.694
G1 X251.153Y702.063
G1 X250.517Y702.417
G1 X249.827Y702.759
G1 X249.081Y703.087
G1 X248.275Y703.404
G1 X247.404Y703.708
G1 X246.466Y704.002
G1 X245.457Y704.284
G1 X244.373Y704.556
G1 X243.21Y704.818
G1 X241.965Y705.07
G1 X240.634Y705.314
G1 X239.213Y705.549
G1 X237.7Y705.776
G1 X236.09Y705.995
G1 X235.248Y706.102
G1 X234.38Y706.207
G1 X233.486Y706.311
G1 X232.565Y706.413
G1 X231.618Y706.514
G1 X230.644Y706.612
G1 X229.641Y706.71
G1 X228.611Y706.806
G1 X227.551Y706.901
G1 X226.463Y706.995
G1 X225.345Y707.087
G1 X224.197Y707.179
G1 X223.018Y707.269
G1 X221.808Y707.358
G1 X220.567Y707.446
G1 X219.294Y707.534
G1 X217.989Y707.62
G1 X216.651Y707.706
G1 X215.28Y707.791
G1 X213.875Y707.875
G1 X212.435Y707.959
G1 X210.962Y708.042
G1 X209.453Y708.125
G1 X207.909Y708.208
G1 X206.328Y708.289
G1 X204.712Y708.371
G1 X203.058Y708.453
G1 X199.639Y708.615
G1 X196.067Y708.777
G1 X168.794Y709.965
G1 X164.592Y719.964
G1 X163.616Y722.279
G1 X162.66Y724.542
G1 X161.723Y726.752
G1 X160.806Y728.91
G1 X159.909Y731.017
G1 X159.03Y733.072
G1 X158.169Y735.078
G1 X157.327Y737.034
G1 X156.502Y738.94
G1 X155.695Y740.799
G1 X154.906Y742.609
G1 X154.133Y744.372
G1 X153.377Y746.088
G1 X152.638Y747.758
G1 X151.915Y749.383
G1 X151.207Y750.962
G1 X150.514Y752.497
G1 X149.837Y753.989
G1 X149.175Y755.437
G1 X148.527Y756.842
G1 X147.894Y758.206
G1 X147.274Y759.528
G1 X146.668Y760.809
G1 X146.075Y762.05
G1 X145.495Y763.251
G1 X144.928Y764.413
G1 X144.373Y765.536
G1 X143.83Y766.622
G1 X143.299Y767.67
G1 X142.779Y768.682
G1 X142.27Y769.657
G1 X141.773Y770.597
G1 X141.285Y771.501
G1 X140.808Y772.372
G1 X140.341Y773.208
G1 X139.884Y774.011
G1 X139.435Y774.782
G1 X138.996Y775.521
G1 X138.565Y776.228
G1 X138.143Y776.904
G1 X137.728Y777.549
G1 X137.322Y778.166
G1 X136.922Y778.753
G1 X136.53Y779.311
G1 X136.145Y779.842
G1 X135.766Y780.345
G1 X135.394Y780.821
G1 X135.027Y781.271
G1 X134.666Y781.696
G1 X134.31Y782.095
G1 X133.959Y782.47
G1 X133.27Y783.149
G1 X132.598Y783.738
G1 X131.939Y784.24
G1 X131.292Y784.661
G1 X130.653Y785.006
G1 X130.021Y785.279
G1 X129.445Y785.482
G1 X128.902Y785.643
G1 X128.386Y785.759
G1 X127.892Y785.829
G1 X127.415Y785.851
G1 X126.951Y785.823
G1 X126.494Y785.744
G1 X126.039Y785.611
G1 X125.581Y785.424
G1 X125.116Y785.18
G1 X124.639Y784.878
G1 X124.144Y784.515
G1 X123.626Y784.091
G1 X123.081Y783.603
G1 X122.504Y783.049
G1 X121.889Y782.429
G1 X121.411Y781.916
G1 X120.929Y781.356
G1 X120.439Y780.745
G1 X119.942Y780.082
G1 X119.437Y779.363
G1 X118.921Y778.586
G1 X118.393Y777.748
G1 X117.854Y776.846
G1 X117.3Y775.879
G1 X116.732Y774.842
G1 X116.148Y773.735
G1 X115.547Y772.553
G1 X114.927Y771.294
G1 X114.288Y769.957
G1 X113.628Y768.537
G1 X112.946Y767.033
G1 X112.241Y765.442
G1 X111.512Y763.76
G1 X110.757Y761.987
G1 X109.976Y760.118
G1 X109.575Y759.147
G1 X109.167Y758.152
G1 X108.751Y757.131
G1 X108.329Y756.085
G1 X107.898Y755.013
G1 X107.46Y753.915
G1 X107.015Y752.791
G1 X106.561Y751.639
G1 X106.099Y750.461
G1 X105.629Y749.256
G1 X105.15Y748.022
G1 X104.663Y746.761
G1 X104.167Y745.471
G1 X103.149Y742.805
G1 X102.093Y740.021
G1 X101Y737.118
G1 X99.868Y734.091
G1 X98.696Y730.94
G1 X95.147Y721.356
G1 X91.494Y711.521
G1 X90.214Y708.129
G1 X62.524Y705.509
G1 X55.467Y704.835
G1 X50.473Y704.348
G1 X47.079Y704.009
G1 X43.964Y703.69
G1 X42.034Y703.488
G1 X40.214Y703.292
G1 X38.499Y703.103
G1 X36.883Y702.919
G1 X35.36Y702.739
G1 X33.925Y702.564
G1 X32.573Y702.392
G1 X31.298Y702.222
G1 X30.093Y702.054
G1 X28.955Y701.887
G1 X27.876Y701.72
G1 X26.851Y701.552
G1 X25.876Y701.383
G1 X24.943Y701.211
G1 X24.049Y701.037
G1 X23.186Y700.859
G1 X21.534Y700.489
G1 X19.942Y700.095
G1 X18.367Y699.671
G1 X16.763Y699.211
G1 X15.956Y698.97
G1 X15.185Y698.735
G1 X14.451Y698.503
G1 X13.75Y698.276
G1 X13.084Y698.051
G1 X12.452Y697.828
G1 X11.851Y697.608
G1 X11.282Y697.389
G1 X10.744Y697.171
G1 X10.237Y696.953
G1 X9.758Y696.735
G1 X9.308Y696.516
G1 X8.886Y696.296
G1 X8.491Y696.074
G1 X8.122Y695.85
G1 X7.778Y695.623
G1 X7.164Y695.157
G1 X6.641Y694.674
G1 X6.205Y694.167
G1 X5.848Y693.634
G1 X5.565Y693.07
G1 X5.349Y692.47
G1 X5.193Y691.831
G1 X5.092Y691.147
G1 X5.048Y690.705
G1 X5.016Y690.304
G1 X5Y689.935
G1 Y689.591
G1 X5.025Y689.264
G1 X5.071Y688.946
G1 X5.144Y688.63
G1 X5.246Y688.309
G1 X5.38Y687.973
G1 X5.548Y687.617
G1 X5.754Y687.232
G1 X5.999Y686.81
G1 X6.288Y686.344
G1 X6.622Y685.827
G1 X7.005Y685.25
G1 X7.438Y684.606
G1 X7.907Y683.931
G1 X8.411Y683.241
G1 X8.952Y682.535
G1 X9.532Y681.811
G1 X10.155Y681.065
G1 X10.821Y680.298
G1 X11.533Y679.506
G1 X12.295Y678.687
G1 X13.106Y677.84
G1 X13.971Y676.963
G1 X14.891Y676.052
G1 X15.868Y675.108
G1 X16.905Y674.127
G1 X18.004Y673.107
G1 X19.168Y672.047
G1 X20.397Y670.945
G1 X21.696Y669.798
G1 X23.065Y668.604
G1 X24.507Y667.362
G1 X26.025Y666.07
G1 X27.621Y664.725
G1 X29.296Y663.325
G1 X30.164Y662.605
G1 X31.054Y661.87
G1 X31.964Y661.12
G1 X32.896Y660.355
G1 X33.849Y659.576
G1 X34.824Y658.781
G1 X36.842Y657.143
G1 X38.95Y655.442
G1 X41.152Y653.674
G1 X43.45Y651.837
G1 X45.845Y649.93
G1 X48.34Y647.951
G1 X52.551Y644.62
G1 X54.121Y643.369
G1 X55.642Y642.151
G1 X57.105Y640.973
G1 X58.501Y639.841
G1 X59.822Y638.762
G1 X60.452Y638.245
G1 X61.645Y637.259
G1 X62.743Y636.344
G1 X63.737Y635.507
G1 X64.193Y635.12
G1 X64.619Y634.754
G1 X65.015Y634.411
G1 X65.381Y634.093
G1 X65.714Y633.798
G1 X66.014Y633.529
G1 X66.279Y633.287
G1 X66.509Y633.071
G1 X66.703Y632.884
G1 X66.86Y632.725
G1 X66.978Y632.596
G1 X67.057Y632.498
G1 X67.096Y632.432
G1 X67.107Y632.356
G1 Y632.23
G1 X67.096Y632.055
G1 X67.073Y631.833
G1 X67.039Y631.566
G1 X66.994Y631.254
G1 X66.939Y630.898
G1 X66.873Y630.501
G1 X66.798Y630.063
G1 X66.713Y629.586
G1 X66.618Y629.07
G1 X66.514Y628.518
G1 X66.401Y627.931
G1 X66.28Y627.31
G1 X66.012Y625.971
G1 X65.713Y624.511
G1 X65.385Y622.942
G1 X65.03Y621.274
G1 X64.65Y619.517
G1 X64.247Y617.683
G1 X63.823Y615.781
G1 X63.381Y613.822
G1 X62.552Y610.201
G1 X61.833Y607.052
G1 X61.145Y604.013
G1 X60.488Y601.08
G1 X59.862Y598.251
G1 X59.266Y595.525
G1 X58.699Y592.9
G1 X58.427Y591.625
G1 X58.163Y590.374
G1 X57.905Y589.147
G1 X57.411Y586.764
G1 X56.947Y584.474
G1 X56.51Y582.276
G1 X56.101Y580.167
G1 X55.72Y578.145
G1 X55.366Y576.208
G1 X55.039Y574.354
G1 X54.738Y572.581
G1 X54.464Y570.887
G1 X54.215Y569.269
G1 X53.992Y567.727
G1 X53.794Y566.256
G1 X53.621Y564.857
G1 X53.472Y563.526
G1 X53.348Y562.261
G1 X53.247Y561.06
G1 X53.17Y559.922
G1 X53.115Y558.844
G1 X53.084Y557.824
G1 Y556.86
G1 Y555.95
G1 X53.122Y555.092
G1 X53.178Y554.284
G1 X53.255Y553.524
G1 X53.329Y552.922
G1 X53.404Y552.376
G1 X53.48Y551.879
G1 X53.56Y551.428
G1 X53.647Y551.018
G1 X53.741Y550.643
G1 X53.845Y550.299
G1 X53.961Y549.98
G1 X54.236Y549.401
G1 X54.581Y548.867
; Layer WorkSpace Pass 2 of 10
G1 X54.785Y548.604
G1 X55.013Y548.338
G1 X55.266Y548.064
G1 X55.546Y547.776
G1 X56.043Y547.317
G1 X56.557Y546.925
G1 X57.096Y546.602
G1 X57.667Y546.347
G1 X58.276Y546.161
G1 X58.932Y546.046
G1 X59.642Y546
G1 X60.413Y546.025
G1 X60.823Y546.065
G1 X61.252Y546.122
G1 X61.699Y546.198
G1 X62.166Y546.291
G1 X62.653Y546.403
G1 X63.163Y546.533
G1 X63.694Y546.681
G1 X64.249Y546.847
G1 X64.829Y547.032
G1 X65.433Y547.235
G1 X66.064Y547.457
G1 X66.721Y547.698
G1 X67.407Y547.957
G1 X68.121Y548.235
G1 X68.865Y548.532
G1 X69.64Y548.847
G1 X71.18Y549.493
G1 X72.674Y550.148
G1 X74.162Y550.837
G1 X75.682Y551.582
G1 X76.467Y551.984
G1 X77.274Y552.408
G1 X78.109Y552.858
G1 X78.976Y553.337
G1 X79.881Y553.848
G1 X80.827Y554.393
G1 X81.821Y554.976
G1 X82.866Y555.599
G1 X83.968Y556.266
G1 X85.131Y556.979
G1 X86.361Y557.741
G1 X87.662Y558.555
G1 X89.039Y559.424
G1 X90.497Y560.351
G1 X91.257Y560.837
G1 X92.846Y561.856
G1 X94.527Y562.941
G1 X97.234Y564.696
G1 X100.178Y566.615
G1 X104.499Y569.443
G1 X112.834Y574.92
G1 X115.016Y576.35
G1 X118.152Y578.398
G1 X121.09Y580.308
G1 X123.79Y582.055
G1 X126.214Y583.614
G1 X127.657Y584.537
G1 X128.95Y585.358
G1 X130.08Y586.07
G1 X131.035Y586.666
G1 X131.444Y586.918
G1 X131.806Y587.138
G1 X132.117Y587.325
G1 X132.379Y587.478
G1 X132.588Y587.597
G1 X132.744Y587.681
G1 X132.844Y587.728
G1 X132.889
G1 X148.529Y578.241
G1 X150.39Y577.115
G1 X152.215Y576.014
G1 X154.003Y574.939
G1 X155.754Y573.889
G1 X157.469Y572.864
G1 X159.148Y571.864
G1 X160.792Y570.889
G1 X162.402Y569.938
G1 X163.977Y569.012
G1 X165.517Y568.11
G1 X167.024Y567.232
G1 X168.498Y566.377
G1 X169.939Y565.546
G1 X171.348Y564.739
G1 X172.724Y563.955
G1 X174.069Y563.193
G1 X175.383Y562.455
G1 X176.666Y561.739
G1 X177.919Y561.046
G1 X179.141Y560.375
G1 X180.334Y559.726
G1 X181.498Y559.099
G1 X182.633Y558.493
G1 X183.74Y557.909
G1 X184.819Y557.346
G1 X185.87Y556.805
G1 X186.894Y556.284
G1 X187.892Y555.784
G1 X188.863Y555.304
G1 X189.808Y554.845
G1 X190.728Y554.406
G1 X191.622Y553.987
G1 X192.492Y553.587
G1 X193.338Y553.207
G1 X194.16Y552.846
G1 X194.958Y552.505
G1 X195.733Y552.182
G1 X196.486Y551.879
G1 X197.216Y551.594
G1 X197.924Y551.327
G1 X198.611Y551.078
G1 X199.277Y550.848
G1 X199.923Y550.635
G1 X200.548Y550.44
G1 X201.153Y550.262
G1 X201.739Y550.101
G1 X202.306Y549.958
G1 X203.385Y549.721
G1 X204.392Y549.551
G1 X205.332Y549.444
G1 X206.207Y549.4
G1 X207.021Y549.418
G1 X207.777Y549.495
G1 X208.478Y549.63
G1 X209.127Y549.822
G1 X209.578Y550.03
G1 X210.015Y550.327
G1 X210.437Y550.707
G1 X210.841Y551.164
G1 X211.225Y551.691
G1 X211.584Y552.281
G1 X211.918Y552.928
G1 X212.223Y553.625
G1 X212.496Y554.366
G1 X212.735Y555.143
G1 X212.938Y555.95
G1 X213.101Y556.781
G1 X213.222Y557.629
G1 X213.298Y558.488
G1 X213.327Y559.35
G1 X213.305Y560.209
G1 X213.246Y561.132
G1 X213.17Y562.088
G1 X213.075Y563.081
G1 X212.962Y564.111
G1 X212.829Y565.182
G1 X212.676Y566.296
G1 X212.503Y567.453
G1 X212.31Y568.658
G1 X212.095Y569.912
G1 X211.859Y571.217
G1 X211.6Y572.575
G1 X211.318Y573.988
G1 X211.014Y575.46
G1 X210.685Y576.991
G1 X210.332Y578.584
G1 X209.955Y580.242
G1 X209.552Y581.966
G1 X209.123Y583.758
G1 X208.669Y585.622
G1 X208.187Y587.558
G1 X207.678Y589.569
G1 X207.141Y591.658
G1 X206.576Y593.826
G1 X205.982Y596.076
G1 X205.359Y598.409
G1 X204.706Y600.829
G1 X204.023Y603.337
G1 X203.309Y605.935
G1 X202.564Y608.626
G1 X201.787Y611.411
G1 X201.386Y612.84
G1 X200.561Y615.771
G1 X194.94Y635.617
G1 X214.077Y652.397
G1 X218.053Y655.894
G1 X222.017Y659.401
G1 X223.962Y661.128
G1 X225.864Y662.823
G1 X227.71Y664.473
G1 X229.489Y666.066
G1 X231.185Y667.591
G1 X232.786Y669.036
G1 X234.28Y670.389
G1 X235.652Y671.638
G1 X236.89Y672.772
G1 X237.981Y673.779
G1 X238.911Y674.647
G1 X239.312Y675.026
G1 X239.668Y675.365
G1 X240.654Y676.32
G1 X241.613Y677.268
G1 X242.543Y678.207
G1 X243.444Y679.137
G1 X244.315Y680.057
G1 X245.156Y680.967
G1 X245.967Y681.865
G1 X246.747Y682.75
G1 X247.496Y683.623
G1 X248.213Y684.483
G1 X248.897Y685.328
G1 X249.548Y686.158
G1 X250.166Y686.972
G1 X250.751Y687.77
G1 X251.301Y688.551
G1 X251.816Y689.314
G1 X252.296Y690.058
G1 X252.74Y690.783
G1 X253.148Y691.487
G1 X253.52Y692.171
G1 X253.854Y692.833
G1 X254.151Y693.474
G1 X254.409Y694.091
G1 X254.629Y694.684
G1 X254.81Y695.253
G1 X254.951Y695.797
G1 X255.052Y696.315
G1 X255.113Y696.806
G1 X255.133Y697.27
G1 X255.111Y697.706
G1 X255.047Y698.113
G1 X254.941Y698.49
G1 X254.816Y698.749
G1 X254.61Y699.058
G1 X254.333Y699.406
G1 X253.997Y699.78
G1 X253.613Y700.169
G1 X253.192Y700.562
G1 X252.743Y700.946
G1 X252.28Y701.312
G1 X251.739Y701.694
G1 X251.153Y702.063
G1 X250.517Y702.417
G1 X249.827Y702.759
G1 X249.081Y703.087
G1 X248.275Y703.404
G1 X247.404Y703.708
G1 X246.466Y704.002
G1 X245.457Y704.284
G1 X244.373Y704.556
G1 X243.21Y704.818
G1 X241.965Y705.07
G1 X240.634Y705.314
G1 X239.213Y705.549
G1 X237.7Y705.776
G1 X236.09Y705.995
G1 X235.248Y706.102
G1 X234.38Y706.207
G1 X233.486Y706.311
G1 X232.565Y706.413
G1 X231.618Y706.514
G1 X230.644Y706.612
G1 X229.641Y706.71
G1 X228.611Y706.806
G1 X227.551Y706.901
G1 X226.463Y706.995
G1 X225.345Y707.087
G1 X224.197Y707.179
G1 X223.018Y707.269
G1 X221.808Y707.358
G1 X220.567Y707.446
G1 X219.294Y707.534
G1 X217.989Y707.62
G1 X216.651Y707.706
G1 X215.28Y707.791
G1 X213.875Y707.875
G1 X212.435Y707.959
G1 X210.962Y708.042
G1 X209.453Y708.125
G1 X207.909Y708.208
G1 X206.328Y708.289
G1 X204.712Y708.371
G1 X203.058Y708.453
G1 X199.639Y708.615
G1 X196.067Y708.777
G1 X168.794Y709.965
G1 X164.592Y719.964
G1 X163.616Y722.279
G1 X162.66Y724.542
G1 X161.723Y726.752
G1 X160.806Y728.91
G1 X159.909Y731.017
G1 X159.03Y733.072
G1 X158.169Y735.078
G1 X157.327Y737.034
G1 X156.502Y738.94
G1 X155.695Y740.799
G1 X154.906Y742.609
G1 X154.133Y744.372
G1 X153.377Y746.088
G1 X152.638Y747.758
G1 X151.915Y749.383
G1 X151.207Y750.962
G1 X150.514Y752.497
G1 X149.837Y753.989
G1 X149.175Y755.437
G1 X148.527Y756.842
G1 X147.894Y758.206
G1 X147.274Y759.528
G1 X146.668Y760.809
G1 X146.075Y762.05
G1 X145.495Y763.251
G1 X144.928Y764.413
G1 X144.373Y765.536
G1 X143.83Y766.622
G1 X143.299Y767.67
G1 X142.779Y768.682
G1 X142.27Y769.657
G1 X141.773Y770.597
G1 X141.285Y771.501
G1 X140.808Y772.372
G1 X140.341Y773.208
G1 X139.884Y774.011
G1 X139.435Y774.782
G1 X138.996Y775.521
G1 X138.565Y776.228
G1 X138.143Y776.904
G1 X137.728Y777.549
G1 X137.322Y778.166
G1 X136.922Y778.753
G1 X136.53Y779.311
G1 X136.145Y779.842
G1 X135.766Y780.345
G1 X135.394Y780.821
G1 X135.027Y781.271
G1 X134.666Y781.696
G1 X134.31Y782.095
G1 X133.959Y782.47
G1 X133.27Y783.149
G1 X132.598Y783.738
G1 X131.939Y784.24
G1 X131.292Y784.661
G1 X130.653Y785.006
G1 X130.021Y785.279
G1 X129.445Y785.482
G1 X128.902Y785.643
G1 X128.386Y785.759
G1 X127.892Y785.829
G1 X127.415Y785.851
G1 X126.951Y785.823
G1 X126.494Y785.744
G1 X126.039Y785.611
G1 X125.581Y785.424
G1 X125.116Y785.18
G1 X124.639Y784.878
G1 X124.144Y784.515
G1 X123.626Y784.091
G1 X123.081Y783.603
G1 X122.504Y783.049
G1 X121.889Y782.429
G1 X121.411Y781.916
G1 X120.929Y781.356
G1 X120.439Y780.745
G1 X119.942Y780.082
G1 X119.437Y779.363
G1 X118.921Y778.586
G1 X118.393Y777.748
G1 X117.854Y776.846
G1 X117.3Y775.879
G1 X116.732Y774.842
G1 X116.148Y773.735
G1 X115.547Y772.553
G1 X114.927Y771.294
G1 X114.288Y769.957
G1 X113.628Y768.537
G1 X112.946Y767.033
G1 X112.241Y765.442
G1 X111.512Y763.76
G1 X110.757Y761.987
G1 X109.976Y760.118
G1 X109.575Y759.147
G1 X109.167Y758.152
G1 X108.751Y757.131
G1 X108.329Y756.085
G1 X107.898Y755.013
G1 X107.46Y753.915
G1 X107.015Y752.791
G1 X106.561Y751.639
G1 X106.099Y750.461
G1 X105.629Y749.256
G1 X105.15Y748.022
G1 X104.663Y746.761
G1 X104.167Y745.471
G1 X103.149Y742.805
G1 X102.093Y740.021
G1 X101Y737.118
G1 X99.868Y734.091
G1 X98.696Y730.94
G1 X95.147Y721.356
G1 X91.494Y711.521
G1 X90.214Y708.129
G1 X62.524Y705.509
G1 X55.467Y704.835
G1 X50.473Y704.348
G1 X47.079Y704.009
G1 X43.964Y703.69
G1 X42.034Y703.488
G1 X40.214Y703.292
G1 X38.499Y703.103
G1 X36.883Y702.919
G1 X35.36Y702.739
G1 X33.925Y702.564
G1 X32.573Y702.392
G1 X31.298Y702.222
G1 X30.093Y702.054
G1 X28.955Y701.887
G1 X27.876Y701.72
G1 X26.851Y701.552
G1 X25.876Y701.383
G1 X24.943Y701.211
G1 X24.049Y701.037
G1 X23.186Y700.859
G1 X21.534Y700.489
G1 X19.942Y700.095
G1 X18.367Y699.671
G1 X16.763Y699.211
G1 X15.956Y698.97
G1 X15.185Y698.735
G1 X14.451Y698.503
G1 X13.75Y698.276
G1 X13.084Y698.051
G1 X12.452Y697.828
G1 X11.851Y697.608
G1 X11.282Y697.389
G1 X10.744Y697.171
G1 X10.237Y696.953
G1 X9.758Y696.735
G1 X9.308Y696.516
G1 X8.886Y696.296
G1 X8.491Y696.074
G1 X8.122Y695.85
G1 X7.778Y695.623
G1 X7.164Y695.157
G1 X6.641Y694.674
G1 X6.205Y694.167
G1 X5.848Y693.634
G1 X5.565Y693.07
G1 X5.349Y692.47
G1 X5.193Y691.831
G1 X5.092Y691.147
G1 X5.048Y690.705
G1 X5.016Y690.304
G1 X5Y689.935
G1 Y689.591
G1 X5.025Y689.264
G1 X5.071Y688.946
G1 X5.144Y688.63
G1 X5.246Y688.309
G1 X5.38Y687.973
G1 X5.548Y687.617
G1 X5.754Y687.232
G1 X5.999Y686.81
G1 X6.288Y686.344
G1 X6.622Y685.827
G1 X7.005Y685.25
G1 X7.438Y684.606
G1 X7.907Y683.931
G1 X8.411Y683.241
G1 X8.952Y682.535
G1 X9.532Y681.811
G1 X10.155Y681.065
G1 X10.821Y680.298
G1 X11.533Y679.506
G1 X12.295Y678.687
G1 X13.106Y677.84
G1 X13.971Y676.963
G1 X14.891Y676.052
G1 X15.868Y675.108
G1 X16.905Y674.127
G1 X18.004Y673.107
G1 X19.168Y672.047
G1 X20.397Y670.945
G1 X21.696Y669.798
G1 X23.065Y668.604
G1 X24.507Y667.362
G1 X26.025Y666.07
G1 X27.621Y664.725
G1 X29.296Y663.325
G1 X30.164Y662.605
G1 X31.054Y661.87
G1 X31.964Y661.12
G1 X32.896Y660.355
G1 X33.849Y659.576
G1 X34.824Y658.781
G1 X36.842Y657.143
G1 X38.95Y655.442
G1 X41.152Y653.674
G1 X43.45Y651.837
G1 X45.845Y649.93
G1 X48.34Y647.951
G1 X52.551Y644.62
G1 X54.121Y643.369
G1 X55.642Y642.151
G1 X57.105Y640.973
G1 X58.501Y639.841
G1 X59.822Y638.762
G1 X60.452Y638.245
G1 X61.645Y637.259
G1 X62.743Y636.344
G1 X63.737Y635.507
G1 X64.193Y635.12
G1 X64.619Y634.754
G1 X65.015Y634.411
G1 X65.381Y634.093
G1 X65.714Y633.798
G1 X66.014Y633.529
G1 X66.279Y633.287
G1 X66.509Y633.071
G1 X66.703Y632.884
G1 X66.86Y632.725
G1 X66.978Y632.596
G1 X67.057Y632.498
G1 X67.096Y632.432
G1 X67.107Y632.356
G1 Y632.23
G1 X67.096Y632.055
G1 X67.073Y631.833
G1 X67.039Y631.566
G1 X66.994Y631.254
G1 X66.939Y630.898
G1 X66.873Y630.501
G1 X66.798Y630.063
G1 X66.713Y629.586
G1 X66.618Y629.07
G1 X66.514Y628.518
G1 X66.401Y627.931
G1 X66.28Y627.31
G1 X66.012Y625.971
G1 X65.713Y624.511
G1 X65.385Y622.942
G1 X65.03Y621.274
G1 X64.65Y619.517
G1 X64.247Y617.683
G1 X63.823Y615.781
G1 X63.381Y613.822
G1 X62.552Y610.201
G1 X61.833Y607.052
G1 X61.145Y604.013
G1 X60.488Y601.08
G1 X59.862Y598.251
G1 X59.266Y595.525
G1 X58.699Y592.9
G1 X58.427Y591.625
G1 X58.163Y590.374
G1 X57.905Y589.147
G1 X57.411Y586.764
G1 X56.947Y584.474
G1 X56.51Y582.276
G1 X56.101Y580.167
G1 X55.72Y578.145
G1 X55.366Y576.208
G1 X55.039Y574.354
G1 X54.738Y572.581
G1 X54.464Y570.887
G1 X54.215Y569.269
G1 X53.992Y567.727
G1 X53.794Y566.256
G1 X53.621Y564.857
G1 X53.472Y563.526
G1 X53.348Y562.261
G1 X53.247Y561.06
G1 X53.17Y559.922
G1 X53.115Y558.844
G1 X53.084Y557.824
G1 Y556.86
G1 Y555.95
G1 X53.122Y555.092
G1 X53.178Y554.284
G1 X53.255Y553.524
G1 X53.329Y552.922
G1 X53.404Y552.376
G1 X53.48Y551.879
G1 X53.56Y551.428
G1 X53.647Y551.018
G1 X53.741Y550.643
G1 X53.845Y550.299
G1 X53.961Y549.98
G1 X54.236Y549.401
G1 X54.581Y548.867
; Layer WorkSpace Pass 3 of 10
G1 X54.785Y548.604
G1 X55.013Y548.338
G1 X55.266Y548.064
G1 X55.546Y547.776
G1 X56.043Y547.317
G1 X56.557Y546.925
G1 X57.096Y546.602
G1 X57.667Y546.347
G1 X58.276Y546.161
G1 X58.932Y546.046
G1 X59.642Y546
G1 X60.413Y546.025
G1 X60.823Y546.065
G1 X61.252Y546.122
G1 X61.699Y546.198
G1 X62.166Y546.291
G1 X62.653Y546.403
G1 X63.163Y546.533
G1 X63.694Y546.681
G1 X64.249Y546.847
G1 X64.829Y547.032
G1 X65.433Y547.235
G1 X66.064Y547.457
G1 X66.721Y547.698
G1 X67.407Y547.957
G1 X68.121Y548.235
G1 X68.865Y548.532
G1 X69.64Y548.847
G1 X71.18Y549.493
G1 X72.674Y550.148
G1 X74.162Y550.837
G1 X75.682Y551.582
G1 X76.467Y551.984
G1 X77.274Y552.408
G1 X78.109Y552.858
G1 X78.976Y553.337
G1 X79.881Y553.848
G1 X80.827Y554.393
G1 X81.821Y554.976
G1 X82.866Y555.599
G1 X83.968Y556.266
G1 X85.131Y556.979
G1 X86.361Y557.741
G1 X87.662Y558.555
G1 X89.039Y559.424
G1 X90.497Y560.351
G1 X91.257Y560.837
G1 X92.846Y561.856
G1 X94.527Y562.941
G1 X97.234Y564.696
G1 X100.178Y566.615
G1 X104.499Y569.443
G1 X112.834Y574.92
G1 X115.016Y576.35
G1 X118.152Y578.398
G1 X121.09Y580.308
G1 X123.79Y582.055
G1 X126.214Y583.614
G1 X127.657Y584.537
G1 X128.95Y585.358
G1 X130.08Y586.07
G1 X131.035Y586.666
G1 X131.444Y586.918
G1 X131.806Y587.138
G1 X132.117Y587.325
G1 X132.379Y587.478
G1 X132.588Y587.597
G1 X132.744Y587.681
G1 X132.844Y587.728
G1 X132.889
G1 X148.529Y578.241
G1 X150.39Y577.115
G1 X152.215Y576.014
G1 X154.003Y574.939
G1 X155.754Y573.889
G1 X157.469Y572.864
G1 X159.148Y571.864
G1 X160.792Y570.889
G1 X162.402Y569.938
G1 X163.977Y569.012
G1 X165.517Y568.11
G1 X167.024Y567.232
G1 X168.498Y566.377
G1 X169.939Y565.546
G1 X171.348Y564.739
G1 X172.724Y563.955
G1 X174.069Y563.193
G1 X175.383Y562.455
G1 X176.666Y561.739
G1 X177.919Y561.046
G1 X179.141Y560.375
G1 X180.334Y559.726
G1 X181.498Y559.099
G1 X182.633Y558.493
G1 X183.74Y557.909
G1 X184.819Y557.346
G1 X185.87Y556.805
G1 X186.894Y556.284
G1 X187.892Y555.784
G1 X188.863Y555.304
G1 X189.808Y554.845
G1 X190.728Y554.406
G1 X191.622Y553.987
G1 X192.492Y553.587
G1 X193.338Y553.207
G1 X194.16Y552.846
G1 X194.958Y552.505
G1 X195.733Y552.182
G1 X196.486Y551.879
G1 X197.216Y551.594
G1 X197.924Y551.327
G1 X198.611Y551.078
G1 X199.277Y550.848
G1 X199.923Y550.635
G1 X200.548Y550.44
G1 X201.153Y550.262
G1 X201.739Y550.101
G1 X202.306Y549.958
G1 X203.385Y549.721
G1 X204.392Y549.551
G1 X205.332Y549.444
G1 X206.207Y549.4
G1 X207.021Y549.418
G1 X207.777Y549.495
G1 X208.478Y549.63
G1 X209.127Y549.822
G1 X209.578Y550.03
G1 X210.015Y550.327
G1 X210.437Y550.707
G1 X210.841Y551.164
G1 X211.225Y551.691
G1 X211.584Y552.281
G1 X211.918Y552.928
G1 X212.223Y553.625
G1 X212.496Y554.366
G1 X212.735Y555.143
G1 X212.938Y555.95
G1 X213.101Y556.781
G1 X213.222Y557.629
G1 X213.298Y558.488
G1 X213.327Y559.35
G1 X213.305Y560.209
G1 X213.246Y561.132
G1 X213.17Y562.088
G1 X213.075Y563.081
G1 X212.962Y564.111
G1 X212.829Y565.182
G1 X212.676Y566.296
G1 X212.503Y567.453
G1 X212.31Y568.658
G1 X212.095Y569.912
G1 X211.859Y571.217
G1 X211.6Y572.575
G1 X211.318Y573.988
G1 X211.014Y575.46
G1 X210.685Y576.991
G1 X210.332Y578.584
G1 X209.955Y580.242
G1 X209.552Y581.966
G1 X209.123Y583.758
G1 X208.669Y585.622
G1 X208.187Y587.558
G1 X207.678Y589.569
G1 X207.141Y591.658
G1 X206.576Y593.826
G1 X205.982Y596.076
G1 X205.359Y598.409
G1 X204.706Y600.829
G1 X204.023Y603.337
G1 X203.309Y605.935
G1 X202.564Y608.626
G1 X201.787Y611.411
G1 X201.386Y612.84
G1 X200.561Y615.771
G1 X194.94Y635.617
G1 X214.077Y652.397
G1 X218.053Y655.894
G1 X222.017Y659.401
G1 X223.962Y661.128
G1 X225.864Y662.823
G1 X227.71Y664.473
G1 X229.489Y666.066
G1 X231.185Y667.591
G1 X232.786Y669.036
G1 X234.28Y670.389
G1 X235.652Y671.638
G1 X236.89Y672.772
G1 X237.981Y673.779
G1 X238.911Y674.647
G1 X239.312Y675.026
G1 X239.668Y675.365
G1 X240.654Y676.32
G1 X241.613Y677.268
G1 X242.543Y678.207
G1 X243.444Y679.137
G1 X244.315Y680.057
G1 X245.156Y680.967
G1 X245.967Y681.865
G1 X246.747Y682.75
G1 X247.496Y683.623
G1 X248.213Y684.483
G1 X248.897Y685.328
G1 X249.548Y686.158
G1 X250.166Y686.972
G1 X250.751Y687.77
G1 X251.301Y688.551
G1 X251.816Y689.314
G1 X252.296Y690.058
G1 X252.74Y690.783
G1 X253.148Y691.487
G1 X253.52Y692.171
G1 X253.854Y692.833
G1 X254.151Y693.474
G1 X254.409Y694.091
G1 X254.629Y694.684
G1 X254.81Y695.253
G1 X254.951Y695.797
G1 X255.052Y696.315
G1 X255.113Y696.806
G1 X255.133Y697.27
G1 X255.111Y697.706
G1 X255.047Y698.113
G1 X254.941Y698.49
G1 X254.816Y698.749
G1 X254.61Y699.058
G1 X254.333Y699.406
G1 X253.997Y699.78
G1 X253.613Y700.169
G1 X253.192Y700.562
G1 X252.743Y700.946
G1 X252.28Y701.312
G1 X251.739Y701.694
G1 X251.153Y702.063
G1 X250.517Y702.417
G1 X249.827Y702.759
G1 X249.081Y703.087
G1 X248.275Y703.404
G1 X247.404Y703.708
G1 X246.466Y704.002
G1 X245.457Y704.284
G1 X244.373Y704.556
G1 X243.21Y704.818
G1 X241.965Y705.07
G1 X240.634Y705.314
G1 X239.213Y705.549
G1 X237.7Y705.776
G1 X236.09Y705.995
G1 X235.248Y706.102
G1 X234.38Y706.207
G1 X233.486Y706.311
G1 X232.565Y706.413
G1 X231.618Y706.514
G1 X230.644Y706.612
G1 X229.641Y706.71
G1 X228.611Y706.806
G1 X227.551Y706.901
G1 X226.463Y706.995
G1 X225.345Y707.087
G1 X224.197Y707.179
G1 X223.018Y707.269
G1 X221.808Y707.358
G1 X220.567Y707.446
G1 X219.294Y707.534
G1 X217.989Y707.62
G1 X216.651Y707.706
G1 X215.28Y707.791
G1 X213.875Y707.875
G1 X212.435Y707.959
G1 X210.962Y708.042
G1 X209.453Y708.125
G1 X207.909Y708.208
G1 X206.328Y708.289
G1 X204.712Y708.371
G1 X203.058Y708.453
G1 X199.639Y708.615
G1 X196.067Y708.777
G1 X168.794Y709.965
G1 X164.592Y719.964
G1 X163.616Y722.279
G1 X162.66Y724.542
G1 X161.723Y726.752
G1 X160.806Y728.91
G1 X159.909Y731.017
G1 X159.03Y733.072
G1 X158.169Y735.078
G1 X157.327Y737.034
G1 X156.502Y738.94
G1 X155.695Y740.799
G1 X154.906Y742.609
G1 X154.133Y744.372
G1 X153.377Y746.088
G1 X152.638Y747.758
G1 X151.915Y749.383
G1 X151.207Y750.962
G1 X150.514Y752.497
G1 X149.837Y753.989
G1 X149.175Y755.437
G1 X148.527Y756.842
G1 X147.894Y758.206
G1 X147.274Y759.528
G1 X146.668Y760.809
G1 X146.075Y762.05
G1 X145.495Y763.251
G1 X144.928Y764.413
G1 X144.373Y765.536
G1 X143.83Y766.622
G1 X143.299Y767.67
G1 X142.779Y768.682
G1 X142.27Y769.657
G1 X141.773Y770.597
G1 X141.285Y771.501
G1 X140.808Y772.372
G1 X140.341Y773.208
G1 X139.884Y774.011
G1 X139.435Y774.782
G1 X138.996Y775.521
G1 X138.565Y776.228
G1 X138.143Y776.904
G1 X137.728Y777.549
G1 X137.322Y778.166
G1 X136.922Y778.753
G1 X136.53Y779.311
G1 X136.145Y779.842
G1 X135.766Y780.345
G1 X135.394Y780.821
G1 X135.027Y781.271
G1 X134.666Y781.696
G1 X134.31Y782.095
G1 X133.959Y782.47
G1 X133.27Y783.149
G1 X132.598Y783.738
G1 X131.939Y784.24
G1 X131.292Y784.661
G1 X130.653Y785.006
G1 X130.021Y785.279
G1 X129.445Y785.482
G1 X128.902Y785.643
G1 X128.386Y785.759
G1 X127.892Y785.829
G1 X127.415Y785.851
G1 X126.951Y785.823
G1 X126.494Y785.744
G1 X126.039Y785.611
G1 X125.581Y785.424
G1 X125.116Y785.18
G1 X124.639Y784.878
G1 X124.144Y784.515
G1 X123.626Y784.091
G1 X123.081Y783.603
G1 X122.504Y783.049
G1 X121.889Y782.429
G1 X121.411Y781.916
G1 X120.929Y781.356
G1 X120.439Y780.745
G1 X119.942Y780.082
G1 X119.437Y779.363
G1 X118.921Y778.586
G1 X118.393Y777.748
G1 X117.854Y776.846
G1 X117.3Y775.879
G1 X116.732Y774.842
G1 X116.148Y773.735
G1 X115.547Y772.553
G1 X114.927Y771.294
G1 X114.288Y769.957
G1 X113.628Y768.537
G1 X112.946Y767.033
G1 X112.241Y765.442
G1 X111.512Y763.76
G1 X110.757Y761.987
G1 X109.976Y760.118
G1 X109.575Y759.147
G1 X109.167Y758.152
G1 X108.751Y757.131
G1 X108.329Y756.085
G1 X107.898Y755.013
G1 X107.46Y753.915
G1 X107.015Y752.791
G1 X106.561Y751.639
G1 X106.099Y750.461
G1 X105.629Y749.256
G1 X105.15Y748.022
G1 X104.663Y746.761
G1 X104.167Y745.471
G1 X103.149Y742.805
G1 X102.093Y740.021
G1 X101Y737.118
G1 X99.868Y734.091
G1 X98.696Y730.94
G1 X95.147Y721.356
G1 X91.494Y711.521
G1 X90.214Y708.129
G1 X62.524Y705.509
G1 X55.467Y704.835
G1 X50.473Y704.348
G1 X47.079Y704.009
G1 X43.964Y703.69
G1 X42.034Y703.488
G1 X40.214Y703.292
G1 X38.499Y703.103
G1 X36.883Y702.919
G1 X35.36Y702.739
G1 X33.925Y702.564
G1 X32.573Y702.392
G1 X31.298Y702.222
G1 X30.093Y702.054
G1 X28.955Y701.887
G1 X27.876Y701.72
G1 X26.851Y701.552
G1 X25.876Y701.383
G1 X24.943Y701.211
G1 X24.049Y701.037
G1 X23.186Y700.859
G1 X21.534Y700.489
G1 X19.942Y700.095
G1 X18.367Y699.671
G1 X16.763Y699.211
G1 X15.956Y698.97
G1 X15.185Y698.735
G1 X14.451Y698.503
G1 X13.75Y698.276
G1 X13.084Y698.051
G1 X12.452Y697.828
G1 X11.851Y697.608
G1 X11.282Y697.389
G1 X10.744Y697.171
G1 X10.237Y696.953
G1 X9.758Y696.735
G1 X9.308Y696.516
G1 X8.886Y696.296
G1 X8.491Y696.074
G1 X8.122Y695.85
G1 X7.778Y695.623
G1 X7.164Y695.157
G1 X6.641Y694.674
G1 X6.205Y694.167
G1 X5.848Y693.634
G1 X5.565Y693.07
G1 X5.349Y692.47
G1 X5.193Y691.831
G1 X5.092Y691.147
G1 X5.048Y690.705
G1 X5.016Y690.304
G1 X5Y689.935
G1 Y689.591
G1 X5.025Y689.264
G1 X5.071Y688.946
G1 X5.144Y688.63
G1 X5.246Y688.309
G1 X5.38Y687.973
G1 X5.548Y687.617
G1 X5.754Y687.232
G1 X5.999Y686.81
G1 X6.288Y686.344
G1 X6.622Y685.827
G1 X7.005Y685.25
G1 X7.438Y684.606
G1 X7.907Y683.931
G1 X8.411Y683.241
G1 X8.952Y682.535
G1 X9.532Y681.811
G1 X10.155Y681.065
G1 X10.821Y680.298
G1 X11.533Y679.506
G1 X12.295Y678.687
G1 X13.106Y677.84
G1 X13.971Y676.963
G1 X14.891Y676.052
G1 X15.868Y675.108
G1 X16.905Y674.127
G1 X18.004Y673.107
G1 X19.168Y672.047
G1 X20.397Y670.945
G1 X21.696Y669.798
G1 X23.065Y668.604
G1 X24.507Y667.362
G1 X26.025Y666.07
G1 X27.621Y664.725
G1 X29.296Y663.325
G1 X30.164Y662.605
G1 X31.054Y661.87
G1 X31.964Y661.12
G1 X32.896Y660.355
G1 X33.849Y659.576
G1 X34.824Y658.781
G1 X36.842Y657.143
G1 X38.95Y655.442
G1 X41.152Y653.674
G1 X43.45Y651.837
G1 X45.845Y649.93
G1 X48.34Y647.951
G1 X52.551Y644.62
G1 X54.121Y643.369
G1 X55.642Y642.151
G1 X57.105Y640.973
G1 X58.501Y639.841
G1 X59.822Y638.762
G1 X60.452Y638.245
G1 X61.645Y637.259
G1 X62.743Y636.344
G1 X63.737Y635.507
G1 X64.193Y635.12
G1 X64.619Y634.754
G1 X65.015Y634.411
G1 X65.381Y634.093
G1 X65.714Y633.798
G1 X66.014Y633.529
G1 X66.279Y633.287
G1 X66.509Y633.071
G1 X66.703Y632.884
G1 X66.86Y632.725
G1 X66.978Y632.596
G1 X67.057Y632.498
G1 X67.096Y632.432
G1 X67.107Y632.356
G1 Y632.23
G1 X67.096Y632.055
G1 X67.073Y631.833
G1 X67.039Y631.566
G1 X66.994Y631.254
G1 X66.939Y630.898
G1 X66.873Y630.501
G1 X66.798Y630.063
G1 X66.713Y629.586
G1 X66.618Y629.07
G1 X66.514Y628.518
G1 X66.401Y627.931
G1 X66.28Y627.31
G1 X66.012Y625.971
G1 X65.713Y624.511
G1 X65.385Y622.942
G1 X65.03Y621.274
G1 X64.65Y619.517
G1 X64.247Y617.683
G1 X63.823Y615.781
G1 X63.381Y613.822
G1 X62.552Y610.201
G1 X61.833Y607.052
G1 X61.145Y604.013
G1 X60.488Y601.08
G1 X59.862Y598.251
G1 X59.266Y595.525
G1 X58.699Y592.9
G1 X58.427Y591.625
G1 X58.163Y590.374
G1 X57.905Y589.147
G1 X57.411Y586.764
G1 X56.947Y584.474
G1 X56.51Y582.276
G1 X56.101Y580.167
G1 X55.72Y578.145
G1 X55.366Y576.208
G1 X55.039Y574.354
G1 X54.738Y572.581
G1 X54.464Y570.887
G1 X54.215Y569.269
G1 X53.992Y567.727
G1 X53.794Y566.256
G1 X53.621Y564.857
G1 X53.472Y563.526
G1 X53.348Y562.261
G1 X53.247Y561.06
G1 X53.17Y559.922
G1 X53.115Y558.844
G1 X53.084Y557.824
G1 Y556.86
G1 Y555.95
G1 X53.122Y555.092
G1 X53.178Y554.284
G1 X53.255Y553.524
G1 X53.329Y552.922
G1 X53.404Y552.376
G1 X53.48Y551.879
G1 X53.56Y551.428
G1 X53.647Y551.018
G1 X53.741Y550.643
G1 X53.845Y550.299
G1 X53.961Y549.98
G1 X54.236Y549.401
G1 X54.581Y548.867
; Layer WorkSpace Pass 4 of 10
G1 X54.785Y548.604
G1 X55.013Y548.338
G1 X55.266Y548.064
G1 X55.546Y547.776
G1 X56.043Y547.317
G1 X56.557Y546.925
G1 X57.096Y546.602
G1 X57.667Y546.347
G1 X58.276Y546.161
G1 X58.932Y546.046
G1 X59.642Y546
G1 X60.413Y546.025
G1 X60.823Y546.065
G1 X61.252Y546.122
G1 X61.699Y546.198
G1 X62.166Y546.291
G1 X62.653Y546.403
G1 X63.163Y546.533
G1 X63.694Y546.681
G1 X64.249Y546.847
G1 X64.829Y547.032
G1 X65.433Y547.235
G1 X66.064Y547.457
G1 X66.721Y547.698
G1 X67.407Y547.957
G1 X68.121Y548.235
G1 X68.865Y548.532
G1 X69.64Y548.847
G1 X71.18Y549.493
G1 X72.674Y550.148
G1 X74.162Y550.837
G1 X75.682Y551.582
G1 X76.467Y551.984
G1 X77.274Y552.408
G1 X78.109Y552.858
G1 X78.976Y553.337
G1 X79.881Y553.848
G1 X80.827Y554.393
G1 X81.821Y554.976
G1 X82.866Y555.599
G1 X83.968Y556.266
G1 X85.131Y556.979
G1 X86.361Y557.741
G1 X87.662Y558.555
G1 X89.039Y559.424
G1 X90.497Y560.351
G1 X91.257Y560.837
G1 X92.846Y561.856
G1 X94.527Y562.941
G1 X97.234Y564.696
G1 X100.178Y566.615
G1 X104.499Y569.443
G1 X112.834Y574.92
G1 X115.016Y576.35
G1 X118.152Y578.398
G1 X121.09Y580.308
G1 X123.79Y582.055
G1 X126.214Y583.614
G1 X127.657Y584.537
G1 X128.95Y585.358
G1 X130.08Y586.07
G1 X131.035Y586.666
G1 X131.444Y586.918
G1 X131.806Y587.138
G1 X132.117Y587.325
G1 X132.379Y587.478
G1 X132.588Y587.597
G1 X132.744Y587.681
G1 X132.844Y587.728
G1 X132.889
G1 X148.529Y578.241
G1 X150.39Y577.115
G1 X152.215Y576.014
G1 X154.003Y574.939
G1 X155.754Y573.889
G1 X157.469Y572.864
G1 X159.148Y571.864
G1 X160.792Y570.889
G1 X162.402Y569.938
G1 X163.977Y569.012
G1 X165.517Y568.11
G1 X167.024Y567.232
G1 X168.498Y566.377
G1 X169.939Y565.546
G1 X171.348Y564.739
G1 X172.724Y563.955
G1 X174.069Y563.193
G1 X175.383Y562.455
G1 X176.666Y561.739
G1 X177.919Y561.046
G1 X179.141Y560.375
G1 X180.334Y559.726
G1 X181.498Y559.099
G1 X182.633Y558.493
G1 X183.74Y557.909
G1 X184.819Y557.346
G1 X185.87Y556.805
G1 X186.894Y556.284
G1 X187.892Y555.784
G1 X188.863Y555.304
G1 X189.808Y554.845
G1 X190.728Y554.406
G1 X191.622Y553.987
G1 X192.492Y553.587
G1 X193.338Y553.207
G1 X194.16Y552.846
G1 X194.958Y552.505
G1 X195.733Y552.182
G1 X196.486Y551.879
G1 X197.216Y551.594
G1 X197.924Y551.327
G1 X198.611Y551.078
G1 X199.277Y550.848
G1 X199.923Y550.635
G1 X200.548Y550.44
G1 X201.153Y550.262
G1 X201.739Y550.101
G1 X202.306Y549.958
G1 X203.385Y549.721
G1 X204.392Y549.551
G1 X205.332Y549.444
G1 X206.207Y549.4
G1 X207.021Y549.418
G1 X207.777Y549.495
G1 X208.478Y549.63
G1 X209.127Y549.822
G1 X209.578Y550.03
G1 X210.015Y550.327
G1 X210.437Y550.707
G1 X210.841Y551.164
G1 X211.225Y551.691
G1 X211.584Y552.281
G1 X211.918Y552.928
G1 X212.223Y553.625
G1 X212.496Y554.366
G1 X212.735Y555.143
G1 X212.938Y555.95
G1 X213.101Y556.781
G1 X213.222Y557.629
G1 X213.298Y558.488
G1 X213.327Y559.35
G1 X213.305Y560.209
G1 X213.246Y561.132
G1 X213.17Y562.088
G1 X213.075Y563.081
G1 X212.962Y564.111
G1 X212.829Y565.182
G1 X212.676Y566.296
G1 X212.503Y567.453
G1 X212.31Y568.658
G1 X212.095Y569.912
G1 X211.859Y571.217
G1 X211.6Y572.575
G1 X211.318Y573.988
G1 X211.014Y575.46
G1 X210.685Y576.991
G1 X210.332Y578.584
G1 X209.955Y580.242
G1 X209.552Y581.966
G1 X209.123Y583.758
G1 X208.669Y585.622
G1 X208.187Y587.558
G1 X207.678Y589.569
G1 X207.141Y591.658
G1 X206.576Y593.826
G1 X205.982Y596.076
G1 X205.359Y598.409
G1 X204.706Y600.829
G1 X204.023Y603.337
G1 X203.309Y605.935
G1 X202.564Y608.626
G1 X201.787Y611.411
G1 X201.386Y612.84
G1 X200.561Y615.771
G1 X194.94Y635.617
G1 X214.077Y652.397
G1 X218.053Y655.894
G1 X222.017Y659.401
G1 X223.962Y661.128
G1 X225.864Y662.823
G1 X227.71Y664.473
G1 X229.489Y666.066
G1 X231.185Y667.591
G1 X232.786Y669.036
G1 X234.28Y670.389
G1 X235.652Y671.638
G1 X236.89Y672.772
G1 X237.981Y673.779
G1 X238.911Y674.647
G1 X239.312Y675.026
G1 X239.668Y675.365
G1 X240.654Y676.32
G1 X241.613Y677.268
G1 X242.543Y678.207
G1 X243.444Y679.137
G1 X244.315Y680.057
G1 X245.156Y680.967
G1 X245.967Y681.865
G1 X246.747Y682.75
G1 X247.496Y683.623
G1 X248.213Y684.483
G1 X248.897Y685.328
G1 X249.548Y686.158
G1 X250.166Y686.972
G1 X250.751Y687.77
G1 X251.301Y688.551
G1 X251.816Y689.314
G1 X252.296Y690.058
G1 X252.74Y690.783
G1 X253.148Y691.487
G1 X253.52Y692.171
G1 X253.854Y692.833
G1 X254.151Y693.474
G1 X254.409Y694.091
G1 X254.629Y694.684
G1 X254.81Y695.253
G1 X254.951Y695.797
G1 X255.052Y696.315
G1 X255.113Y696.806
G1 X255.133Y697.27
G1 X255.111Y697.706
G1 X255.047Y698.113
G1 X254.941Y698.49
G1 X254.816Y698.749
G1 X254.61Y699.058
G1 X254.333Y699.406
G1 X253.997Y699.78
G1 X253.613Y700.169
G1 X253.192Y700.562
G1 X252.743Y700.946
G1 X252.28Y701.312
G1 X251.739Y701.694
G1 X251.153Y702.063
G1 X250.517Y702.417
G1 X249.827Y702.759
G1 X249.081Y703.087
G1 X248.275Y703.404
G1 X247.404Y703.708
G1 X246.466Y704.002
G1 X245.457Y704.284
G1 X244.373Y704.556
G1 X243.21Y704.818
G1 X241.965Y705.07
G1 X240.634Y705.314
G1 X239.213Y705.549
G1 X237.7Y705.776
G1 X236.09Y705.995
G1 X235.248Y706.102
G1 X234.38Y706.207
G1 X233.486Y706.311
G1 X232.565Y706.413
G1 X231.618Y706.514
G1 X230.644Y706.612
G1 X229.641Y706.71
G1 X228.611Y706.806
G1 X227.551Y706.901
G1 X226.463Y706.995
G1 X225.345Y707.087
G1 X224.197Y707.179
G1 X223.018Y707.269
G1 X221.808Y707.358
G1 X220.567Y707.446
G1 X219.294Y707.534
G1 X217.989Y707.62
G1 X216.651Y707.706
G1 X215.28Y707.791
G1 X213.875Y707.875
G1 X212.435Y707.959
G1 X210.962Y708.042
G1 X209.453Y708.125
G1 X207.909Y708.208
G1 X206.328Y708.289
G1 X204.712Y708.371
G1 X203.058Y708.453
G1 X199.639Y708.615
G1 X196.067Y708.777
G1 X168.794Y709.965
G1 X164.592Y719.964
G1 X163.616Y722.279
G1 X162.66Y724.542
G1 X161.723Y726.752
G1 X160.806Y728.91
G1 X159.909Y731.017
G1 X159.03Y733.072
G1 X158.169Y735.078
G1 X157.327Y737.034
G1 X156.502Y738.94
G1 X155.695Y740.799
G1 X154.906Y742.609
G1 X154.133Y744.372
G1 X153.377Y746.088
G1 X152.638Y747.758
G1 X151.915Y749.383
G1 X151.207Y750.962
G1 X150.514Y752.497
G1 X149.837Y753.989
G1 X149.175Y755.437
G1 X148.527Y756.842
G1 X147.894Y758.206
G1 X147.274Y759.528
G1 X146.668Y760.809
G1 X146.075Y762.05
G1 X145.495Y763.251
G1 X144.928Y764.413
G1 X144.373Y765.536
G1 X143.83Y766.622
G1 X143.299Y767.67
G1 X142.779Y768.682
G1 X142.27Y769.657
G1 X141.773Y770.597
G1 X141.285Y771.501
G1 X140.808Y772.372
G1 X140.341Y773.208
G1 X139.884Y774.011
G1 X139.435Y774.782
G1 X138.996Y775.521
G1 X138.565Y776.228
G1 X138.143Y776.904
G1 X137.728Y777.549
G1 X137.322Y778.166
G1 X136.922Y778.753
G1 X136.53Y779.311
G1 X136.145Y779.842
G1 X135.766Y780.345
G1 X135.394Y780.821
G1 X135.027Y781.271
G1 X134.666Y781.696
G1 X134.31Y782.095
G1 X133.959Y782.47
G1 X133.27Y783.149
G1 X132.598Y783.738
G1 X131.939Y784.24
G1 X131.292Y784.661
G1 X130.653Y785.006
G1 X130.021Y785.279
G1 X129.445Y785.482
G1 X128.902Y785.643
G1 X128.386Y785.759
G1 X127.892Y785.829
G1 X127.415Y785.851
G1 X126.951Y785.823
G1 X126.494Y785.744
G1 X126.039Y785.611
G1 X125.581Y785.424
G1 X125.116Y785.18
G1 X124.639Y784.878
G1 X124.144Y784.515
G1 X123.626Y784.091
G1 X123.081Y783.603
G1 X122.504Y783.049
G1 X121.889Y782.429
G1 X121.411Y781.916
G1 X120.929Y781.356
G1 X120.439Y780.745
G1 X119.942Y780.082
G1 X119.437Y779.363
G1 X118.921Y778.586
G1 X118.393Y777.748
G1 X117.854Y776.846
G1 X117.3Y775.879
G1 X116.732Y774.842
G1 X116.148Y773.735
G1 X115.547Y772.553
G1 X114.927Y771.294
G1 X114.288Y769.957
G1 X113.628Y768.537
G1 X112.946Y767.033
G1 X112.241Y765.442
G1 X111.512Y763.76
G1 X110.757Y761.987
G1 X109.976Y760.118
G1 X109.575Y759.147
G1 X109.167Y758.152
G1 X108.751Y757.131
G1 X108.329Y756.085
G1 X107.898Y755.013
G1 X107.46Y753.915
G1 X107.015Y752.791
G1 X106.561Y751.639
G1 X106.099Y750.461
G1 X105.629Y749.256
G1 X105.15Y748.022
G1 X104.663Y746.761
G1 X104.167Y745.471
G1 X103.149Y742.805
G1 X102.093Y740.021
G1 X101Y737.118
G1 X99.868Y734.091
G1 X98.696Y730.94
G1 X95.147Y721.356
G1 X91.494Y711.521
G1 X90.214Y708.129
G1 X62.524Y705.509
G1 X55.467Y704.835
G1 X50.473Y704.348
G1 X47.079Y704.009
G1 X43.964Y703.69
G1 X42.034Y703.488
G1 X40.214Y703.292
G1 X38.499Y703.103
G1 X36.883Y702.919
G1 X35.36Y702.739
G1 X33.925Y702.564
G1 X32.573Y702.392
G1 X31.298Y702.222
G1 X30.093Y702.054
G1 X28.955Y701.887
G1 X27.876Y701.72
G1 X26.851Y701.552
G1 X25.876Y701.383
G1 X24.943Y701.211
G1 X24.049Y701.037
G1 X23.186Y700.859
G1 X21.534Y700.489
G1 X19.942Y700.095
G1 X18.367Y699.671
G1 X16.763Y699.211
G1 X15.956Y698.97
G1 X15.185Y698.735
G1 X14.451Y698.503
G1 X13.75Y698.276
G1 X13.084Y698.051
G1 X12.452Y697.828
G1 X11.851Y697.608
G1 X11.282Y697.389
G1 X10.744Y697.171
G1 X10.237Y696.953
G1 X9.758Y696.735
G1 X9.308Y696.516
G1 X8.886Y696.296
G1 X8.491Y696.074
G1 X8.122Y695.85
G1 X7.778Y695.623
G1 X7.164Y695.157
G1 X6.641Y694.674
G1 X6.205Y694.167
G1 X5.848Y693.634
G1 X5.565Y693.07
G1 X5.349Y692.47
G1 X5.193Y691.831
G1 X5.092Y691.147
G1 X5.048Y690.705
G1 X5.016Y690.304
G1 X5Y689.935
G1 Y689.591
G1 X5.025Y689.264
G1 X5.071Y688.946
G1 X5.144Y688.63
G1 X5.246Y688.309
G1 X5.38Y687.973
G1 X5.548Y687.617
G1 X5.754Y687.232
G1 X5.999Y686.81
G1 X6.288Y686.344
G1 X6.622Y685.827
G1 X7.005Y685.25
G1 X7.438Y684.606
G1 X7.907Y683.931
G1 X8.411Y683.241
G1 X8.952Y682.535
G1 X9.532Y681.811
G1 X10.155Y681.065
G1 X10.821Y680.298
G1 X11.533Y679.506
G1 X12.295Y678.687
G1 X13.106Y677.84
G1 X13.971Y676.963
G1 X14.891Y676.052
G1 X15.868Y675.108
G1 X16.905Y674.127
G1 X18.004Y673.107
G1 X19.168Y672.047
G1 X20.397Y670.945
G1 X21.696Y669.798
G1 X23.065Y668.604
G1 X24.507Y667.362
G1 X26.025Y666.07
G1 X27.621Y664.725
G1 X29.296Y663.325
G1 X30.164Y662.605
G1 X31.054Y661.87
G1 X31.964Y661.12
G1 X32.896Y660.355
G1 X33.849Y659.576
G1 X34.824Y658.781
G1 X36.842Y657.143
G1 X38.95Y655.442
G1 X41.152Y653.674
G1 X43.45Y651.837
G1 X45.845Y649.93
G1 X48.34Y647.951
G1 X52.551Y644.62
G1 X54.121Y643.369
G1 X55.642Y642.151
G1 X57.105Y640.973
G1 X58.501Y639.841
G1 X59.822Y638.762
G1 X60.452Y638.245
G1 X61.645Y637.259
G1 X62.743Y636.344
G1 X63.737Y635.507
G1 X64.193Y635.12
G1 X64.619Y634.754
G1 X65.015Y634.411
G1 X65.381Y634.093
G1 X65.714Y633.798
G1 X66.014Y633.529
G1 X66.279Y633.287
G1 X66.509Y633.071
G1 X66.703Y632.884
G1 X66.86Y632.725
G1 X66.978Y632.596
G1 X67.057Y632.498
G1 X67.096Y632.432
G1 X67.107Y632.356
G1 Y632.23
G1 X67.096Y632.055
G1 X67.073Y631.833
G1 X67.039Y631.566
G1 X66.994Y631.254
G1 X66.939Y630.898
G1 X66.873Y630.501
G1 X66.798Y630.063
G1 X66.713Y629.586
G1 X66.618Y629.07
G1 X66.514Y628.518
G1 X66.401Y627.931
G1 X66.28Y627.31
G1 X66.012Y625.971
G1 X65.713Y624.511
G1 X65.385Y622.942
G1 X65.03Y621.274
G1 X64.65Y619.517
G1 X64.247Y617.683
G1 X63.823Y615.781
G1 X63.381Y613.822
G1 X62.552Y610.201
G1 X61.833Y607.052
G1 X61.145Y604.013
G1 X60.488Y601.08
G1 X59.862Y598.251
G1 X59.266Y595.525
G1 X58.699Y592.9
G1 X58.427Y591.625
G1 X58.163Y590.374
G1 X57.905Y589.147
G1 X57.411Y586.764
G1 X56.947Y584.474
G1 X56.51Y582.276
G1 X56.101Y580.167
G1 X55.72Y578.145
G1 X55.366Y576.208
G1 X55.039Y574.354
G1 X54.738Y572.581
G1 X54.464Y570.887
G1 X54.215Y569.269
G1 X53.992Y567.727
G1 X53.794Y566.256
G1 X53.621Y564.857
G1 X53.472Y563.526
G1 X53.348Y562.261
G1 X53.247Y561.06
G1 X53.17Y559.922
G1 X53.115Y558.844
G1 X53.084Y557.824
G1 Y556.86
G1 Y555.95
G1 X53.122Y555.092
G1 X53.178Y554.284
G1 X53.255Y553.524
G1 X53.329Y552.922
G1 X53.404Y552.376
G1 X53.48Y551.879
G1 X53.56Y551.428
G1 X53.647Y551.018
G1 X53.741Y550.643
G1 X53.845Y550.299
G1 X53.961Y549.98
G1 X54.236Y549.401
G1 X54.581Y548.867
; Layer WorkSpace Pass 5 of 10
G1 X54.785Y548.604
G1 X55.013Y548.338
G1 X55.266Y548.064
G1 X55.546Y547.776
G1 X56.043Y547.317
G1 X56.557Y546.925
G1 X57.096Y546.602
G1 X57.667Y546.347
G1 X58.276Y546.161
G1 X58.932Y546.046
G1 X59.642Y546
G1 X60.413Y546.025
G1 X60.823Y546.065
G1 X61.252Y546.122
G1 X61.699Y546.198
G1 X62.166Y546.291
G1 X62.653Y546.403
G1 X63.163Y546.533
G1 X63.694Y546.681
G1 X64.249Y546.847
G1 X64.829Y547.032
G1 X65.433Y547.235
G1 X66.064Y547.457
G1 X66.721Y547.698
G1 X67.407Y547.957
G1 X68.121Y548.235
G1 X68.865Y548.532
G1 X69.64Y548.847
G1 X71.18Y549.493
G1 X72.674Y550.148
G1 X74.162Y550.837
G1 X75.682Y551.582
G1 X76.467Y551.984
G1 X77.274Y552.408
G1 X78.109Y552.858
G1 X78.976Y553.337
G1 X79.881Y553.848
G1 X80.827Y554.393
G1 X81.821Y554.976
G1 X82.866Y555.599
G1 X83.968Y556.266
G1 X85.131Y556.979
G1 X86.361Y557.741
G1 X87.662Y558.555
G1 X89.039Y559.424
G1 X90.497Y560.351
G1 X91.257Y560.837
G1 X92.846Y561.856
G1 X94.527Y562.941
G1 X97.234Y564.696
G1 X100.178Y566.615
G1 X104.499Y569.443
G1 X112.834Y574.92
G1 X115.016Y576.35
G1 X118.152Y578.398
G1 X121.09Y580.308
G1 X123.79Y582.055
G1 X126.214Y583.614
G1 X127.657Y584.537
G1 X128.95Y585.358
G1 X130.08Y586.07
G1 X131.035Y586.666
G1 X131.444Y586.918
G1 X131.806Y587.138
G1 X132.117Y587.325
G1 X132.379Y587.478
G1 X132.588Y587.597
G1 X132.744Y587.681
G1 X132.844Y587.728
G1 X132.889
G1 X148.529Y578.241
G1 X150.39Y577.115
G1 X152.215Y576.014
G1 X154.003Y574.939
G1 X155.754Y573.889
G1 X157.469Y572.864
G1 X159.148Y571.864
G1 X160.792Y570.889
G1 X162.402Y569.938
G1 X163.977Y569.012
G1 X165.517Y568.11
G1 X167.024Y567.232
G1 X168.498Y566.377
G1 X169.939Y565.546
G1 X171.348Y564.739
G1 X172.724Y563.955
G1 X174.069Y563.193
G1 X175.383Y562.455
G1 X176.666Y561.739
G1 X177.919Y561.046
G1 X179.141Y560.375
G1 X180.334Y559.726
G1 X181.498Y559.099
G1 X182.633Y558.493
G1 X183.74Y557.909
G1 X184.819Y557.346
G1 X185.87Y556.805
G1 X186.894Y556.284
G1 X187.892Y555.784
G1 X188.863Y555.304
G1 X189.808Y554.845
G1 X190.728Y554.406
G1 X191.622Y553.987
G1 X192.492Y553.587
G1 X193.338Y553.207
G1 X194.16Y552.846
G1 X194.958Y552.505
G1 X195.733Y552.182
G1 X196.486Y551.879
G1 X197.216Y551.594
G1 X197.924Y551.327
G1 X198.611Y551.078
G1 X199.277Y550.848
G1 X199.923Y550.635
G1 X200.548Y550.44
G1 X201.153Y550.262
G1 X201.739Y550.101
G1 X202.306Y549.958
G1 X203.385Y549.721
G1 X204.392Y549.551
G1 X205.332Y549.444
G1 X206.207Y549.4
G1 X207.021Y549.418
G1 X207.777Y549.495
G1 X208.478Y549.63
G1 X209.127Y549.822
G1 X209.578Y550.03
G1 X210.015Y550.327
G1 X210.437Y550.707
G1 X210.841Y551.164
G1 X211.225Y551.691
G1 X211.584Y552.281
G1 X211.918Y552.928
G1 X212.223Y553.625
G1 X212.496Y554.366
G1 X212.735Y555.143
G1 X212.938Y555.95
G1 X213.101Y556.781
G1 X213.222Y557.629
G1 X213.298Y558.488
G1 X213.327Y559.35
G1 X213.305Y560.209
G1 X213.246Y561.132
G1 X213.17Y562.088
G1 X213.075Y563.081
G1 X212.962Y564.111
G1 X212.829Y565.182
G1 X212.676Y566.296
G1 X212.503Y567.453
G1 X212.31Y568.658
G1 X212.095Y569.912
G1 X211.859Y571.217
G1 X211.6Y572.575
G1 X211.318Y573.988
G1 X211.014Y575.46
G1 X210.685Y576.991
G1 X210.332Y578.584
G1 X209.955Y580.242
G1 X209.552Y581.966
G1 X209.123Y583.758
G1 X208.669Y585.622
G1 X208.187Y587.558
G1 X207.678Y589.569
G1 X207.141Y591.658
G1 X206.576Y593.826
G1 X205.982Y596.076
G1 X205.359Y598.409
G1 X204.706Y600.829
G1 X204.023Y603.337
G1 X203.309Y605.935
G1 X202.564Y608.626
G1 X201.787Y611.411
G1 X201.386Y612.84
G1 X200.561Y615.771
G1 X194.94Y635.617
G1 X214.077Y652.397
G1 X218.053Y655.894
G1 X222.017Y659.401
G1 X223.962Y661.128
G1 X225.864Y662.823
G1 X227.71Y664.473
G1 X229.489Y666.066
G1 X231.185Y667.591
G1 X232.786Y669.036
G1 X234.28Y670.389
G1 X235.652Y671.638
G1 X236.89Y672.772
G1 X237.981Y673.779
G1 X238.911Y674.647
G1 X239.312Y675.026
G1 X239.668Y675.365
G1 X240.654Y676.32
G1 X241.613Y677.268
G1 X242.543Y678.207
G1 X243.444Y679.137
G1 X244.315Y680.057
G1 X245.156Y680.967
G1 X245.967Y681.865
G1 X246.747Y682.75
G1 X247.496Y683.623
G1 X248.213Y684.483
G1 X248.897Y685.328
G1 X249.548Y686.158
G1 X250.166Y686.972
G1 X250.751Y687.77
G1 X251.301Y688.551
G1 X251.816Y689.314
G1 X252.296Y690.058
G1 X252.74Y690.783
G1 X253.148Y691.487
G1 X253.52Y692.171
G1 X253.854Y692.833
G1 X254.151Y693.474
G1 X254.409Y694.091
G1 X254.629Y694.684
G1 X254.81Y695.253
G1 X254.951Y695.797
G1 X255.052Y696.315
G1 X255.113Y696.806
G1 X255.133Y697.27
G1 X255.111Y697.706
G1 X255.047Y698.113
G1 X254.941Y698.49
G1 X254.816Y698.749
G1 X254.61Y699.058
G1 X254.333Y699.406
G1 X253.997Y699.78
G1 X253.613Y700.169
G1 X253.192Y700.562
G1 X252.743Y700.946
G1 X252.28Y701.312
G1 X251.739Y701.694
G1 X251.153Y702.063
G1 X250.517Y702.417
G1 X249.827Y702.759
G1 X249.081Y703.087
G1 X248.275Y703.404
G1 X247.404Y703.708
G1 X246.466Y704.002
G1 X245.457Y704.284
G1 X244.373Y704.556
G1 X243.21Y704.818
G1 X241.965Y705.07
G1 X240.634Y705.314
G1 X239.213Y705.549
G1 X237.7Y705.776
G1 X236.09Y705.995
G1 X235.248Y706.102
G1 X234.38Y706.207
G1 X233.486Y706.311
G1 X232.565Y706.413
G1 X231.618Y706.514
G1 X230.644Y706.612
G1 X229.641Y706.71
G1 X228.611Y706.806
G1 X227.551Y706.901
G1 X226.463Y706.995
G1 X225.345Y707.087
G1 X224.197Y707.179
G1 X223.018Y707.269
G1 X221.808Y707.358
G1 X220.567Y707.446
G1 X219.294Y707.534
G1 X217.989Y707.62
G1 X216.651Y707.706
G1 X215.28Y707.791
G1 X213.875Y707.875
G1 X212.435Y707.959
G1 X210.962Y708.042
G1 X209.453Y708.125
G1 X207.909Y708.208
G1 X206.328Y708.289
G1 X204.712Y708.371
G1 X203.058Y708.453
G1 X199.639Y708.615
G1 X196.067Y708.777
G1 X168.794Y709.965
G1 X164.592Y719.964
G1 X163.616Y722.279
G1 X162.66Y724.542
G1 X161.723Y726.752
G1 X160.806Y728.91
G1 X159.909Y731.017
G1 X159.03Y733.072
G1 X158.169Y735.078
G1 X157.327Y737.034
G1 X156.502Y738.94
G1 X155.695Y740.799
G1 X154.906Y742.609
G1 X154.133Y744.372
G1 X153.377Y746.088
G1 X152.638Y747.758
G1 X151.915Y749.383
G1 X151.207Y750.962
G1 X150.514Y752.497
G1 X149.837Y753.989
G1 X149.175Y755.437
G1 X148.527Y756.842
G1 X147.894Y758.206
G1 X147.274Y759.528
G1 X146.668Y760.809
G1 X146.075Y762.05
G1 X145.495Y763.251
G1 X144.928Y764.413
G1 X144.373Y765.536
G1 X143.83Y766.622
G1 X143.299Y767.67
G1 X142.779Y768.682
G1 X142.27Y769.657
G1 X141.773Y770.597
G1 X141.285Y771.501
G1 X140.808Y772.372
G1 X140.341Y773.208
G1 X139.884Y774.011
G1 X139.435Y774.782
G1 X138.996Y775.521
G1 X138.565Y776.228
G1 X138.143Y776.904
G1 X137.728Y777.549
G1 X137.322Y778.166
G1 X136.922Y778.753
G1 X136.53Y779.311
G1 X136.145Y779.842
G1 X135.766Y780.345
G1 X135.394Y780.821
G1 X135.027Y781.271
G1 X134.666Y781.696
G1 X134.31Y782.095
G1 X133.959Y782.47
G1 X133.27Y783.149
G1 X132.598Y783.738
G1 X131.939Y784.24
G1 X131.292Y784.661
G1 X130.653Y785.006
G1 X130.021Y785.279
G1 X129.445Y785.482
G1 X128.902Y785.643
G1 X128.386Y785.759
G1 X127.892Y785.829
G1 X127.415Y785.851
G1 X126.951Y785.823
G1 X126.494Y785.744
G1 X126.039Y785.611
G1 X125.581Y785.424
G1 X125.116Y785.18
G1 X124.639Y784.878
G1 X124.144Y784.515
G1 X123.626Y784.091
G1 X123.081Y783.603
G1 X122.504Y783.049
G1 X121.889Y782.429
G1 X121.411Y781.916
G1 X120.929Y781.356
G1 X120.439Y780.745
G1 X119.942Y780.082
G1 X119.437Y779.363
G1 X118.921Y778.586
G1 X118.393Y777.748
G1 X117.854Y776.846
G1 X117.3Y775.879
G1 X116.732Y774.842
G1 X116.148Y773.735
G1 X115.547Y772.553
G1 X114.927Y771.294
G1 X114.288Y769.957
G1 X113.628Y768.537
G1 X112.946Y767.033
G1 X112.241Y765.442
G1 X111.512Y763.76
G1 X110.757Y761.987
G1 X109.976Y760.118
G1 X109.575Y759.147
G1 X109.167Y758.152
G1 X108.751Y757.131
G1 X108.329Y756.085
G1 X107.898Y755.013
G1 X107.46Y753.915
G1 X107.015Y752.791
G1 X106.561Y751.639
G1 X106.099Y750.461
G1 X105.629Y749.256
G1 X105.15Y748.022
G1 X104.663Y746.761
G1 X104.167Y745.471
G1 X103.149Y742.805
G1 X102.093Y740.021
G1 X101Y737.118
G1 X99.868Y734.091
G1 X98.696Y730.94
G1 X95.147Y721.356
G1 X91.494Y711.521
G1 X90.214Y708.129
G1 X62.524Y705.509
G1 X55.467Y704.835
G1 X50.473Y704.348
G1 X47.079Y704.009
G1 X43.964Y703.69
G1 X42.034Y703.488
G1 X40.214Y703.292
G1 X38.499Y703.103
G1 X36.883Y702.919
G1 X35.36Y702.739
G1 X33.925Y702.564
G1 X32.573Y702.392
G1 X31.298Y702.222
G1 X30.093Y702.054
G1 X28.955Y701.887
G1 X27.876Y701.72
G1 X26.851Y701.552
G1 X25.876Y701.383
G1 X24.943Y701.211
G1 X24.049Y701.037
G1 X23.186Y700.859
G1 X21.534Y700.489
G1 X19.942Y700.095
G1 X18.367Y699.671
G1 X16.763Y699.211
G1 X15.956Y698.97
G1 X15.185Y698.735
G1 X14.451Y698.503
G1 X13.75Y698.276
G1 X13.084Y698.051
G1 X12.452Y697.828
G1 X11.851Y697.608
G1 X11.282Y697.389
G1 X10.744Y697.171
G1 X10.237Y696.953
G1 X9.758Y696.735
G1 X9.308Y696.516
G1 X8.886Y696.296
G1 X8.491Y696.074
G1 X8.122Y695.85
G1 X7.778Y695.623
G1 X7.164Y695.157
G1 X6.641Y694.674
G1 X6.205Y694.167
G1 X5.848Y693.634
G1 X5.565Y693.07
G1 X5.349Y692.47
G1 X5.193Y691.831
G1 X5.092Y691.147
G1 X5.048Y690.705
G1 X5.016Y690.304
G1 X5Y689.935
G1 Y689.591
G1 X5.025Y689.264
G1 X5.071Y688.946
G1 X5.144Y688.63
G1 X5.246Y688.309
G1 X5.38Y687.973
G1 X5.548Y687.617
G1 X5.754Y687.232
G1 X5.999Y686.81
G1 X6.288Y686.344
G1 X6.622Y685.827
G1 X7.005Y685.25
G1 X7.438Y684.606
G1 X7.907Y683.931
G1 X8.411Y683.241
G1 X8.952Y682.535
G1 X9.532Y681.811
G1 X10.155Y681.065
G1 X10.821Y680.298
G1 X11.533Y679.506
G1 X12.295Y678.687
G1 X13.106Y677.84
G1 X13.971Y676.963
G1 X14.891Y676.052
G1 X15.868Y675.108
G1 X16.905Y674.127
G1 X18.004Y673.107
G1 X19.168Y672.047
G1 X20.397Y670.945
G1 X21.696Y669.798
G1 X23.065Y668.604
G1 X24.507Y667.362
G1 X26.025Y666.07
G1 X27.621Y664.725
G1 X29.296Y663.325
G1 X30.164Y662.605
G1 X31.054Y661.87
G1 X31.964Y661.12
G1 X32.896Y660.355
G1 X33.849Y659.576
G1 X34.824Y658.781
G1 X36.842Y657.143
G1 X38.95Y655.442
G1 X41.152Y653.674
G1 X43.45Y651.837
G1 X45.845Y649.93
G1 X48.34Y647.951
G1 X52.551Y644.62
G1 X54.121Y643.369
G1 X55.642Y642.151
G1 X57.105Y640.973
G1 X58.501Y639.841
G1 X59.822Y638.762
G1 X60.452Y638.245
G1 X61.645Y637.259
G1 X62.743Y636.344
G1 X63.737Y635.507
G1 X64.193Y635.12
G1 X64.619Y634.754
G1 X65.015Y634.411
G1 X65.381Y634.093
G1 X65.714Y633.798
G1 X66.014Y633.529
G1 X66.279Y633.287
G1 X66.509Y633.071
G1 X66.703Y632.884
G1 X66.86Y632.725
G1 X66.978Y632.596
G1 X67.057Y632.498
G1 X67.096Y632.432
G1 X67.107Y632.356
G1 Y632.23
G1 X67.096Y632.055
G1 X67.073Y631.833
G1 X67.039Y631.566
G1 X66.994Y631.254
G1 X66.939Y630.898
G1 X66.873Y630.501
G1 X66.798Y630.063
G1 X66.713Y629.586
G1 X66.618Y629.07
G1 X66.514Y628.518
G1 X66.401Y627.931
G1 X66.28Y627.31
G1 X66.012Y625.971
G1 X65.713Y624.511
G1 X65.385Y622.942
G1 X65.03Y621.274
G1 X64.65Y619.517
G1 X64.247Y617.683
G1 X63.823Y615.781
G1 X63.381Y613.822
G1 X62.552Y610.201
G1 X61.833Y607.052
G1 X61.145Y604.013
G1 X60.488Y601.08
G1 X59.862Y598.251
G1 X59.266Y595.525
G1 X58.699Y592.9
G1 X58.427Y591.625
G1 X58.163Y590.374
G1 X57.905Y589.147
G1 X57.411Y586.764
G1 X56.947Y584.474
G1 X56.51Y582.276
G1 X56.101Y580.167
G1 X55.72Y578.145
G1 X55.366Y576.208
G1 X55.039Y574.354
G1 X54.738Y572.581
G1 X54.464Y570.887
G1 X54.215Y569.269
G1 X53.992Y567.727
G1 X53.794Y566.256
G1 X53.621Y564.857
G1 X53.472Y563.526
G1 X53.348Y562.261
G1 X53.247Y561.06
G1 X53.17Y559.922
G1 X53.115Y558.844
G1 X53.084Y557.824
G1 Y556.86
G1 Y555.95
G1 X53.122Y555.092
G1 X53.178Y554.284
G1 X53.255Y553.524
G1 X53.329Y552.922
G1 X53.404Y552.376
G1 X53.48Y551.879
G1 X53.56Y551.428
G1 X53.647Y551.018
G1 X53.741Y550.643
G1 X53.845Y550.299
G1 X53.961Y549.98
G1 X54.236Y549.401
G1 X54.581Y548.867
; Layer WorkSpace Pass 6 of 10
G1 X54.785Y548.604
G1 X55.013Y548.338
G1 X55.266Y548.064
G1 X55.546Y547.776
G1 X56.043Y547.317
G1 X56.557Y546.925
G1 X57.096Y546.602
G1 X57.667Y546.347
G1 X58.276Y546.161
G1 X58.932Y546.046
G1 X59.642Y546
G1 X60.413Y546.025
G1 X60.823Y546.065
G1 X61.252Y546.122
G1 X61.699Y546.198
G1 X62.166Y546.291
G1 X62.653Y546.403
G1 X63.163Y546.533
G1 X63.694Y546.681
G1 X64.249Y546.847
G1 X64.829Y547.032
G1 X65.433Y547.235
G1 X66.064Y547.457
G1 X66.721Y547.698
G1 X67.407Y547.957
G1 X68.121Y548.235
G1 X68.865Y548.532
G1 X69.64Y548.847
G1 X71.18Y549.493
G1 X72.674Y550.148
G1 X74.162Y550.837
G1 X75.682Y551.582
G1 X76.467Y551.984
G1 X77.274Y552.408
G1 X78.109Y552.858
G1 X78.976Y553.337
G1 X79.881Y553.848
G1 X80.827Y554.393
G1 X81.821Y554.976
G1 X82.866Y555.599
G1 X83.968Y556.266
G1 X85.131Y556.979
G1 X86.361Y557.741
G1 X87.662Y558.555
G1 X89.039Y559.424
G1 X90.497Y560.351
G1 X91.257Y560.837
G1 X92.846Y561.856
G1 X94.527Y562.941
G1 X97.234Y564.696
G1 X100.178Y566.615
G1 X104.499Y569.443
G1 X112.834Y574.92
G1 X115.016Y576.35
G1 X118.152Y578.398
G1 X121.09Y580.308
G1 X123.79Y582.055
G1 X126.214Y583.614
G1 X127.657Y584.537
G1 X128.95Y585.358
G1 X130.08Y586.07
G1 X131.035Y586.666
G1 X131.444Y586.918
G1 X131.806Y587.138
G1 X132.117Y587.325
G1 X132.379Y587.478
G1 X132.588Y587.597
G1 X132.744Y587.681
G1 X132.844Y587.728
G1 X132.889
G1 X148.529Y578.241
G1 X150.39Y577.115
G1 X152.215Y576.014
G1 X154.003Y574.939
G1 X155.754Y573.889
G1 X157.469Y572.864
G1 X159.148Y571.864
G1 X160.792Y570.889
G1 X162.402Y569.938
G1 X163.977Y569.012
G1 X165.517Y568.11
G1 X167.024Y567.232
G1 X168.498Y566.377
G1 X169.939Y565.546
G1 X171.348Y564.739
G1 X172.724Y563.955
G1 X174.069Y563.193
G1 X175.383Y562.455
G1 X176.666Y561.739
G1 X177.919Y561.046
G1 X179.141Y560.375
G1 X180.334Y559.726
G1 X181.498Y559.099
G1 X182.633Y558.493
G1 X183.74Y557.909
G1 X184.819Y557.346
G1 X185.87Y556.805
G1 X186.894Y556.284
G1 X187.892Y555.784
G1 X188.863Y555.304
G1 X189.808Y554.845
G1 X190.728Y554.406
G1 X191.622Y553.987
G1 X192.492Y553.587
G1 X193.338Y553.207
G1 X194.16Y552.846
G1 X194.958Y552.505
G1 X195.733Y552.182
G1 X196.486Y551.879
G1 X197.216Y551.594
G1 X197.924Y551.327
G1 X198.611Y551.078
G1 X199.277Y550.848
G1 X199.923Y550.635
G1 X200.548Y550.44
G1 X201.153Y550.262
G1 X201.739Y550.101
G1 X202.306Y549.958
G1 X203.385Y549.721
G1 X204.392Y549.551
G1 X205.332Y549.444
G1 X206.207Y549.4
G1 X207.021Y549.418
G1 X207.777Y549.495
G1 X208.478Y549.63
G1 X209.127Y549.822
G1 X209.578Y550.03
G1 X210.015Y550.327
G1 X210.437Y550.707
G1 X210.841Y551.164
G1 X211.225Y551.691
G1 X211.584Y552.281
G1 X211.918Y552.928
G1 X212.223Y553.625
G1 X212.496Y554.366
G1 X212.735Y555.143
G1 X212.938Y555.95
G1 X213.101Y556.781
G1 X213.222Y557.629
G1 X213.298Y558.488
G1 X213.327Y559.35
G1 X213.305Y560.209
G1 X213.246Y561.132
G1 X213.17Y562.088
G1 X213.075Y563.081
G1 X212.962Y564.111
G1 X212.829Y565.182
G1 X212.676Y566.296
G1 X212.503Y567.453
G1 X212.31Y568.658
G1 X212.095Y569.912
G1 X211.859Y571.217
G1 X211.6Y572.575
G1 X211.318Y573.988
G1 X211.014Y575.46
G1 X210.685Y576.991
G1 X210.332Y578.584
G1 X209.955Y580.242
G1 X209.552Y581.966
G1 X209.123Y583.758
G1 X208.669Y585.622
G1 X208.187Y587.558
G1 X207.678Y589.569
G1 X207.141Y591.658
G1 X206.576Y593.826
G1 X205.982Y596.076
G1 X205.359Y598.409
G1 X204.706Y600.829
G1 X204.023Y603.337
G1 X203.309Y605.935
G1 X202.564Y608.626
G1 X201.787Y611.411
G1 X201.386Y612.84
G1 X200.561Y615.771
G1 X194.94Y635.617
G1 X214.077Y652.397
G1 X218.053Y655.894
G1 X222.017Y659.401
G1 X223.962Y661.128
G1 X225.864Y662.823
G1 X227.71Y664.473
G1 X229.489Y666.066
G1 X231.185Y667.591
G1 X232.786Y669.036
G1 X234.28Y670.389
G1 X235.652Y671.638
G1 X236.89Y672.772
G1 X237.981Y673.779
G1 X238.911Y674.647
G1 X239.312Y675.026
G1 X239.668Y675.365
G1 X240.654Y676.32
G1 X241.613Y677.268
G1 X242.543Y678.207
G1 X243.444Y679.137
G1 X244.315Y680.057
G1 X245.156Y680.967
G1 X245.967Y681.865
G1 X246.747Y682.75
G1 X247.496Y683.623
G1 X248.213Y684.483
G1 X248.897Y685.328
G1 X249.548Y686.158
G1 X250.166Y686.972
G1 X250.751Y687.77
G1 X251.301Y688.551
G1 X251.816Y689.314
G1 X252.296Y690.058
G1 X252.74Y690.783
G1 X253.148Y691.487
G1 X253.52Y692.171
G1 X253.854Y692.833
G1 X254.151Y693.474
G1 X254.409Y694.091
G1 X254.629Y694.684
G1 X254.81Y695.253
G1 X254.951Y695.797
G1 X255.052Y696.315
G1 X255.113Y696.806
G1 X255.133Y697.27
G1 X255.111Y697.706
G1 X255.047Y698.113
G1 X254.941Y698.49
G1 X254.816Y698.749
G1 X254.61Y699.058
G1 X254.333Y699.406
G1 X253.997Y699.78
G1 X253.613Y700.169
G1 X253.192Y700.562
G1 X252.743Y700.946
G1 X252.28Y701.312
G1 X251.739Y701.694
G1 X251.153Y702.063
G1 X250.517Y702.417
G1 X249.827Y702.759
G1 X249.081Y703.087
G1 X248.275Y703.404
G1 X247.404Y703.708
G1 X246.466Y704.002
G1 X245.457Y704.284
G1 X244.373Y704.556
G1 X243.21Y704.818
G1 X241.965Y705.07
G1 X240.634Y705.314
G1 X239.213Y705.549
G1 X237.7Y705.776
G1 X236.09Y705.995
G1 X235.248Y706.102
G1 X234.38Y706.207
G1 X233.486Y706.311
G1 X232.565Y706.413
G1 X231.618Y706.514
G1 X230.644Y706.612
G1 X229.641Y706.71
G1 X228.611Y706.806
G1 X227.551Y706.901
G1 X226.463Y706.995
G1 X225.345Y707.087
G1 X224.197Y707.179
G1 X223.018Y707.269
G1 X221.808Y707.358
G1 X220.567Y707.446
G1 X219.294Y707.534
G1 X217.989Y707.62
G1 X216.651Y707.706
G1 X215.28Y707.791
G1 X213.875Y707.875
G1 X212.435Y707.959
G1 X210.962Y708.042
G1 X209.453Y708.125
G1 X207.909Y708.208
G1 X206.328Y708.289
G1 X204.712Y708.371
G1 X203.058Y708.453
G1 X199.639Y708.615
G1 X196.067Y708.777
G1 X168.794Y709.965
G1 X164.592Y719.964
G1 X163.616Y722.279
G1 X162.66Y724.542
G1 X161.723Y726.752
G1 X160.806Y728.91
G1 X159.909Y731.017
G1 X159.03Y733.072
G1 X158.169Y735.078
G1 X157.327Y737.034
G1 X156.502Y738.94
G1 X155.695Y740.799
G1 X154.906Y742.609
G1 X154.133Y744.372
G1 X153.377Y746.088
G1 X152.638Y747.758
G1 X151.915Y749.383
G1 X151.207Y750.962
G1 X150.514Y752.497
G1 X149.837Y753.989
G1 X149.175Y755.437
G1 X148.527Y756.842
G1 X147.894Y758.206
G1 X147.274Y759.528
G1 X146.668Y760.809
G1 X146.075Y762.05
G1 X145.495Y763.251
G1 X144.928Y764.413
G1 X144.373Y765.536
G1 X143.83Y766.622
G1 X143.299Y767.67
G1 X142.779Y768.682
G1 X142.27Y769.657
G1 X141.773Y770.597
G1 X141.285Y771.501
G1 X140.808Y772.372
G1 X140.341Y773.208
G1 X139.884Y774.011
G1 X139.435Y774.782
G1 X138.996Y775.521
G1 X138.565Y776.228
G1 X138.143Y776.904
G1 X137.728Y777.549
G1 X137.322Y778.166
G1 X136.922Y778.753
G1 X136.53Y779.311
G1 X136.145Y779.842
G1 X135.766Y780.345
G1 X135.394Y780.821
G1 X135.027Y781.271
G1 X134.666Y781.696
G1 X134.31Y782.095
G1 X133.959Y782.47
G1 X133.27Y783.149
G1 X132.598Y783.738
G1 X131.939Y784.24
G1 X131.292Y784.661
G1 X130.653Y785.006
G1 X130.021Y785.279
G1 X129.445Y785.482
G1 X128.902Y785.643
G1 X128.386Y785.759
G1 X127.892Y785.829
G1 X127.415Y785.851
G1 X126.951Y785.823
G1 X126.494Y785.744
G1 X126.039Y785.611
G1 X125.581Y785.424
G1 X125.116Y785.18
G1 X124.639Y784.878
G1 X124.144Y784.515
G1 X123.626Y784.091
G1 X123.081Y783.603
G1 X122.504Y783.049
G1 X121.889Y782.429
G1 X121.411Y781.916
G1 X120.929Y781.356
G1 X120.439Y780.745
G1 X119.942Y780.082
G1 X119.437Y779.363
G1 X118.921Y778.586
G1 X118.393Y777.748
G1 X117.854Y776.846
G1 X117.3Y775.879
G1 X116.732Y774.842
G1 X116.148Y773.735
G1 X115.547Y772.553
G1 X114.927Y771.294
G1 X114.288Y769.957
G1 X113.628Y768.537
G1 X112.946Y767.033
G1 X112.241Y765.442
G1 X111.512Y763.76
G1 X110.757Y761.987
G1 X109.976Y760.118
G1 X109.575Y759.147
G1 X109.167Y758.152
G1 X108.751Y757.131
G1 X108.329Y756.085
G1 X107.898Y755.013
G1 X107.46Y753.915
G1 X107.015Y752.791
G1 X106.561Y751.639
G1 X106.099Y750.461
G1 X105.629Y749.256
G1 X105.15Y748.022
G1 X104.663Y746.761
G1 X104.167Y745.471
G1 X103.149Y742.805
G1 X102.093Y740.021
G1 X101Y737.118
G1 X99.868Y734.091
G1 X98.696Y730.94
G1 X95.147Y721.356
G1 X91.494Y711.521
G1 X90.214Y708.129
G1 X62.524Y705.509
G1 X55.467Y704.835
G1 X50.473Y704.348
G1 X47.079Y704.009
G1 X43.964Y703.69
G1 X42.034Y703.488
G1 X40.214Y703.292
G1 X38.499Y703.103
G1 X36.883Y702.919
G1 X35.36Y702.739
G1 X33.925Y702.564
G1 X32.573Y702.392
G1 X31.298Y702.222
G1 X30.093Y702.054
G1 X28.955Y701.887
G1 X27.876Y701.72
G1 X26.851Y701.552
G1 X25.876Y701.383
G1 X24.943Y701.211
G1 X24.049Y701.037
G1 X23.186Y700.859
G1 X21.534Y700.489
G1 X19.942Y700.095
G1 X18.367Y699.671
G1 X16.763Y699.211
G1 X15.956Y698.97
G1 X15.185Y698.735
G1 X14.451Y698.503
G1 X13.75Y698.276
G1 X13.084Y698.051
G1 X12.452Y697.828
G1 X11.851Y697.608
G1 X11.282Y697.389
G1 X10.744Y697.171
G1 X10.237Y696.953
G1 X9.758Y696.735
G1 X9.308Y696.516
G1 X8.886Y696.296
G1 X8.491Y696.074
G1 X8.122Y695.85
G1 X7.778Y695.623
G1 X7.164Y695.157
G1 X6.641Y694.674
G1 X6.205Y694.167
G1 X5.848Y693.634
G1 X5.565Y693.07
G1 X5.349Y692.47
G1 X5.193Y691.831
G1 X5.092Y691.147
G1 X5.048Y690.705
G1 X5.016Y690.304
G1 X5Y689.935
G1 Y689.591
G1 X5.025Y689.264
G1 X5.071Y688.946
G1 X5.144Y688.63
G1 X5.246Y688.309
G1 X5.38Y687.973
G1 X5.548Y687.617
G1 X5.754Y687.232
G1 X5.999Y686.81
G1 X6.288Y686.344
G1 X6.622Y685.827
G1 X7.005Y685.25
G1 X7.438Y684.606
G1 X7.907Y683.931
G1 X8.411Y683.241
G1 X8.952Y682.535
G1 X9.532Y681.811
G1 X10.155Y681.065
G1 X10.821Y680.298
G1 X11.533Y679.506
G1 X12.295Y678.687
G1 X13.106Y677.84
G1 X13.971Y676.963
G1 X14.891Y676.052
G1 X15.868Y675.108
G1 X16.905Y674.127
G1 X18.004Y673.107
G1 X19.168Y672.047
G1 X20.397Y670.945
G1 X21.696Y669.798
G1 X23.065Y668.604
G1 X24.507Y667.362
G1 X26.025Y666.07
G1 X27.621Y664.725
G1 X29.296Y663.325
G1 X30.164Y662.605
G1 X31.054Y661.87
G1 X31.964Y661.12
G1 X32.896Y660.355
G1 X33.849Y659.576
G1 X34.824Y658.781
G1 X36.842Y657.143
G1 X38.95Y655.442
G1 X41.152Y653.674
G1 X43.45Y651.837
G1 X45.845Y649.93
G1 X48.34Y647.951
G1 X52.551Y644.62
G1 X54.121Y643.369
G1 X55.642Y642.151
G1 X57.105Y640.973
G1 X58.501Y639.841
G1 X59.822Y638.762
G1 X60.452Y638.245
G1 X61.645Y637.259
G1 X62.743Y636.344
G1 X63.737Y635.507
G1 X64.193Y635.12
G1 X64.619Y634.754
G1 X65.015Y634.411
G1 X65.381Y634.093
G1 X65.714Y633.798
G1 X66.014Y633.529
G1 X66.279Y633.287
G1 X66.509Y633.071
G1 X66.703Y632.884
G1 X66.86Y632.725
G1 X66.978Y632.596
G1 X67.057Y632.498
G1 X67.096Y632.432
G1 X67.107Y632.356
G1 Y632.23
G1 X67.096Y632.055
G1 X67.073Y631.833
G1 X67.039Y631.566
G1 X66.994Y631.254
G1 X66.939Y630.898
G1 X66.873Y630.501
G1 X66.798Y630.063
G1 X66.713Y629.586
G1 X66.618Y629.07
G1 X66.514Y628.518
G1 X66.401Y627.931
G1 X66.28Y627.31
G1 X66.012Y625.971
G1 X65.713Y624.511
G1 X65.385Y622.942
G1 X65.03Y621.274
G1 X64.65Y619.517
G1 X64.247Y617.683
G1 X63.823Y615.781
G1 X63.381Y613.822
G1 X62.552Y610.201
G1 X61.833Y607.052
G1 X61.145Y604.013
G1 X60.488Y601.08
G1 X59.862Y598.251
G1 X59.266Y595.525
G1 X58.699Y592.9
G1 X58.427Y591.625
G1 X58.163Y590.374
G1 X57.905Y589.147
G1 X57.411Y586.764
G1 X56.947Y584.474
G1 X56.51Y582.276
G1 X56.101Y580.167
G1 X55.72Y578.145
G1 X55.366Y576.208
G1 X55.039Y574.354
G1 X54.738Y572.581
G1 X54.464Y570.887
G1 X54.215Y569.269
G1 X53.992Y567.727
G1 X53.794Y566.256
G1 X53.621Y564.857
G1 X53.472Y563.526
G1 X53.348Y562.261
G1 X53.247Y561.06
G1 X53.17Y559.922
G1 X53.115Y558.844
G1 X53.084Y557.824
G1 Y556.86
G1 Y555.95
G1 X53.122Y555.092
G1 X53.178Y554.284
G1 X53.255Y553.524
G1 X53.329Y552.922
G1 X53.404Y552.376
G1 X53.48Y551.879
G1 X53.56Y551.428
G1 X53.647Y551.018
G1 X53.741Y550.643
G1 X53.845Y550.299
G1 X53.961Y549.98
G1 X54.236Y549.401
G1 X54.581Y548.867
; Layer WorkSpace Pass 7 of 10
G1 X54.785Y548.604
G1 X55.013Y548.338
G1 X55.266Y548.064
G1 X55.546Y547.776
G1 X56.043Y547.317
G1 X56.557Y546.925
G1 X57.096Y546.602
G1 X57.667Y546.347
G1 X58.276Y546.161
G1 X58.932Y546.046
G1 X59.642Y546
G1 X60.413Y546.025
G1 X60.823Y546.065
G1 X61.252Y546.122
G1 X61.699Y546.198
G1 X62.166Y546.291
G1 X62.653Y546.403
G1 X63.163Y546.533
G1 X63.694Y546.681
G1 X64.249Y546.847
G1 X64.829Y547.032
G1 X65.433Y547.235
G1 X66.064Y547.457
G1 X66.721Y547.698
G1 X67.407Y547.957
G1 X68.121Y548.235
G1 X68.865Y548.532
G1 X69.64Y548.847
G1 X71.18Y549.493
G1 X72.674Y550.148
G1 X74.162Y550.837
G1 X75.682Y551.582
G1 X76.467Y551.984
G1 X77.274Y552.408
G1 X78.109Y552.858
G1 X78.976Y553.337
G1 X79.881Y553.848
G1 X80.827Y554.393
G1 X81.821Y554.976
G1 X82.866Y555.599
G1 X83.968Y556.266
G1 X85.131Y556.979
G1 X86.361Y557.741
G1 X87.662Y558.555
G1 X89.039Y559.424
G1 X90.497Y560.351
G1 X91.257Y560.837
G1 X92.846Y561.856
G1 X94.527Y562.941
G1 X97.234Y564.696
G1 X100.178Y566.615
G1 X104.499Y569.443
G1 X112.834Y574.92
G1 X115.016Y576.35
G1 X118.152Y578.398
G1 X121.09Y580.308
G1 X123.79Y582.055
G1 X126.214Y583.614
G1 X127.657Y584.537
G1 X128.95Y585.358
G1 X130.08Y586.07
G1 X131.035Y586.666
G1 X131.444Y586.918
G1 X131.806Y587.138
G1 X132.117Y587.325
G1 X132.379Y587.478
G1 X132.588Y587.597
G1 X132.744Y587.681
G1 X132.844Y587.728
G1 X132.889
G1 X148.529Y578.241
G1 X150.39Y577.115
G1 X152.215Y576.014
G1 X154.003Y574.939
G1 X155.754Y573.889
G1 X157.469Y572.864
G1 X159.148Y571.864
G1 X160.792Y570.889
G1 X162.402Y569.938
G1 X163.977Y569.012
G1 X165.517Y568.11
G1 X167.024Y567.232
G1 X168.498Y566.377
G1 X169.939Y565.546
G1 X171.348Y564.739
G1 X172.724Y563.955
G1 X174.069Y563.193
G1 X175.383Y562.455
G1 X176.666Y561.739
G1 X177.919Y561.046
G1 X179.141Y560.375
G1 X180.334Y559.726
G1 X181.498Y559.099
G1 X182.633Y558.493
G1 X183.74Y557.909
G1 X184.819Y557.346
G1 X185.87Y556.805
G1 X186.894Y556.284
G1 X187.892Y555.784
G1 X188.863Y555.304
G1 X189.808Y554.845
G1 X190.728Y554.406
G1 X191.622Y553.987
G1 X192.492Y553.587
G1 X193.338Y553.207
G1 X194.16Y552.846
G1 X194.958Y552.505
G1 X195.733Y552.182
G1 X196.486Y551.879
G1 X197.216Y551.594
G1 X197.924Y551.327
G1 X198.611Y551.078
G1 X199.277Y550.848
G1 X199.923Y550.635
G1 X200.548Y550.44
G1 X201.153Y550.262
G1 X201.739Y550.101
G1 X202.306Y549.958
G1 X203.385Y549.721
G1 X204.392Y549.551
G1 X205.332Y549.444
G1 X206.207Y549.4
G1 X207.021Y549.418
G1 X207.777Y549.495
G1 X208.478Y549.63
G1 X209.127Y549.822
G1 X209.578Y550.03
G1 X210.015Y550.327
G1 X210.437Y550.707
G1 X210.841Y551.164
G1 X211.225Y551.691
G1 X211.584Y552.281
G1 X211.918Y552.928
G1 X212.223Y553.625
G1 X212.496Y554.366
G1 X212.735Y555.143
G1 X212.938Y555.95
G1 X213.101Y556.781
G1 X213.222Y557.629
G1 X213.298Y558.488
G1 X213.327Y559.35
G1 X213.305Y560.209
G1 X213.246Y561.132
G1 X213.17Y562.088
G1 X213.075Y563.081
G1 X212.962Y564.111
G1 X212.829Y565.182
G1 X212.676Y566.296
G1 X212.503Y567.453
G1 X212.31Y568.658
G1 X212.095Y569.912
G1 X211.859Y571.217
G1 X211.6Y572.575
G1 X211.318Y573.988
G1 X211.014Y575.46
G1 X210.685Y576.991
G1 X210.332Y578.584
G1 X209.955Y580.242
G1 X209.552Y581.966
G1 X209.123Y583.758
G1 X208.669Y585.622
G1 X208.187Y587.558
G1 X207.678Y589.569
G1 X207.141Y591.658
G1 X206.576Y593.826
G1 X205.982Y596.076
G1 X205.359Y598.409
G1 X204.706Y600.829
G1 X204.023Y603.337
G1 X203.309Y605.935
G1 X202.564Y608.626
G1 X201.787Y611.411
G1 X201.386Y612.84
G1 X200.561Y615.771
G1 X194.94Y635.617
G1 X214.077Y652.397
G1 X218.053Y655.894
G1 X222.017Y659.401
G1 X223.962Y661.128
G1 X225.864Y662.823
G1 X227.71Y664.473
G1 X229.489Y666.066
G1 X231.185Y667.591
G1 X232.786Y669.036
G1 X234.28Y670.389
G1 X235.652Y671.638
G1 X236.89Y672.772
G1 X237.981Y673.779
G1 X238.911Y674.647
G1 X239.312Y675.026
G1 X239.668Y675.365
G1 X240.654Y676.32
G1 X241.613Y677.268
G1 X242.543Y678.207
G1 X243.444Y679.137
G1 X244.315Y680.057
G1 X245.156Y680.967
G1 X245.967Y681.865
G1 X246.747Y682.75
G1 X247.496Y683.623
G1 X248.213Y684.483
G1 X248.897Y685.328
G1 X249.548Y686.158
G1 X250.166Y686.972
G1 X250.751Y687.77
G1 X251.301Y688.551
G1 X251.816Y689.314
G1 X252.296Y690.058
G1 X252.74Y690.783
G1 X253.148Y691.487
G1 X253.52Y692.171
G1 X253.854Y692.833
G1 X254.151Y693.474
G1 X254.409Y694.091
G1 X254.629Y694.684
G1 X254.81Y695.253
G1 X254.951Y695.797
G1 X255.052Y696.315
G1 X255.113Y696.806
G1 X255.133Y697.27
G1 X255.111Y697.706
G1 X255.047Y698.113
G1 X254.941Y698.49
G1 X254.816Y698.749
G1 X254.61Y699.058
G1 X254.333Y699.406
G1 X253.997Y699.78
G1 X253.613Y700.169
G1 X253.192Y700.562
G1 X252.743Y700.946
G1 X252.28Y701.312
G1 X251.739Y701.694
G1 X251.153Y702.063
G1 X250.517Y702.417
G1 X249.827Y702.759
G1 X249.081Y703.087
G1 X248.275Y703.404
G1 X247.404Y703.708
G1 X246.466Y704.002
G1 X245.457Y704.284
G1 X244.373Y704.556
G1 X243.21Y704.818
G1 X241.965Y705.07
G1 X240.634Y705.314
G1 X239.213Y705.549
G1 X237.7Y705.776
G1 X236.09Y705.995
G1 X235.248Y706.102
G1 X234.38Y706.207
G1 X233.486Y706.311
G1 X232.565Y706.413
G1 X231.618Y706.514
G1 X230.644Y706.612
G1 X229.641Y706.71
G1 X228.611Y706.806
G1 X227.551Y706.901
G1 X226.463Y706.995
G1 X225.345Y707.087
G1 X224.197Y707.179
G1 X223.018Y707.269
G1 X221.808Y707.358
G1 X220.567Y707.446
G1 X219.294Y707.534
G1 X217.989Y707.62
G1 X216.651Y707.706
G1 X215.28Y707.791
G1 X213.875Y707.875
G1 X212.435Y707.959
G1 X210.962Y708.042
G1 X209.453Y708.125
G1 X207.909Y708.208
G1 X206.328Y708.289
G1 X204.712Y708.371
G1 X203.058Y708.453
G1 X199.639Y708.615
G1 X196.067Y708.777
G1 X168.794Y709.965
G1 X164.592Y719.964
G1 X163.616Y722.279
G1 X162.66Y724.542
G1 X161.723Y726.752
G1 X160.806Y728.91
G1 X159.909Y731.017
G1 X159.03Y733.072
G1 X158.169Y735.078
G1 X157.327Y737.034
G1 X156.502Y738.94
G1 X155.695Y740.799
G1 X154.906Y742.609
G1 X154.133Y744.372
G1 X153.377Y746.088
G1 X152.638Y747.758
G1 X151.915Y749.383
G1 X151.207Y750.962
G1 X150.514Y752.497
G1 X149.837Y753.989
G1 X149.175Y755.437
G1 X148.527Y756.842
G1 X147.894Y758.206
G1 X147.274Y759.528
G1 X146.668Y760.809
G1 X146.075Y762.05
G1 X145.495Y763.251
G1 X144.928Y764.413
G1 X144.373Y765.536
G1 X143.83Y766.622
G1 X143.299Y767.67
G1 X142.779Y768.682
G1 X142.27Y769.657
G1 X141.773Y770.597
G1 X141.285Y771.501
G1 X140.808Y772.372
G1 X140.341Y773.208
G1 X139.884Y774.011
G1 X139.435Y774.782
G1 X138.996Y775.521
G1 X138.565Y776.228
G1 X138.143Y776.904
G1 X137.728Y777.549
G1 X137.322Y778.166
G1 X136.922Y778.753
G1 X136.53Y779.311
G1 X136.145Y779.842
G1 X135.766Y780.345
G1 X135.394Y780.821
G1 X135.027Y781.271
G1 X134.666Y781.696
G1 X134.31Y782.095
G1 X133.959Y782.47
G1 X133.27Y783.149
G1 X132.598Y783.738
G1 X131.939Y784.24
G1 X131.292Y784.661
G1 X130.653Y785.006
G1 X130.021Y785.279
G1 X129.445Y785.482
G1 X128.902Y785.643
G1 X128.386Y785.759
G1 X127.892Y785.829
G1 X127.415Y785.851
G1 X126.951Y785.823
G1 X126.494Y785.744
G1 X126.039Y785.611
G1 X125.581Y785.424
G1 X125.116Y785.18
G1 X124.639Y784.878
G1 X124.144Y784.515
G1 X123.626Y784.091
G1 X123.081Y783.603
G1 X122.504Y783.049
G1 X121.889Y782.429
G1 X121.411Y781.916
G1 X120.929Y781.356
G1 X120.439Y780.745
G1 X119.942Y780.082
G1 X119.437Y779.363
G1 X118.921Y778.586
G1 X118.393Y777.748
G1 X117.854Y776.846
G1 X117.3Y775.879
G1 X116.732Y774.842
G1 X116.148Y773.735
G1 X115.547Y772.553
G1 X114.927Y771.294
G1 X114.288Y769.957
G1 X113.628Y768.537
G1 X112.946Y767.033
G1 X112.241Y765.442
G1 X111.512Y763.76
G1 X110.757Y761.987
G1 X109.976Y760.118
G1 X109.575Y759.147
G1 X109.167Y758.152
G1 X108.751Y757.131
G1 X108.329Y756.085
G1 X107.898Y755.013
G1 X107.46Y753.915
G1 X107.015Y752.791
G1 X106.561Y751.639
G1 X106.099Y750.461
G1 X105.629Y749.256
G1 X105.15Y748.022
G1 X104.663Y746.761
G1 X104.167Y745.471
G1 X103.149Y742.805
G1 X102.093Y740.021
G1 X101Y737.118
G1 X99.868Y734.091
G1 X98.696Y730.94
G1 X95.147Y721.356
G1 X91.494Y711.521
G1 X90.214Y708.129
G1 X62.524Y705.509
G1 X55.467Y704.835
G1 X50.473Y704.348
G1 X47.079Y704.009
G1 X43.964Y703.69
G1 X42.034Y703.488
G1 X40.214Y703.292
G1 X38.499Y703.103
G1 X36.883Y702.919
G1 X35.36Y702.739
G1 X33.925Y702.564
G1 X32.573Y702.392
G1 X31.298Y702.222
G1 X30.093Y702.054
G1 X28.955Y701.887
G1 X27.876Y701.72
G1 X26.851Y701.552
G1 X25.876Y701.383
G1 X24.943Y701.211
G1 X24.049Y701.037
G1 X23.186Y700.859
G1 X21.534Y700.489
G1 X19.942Y700.095
G1 X18.367Y699.671
G1 X16.763Y699.211
G1 X15.956Y698.97
G1 X15.185Y698.735
G1 X14.451Y698.503
G1 X13.75Y698.276
G1 X13.084Y698.051
G1 X12.452Y697.828
G1 X11.851Y697.608
G1 X11.282Y697.389
G1 X10.744Y697.171
G1 X10.237Y696.953
G1 X9.758Y696.735
G1 X9.308Y696.516
G1 X8.886Y696.296
G1 X8.491Y696.074
G1 X8.122Y695.85
G1 X7.778Y695.623
G1 X7.164Y695.157
G1 X6.641Y694.674
G1 X6.205Y694.167
G1 X5.848Y693.634
G1 X5.565Y693.07
G1 X5.349Y692.47
G1 X5.193Y691.831
G1 X5.092Y691.147
G1 X5.048Y690.705
G1 X5.016Y690.304
G1 X5Y689.935
G1 Y689.591
G1 X5.025Y689.264
G1 X5.071Y688.946
G1 X5.144Y688.63
G1 X5.246Y688.309
G1 X5.38Y687.973
G1 X5.548Y687.617
G1 X5.754Y687.232
G1 X5.999Y686.81
G1 X6.288Y686.344
G1 X6.622Y685.827
G1 X7.005Y685.25
G1 X7.438Y684.606
G1 X7.907Y683.931
G1 X8.411Y683.241
G1 X8.952Y682.535
G1 X9.532Y681.811
G1 X10.155Y681.065
G1 X10.821Y680.298
G1 X11.533Y679.506
G1 X12.295Y678.687
G1 X13.106Y677.84
G1 X13.971Y676.963
G1 X14.891Y676.052
G1 X15.868Y675.108
G1 X16.905Y674.127
G1 X18.004Y673.107
G1 X19.168Y672.047
G1 X20.397Y670.945
G1 X21.696Y669.798
G1 X23.065Y668.604
G1 X24.507Y667.362
G1 X26.025Y666.07
G1 X27.621Y664.725
G1 X29.296Y663.325
G1 X30.164Y662.605
G1 X31.054Y661.87
G1 X31.964Y661.12
G1 X32.896Y660.355
G1 X33.849Y659.576
G1 X34.824Y658.781
G1 X36.842Y657.143
G1 X38.95Y655.442
G1 X41.152Y653.674
G1 X43.45Y651.837
G1 X45.845Y649.93
G1 X48.34Y647.951
G1 X52.551Y644.62
G1 X54.121Y643.369
G1 X55.642Y642.151
G1 X57.105Y640.973
G1 X58.501Y639.841
G1 X59.822Y638.762
G1 X60.452Y638.245
G1 X61.645Y637.259
G1 X62.743Y636.344
G1 X63.737Y635.507
G1 X64.193Y635.12
G1 X64.619Y634.754
G1 X65.015Y634.411
G1 X65.381Y634.093
G1 X65.714Y633.798
G1 X66.014Y633.529
G1 X66.279Y633.287
G1 X66.509Y633.071
G1 X66.703Y632.884
G1 X66.86Y632.725
G1 X66.978Y632.596
G1 X67.057Y632.498
G1 X67.096Y632.432
G1 X67.107Y632.356
G1 Y632.23
G1 X67.096Y632.055
G1 X67.073Y631.833
G1 X67.039Y631.566
G1 X66.994Y631.254
G1 X66.939Y630.898
G1 X66.873Y630.501
G1 X66.798Y630.063
G1 X66.713Y629.586
G1 X66.618Y629.07
G1 X66.514Y628.518
G1 X66.401Y627.931
G1 X66.28Y627.31
G1 X66.012Y625.971
G1 X65.713Y624.511
G1 X65.385Y622.942
G1 X65.03Y621.274
G1 X64.65Y619.517
G1 X64.247Y617.683
G1 X63.823Y615.781
G1 X63.381Y613.822
G1 X62.552Y610.201
G1 X61.833Y607.052
G1 X61.145Y604.013
G1 X60.488Y601.08
G1 X59.862Y598.251
G1 X59.266Y595.525
G1 X58.699Y592.9
G1 X58.427Y591.625
G1 X58.163Y590.374
G1 X57.905Y589.147
G1 X57.411Y586.764
G1 X56.947Y584.474
G1 X56.51Y582.276
G1 X56.101Y580.167
G1 X55.72Y578.145
G1 X55.366Y576.208
G1 X55.039Y574.354
G1 X54.738Y572.581
G1 X54.464Y570.887
G1 X54.215Y569.269
G1 X53.992Y567.727
G1 X53.794Y566.256
G1 X53.621Y564.857
G1 X53.472Y563.526
G1 X53.348Y562.261
G1 X53.247Y561.06
G1 X53.17Y559.922
G1 X53.115Y558.844
G1 X53.084Y557.824
G1 Y556.86
G1 Y555.95
G1 X53.122Y555.092
G1 X53.178Y554.284
G1 X53.255Y553.524
G1 X53.329Y552.922
G1 X53.404Y552.376
G1 X53.48Y551.879
G1 X53.56Y551.428
G1 X53.647Y551.018
G1 X53.741Y550.643
G1 X53.845Y550.299
G1 X53.961Y549.98
G1 X54.236Y549.401
G1 X54.581Y548.867
; Layer WorkSpace Pass 8 of 10
G1 X54.785Y548.604
G1 X55.013Y548.338
G1 X55.266Y548.064
G1 X55.546Y547.776
G1 X56.043Y547.317
G1 X56.557Y546.925
G1 X57.096Y546.602
G1 X57.667Y546.347
G1 X58.276Y546.161
G1 X58.932Y546.046
G1 X59.642Y546
G1 X60.413Y546.025
G1 X60.823Y546.065
G1 X61.252Y546.122
G1 X61.699Y546.198
G1 X62.166Y546.291
G1 X62.653Y546.403
G1 X63.163Y546.533
G1 X63.694Y546.681
G1 X64.249Y546.847
G1 X64.829Y547.032
G1 X65.433Y547.235
G1 X66.064Y547.457
G1 X66.721Y547.698
G1 X67.407Y547.957
G1 X68.121Y548.235
G1 X68.865Y548.532
G1 X69.64Y548.847
G1 X71.18Y549.493
G1 X72.674Y550.148
G1 X74.162Y550.837
G1 X75.682Y551.582
G1 X76.467Y551.984
G1 X77.274Y552.408
G1 X78.109Y552.858
G1 X78.976Y553.337
G1 X79.881Y553.848
G1 X80.827Y554.393
G1 X81.821Y554.976
G1 X82.866Y555.599
G1 X83.968Y556.266
G1 X85.131Y556.979
G1 X86.361Y557.741
G1 X87.662Y558.555
G1 X89.039Y559.424
G1 X90.497Y560.351
G1 X91.257Y560.837
G1 X92.846Y561.856
G1 X94.527Y562.941
G1 X97.234Y564.696
G1 X100.178Y566.615
G1 X104.499Y569.443
G1 X112.834Y574.92
G1 X115.016Y576.35
G1 X118.152Y578.398
G1 X121.09Y580.308
G1 X123.79Y582.055
G1 X126.214Y583.614
G1 X127.657Y584.537
G1 X128.95Y585.358
G1 X130.08Y586.07
G1 X131.035Y586.666
G1 X131.444Y586.918
G1 X131.806Y587.138
G1 X132.117Y587.325
G1 X132.379Y587.478
G1 X132.588Y587.597
G1 X132.744Y587.681
G1 X132.844Y587.728
G1 X132.889
G1 X148.529Y578.241
G1 X150.39Y577.115
G1 X152.215Y576.014
G1 X154.003Y574.939
G1 X155.754Y573.889
G1 X157.469Y572.864
G1 X159.148Y571.864
G1 X160.792Y570.889
G1 X162.402Y569.938
G1 X163.977Y569.012
G1 X165.517Y568.11
G1 X167.024Y567.232
G1 X168.498Y566.377
G1 X169.939Y565.546
G1 X171.348Y564.739
G1 X172.724Y563.955
G1 X174.069Y563.193
G1 X175.383Y562.455
G1 X176.666Y561.739
G1 X177.919Y561.046
G1 X179.141Y560.375
G1 X180.334Y559.726
G1 X181.498Y559.099
G1 X182.633Y558.493
G1 X183.74Y557.909
G1 X184.819Y557.346
G1 X185.87Y556.805
G1 X186.894Y556.284
G1 X187.892Y555.784
G1 X188.863Y555.304
G1 X189.808Y554.845
G1 X190.728Y554.406
G1 X191.622Y553.987
G1 X192.492Y553.587
G1 X193.338Y553.207
G1 X194.16Y552.846
G1 X194.958Y552.505
G1 X195.733Y552.182
G1 X196.486Y551.879
G1 X197.216Y551.594
G1 X197.924Y551.327
G1 X198.611Y551.078
G1 X199.277Y550.848
G1 X199.923Y550.635
G1 X200.548Y550.44
G1 X201.153Y550.262
G1 X201.739Y550.101
G1 X202.306Y549.958
G1 X203.385Y549.721
G1 X204.392Y549.551
G1 X205.332Y549.444
G1 X206.207Y549.4
G1 X207.021Y549.418
G1 X207.777Y549.495
G1 X208.478Y549.63
G1 X209.127Y549.822
G1 X209.578Y550.03
G1 X210.015Y550.327
G1 X210.437Y550.707
G1 X210.841Y551.164
G1 X211.225Y551.691
G1 X211.584Y552.281
G1 X211.918Y552.928
G1 X212.223Y553.625
G1 X212.496Y554.366
G1 X212.735Y555.143
G1 X212.938Y555.95
G1 X213.101Y556.781
G1 X213.222Y557.629
G1 X213.298Y558.488
G1 X213.327Y559.35
G1 X213.305Y560.209
G1 X213.246Y561.132
G1 X213.17Y562.088
G1 X213.075Y563.081
G1 X212.962Y564.111
G1 X212.829Y565.182
G1 X212.676Y566.296
G1 X212.503Y567.453
G1 X212.31Y568.658
G1 X212.095Y569.912
G1 X211.859Y571.217
G1 X211.6Y572.575
G1 X211.318Y573.988
G1 X211.014Y575.46
G1 X210.685Y576.991
G1 X210.332Y578.584
G1 X209.955Y580.242
G1 X209.552Y581.966
G1 X209.123Y583.758
G1 X208.669Y585.622
G1 X208.187Y587.558
G1 X207.678Y589.569
G1 X207.141Y591.658
G1 X206.576Y593.826
G1 X205.982Y596.076
G1 X205.359Y598.409
G1 X204.706Y600.829
G1 X204.023Y603.337
G1 X203.309Y605.935
G1 X202.564Y608.626
G1 X201.787Y611.411
G1 X201.386Y612.84
G1 X200.561Y615.771
G1 X194.94Y635.617
G1 X214.077Y652.397
G1 X218.053Y655.894
G1 X222.017Y659.401
G1 X223.962Y661.128
G1 X225.864Y662.823
G1 X227.71Y664.473
G1 X229.489Y666.066
G1 X231.185Y667.591
G1 X232.786Y669.036
G1 X234.28Y670.389
G1 X235.652Y671.638
G1 X236.89Y672.772
G1 X237.981Y673.779
G1 X238.911Y674.647
G1 X239.312Y675.026
G1 X239.668Y675.365
G1 X240.654Y676.32
G1 X241.613Y677.268
G1 X242.543Y678.207
G1 X243.444Y679.137
G1 X244.315Y680.057
G1 X245.156Y680.967
G1 X245.967Y681.865
G1 X246.747Y682.75
G1 X247.496Y683.623
G1 X248.213Y684.483
G1 X248.897Y685.328
G1 X249.548Y686.158
G1 X250.166Y686.972
G1 X250.751Y687.77
G1 X251.301Y688.551
G1 X251.816Y689.314
G1 X252.296Y690.058
G1 X252.74Y690.783
G1 X253.148Y691.487
G1 X253.52Y692.171
G1 X253.854Y692.833
G1 X254.151Y693.474
G1 X254.409Y694.091
G1 X254.629Y694.684
G1 X254.81Y695.253
G1 X254.951Y695.797
G1 X255.052Y696.315
G1 X255.113Y696.806
G1 X255.133Y697.27
G1 X255.111Y697.706
G1 X255.047Y698.113
G1 X254.941Y698.49
G1 X254.816Y698.749
G1 X254.61Y699.058
G1 X254.333Y699.406
G1 X253.997Y699.78
G1 X253.613Y700.169
G1 X253.192Y700.562
G1 X252.743Y700.946
G1 X252.28Y701.312
G1 X251.739Y701.694
G1 X251.153Y702.063
G1 X250.517Y702.417
G1 X249.827Y702.759
G1 X249.081Y703.087
G1 X248.275Y703.404
G1 X247.404Y703.708
G1 X246.466Y704.002
G1 X245.457Y704.284
G1 X244.373Y704.556
G1 X243.21Y704.818
G1 X241.965Y705.07
G1 X240.634Y705.314
G1 X239.213Y705.549
G1 X237.7Y705.776
G1 X236.09Y705.995
G1 X235.248Y706.102
G1 X234.38Y706.207
G1 X233.486Y706.311
G1 X232.565Y706.413
G1 X231.618Y706.514
G1 X230.644Y706.612
G1 X229.641Y706.71
G1 X228.611Y706.806
G1 X227.551Y706.901
G1 X226.463Y706.995
G1 X225.345Y707.087
G1 X224.197Y707.179
G1 X223.018Y707.269
G1 X221.808Y707.358
G1 X220.567Y707.446
G1 X219.294Y707.534
G1 X217.989Y707.62
G1 X216.651Y707.706
G1 X215.28Y707.791
G1 X213.875Y707.875
G1 X212.435Y707.959
G1 X210.962Y708.042
G1 X209.453Y708.125
G1 X207.909Y708.208
G1 X206.328Y708.289
G1 X204.712Y708.371
G1 X203.058Y708.453
G1 X199.639Y708.615
G1 X196.067Y708.777
G1 X168.794Y709.965
G1 X164.592Y719.964
G1 X163.616Y722.279
G1 X162.66Y724.542
G1 X161.723Y726.752
G1 X160.806Y728.91
G1 X159.909Y731.017
G1 X159.03Y733.072
G1 X158.169Y735.078
G1 X157.327Y737.034
G1 X156.502Y738.94
G1 X155.695Y740.799
G1 X154.906Y742.609
G1 X154.133Y744.372
G1 X153.377Y746.088
G1 X152.638Y747.758
G1 X151.915Y749.383
G1 X151.207Y750.962
G1 X150.514Y752.497
G1 X149.837Y753.989
G1 X149.175Y755.437
G1 X148.527Y756.842
G1 X147.894Y758.206
G1 X147.274Y759.528
G1 X146.668Y760.809
G1 X146.075Y762.05
G1 X145.495Y763.251
G1 X144.928Y764.413
G1 X144.373Y765.536
G1 X143.83Y766.622
G1 X143.299Y767.67
G1 X142.779Y768.682
G1 X142.27Y769.657
G1 X141.773Y770.597
G1 X141.285Y771.501
G1 X140.808Y772.372
G1 X140.341Y773.208
G1 X139.884Y774.011
G1 X139.435Y774.782
G1 X138.996Y775.521
G1 X138.565Y776.228
G1 X138.143Y776.904
G1 X137.728Y777.549
G1 X137.322Y778.166
G1 X136.922Y778.753
G1 X136.53Y779.311
G1 X136.145Y779.842
G1 X135.766Y780.345
G1 X135.394Y780.821
G1 X135.027Y781.271
G1 X134.666Y781.696
G1 X134.31Y782.095
G1 X133.959Y782.47
G1 X133.27Y783.149
G1 X132.598Y783.738
G1 X131.939Y784.24
G1 X131.292Y784.661
G1 X130.653Y785.006
G1 X130.021Y785.279
G1 X129.445Y785.482
G1 X128.902Y785.643
G1 X128.386Y785.759
G1 X127.892Y785.829
G1 X127.415Y785.851
G1 X126.951Y785.823
G1 X126.494Y785.744
G1 X126.039Y785.611
G1 X125.581Y785.424
G1 X125.116Y785.18
G1 X124.639Y784.878
G1 X124.144Y784.515
G1 X123.626Y784.091
G1 X123.081Y783.603
G1 X122.504Y783.049
G1 X121.889Y782.429
G1 X121.411Y781.916
G1 X120.929Y781.356
G1 X120.439Y780.745
G1 X119.942Y780.082
G1 X119.437Y779.363
G1 X118.921Y778.586
G1 X118.393Y777.748
G1 X117.854Y776.846
G1 X117.3Y775.879
G1 X116.732Y774.842
G1 X116.148Y773.735
G1 X115.547Y772.553
G1 X114.927Y771.294
G1 X114.288Y769.957
G1 X113.628Y768.537
G1 X112.946Y767.033
G1 X112.241Y765.442
G1 X111.512Y763.76
G1 X110.757Y761.987
G1 X109.976Y760.118
G1 X109.575Y759.147
G1 X109.167Y758.152
G1 X108.751Y757.131
G1 X108.329Y756.085
G1 X107.898Y755.013
G1 X107.46Y753.915
G1 X107.015Y752.791
G1 X106.561Y751.639
G1 X106.099Y750.461
G1 X105.629Y749.256
G1 X105.15Y748.022
G1 X104.663Y746.761
G1 X104.167Y745.471
G1 X103.149Y742.805
G1 X102.093Y740.021
G1 X101Y737.118
G1 X99.868Y734.091
G1 X98.696Y730.94
G1 X95.147Y721.356
G1 X91.494Y711.521
G1 X90.214Y708.129
G1 X62.524Y705.509
G1 X55.467Y704.835
G1 X50.473Y704.348
G1 X47.079Y704.009
G1 X43.964Y703.69
G1 X42.034Y703.488
G1 X40.214Y703.292
G1 X38.499Y703.103
G1 X36.883Y702.919
G1 X35.36Y702.739
G1 X33.925Y702.564
G1 X32.573Y702.392
G1 X31.298Y702.222
G1 X30.093Y702.054
G1 X28.955Y701.887
G1 X27.876Y701.72
G1 X26.851Y701.552
G1 X25.876Y701.383
G1 X24.943Y701.211
G1 X24.049Y701.037
G1 X23.186Y700.859
G1 X21.534Y700.489
G1 X19.942Y700.095
G1 X18.367Y699.671
G1 X16.763Y699.211
G1 X15.956Y698.97
G1 X15.185Y698.735
G1 X14.451Y698.503
G1 X13.75Y698.276
G1 X13.084Y698.051
G1 X12.452Y697.828
G1 X11.851Y697.608
G1 X11.282Y697.389
G1 X10.744Y697.171
G1 X10.237Y696.953
G1 X9.758Y696.735
G1 X9.308Y696.516
G1 X8.886Y696.296
G1 X8.491Y696.074
G1 X8.122Y695.85
G1 X7.778Y695.623
G1 X7.164Y695.157
G1 X6.641Y694.674
G1 X6.205Y694.167
G1 X5.848Y693.634
G1 X5.565Y693.07
G1 X5.349Y692.47
G1 X5.193Y691.831
G1 X5.092Y691.147
G1 X5.048Y690.705
G1 X5.016Y690.304
G1 X5Y689.935
G1 Y689.591
G1 X5.025Y689.264
G1 X5.071Y688.946
G1 X5.144Y688.63
G1 X5.246Y688.309
G1 X5.38Y687.973
G1 X5.548Y687.617
G1 X5.754Y687.232
G1 X5.999Y686.81
G1 X6.288Y686.344
G1 X6.622Y685.827
G1 X7.005Y685.25
G1 X7.438Y684.606
G1 X7.907Y683.931
G1 X8.411Y683.241
G1 X8.952Y682.535
G1 X9.532Y681.811
G1 X10.155Y681.065
G1 X10.821Y680.298
G1 X11.533Y679.506
G1 X12.295Y678.687
G1 X13.106Y677.84
G1 X13.971Y676.963
G1 X14.891Y676.052
G1 X15.868Y675.108
G1 X16.905Y674.127
G1 X18.004Y673.107
G1 X19.168Y672.047
G1 X20.397Y670.945
G1 X21.696Y669.798
G1 X23.065Y668.604
G1 X24.507Y667.362
G1 X26.025Y666.07
G1 X27.621Y664.725
G1 X29.296Y663.325
G1 X30.164Y662.605
G1 X31.054Y661.87
G1 X31.964Y661.12
G1 X32.896Y660.355
G1 X33.849Y659.576
G1 X34.824Y658.781
G1 X36.842Y657.143
G1 X38.95Y655.442
G1 X41.152Y653.674
G1 X43.45Y651.837
G1 X45.845Y649.93
G1 X48.34Y647.951
G1 X52.551Y644.62
G1 X54.121Y643.369
G1 X55.642Y642.151
G1 X57.105Y640.973
G1 X58.501Y639.841
G1 X59.822Y638.762
G1 X60.452Y638.245
G1 X61.645Y637.259
G1 X62.743Y636.344
G1 X63.737Y635.507
G1 X64.193Y635.12
G1 X64.619Y634.754
G1 X65.015Y634.411
G1 X65.381Y634.093
G1 X65.714Y633.798
G1 X66.014Y633.529
G1 X66.279Y633.287
G1 X66.509Y633.071
G1 X66.703Y632.884
G1 X66.86Y632.725
G1 X66.978Y632.596
G1 X67.057Y632.498
G1 X67.096Y632.432
G1 X67.107Y632.356
G1 Y632.23
G1 X67.096Y632.055
G1 X67.073Y631.833
G1 X67.039Y631.566
G1 X66.994Y631.254
G1 X66.939Y630.898
G1 X66.873Y630.501
G1 X66.798Y630.063
G1 X66.713Y629.586
G1 X66.618Y629.07
G1 X66.514Y628.518
G1 X66.401Y627.931
G1 X66.28Y627.31
G1 X66.012Y625.971
G1 X65.713Y624.511
G1 X65.385Y622.942
G1 X65.03Y621.274
G1 X64.65Y619.517
G1 X64.247Y617.683
G1 X63.823Y615.781
G1 X63.381Y613.822
G1 X62.552Y610.201
G1 X61.833Y607.052
G1 X61.145Y604.013
G1 X60.488Y601.08
G1 X59.862Y598.251
G1 X59.266Y595.525
G1 X58.699Y592.9
G1 X58.427Y591.625
G1 X58.163Y590.374
G1 X57.905Y589.147
G1 X57.411Y586.764
G1 X56.947Y584.474
G1 X56.51Y582.276
G1 X56.101Y580.167
G1 X55.72Y578.145
G1 X55.366Y576.208
G1 X55.039Y574.354
G1 X54.738Y572.581
G1 X54.464Y570.887
G1 X54.215Y569.269
G1 X53.992Y567.727
G1 X53.794Y566.256
G1 X53.621Y564.857
G1 X53.472Y563.526
G1 X53.348Y562.261
G1 X53.247Y561.06
G1 X53.17Y559.922
G1 X53.115Y558.844
G1 X53.084Y557.824
G1 Y556.86
G1 Y555.95
G1 X53.122Y555.092
G1 X53.178Y554.284
G1 X53.255Y553.524
G1 X53.329Y552.922
G1 X53.404Y552.376
G1 X53.48Y551.879
G1 X53.56Y551.428
G1 X53.647Y551.018
G1 X53.741Y550.643
G1 X53.845Y550.299
G1 X53.961Y549.98
G1 X54.236Y549.401
G1 X54.581Y548.867
; Layer WorkSpace Pass 9 of 10
G1 X54.785Y548.604
G1 X55.013Y548.338
G1 X55.266Y548.064
G1 X55.546Y547.776
G1 X56.043Y547.317
G1 X56.557Y546.925
G1 X57.096Y546.602
G1 X57.667Y546.347
G1 X58.276Y546.161
G1 X58.932Y546.046
G1 X59.642Y546
G1 X60.413Y546.025
G1 X60.823Y546.065
G1 X61.252Y546.122
G1 X61.699Y546.198
G1 X62.166Y546.291
G1 X62.653Y546.403
G1 X63.163Y546.533
G1 X63.694Y546.681
G1 X64.249Y546.847
G1 X64.829Y547.032
G1 X65.433Y547.235
G1 X66.064Y547.457
G1 X66.721Y547.698
G1 X67.407Y547.957
G1 X68.121Y548.235
G1 X68.865Y548.532
G1 X69.64Y548.847
G1 X71.18Y549.493
G1 X72.674Y550.148
G1 X74.162Y550.837
G1 X75.682Y551.582
G1 X76.467Y551.984
G1 X77.274Y552.408
G1 X78.109Y552.858
G1 X78.976Y553.337
G1 X79.881Y553.848
G1 X80.827Y554.393
G1 X81.821Y554.976
G1 X82.866Y555.599
G1 X83.968Y556.266
G1 X85.131Y556.979
G1 X86.361Y557.741
G1 X87.662Y558.555
G1 X89.039Y559.424
G1 X90.497Y560.351
G1 X91.257Y560.837
G1 X92.846Y561.856
G1 X94.527Y562.941
G1 X97.234Y564.696
G1 X100.178Y566.615
G1 X104.499Y569.443
G1 X112.834Y574.92
G1 X115.016Y576.35
G1 X118.152Y578.398
G1 X121.09Y580.308
G1 X123.79Y582.055
G1 X126.214Y583.614
G1 X127.657Y584.537
G1 X128.95Y585.358
G1 X130.08Y586.07
G1 X131.035Y586.666
G1 X131.444Y586.918
G1 X131.806Y587.138
G1 X132.117Y587.325
G1 X132.379Y587.478
G1 X132.588Y587.597
G1 X132.744Y587.681
G1 X132.844Y587.728
G1 X132.889
G1 X148.529Y578.241
G1 X150.39Y577.115
G1 X152.215Y576.014
G1 X154.003Y574.939
G1 X155.754Y573.889
G1 X157.469Y572.864
G1 X159.148Y571.864
G1 X160.792Y570.889
G1 X162.402Y569.938
G1 X163.977Y569.012
G1 X165.517Y568.11
G1 X167.024Y567.232
G1 X168.498Y566.377
G1 X169.939Y565.546
G1 X171.348Y564.739
G1 X172.724Y563.955
G1 X174.069Y563.193
G1 X175.383Y562.455
G1 X176.666Y561.739
G1 X177.919Y561.046
G1 X179.141Y560.375
G1 X180.334Y559.726
G1 X181.498Y559.099
G1 X182.633Y558.493
G1 X183.74Y557.909
G1 X184.819Y557.346
G1 X185.87Y556.805
G1 X186.894Y556.284
G1 X187.892Y555.784
G1 X188.863Y555.304
G1 X189.808Y554.845
G1 X190.728Y554.406
G1 X191.622Y553.987
G1 X192.492Y553.587
G1 X193.338Y553.207
G1 X194.16Y552.846
G1 X194.958Y552.505
G1 X195.733Y552.182
G1 X196.486Y551.879
G1 X197.216Y551.594
G1 X197.924Y551.327
G1 X198.611Y551.078
G1 X199.277Y550.848
G1 X199.923Y550.635
G1 X200.548Y550.44
G1 X201.153Y550.262
G1 X201.739Y550.101
G1 X202.306Y549.958
G1 X203.385Y549.721
G1 X204.392Y549.551
G1 X205.332Y549.444
G1 X206.207Y549.4
G1 X207.021Y549.418
G1 X207.777Y549.495
G1 X208.478Y549.63
G1 X209.127Y549.822
G1 X209.578Y550.03
G1 X210.015Y550.327
G1 X210.437Y550.707
G1 X210.841Y551.164
G1 X211.225Y551.691
G1 X211.584Y552.281
G1 X211.918Y552.928
G1 X212.223Y553.625
G1 X212.496Y554.366
G1 X212.735Y555.143
G1 X212.938Y555.95
G1 X213.101Y556.781
G1 X213.222Y557.629
G1 X213.298Y558.488
G1 X213.327Y559.35
G1 X213.305Y560.209
G1 X213.246Y561.132
G1 X213.17Y562.088
G1 X213.075Y563.081
G1 X212.962Y564.111
G1 X212.829Y565.182
G1 X212.676Y566.296
G1 X212.503Y567.453
G1 X212.31Y568.658
G1 X212.095Y569.912
G1 X211.859Y571.217
G1 X211.6Y572.575
G1 X211.318Y573.988
G1 X211.014Y575.46
G1 X210.685Y576.991
G1 X210.332Y578.584
G1 X209.955Y580.242
G1 X209.552Y581.966
G1 X209.123Y583.758
G1 X208.669Y585.622
G1 X208.187Y587.558
G1 X207.678Y589.569
G1 X207.141Y591.658
G1 X206.576Y593.826
G1 X205.982Y596.076
G1 X205.359Y598.409
G1 X204.706Y600.829
G1 X204.023Y603.337
G1 X203.309Y605.935
G1 X202.564Y608.626
G1 X201.787Y611.411
G1 X201.386Y612.84
G1 X200.561Y615.771
G1 X194.94Y635.617
G1 X214.077Y652.397
G1 X218.053Y655.894
G1 X222.017Y659.401
G1 X223.962Y661.128
G1 X225.864Y662.823
G1 X227.71Y664.473
G1 X229.489Y666.066
G1 X231.185Y667.591
G1 X232.786Y669.036
G1 X234.28Y670.389
G1 X235.652Y671.638
G1 X236.89Y672.772
G1 X237.981Y673.779
G1 X238.911Y674.647
G1 X239.312Y675.026
G1 X239.668Y675.365
G1 X240.654Y676.32
G1 X241.613Y677.268
G1 X242.543Y678.207
G1 X243.444Y679.137
G1 X244.315Y680.057
G1 X245.156Y680.967
G1 X245.967Y681.865
G1 X246.747Y682.75
G1 X247.496Y683.623
G1 X248.213Y684.483
G1 X248.897Y685.328
G1 X249.548Y686.158
G1 X250.166Y686.972
G1 X250.751Y687.77
G1 X251.301Y688.551
G1 X251.816Y689.314
G1 X252.296Y690.058
G1 X252.74Y690.783
G1 X253.148Y691.487
G1 X253.52Y692.171
G1 X253.854Y692.833
G1 X254.151Y693.474
G1 X254.409Y694.091
G1 X254.629Y694.684
G1 X254.81Y695.253
G1 X254.951Y695.797
G1 X255.052Y696.315
G1 X255.113Y696.806
G1 X255.133Y697.27
G1 X255.111Y697.706
G1 X255.047Y698.113
G1 X254.941Y698.49
G1 X254.816Y698.749
G1 X254.61Y699.058
G1 X254.333Y699.406
G1 X253.997Y699.78
G1 X253.613Y700.169
G1 X253.192Y700.562
G1 X252.743Y700.946
G1 X252.28Y701.312
G1 X251.739Y701.694
G1 X251.153Y702.063
G1 X250.517Y702.417
G1 X249.827Y702.759
G1 X249.081Y703.087
G1 X248.275Y703.404
G1 X247.404Y703.708
G1 X246.466Y704.002
G1 X245.457Y704.284
G1 X244.373Y704.556
G1 X243.21Y704.818
G1 X241.965Y705.07
G1 X240.634Y705.314
G1 X239.213Y705.549
G1 X237.7Y705.776
G1 X236.09Y705.995
G1 X235.248Y706.102
G1 X234.38Y706.207
G1 X233.486Y706.311
G1 X232.565Y706.413
G1 X231.618Y706.514
G1 X230.644Y706.612
G1 X229.641Y706.71
G1 X228.611Y706.806
G1 X227.551Y706.901
G1 X226.463Y706.995
G1 X225.345Y707.087
G1 X224.197Y707.179
G1 X223.018Y707.269
G1 X221.808Y707.358
G1 X220.567Y707.446
G1 X219.294Y707.534
G1 X217.989Y707.62
G1 X216.651Y707.706
G1 X215.28Y707.791
G1 X213.875Y707.875
G1 X212.435Y707.959
G1 X210.962Y708.042
G1 X209.453Y708.125
G1 X207.909Y708.208
G1 X206.328Y708.289
G1 X204.712Y708.371
G1 X203.058Y708.453
G1 X199.639Y708.615
G1 X196.067Y708.777
G1 X168.794Y709.965
G1 X164.592Y719.964
G1 X163.616Y722.279
G1 X162.66Y724.542
G1 X161.723Y726.752
G1 X160.806Y728.91
G1 X159.909Y731.017
G1 X159.03Y733.072
G1 X158.169Y735.078
G1 X157.327Y737.034
G1 X156.502Y738.94
G1 X155.695Y740.799
G1 X154.906Y742.609
G1 X154.133Y744.372
G1 X153.377Y746.088
G1 X152.638Y747.758
G1 X151.915Y749.383
G1 X151.207Y750.962
G1 X150.514Y752.497
G1 X149.837Y753.989
G1 X149.175Y755.437
G1 X148.527Y756.842
G1 X147.894Y758.206
G1 X147.274Y759.528
G1 X146.668Y760.809
G1 X146.075Y762.05
G1 X145.495Y763.251
G1 X144.928Y764.413
G1 X144.373Y765.536
G1 X143.83Y766.622
G1 X143.299Y767.67
G1 X142.779Y768.682
G1 X142.27Y769.657
G1 X141.773Y770.597
G1 X141.285Y771.501
G1 X140.808Y772.372
G1 X140.341Y773.208
G1 X139.884Y774.011
G1 X139.435Y774.782
G1 X138.996Y775.521
G1 X138.565Y776.228
G1 X138.143Y776.904
G1 X137.728Y777.549
G1 X137.322Y778.166
G1 X136.922Y778.753
G1 X136.53Y779.311
G1 X136.145Y779.842
G1 X135.766Y780.345
G1 X135.394Y780.821
G1 X135.027Y781.271
G1 X134.666Y781.696
G1 X134.31Y782.095
G1 X133.959Y782.47
G1 X133.27Y783.149
G1 X132.598Y783.738
G1 X131.939Y784.24
G1 X131.292Y784.661
G1 X130.653Y785.006
G1 X130.021Y785.279
G1 X129.445Y785.482
G1 X128.902Y785.643
G1 X128.386Y785.759
G1 X127.892Y785.829
G1 X127.415Y785.851
G1 X126.951Y785.823
G1 X126.494Y785.744
G1 X126.039Y785.611
G1 X125.581Y785.424
G1 X125.116Y785.18
G1 X124.639Y784.878
G1 X124.144Y784.515
G1 X123.626Y784.091
G1 X123.081Y783.603
G1 X122.504Y783.049
G1 X121.889Y782.429
G1 X121.411Y781.916
G1 X120.929Y781.356
G1 X120.439Y780.745
G1 X119.942Y780.082
G1 X119.437Y779.363
G1 X118.921Y778.586
G1 X118.393Y777.748
G1 X117.854Y776.846
G1 X117.3Y775.879
G1 X116.732Y774.842
G1 X116.148Y773.735
G1 X115.547Y772.553
G1 X114.927Y771.294
G1 X114.288Y769.957
G1 X113.628Y768.537
G1 X112.946Y767.033
G1 X112.241Y765.442
G1 X111.512Y763.76
G1 X110.757Y761.987
G1 X109.976Y760.118
G1 X109.575Y759.147
G1 X109.167Y758.152
G1 X108.751Y757.131
G1 X108.329Y756.085
G1 X107.898Y755.013
G1 X107.46Y753.915
G1 X107.015Y752.791
G1 X106.561Y751.639
G1 X106.099Y750.461
G1 X105.629Y749.256
G1 X105.15Y748.022
G1 X104.663Y746.761
G1 X104.167Y745.471
G1 X103.149Y742.805
G1 X102.093Y740.021
G1 X101Y737.118
G1 X99.868Y734.091
G1 X98.696Y730.94
G1 X95.147Y721.356
G1 X91.494Y711.521
G1 X90.214Y708.129
G1 X62.524Y705.509
G1 X55.467Y704.835
G1 X50.473Y704.348
G1 X47.079Y704.009
G1 X43.964Y703.69
G1 X42.034Y703.488
G1 X40.214Y703.292
G1 X38.499Y703.103
G1 X36.883Y702.919
G1 X35.36Y702.739
G1 X33.925Y702.564
G1 X32.573Y702.392
G1 X31.298Y702.222
G1 X30.093Y702.054
G1 X28.955Y701.887
G1 X27.876Y701.72
G1 X26.851Y701.552
G1 X25.876Y701.383
G1 X24.943Y701.211
G1 X24.049Y701.037
G1 X23.186Y700.859
G1 X21.534Y700.489
G1 X19.942Y700.095
G1 X18.367Y699.671
G1 X16.763Y699.211
G1 X15.956Y698.97
G1 X15.185Y698.735
G1 X14.451Y698.503
G1 X13.75Y698.276
G1 X13.084Y698.051
G1 X12.452Y697.828
G1 X11.851Y697.608
G1 X11.282Y697.389
G1 X10.744Y697.171
G1 X10.237Y696.953
G1 X9.758Y696.735
G1 X9.308Y696.516
G1 X8.886Y696.296
G1 X8.491Y696.074
G1 X8.122Y695.85
G1 X7.778Y695.623
G1 X7.164Y695.157
G1 X6.641Y694.674
G1 X6.205Y694.167
G1 X5.848Y693.634
G1 X5.565Y693.07
G1 X5.349Y692.47
G1 X5.193Y691.831
G1 X5.092Y691.147
G1 X5.048Y690.705
G1 X5.016Y690.304
G1 X5Y689.935
G1 Y689.591
G1 X5.025Y689.264
G1 X5.071Y688.946
G1 X5.144Y688.63
G1 X5.246Y688.309
G1 X5.38Y687.973
G1 X5.548Y687.617
G1 X5.754Y687.232
G1 X5.999Y686.81
G1 X6.288Y686.344
G1 X6.622Y685.827
G1 X7.005Y685.25
G1 X7.438Y684.606
G1 X7.907Y683.931
G1 X8.411Y683.241
G1 X8.952Y682.535
G1 X9.532Y681.811
G1 X10.155Y681.065
G1 X10.821Y680.298
G1 X11.533Y679.506
G1 X12.295Y678.687
G1 X13.106Y677.84
G1 X13.971Y676.963
G1 X14.891Y676.052
G1 X15.868Y675.108
G1 X16.905Y674.127
G1 X18.004Y673.107
G1 X19.168Y672.047
G1 X20.397Y670.945
G1 X21.696Y669.798
G1 X23.065Y668.604
G1 X24.507Y667.362
G1 X26.025Y666.07
G1 X27.621Y664.725
G1 X29.296Y663.325
G1 X30.164Y662.605
G1 X31.054Y661.87
G1 X31.964Y661.12
G1 X32.896Y660.355
G1 X33.849Y659.576
G1 X34.824Y658.781
G1 X36.842Y657.143
G1 X38.95Y655.442
G1 X41.152Y653.674
G1 X43.45Y651.837
G1 X45.845Y649.93
G1 X48.34Y647.951
G1 X52.551Y644.62
G1 X54.121Y643.369
G1 X55.642Y642.151
G1 X57.105Y640.973
G1 X58.501Y639.841
G1 X59.822Y638.762
G1 X60.452Y638.245
G1 X61.645Y637.259
G1 X62.743Y636.344
G1 X63.737Y635.507
G1 X64.193Y635.12
G1 X64.619Y634.754
G1 X65.015Y634.411
G1 X65.381Y634.093
G1 X65.714Y633.798
G1 X66.014Y633.529
G1 X66.279Y633.287
G1 X66.509Y633.071
G1 X66.703Y632.884
G1 X66.86Y632.725
G1 X66.978Y632.596
G1 X67.057Y632.498
G1 X67.096Y632.432
G1 X67.107Y632.356
G1 Y632.23
G1 X67.096Y632.055
G1 X67.073Y631.833
G1 X67.039Y631.566
G1 X66.994Y631.254
G1 X66.939Y630.898
G1 X66.873Y630.501
G1 X66.798Y630.063
G1 X66.713Y629.586
G1 X66.618Y629.07
G1 X66.514Y628.518
G1 X66.401Y627.931
G1 X66.28Y627.31
G1 X66.012Y625.971
