; LightBurn 1.3.01
; GRBL device profile, absolute coords
; Bounds: X0 Y10 to X400 Y659.89
G00 G17 G40 G21 G54
G90
M4
; Cut @ 600 mm/min, 100% power
M8
G0 X70.33Y52
; Layer Trayectorias_de_corte_1 Pass 1 of 9
G1 Y92S1000F600
G1 X94.25
G1 Y52
G1 X70.33
; Layer Trayectorias_de_corte_1 Pass 2 of 9
G1 Y92
G1 X94.25
G1 Y52
G1 X70.33
; Layer Trayectorias_de_corte_1 Pass 3 of 9
G1 Y92
G1 X94.25
G1 Y52
G1 X70.33
; Layer Trayectorias_de_corte_1 Pass 4 of 9
G1 Y92
G1 X94.25
G1 Y52
G1 X70.33
; Layer Trayectorias_de_corte_1 Pass 5 of 9
G1 Y92
G1 X94.25
G1 Y52
G1 X70.33
; Layer Trayectorias_de_corte_1 Pass 6 of 9
G1 Y92
G1 X94.25
G1 Y52
G1 X70.33
; Layer Trayectorias_de_corte_1 Pass 7 of 9
G1 Y92
G1 X94.25
G1 Y52
G1 X70.33
; Layer Trayectorias_de_corte_1 Pass 8 of 9
G1 Y92
G1 X94.25
G1 Y52
G1 X70.33
; Layer Trayectorias_de_corte_1 Pass 9 of 9
G1 Y92
G1 X94.25
G1 Y52
G1 X70.33
G0 X104.251Y48.905
; Layer Trayectorias_de_corte_1 Pass 1 of 9
G1 Y55.505
G1 X107.55
G1 Y62.105
G1 X104.251
G1 Y68.705
G1 X107.55
G1 Y75.304
G1 X104.251
G1 Y81.905
G1 X107.55
G1 Y88.505
G1 X104.251
G1 Y95.105
G1 X107.55
G1 Y101.705
G1 X104.251
G1 Y108.304
G1 X107.55
G1 Y114.905
G1 X104.251
G1 Y124.91
G1 X93.851
G1 Y128.21
G1 X87.25
G1 Y124.91
G1 X80.651
G1 Y128.21
G1 X74.05
G1 Y124.91
G1 X67.45
G1 Y128.21
G1 X60.851
G1 Y124.91
G1 X54.25
G1 Y128.21
G1 X47.651
G1 Y124.91
G1 X41.05
G1 Y128.21
G1 X34.45
G1 Y124.91
G1 X27.851
G1 Y128.21
G1 X21.25
G1 Y124.91
G1 X10.85
G1 Y19.1
G1 X21.25
G1 Y15.799
G1 X27.851
G1 Y19.1
G1 X34.45
G1 Y15.799
G1 X41.05
G1 Y19.1
G1 X47.651
G1 Y15.799
G1 X54.25
G1 Y19.1
G1 X60.851
G1 Y15.799
G1 X67.45
G1 Y19.1
G1 X74.05
G1 Y15.799
G1 X80.65
G1 Y19.1
G1 X87.25
G1 Y15.799
G1 X93.851
G1 Y19.1
G1 X104.251
G1 Y29.104
G1 X107.55
G1 Y35.705
G1 X104.251
G1 Y42.304
G1 X107.55
G1 Y48.905
G1 X104.251
; Layer Trayectorias_de_corte_1 Pass 2 of 9
G1 Y55.505
G1 X107.55
G1 Y62.105
G1 X104.251
G1 Y68.705
G1 X107.55
G1 Y75.304
G1 X104.251
G1 Y81.905
G1 X107.55
G1 Y88.505
G1 X104.251
G1 Y95.105
G1 X107.55
G1 Y101.705
G1 X104.251
G1 Y108.304
G1 X107.55
G1 Y114.905
G1 X104.251
G1 Y124.91
G1 X93.851
G1 Y128.21
G1 X87.25
G1 Y124.91
G1 X80.651
G1 Y128.21
G1 X74.05
G1 Y124.91
G1 X67.45
G1 Y128.21
G1 X60.851
G1 Y124.91
G1 X54.25
G1 Y128.21
G1 X47.651
G1 Y124.91
G1 X41.05
G1 Y128.21
G1 X34.45
G1 Y124.91
G1 X27.851
G1 Y128.21
G1 X21.25
G1 Y124.91
G1 X10.85
G1 Y19.1
G1 X21.25
G1 Y15.799
G1 X27.851
G1 Y19.1
G1 X34.45
G1 Y15.799
G1 X41.05
G1 Y19.1
G1 X47.651
G1 Y15.799
G1 X54.25
G1 Y19.1
G1 X60.851
G1 Y15.799
G1 X67.45
G1 Y19.1
G1 X74.05
G1 Y15.799
G1 X80.65
G1 Y19.1
G1 X87.25
G1 Y15.799
G1 X93.851
G1 Y19.1
G1 X104.251
G1 Y29.104
G1 X107.55
G1 Y35.705
G1 X104.251
G1 Y42.304
G1 X107.55
G1 Y48.905
G1 X104.251
; Layer Trayectorias_de_corte_1 Pass 3 of 9
G1 Y55.505
G1 X107.55
G1 Y62.105
G1 X104.251
G1 Y68.705
G1 X107.55
G1 Y75.304
G1 X104.251
G1 Y81.905
G1 X107.55
G1 Y88.505
G1 X104.251
G1 Y95.105
G1 X107.55
G1 Y101.705
G1 X104.251
G1 Y108.304
G1 X107.55
G1 Y114.905
G1 X104.251
G1 Y124.91
G1 X93.851
G1 Y128.21
G1 X87.25
G1 Y124.91
G1 X80.651
G1 Y128.21
G1 X74.05
G1 Y124.91
G1 X67.45
G1 Y128.21
G1 X60.851
G1 Y124.91
G1 X54.25
G1 Y128.21
G1 X47.651
G1 Y124.91
G1 X41.05
G1 Y128.21
G1 X34.45
G1 Y124.91
G1 X27.851
G1 Y128.21
G1 X21.25
G1 Y124.91
G1 X10.85
G1 Y19.1
G1 X21.25
G1 Y15.799
G1 X27.851
G1 Y19.1
G1 X34.45
G1 Y15.799
G1 X41.05
G1 Y19.1
G1 X47.651
G1 Y15.799
G1 X54.25
G1 Y19.1
G1 X60.851
G1 Y15.799
G1 X67.45
G1 Y19.1
G1 X74.05
G1 Y15.799
G1 X80.65
G1 Y19.1
G1 X87.25
G1 Y15.799
G1 X93.851
G1 Y19.1
G1 X104.251
G1 Y29.104
G1 X107.55
G1 Y35.705
G1 X104.251
G1 Y42.304
G1 X107.55
G1 Y48.905
G1 X104.251
; Layer Trayectorias_de_corte_1 Pass 4 of 9
G1 Y55.505
G1 X107.55
G1 Y62.105
G1 X104.251
G1 Y68.705
G1 X107.55
G1 Y75.304
G1 X104.251
G1 Y81.905
G1 X107.55
G1 Y88.505
G1 X104.251
G1 Y95.105
G1 X107.55
G1 Y101.705
G1 X104.251
G1 Y108.304
G1 X107.55
G1 Y114.905
G1 X104.251
G1 Y124.91
G1 X93.851
G1 Y128.21
G1 X87.25
G1 Y124.91
G1 X80.651
G1 Y128.21
G1 X74.05
G1 Y124.91
G1 X67.45
G1 Y128.21
G1 X60.851
G1 Y124.91
G1 X54.25
G1 Y128.21
G1 X47.651
G1 Y124.91
G1 X41.05
G1 Y128.21
G1 X34.45
G1 Y124.91
G1 X27.851
G1 Y128.21
G1 X21.25
G1 Y124.91
G1 X10.85
G1 Y19.1
G1 X21.25
G1 Y15.799
G1 X27.851
G1 Y19.1
G1 X34.45
G1 Y15.799
G1 X41.05
G1 Y19.1
G1 X47.651
G1 Y15.799
G1 X54.25
G1 Y19.1
G1 X60.851
G1 Y15.799
G1 X67.45
G1 Y19.1
G1 X74.05
G1 Y15.799
G1 X80.65
G1 Y19.1
G1 X87.25
G1 Y15.799
G1 X93.851
G1 Y19.1
G1 X104.251
G1 Y29.104
G1 X107.55
G1 Y35.705
G1 X104.251
G1 Y42.304
G1 X107.55
G1 Y48.905
G1 X104.251
; Layer Trayectorias_de_corte_1 Pass 5 of 9
G1 Y55.505
G1 X107.55
G1 Y62.105
G1 X104.251
G1 Y68.705
G1 X107.55
G1 Y75.304
G1 X104.251
G1 Y81.905
G1 X107.55
G1 Y88.505
G1 X104.251
G1 Y95.105
G1 X107.55
G1 Y101.705
G1 X104.251
G1 Y108.304
G1 X107.55
G1 Y114.905
G1 X104.251
G1 Y124.91
G1 X93.851
G1 Y128.21
G1 X87.25
G1 Y124.91
G1 X80.651
G1 Y128.21
G1 X74.05
G1 Y124.91
G1 X67.45
G1 Y128.21
G1 X60.851
G1 Y124.91
G1 X54.25
G1 Y128.21
G1 X47.651
G1 Y124.91
G1 X41.05
G1 Y128.21
G1 X34.45
G1 Y124.91
G1 X27.851
G1 Y128.21
G1 X21.25
G1 Y124.91
G1 X10.85
G1 Y19.1
G1 X21.25
G1 Y15.799
G1 X27.851
G1 Y19.1
G1 X34.45
G1 Y15.799
G1 X41.05
G1 Y19.1
G1 X47.651
G1 Y15.799
G1 X54.25
G1 Y19.1
G1 X60.851
G1 Y15.799
G1 X67.45
G1 Y19.1
G1 X74.05
G1 Y15.799
G1 X80.65
G1 Y19.1
G1 X87.25
G1 Y15.799
G1 X93.851
G1 Y19.1
G1 X104.251
G1 Y29.104
G1 X107.55
G1 Y35.705
G1 X104.251
G1 Y42.304
G1 X107.55
G1 Y48.905
G1 X104.251
; Layer Trayectorias_de_corte_1 Pass 6 of 9
G1 Y55.505
G1 X107.55
G1 Y62.105
G1 X104.251
G1 Y68.705
G1 X107.55
G1 Y75.304
G1 X104.251
G1 Y81.905
G1 X107.55
G1 Y88.505
G1 X104.251
G1 Y95.105
G1 X107.55
G1 Y101.705
G1 X104.251
G1 Y108.304
G1 X107.55
G1 Y114.905
G1 X104.251
G1 Y124.91
G1 X93.851
G1 Y128.21
G1 X87.25
G1 Y124.91
G1 X80.651
G1 Y128.21
G1 X74.05
G1 Y124.91
G1 X67.45
G1 Y128.21
G1 X60.851
G1 Y124.91
G1 X54.25
G1 Y128.21
G1 X47.651
G1 Y124.91
G1 X41.05
G1 Y128.21
G1 X34.45
G1 Y124.91
G1 X27.851
G1 Y128.21
G1 X21.25
G1 Y124.91
G1 X10.85
G1 Y19.1
G1 X21.25
G1 Y15.799
G1 X27.851
G1 Y19.1
G1 X34.45
G1 Y15.799
G1 X41.05
G1 Y19.1
G1 X47.651
G1 Y15.799
G1 X54.25
G1 Y19.1
G1 X60.851
G1 Y15.799
G1 X67.45
G1 Y19.1
G1 X74.05
G1 Y15.799
G1 X80.65
G1 Y19.1
G1 X87.25
G1 Y15.799
G1 X93.851
G1 Y19.1
G1 X104.251
G1 Y29.104
G1 X107.55
G1 Y35.705
G1 X104.251
G1 Y42.304
G1 X107.55
G1 Y48.905
G1 X104.251
; Layer Trayectorias_de_corte_1 Pass 7 of 9
G1 Y55.505
G1 X107.55
G1 Y62.105
G1 X104.251
G1 Y68.705
G1 X107.55
G1 Y75.304
G1 X104.251
G1 Y81.905
G1 X107.55
G1 Y88.505
G1 X104.251
G1 Y95.105
G1 X107.55
G1 Y101.705
G1 X104.251
G1 Y108.304
G1 X107.55
G1 Y114.905
G1 X104.251
G1 Y124.91
G1 X93.851
G1 Y128.21
G1 X87.25
G1 Y124.91
G1 X80.651
G1 Y128.21
G1 X74.05
G1 Y124.91
G1 X67.45
G1 Y128.21
G1 X60.851
G1 Y124.91
G1 X54.25
G1 Y128.21
G1 X47.651
G1 Y124.91
G1 X41.05
G1 Y128.21
G1 X34.45
G1 Y124.91
G1 X27.851
G1 Y128.21
G1 X21.25
G1 Y124.91
G1 X10.85
G1 Y19.1
G1 X21.25
G1 Y15.799
G1 X27.851
G1 Y19.1
G1 X34.45
G1 Y15.799
G1 X41.05
G1 Y19.1
G1 X47.651
G1 Y15.799
G1 X54.25
G1 Y19.1
G1 X60.851
G1 Y15.799
G1 X67.45
G1 Y19.1
G1 X74.05
G1 Y15.799
G1 X80.65
G1 Y19.1
G1 X87.25
G1 Y15.799
G1 X93.851
G1 Y19.1
G1 X104.251
G1 Y29.104
G1 X107.55
G1 Y35.705
G1 X104.251
G1 Y42.304
G1 X107.55
G1 Y48.905
G1 X104.251
; Layer Trayectorias_de_corte_1 Pass 8 of 9
G1 Y55.505
G1 X107.55
G1 Y62.105
G1 X104.251
G1 Y68.705
G1 X107.55
G1 Y75.304
G1 X104.251
G1 Y81.905
G1 X107.55
G1 Y88.505
G1 X104.251
G1 Y95.105
G1 X107.55
G1 Y101.705
G1 X104.251
G1 Y108.304
G1 X107.55
G1 Y114.905
G1 X104.251
G1 Y124.91
G1 X93.851
G1 Y128.21
G1 X87.25
G1 Y124.91
G1 X80.651
G1 Y128.21
G1 X74.05
G1 Y124.91
G1 X67.45
G1 Y128.21
G1 X60.851
G1 Y124.91
G1 X54.25
G1 Y128.21
G1 X47.651
G1 Y124.91
G1 X41.05
G1 Y128.21
G1 X34.45
G1 Y124.91
G1 X27.851
G1 Y128.21
G1 X21.25
G1 Y124.91
G1 X10.85
G1 Y19.1
G1 X21.25
G1 Y15.799
G1 X27.851
G1 Y19.1
G1 X34.45
G1 Y15.799
G1 X41.05
G1 Y19.1
G1 X47.651
G1 Y15.799
G1 X54.25
G1 Y19.1
G1 X60.851
G1 Y15.799
G1 X67.45
G1 Y19.1
G1 X74.05
G1 Y15.799
G1 X80.65
G1 Y19.1
G1 X87.25
G1 Y15.799
G1 X93.851
G1 Y19.1
G1 X104.251
G1 Y29.104
G1 X107.55
G1 Y35.705
G1 X104.251
G1 Y42.304
G1 X107.55
G1 Y48.905
G1 X104.251
; Layer Trayectorias_de_corte_1 Pass 9 of 9
G1 Y55.505
G1 X107.55
G1 Y62.105
G1 X104.251
G1 Y68.705
G1 X107.55
G1 Y75.304
G1 X104.251
G1 Y81.905
G1 X107.55
G1 Y88.505
G1 X104.251
G1 Y95.105
G1 X107.55
G1 Y101.705
G1 X104.251
G1 Y108.304
G1 X107.55
G1 Y114.905
G1 X104.251
G1 Y124.91
G1 X93.851
G1 Y128.21
G1 X87.25
G1 Y124.91
G1 X80.651
G1 Y128.21
G1 X74.05
G1 Y124.91
G1 X67.45
G1 Y128.21
G1 X60.851
G1 Y124.91
G1 X54.25
G1 Y128.21
G1 X47.651
G1 Y124.91
G1 X41.05
G1 Y128.21
G1 X34.45
G1 Y124.91
G1 X27.851
G1 Y128.21
G1 X21.25
G1 Y124.91
G1 X10.85
G1 Y19.1
G1 X21.25
G1 Y15.799
G1 X27.851
G1 Y19.1
G1 X34.45
G1 Y15.799
G1 X41.05
G1 Y19.1
G1 X47.651
G1 Y15.799
G1 X54.25
G1 Y19.1
G1 X60.851
G1 Y15.799
G1 X67.45
G1 Y19.1
G1 X74.05
G1 Y15.799
G1 X80.65
G1 Y19.1
G1 X87.25
G1 Y15.799
G1 X93.851
G1 Y19.1
G1 X104.251
G1 Y29.104
G1 X107.55
G1 Y35.705
G1 X104.251
G1 Y42.304
G1 X107.55
G1 Y48.905
G1 X104.251
G0 X118.498Y53.649
; Layer Trayectorias_de_corte_1 Pass 1 of 9
G1 X231.898
G1 Y64.051
G1 X235.197
G1 Y70.65
G1 X231.898
G1 Y77.25
G1 X235.197
G1 Y83.851
G1 X231.898
G1 Y90.45
G1 X235.197
G1 Y97.051
G1 X231.898
G1 Y103.65
G1 X235.197
G1 Y110.25
G1 X231.898
G1 Y116.85
G1 X235.197
G1 Y123.45
G1 X231.898
G1 Y130.051
G1 X235.197
G1 Y136.65
G1 X231.898
G1 Y147.05
G1 X224.698
G1 Y150.351
G1 X218.098
G1 Y147.05
G1 X211.501
G1 Y150.351
G1 X204.897
G1 Y147.05
G1 X198.3
G1 Y150.351
G1 X191.699
G1 Y147.05
G1 X185.099
G1 Y150.351
G1 X178.498
G1 Y147.05
G1 X171.898
G1 Y150.351
G1 X165.297
G1 Y147.05
G1 X158.701
G1 Y150.351
G1 X152.1
G1 Y147.05
G1 X145.5
G1 Y150.351
G1 X138.899
G1 Y147.05
G1 X132.299
G1 Y150.351
G1 X125.698
G1 Y147.05
G1 X118.498
G1 Y136.65
G1 X115.2
G1 Y130.051
G1 X118.498
G1 Y123.45
G1 X115.2
G1 Y116.85
G1 X118.498
G1 Y110.25
G1 X115.2
G1 Y103.65
G1 X118.498
G1 Y97.051
G1 X115.2
G1 Y90.45
G1 X118.498
G1 Y83.851
G1 X115.2
G1 Y77.25
G1 X118.498
G1 Y70.65
G1 X115.2
G1 Y64.051
G1 X118.498
G1 Y53.649
; Layer Trayectorias_de_corte_1 Pass 2 of 9
G1 X231.898
G1 Y64.051
G1 X235.197
G1 Y70.65
G1 X231.898
G1 Y77.25
G1 X235.197
G1 Y83.851
G1 X231.898
G1 Y90.45
G1 X235.197
G1 Y97.051
G1 X231.898
G1 Y103.65
G1 X235.197
G1 Y110.25
G1 X231.898
G1 Y116.85
G1 X235.197
G1 Y123.45
G1 X231.898
G1 Y130.051
G1 X235.197
G1 Y136.65
G1 X231.898
G1 Y147.05
G1 X224.698
G1 Y150.351
G1 X218.098
G1 Y147.05
G1 X211.501
G1 Y150.351
G1 X204.897
G1 Y147.05
G1 X198.3
G1 Y150.351
G1 X191.699
G1 Y147.05
G1 X185.099
G1 Y150.351
G1 X178.498
G1 Y147.05
G1 X171.898
G1 Y150.351
G1 X165.297
G1 Y147.05
G1 X158.701
G1 Y150.351
G1 X152.1
G1 Y147.05
G1 X145.5
G1 Y150.351
G1 X138.899
G1 Y147.05
G1 X132.299
G1 Y150.351
G1 X125.698
G1 Y147.05
G1 X118.498
G1 Y136.65
G1 X115.2
G1 Y130.051
G1 X118.498
G1 Y123.45
G1 X115.2
G1 Y116.85
G1 X118.498
G1 Y110.25
G1 X115.2
G1 Y103.65
G1 X118.498
G1 Y97.051
G1 X115.2
G1 Y90.45
G1 X118.498
G1 Y83.851
G1 X115.2
G1 Y77.25
G1 X118.498
G1 Y70.65
G1 X115.2
G1 Y64.051
G1 X118.498
G1 Y53.649
; Layer Trayectorias_de_corte_1 Pass 3 of 9
G1 X231.898
G1 Y64.051
G1 X235.197
G1 Y70.65
G1 X231.898
G1 Y77.25
G1 X235.197
G1 Y83.851
G1 X231.898
G1 Y90.45
G1 X235.197
G1 Y97.051
G1 X231.898
G1 Y103.65
G1 X235.197
G1 Y110.25
G1 X231.898
G1 Y116.85
G1 X235.197
G1 Y123.45
G1 X231.898
G1 Y130.051
G1 X235.197
G1 Y136.65
G1 X231.898
G1 Y147.05
G1 X224.698
G1 Y150.351
G1 X218.098
G1 Y147.05
G1 X211.501
G1 Y150.351
G1 X204.897
G1 Y147.05
G1 X198.3
G1 Y150.351
G1 X191.699
G1 Y147.05
G1 X185.099
G1 Y150.351
G1 X178.498
G1 Y147.05
G1 X171.898
G1 Y150.351
G1 X165.297
G1 Y147.05
G1 X158.701
G1 Y150.351
G1 X152.1
G1 Y147.05
G1 X145.5
G1 Y150.351
G1 X138.899
G1 Y147.05
G1 X132.299
G1 Y150.351
G1 X125.698
G1 Y147.05
G1 X118.498
G1 Y136.65
G1 X115.2
G1 Y130.051
G1 X118.498
G1 Y123.45
G1 X115.2
G1 Y116.85
G1 X118.498
G1 Y110.25
G1 X115.2
G1 Y103.65
G1 X118.498
G1 Y97.051
G1 X115.2
G1 Y90.45
G1 X118.498
G1 Y83.851
G1 X115.2
G1 Y77.25
G1 X118.498
G1 Y70.65
G1 X115.2
G1 Y64.051
G1 X118.498
G1 Y53.649
; Layer Trayectorias_de_corte_1 Pass 4 of 9
G1 X231.898
G1 Y64.051
G1 X235.197
G1 Y70.65
G1 X231.898
G1 Y77.25
G1 X235.197
G1 Y83.851
G1 X231.898
G1 Y90.45
G1 X235.197
G1 Y97.051
G1 X231.898
G1 Y103.65
G1 X235.197
G1 Y110.25
G1 X231.898
G1 Y116.85
G1 X235.197
G1 Y123.45
G1 X231.898
G1 Y130.051
G1 X235.197
G1 Y136.65
G1 X231.898
G1 Y147.05
G1 X224.698
G1 Y150.351
G1 X218.098
G1 Y147.05
G1 X211.501
G1 Y150.351
G1 X204.897
G1 Y147.05
G1 X198.3
G1 Y150.351
G1 X191.699
G1 Y147.05
G1 X185.099
G1 Y150.351
G1 X178.498
G1 Y147.05
G1 X171.898
G1 Y150.351
G1 X165.297
G1 Y147.05
G1 X158.701
G1 Y150.351
G1 X152.1
G1 Y147.05
G1 X145.5
G1 Y150.351
G1 X138.899
G1 Y147.05
G1 X132.299
G1 Y150.351
G1 X125.698
G1 Y147.05
G1 X118.498
G1 Y136.65
G1 X115.2
G1 Y130.051
G1 X118.498
G1 Y123.45
G1 X115.2
G1 Y116.85
G1 X118.498
G1 Y110.25
G1 X115.2
G1 Y103.65
G1 X118.498
G1 Y97.051
G1 X115.2
G1 Y90.45
G1 X118.498
G1 Y83.851
G1 X115.2
G1 Y77.25
G1 X118.498
G1 Y70.65
G1 X115.2
G1 Y64.051
G1 X118.498
G1 Y53.649
; Layer Trayectorias_de_corte_1 Pass 5 of 9
G1 X231.898
G1 Y64.051
G1 X235.197
G1 Y70.65
G1 X231.898
G1 Y77.25
G1 X235.197
G1 Y83.851
G1 X231.898
G1 Y90.45
G1 X235.197
G1 Y97.051
G1 X231.898
G1 Y103.65
G1 X235.197
G1 Y110.25
G1 X231.898
G1 Y116.85
G1 X235.197
G1 Y123.45
G1 X231.898
G1 Y130.051
G1 X235.197
G1 Y136.65
G1 X231.898
G1 Y147.05
G1 X224.698
G1 Y150.351
G1 X218.098
G1 Y147.05
G1 X211.501
G1 Y150.351
G1 X204.897
G1 Y147.05
G1 X198.3
G1 Y150.351
G1 X191.699
G1 Y147.05
G1 X185.099
G1 Y150.351
G1 X178.498
G1 Y147.05
G1 X171.898
G1 Y150.351
G1 X165.297
G1 Y147.05
G1 X158.701
G1 Y150.351
G1 X152.1
G1 Y147.05
G1 X145.5
G1 Y150.351
G1 X138.899
G1 Y147.05
G1 X132.299
G1 Y150.351
G1 X125.698
G1 Y147.05
G1 X118.498
G1 Y136.65
G1 X115.2
G1 Y130.051
G1 X118.498
G1 Y123.45
G1 X115.2
G1 Y116.85
G1 X118.498
G1 Y110.25
G1 X115.2
G1 Y103.65
G1 X118.498
G1 Y97.051
G1 X115.2
G1 Y90.45
G1 X118.498
G1 Y83.851
G1 X115.2
G1 Y77.25
G1 X118.498
G1 Y70.65
G1 X115.2
G1 Y64.051
G1 X118.498
G1 Y53.649
; Layer Trayectorias_de_corte_1 Pass 6 of 9
G1 X231.898
G1 Y64.051
G1 X235.197
G1 Y70.65
G1 X231.898
G1 Y77.25
G1 X235.197
G1 Y83.851
G1 X231.898
G1 Y90.45
G1 X235.197
G1 Y97.051
G1 X231.898
G1 Y103.65
G1 X235.197
G1 Y110.25
G1 X231.898
G1 Y116.85
G1 X235.197
G1 Y123.45
G1 X231.898
G1 Y130.051
G1 X235.197
G1 Y136.65
G1 X231.898
G1 Y147.05
G1 X224.698
G1 Y150.351
G1 X218.098
G1 Y147.05
G1 X211.501
G1 Y150.351
G1 X204.897
G1 Y147.05
G1 X198.3
G1 Y150.351
G1 X191.699
G1 Y147.05
G1 X185.099
G1 Y150.351
G1 X178.498
G1 Y147.05
G1 X171.898
G1 Y150.351
G1 X165.297
G1 Y147.05
G1 X158.701
G1 Y150.351
G1 X152.1
G1 Y147.05
G1 X145.5
G1 Y150.351
G1 X138.899
G1 Y147.05
G1 X132.299
G1 Y150.351
G1 X125.698
G1 Y147.05
G1 X118.498
G1 Y136.65
G1 X115.2
G1 Y130.051
G1 X118.498
G1 Y123.45
G1 X115.2
G1 Y116.85
G1 X118.498
G1 Y110.25
G1 X115.2
G1 Y103.65
G1 X118.498
G1 Y97.051
G1 X115.2
G1 Y90.45
G1 X118.498
G1 Y83.851
G1 X115.2
G1 Y77.25
G1 X118.498
G1 Y70.65
G1 X115.2
G1 Y64.051
G1 X118.498
G1 Y53.649
; Layer Trayectorias_de_corte_1 Pass 7 of 9
G1 X231.898
G1 Y64.051
G1 X235.197
G1 Y70.65
G1 X231.898
G1 Y77.25
G1 X235.197
G1 Y83.851
G1 X231.898
G1 Y90.45
G1 X235.197
G1 Y97.051
G1 X231.898
G1 Y103.65
G1 X235.197
G1 Y110.25
G1 X231.898
G1 Y116.85
G1 X235.197
G1 Y123.45
G1 X231.898
G1 Y130.051
G1 X235.197
G1 Y136.65
G1 X231.898
G1 Y147.05
G1 X224.698
G1 Y150.351
G1 X218.098
G1 Y147.05
G1 X211.501
G1 Y150.351
G1 X204.897
G1 Y147.05
G1 X198.3
G1 Y150.351
G1 X191.699
G1 Y147.05
G1 X185.099
G1 Y150.351
G1 X178.498
G1 Y147.05
G1 X171.898
G1 Y150.351
G1 X165.297
G1 Y147.05
G1 X158.701
G1 Y150.351
G1 X152.1
G1 Y147.05
G1 X145.5
G1 Y150.351
G1 X138.899
G1 Y147.05
G1 X132.299
G1 Y150.351
G1 X125.698
G1 Y147.05
G1 X118.498
G1 Y136.65
G1 X115.2
G1 Y130.051
G1 X118.498
G1 Y123.45
G1 X115.2
G1 Y116.85
G1 X118.498
G1 Y110.25
G1 X115.2
G1 Y103.65
G1 X118.498
G1 Y97.051
G1 X115.2
G1 Y90.45
G1 X118.498
G1 Y83.851
G1 X115.2
G1 Y77.25
G1 X118.498
G1 Y70.65
G1 X115.2
G1 Y64.051
G1 X118.498
G1 Y53.649
; Layer Trayectorias_de_corte_1 Pass 8 of 9
G1 X231.898
G1 Y64.051
G1 X235.197
G1 Y70.65
G1 X231.898
G1 Y77.25
G1 X235.197
G1 Y83.851
G1 X231.898
G1 Y90.45
G1 X235.197
G1 Y97.051
G1 X231.898
G1 Y103.65
G1 X235.197
G1 Y110.25
G1 X231.898
G1 Y116.85
G1 X235.197
G1 Y123.45
G1 X231.898
G1 Y130.051
G1 X235.197
G1 Y136.65
G1 X231.898
G1 Y147.05
G1 X224.698
G1 Y150.351
G1 X218.098
G1 Y147.05
G1 X211.501
G1 Y150.351
G1 X204.897
G1 Y147.05
G1 X198.3
G1 Y150.351
G1 X191.699
G1 Y147.05
G1 X185.099
G1 Y150.351
G1 X178.498
G1 Y147.05
G1 X171.898
G1 Y150.351
G1 X165.297
G1 Y147.05
G1 X158.701
G1 Y150.351
G1 X152.1
G1 Y147.05
G1 X145.5
G1 Y150.351
G1 X138.899
G1 Y147.05
G1 X132.299
G1 Y150.351
G1 X125.698
G1 Y147.05
G1 X118.498
G1 Y136.65
G1 X115.2
G1 Y130.051
G1 X118.498
G1 Y123.45
G1 X115.2
G1 Y116.85
G1 X118.498
G1 Y110.25
G1 X115.2
G1 Y103.65
G1 X118.498
G1 Y97.051
G1 X115.2
G1 Y90.45
G1 X118.498
G1 Y83.851
G1 X115.2
G1 Y77.25
G1 X118.498
G1 Y70.65
G1 X115.2
G1 Y64.051
G1 X118.498
G1 Y53.649
; Layer Trayectorias_de_corte_1 Pass 9 of 9
G1 X231.898
G1 Y64.051
G1 X235.197
G1 Y70.65
G1 X231.898
G1 Y77.25
G1 X235.197
G1 Y83.851
G1 X231.898
G1 Y90.45
G1 X235.197
G1 Y97.051
G1 X231.898
G1 Y103.65
G1 X235.197
G1 Y110.25
G1 X231.898
G1 Y116.85
G1 X235.197
G1 Y123.45
G1 X231.898
G1 Y130.051
G1 X235.197
G1 Y136.65
G1 X231.898
G1 Y147.05
G1 X224.698
G1 Y150.351
G1 X218.098
G1 Y147.05
G1 X211.501
G1 Y150.351
G1 X204.897
G1 Y147.05
G1 X198.3
G1 Y150.351
G1 X191.699
G1 Y147.05
G1 X185.099
G1 Y150.351
G1 X178.498
G1 Y147.05
G1 X171.898
G1 Y150.351
G1 X165.297
G1 Y147.05
G1 X158.701
G1 Y150.351
G1 X152.1
G1 Y147.05
G1 X145.5
G1 Y150.351
G1 X138.899
G1 Y147.05
G1 X132.299
G1 Y150.351
G1 X125.698
G1 Y147.05
G1 X118.498
G1 Y136.65
G1 X115.2
G1 Y130.051
G1 X118.498
G1 Y123.45
G1 X115.2
G1 Y116.85
G1 X118.498
G1 Y110.25
G1 X115.2
G1 Y103.65
G1 X118.498
G1 Y97.051
G1 X115.2
G1 Y90.45
G1 X118.498
G1 Y83.851
G1 X115.2
G1 Y77.25
G1 X118.498
G1 Y70.65
G1 X115.2
G1 Y64.051
G1 X118.498
G1 Y53.649
G0 X104.249Y133.999
; Layer Trayectorias_de_corte_1 Pass 1 of 9
G1 Y137.3
G1 Y146.3
G1 X107.55
G1 Y152.9
G1 X104.249
G1 Y159.5
G1 X107.55
G1 Y166.099
G1 X104.249
G1 Y172.7
G1 X107.55
G1 Y179.299
G1 X104.249
G1 Y185.9
G1 X107.55
G1 Y192.5
G1 X104.249
G1 Y199.1
G1 X107.55
G1 Y205.7
G1 X104.249
G1 Y212.299
G1 X107.55
G1 Y218.9
G1 X104.249
G1 Y225.5
G1 X107.55
G1 Y232.1
G1 X104.249
G1 Y238.7
G1 X107.55
G1 Y245.299
G1 X104.249
G1 Y251.9
G1 X107.55
G1 Y258.499
G1 X104.249
G1 Y265.1
G1 X107.55
G1 Y271.7
G1 X104.249
G1 Y284
G1 X93.849
G1 Y280.7
G1 X87.25
G1 Y284
G1 X80.649
G1 Y280.7
G1 X74.049
G1 Y284
G1 X67.449
G1 Y280.7
G1 X60.849
G1 Y284
G1 X54.25
G1 Y280.7
G1 X47.649
G1 Y284
G1 X41.05
G1 Y280.7
G1 X34.449
G1 Y284
G1 X27.849
G1 Y280.7
G1 X21.25
G1 Y284
G1 X10.848
G1 Y133.999
G1 X21.25
G1 Y137.3
G1 X27.849
G1 Y133.999
G1 X34.449
G1 Y137.3
G1 X41.05
G1 Y133.999
G1 X47.649
G1 Y137.3
G1 X54.25
G1 Y133.999
G1 X60.849
G1 Y137.3
G1 X67.449
G1 Y133.999
G1 X74.049
G1 Y137.3
G1 X80.649
G1 Y133.999
G1 X87.25
G1 Y137.3
G1 X93.849
G1 Y133.999
G1 X104.249
; Layer Trayectorias_de_corte_1 Pass 2 of 9
G1 Y137.3
G1 Y146.3
G1 X107.55
G1 Y152.9
G1 X104.249
G1 Y159.5
G1 X107.55
G1 Y166.099
G1 X104.249
G1 Y172.7
G1 X107.55
G1 Y179.299
G1 X104.249
G1 Y185.9
G1 X107.55
G1 Y192.5
G1 X104.249
G1 Y199.1
G1 X107.55
G1 Y205.7
G1 X104.249
G1 Y212.299
G1 X107.55
G1 Y218.9
G1 X104.249
G1 Y225.5
G1 X107.55
G1 Y232.1
G1 X104.249
G1 Y238.7
G1 X107.55
G1 Y245.299
G1 X104.249
G1 Y251.9
G1 X107.55
G1 Y258.499
G1 X104.249
G1 Y265.1
G1 X107.55
G1 Y271.7
G1 X104.249
G1 Y284
G1 X93.849
G1 Y280.7
G1 X87.25
G1 Y284
G1 X80.649
G1 Y280.7
G1 X74.049
G1 Y284
G1 X67.449
G1 Y280.7
G1 X60.849
G1 Y284
G1 X54.25
G1 Y280.7
G1 X47.649
G1 Y284
G1 X41.05
G1 Y280.7
G1 X34.449
G1 Y284
G1 X27.849
G1 Y280.7
G1 X21.25
G1 Y284
G1 X10.848
G1 Y133.999
G1 X21.25
G1 Y137.3
G1 X27.849
G1 Y133.999
G1 X34.449
G1 Y137.3
G1 X41.05
G1 Y133.999
G1 X47.649
G1 Y137.3
G1 X54.25
G1 Y133.999
G1 X60.849
G1 Y137.3
G1 X67.449
G1 Y133.999
G1 X74.049
G1 Y137.3
G1 X80.649
G1 Y133.999
G1 X87.25
G1 Y137.3
G1 X93.849
G1 Y133.999
G1 X104.249
; Layer Trayectorias_de_corte_1 Pass 3 of 9
G1 Y137.3
G1 Y146.3
G1 X107.55
G1 Y152.9
G1 X104.249
G1 Y159.5
G1 X107.55
G1 Y166.099
G1 X104.249
G1 Y172.7
G1 X107.55
G1 Y179.299
G1 X104.249
G1 Y185.9
G1 X107.55
G1 Y192.5
G1 X104.249
G1 Y199.1
G1 X107.55
G1 Y205.7
G1 X104.249
G1 Y212.299
G1 X107.55
G1 Y218.9
G1 X104.249
G1 Y225.5
G1 X107.55
G1 Y232.1
G1 X104.249
G1 Y238.7
G1 X107.55
G1 Y245.299
G1 X104.249
G1 Y251.9
G1 X107.55
G1 Y258.499
G1 X104.249
G1 Y265.1
G1 X107.55
G1 Y271.7
G1 X104.249
G1 Y284
G1 X93.849
G1 Y280.7
G1 X87.25
G1 Y284
G1 X80.649
G1 Y280.7
G1 X74.049
G1 Y284
G1 X67.449
G1 Y280.7
G1 X60.849
G1 Y284
G1 X54.25
G1 Y280.7
G1 X47.649
G1 Y284
G1 X41.05
G1 Y280.7
G1 X34.449
G1 Y284
G1 X27.849
G1 Y280.7
G1 X21.25
G1 Y284
G1 X10.848
G1 Y133.999
G1 X21.25
G1 Y137.3
G1 X27.849
G1 Y133.999
G1 X34.449
G1 Y137.3
G1 X41.05
G1 Y133.999
G1 X47.649
G1 Y137.3
G1 X54.25
G1 Y133.999
G1 X60.849
G1 Y137.3
G1 X67.449
G1 Y133.999
G1 X74.049
G1 Y137.3
G1 X80.649
G1 Y133.999
G1 X87.25
G1 Y137.3
G1 X93.849
G1 Y133.999
G1 X104.249
; Layer Trayectorias_de_corte_1 Pass 4 of 9
G1 Y137.3
G1 Y146.3
G1 X107.55
G1 Y152.9
G1 X104.249
G1 Y159.5
G1 X107.55
G1 Y166.099
G1 X104.249
G1 Y172.7
G1 X107.55
G1 Y179.299
G1 X104.249
G1 Y185.9
G1 X107.55
G1 Y192.5
G1 X104.249
G1 Y199.1
G1 X107.55
G1 Y205.7
G1 X104.249
G1 Y212.299
G1 X107.55
G1 Y218.9
G1 X104.249
G1 Y225.5
G1 X107.55
G1 Y232.1
G1 X104.249
G1 Y238.7
G1 X107.55
G1 Y245.299
G1 X104.249
G1 Y251.9
G1 X107.55
G1 Y258.499
G1 X104.249
G1 Y265.1
G1 X107.55
G1 Y271.7
G1 X104.249
G1 Y284
G1 X93.849
G1 Y280.7
G1 X87.25
G1 Y284
G1 X80.649
G1 Y280.7
G1 X74.049
G1 Y284
G1 X67.449
G1 Y280.7
G1 X60.849
G1 Y284
G1 X54.25
G1 Y280.7
G1 X47.649
G1 Y284
G1 X41.05
G1 Y280.7
G1 X34.449
G1 Y284
G1 X27.849
G1 Y280.7
G1 X21.25
G1 Y284
G1 X10.848
G1 Y133.999
G1 X21.25
G1 Y137.3
G1 X27.849
G1 Y133.999
G1 X34.449
G1 Y137.3
G1 X41.05
G1 Y133.999
G1 X47.649
G1 Y137.3
G1 X54.25
G1 Y133.999
G1 X60.849
G1 Y137.3
G1 X67.449
G1 Y133.999
G1 X74.049
G1 Y137.3
G1 X80.649
G1 Y133.999
G1 X87.25
G1 Y137.3
G1 X93.849
G1 Y133.999
G1 X104.249
; Layer Trayectorias_de_corte_1 Pass 5 of 9
G1 Y137.3
G1 Y146.3
G1 X107.55
G1 Y152.9
G1 X104.249
G1 Y159.5
G1 X107.55
G1 Y166.099
G1 X104.249
G1 Y172.7
G1 X107.55
G1 Y179.299
G1 X104.249
G1 Y185.9
G1 X107.55
G1 Y192.5
G1 X104.249
G1 Y199.1
G1 X107.55
G1 Y205.7
G1 X104.249
G1 Y212.299
G1 X107.55
G1 Y218.9
G1 X104.249
G1 Y225.5
G1 X107.55
G1 Y232.1
G1 X104.249
G1 Y238.7
G1 X107.55
G1 Y245.299
G1 X104.249
G1 Y251.9
G1 X107.55
G1 Y258.499
G1 X104.249
G1 Y265.1
G1 X107.55
G1 Y271.7
G1 X104.249
G1 Y284
G1 X93.849
G1 Y280.7
G1 X87.25
G1 Y284
G1 X80.649
G1 Y280.7
G1 X74.049
G1 Y284
G1 X67.449
G1 Y280.7
G1 X60.849
G1 Y284
G1 X54.25
G1 Y280.7
G1 X47.649
G1 Y284
G1 X41.05
G1 Y280.7
G1 X34.449
G1 Y284
G1 X27.849
G1 Y280.7
G1 X21.25
G1 Y284
G1 X10.848
G1 Y133.999
G1 X21.25
G1 Y137.3
G1 X27.849
G1 Y133.999
G1 X34.449
G1 Y137.3
G1 X41.05
G1 Y133.999
G1 X47.649
G1 Y137.3
G1 X54.25
G1 Y133.999
G1 X60.849
G1 Y137.3
G1 X67.449
G1 Y133.999
G1 X74.049
G1 Y137.3
G1 X80.649
G1 Y133.999
G1 X87.25
G1 Y137.3
G1 X93.849
G1 Y133.999
G1 X104.249
; Layer Trayectorias_de_corte_1 Pass 6 of 9
G1 Y137.3
G1 Y146.3
G1 X107.55
G1 Y152.9
G1 X104.249
G1 Y159.5
G1 X107.55
G1 Y166.099
G1 X104.249
G1 Y172.7
G1 X107.55
G1 Y179.299
G1 X104.249
G1 Y185.9
G1 X107.55
G1 Y192.5
G1 X104.249
G1 Y199.1
G1 X107.55
G1 Y205.7
G1 X104.249
G1 Y212.299
G1 X107.55
G1 Y218.9
G1 X104.249
G1 Y225.5
G1 X107.55
G1 Y232.1
G1 X104.249
G1 Y238.7
G1 X107.55
G1 Y245.299
G1 X104.249
G1 Y251.9
G1 X107.55
G1 Y258.499
G1 X104.249
G1 Y265.1
G1 X107.55
G1 Y271.7
G1 X104.249
G1 Y284
G1 X93.849
G1 Y280.7
G1 X87.25
G1 Y284
G1 X80.649
G1 Y280.7
G1 X74.049
G1 Y284
G1 X67.449
G1 Y280.7
G1 X60.849
G1 Y284
G1 X54.25
G1 Y280.7
G1 X47.649
G1 Y284
G1 X41.05
G1 Y280.7
G1 X34.449
G1 Y284
G1 X27.849
G1 Y280.7
G1 X21.25
G1 Y284
G1 X10.848
G1 Y133.999
G1 X21.25
G1 Y137.3
G1 X27.849
G1 Y133.999
G1 X34.449
G1 Y137.3
G1 X41.05
G1 Y133.999
G1 X47.649
G1 Y137.3
G1 X54.25
G1 Y133.999
G1 X60.849
G1 Y137.3
G1 X67.449
G1 Y133.999
G1 X74.049
G1 Y137.3
G1 X80.649
G1 Y133.999
G1 X87.25
G1 Y137.3
G1 X93.849
G1 Y133.999
G1 X104.249
; Layer Trayectorias_de_corte_1 Pass 7 of 9
G1 Y137.3
G1 Y146.3
G1 X107.55
G1 Y152.9
G1 X104.249
G1 Y159.5
G1 X107.55
G1 Y166.099
G1 X104.249
G1 Y172.7
G1 X107.55
G1 Y179.299
G1 X104.249
G1 Y185.9
G1 X107.55
G1 Y192.5
G1 X104.249
G1 Y199.1
G1 X107.55
G1 Y205.7
G1 X104.249
G1 Y212.299
G1 X107.55
G1 Y218.9
G1 X104.249
G1 Y225.5
G1 X107.55
G1 Y232.1
G1 X104.249
G1 Y238.7
G1 X107.55
G1 Y245.299
G1 X104.249
G1 Y251.9
G1 X107.55
G1 Y258.499
G1 X104.249
G1 Y265.1
G1 X107.55
G1 Y271.7
G1 X104.249
G1 Y284
G1 X93.849
G1 Y280.7
G1 X87.25
G1 Y284
G1 X80.649
G1 Y280.7
G1 X74.049
G1 Y284
G1 X67.449
G1 Y280.7
G1 X60.849
G1 Y284
G1 X54.25
G1 Y280.7
G1 X47.649
G1 Y284
G1 X41.05
G1 Y280.7
G1 X34.449
G1 Y284
G1 X27.849
G1 Y280.7
G1 X21.25
G1 Y284
G1 X10.848
G1 Y133.999
G1 X21.25
G1 Y137.3
G1 X27.849
G1 Y133.999
G1 X34.449
G1 Y137.3
G1 X41.05
G1 Y133.999
G1 X47.649
G1 Y137.3
G1 X54.25
G1 Y133.999
G1 X60.849
G1 Y137.3
G1 X67.449
G1 Y133.999
G1 X74.049
G1 Y137.3
G1 X80.649
G1 Y133.999
G1 X87.25
G1 Y137.3
G1 X93.849
G1 Y133.999
G1 X104.249
; Layer Trayectorias_de_corte_1 Pass 8 of 9
G1 Y137.3
G1 Y146.3
G1 X107.55
G1 Y152.9
G1 X104.249
G1 Y159.5
G1 X107.55
G1 Y166.099
G1 X104.249
G1 Y172.7
G1 X107.55
G1 Y179.299
G1 X104.249
G1 Y185.9
G1 X107.55
G1 Y192.5
G1 X104.249
G1 Y199.1
G1 X107.55
G1 Y205.7
G1 X104.249
G1 Y212.299
G1 X107.55
G1 Y218.9
G1 X104.249
G1 Y225.5
G1 X107.55
G1 Y232.1
G1 X104.249
G1 Y238.7
G1 X107.55
G1 Y245.299
G1 X104.249
G1 Y251.9
G1 X107.55
G1 Y258.499
G1 X104.249
G1 Y265.1
G1 X107.55
G1 Y271.7
G1 X104.249
G1 Y284
G1 X93.849
G1 Y280.7
G1 X87.25
G1 Y284
G1 X80.649
G1 Y280.7
G1 X74.049
G1 Y284
G1 X67.449
G1 Y280.7
G1 X60.849
G1 Y284
G1 X54.25
G1 Y280.7
G1 X47.649
G1 Y284
G1 X41.05
G1 Y280.7
G1 X34.449
G1 Y284
G1 X27.849
G1 Y280.7
G1 X21.25
G1 Y284
G1 X10.848
G1 Y133.999
G1 X21.25
G1 Y137.3
G1 X27.849
G1 Y133.999
G1 X34.449
G1 Y137.3
G1 X41.05
G1 Y133.999
G1 X47.649
G1 Y137.3
G1 X54.25
G1 Y133.999
G1 X60.849
G1 Y137.3
G1 X67.449
G1 Y133.999
G1 X74.049
G1 Y137.3
G1 X80.649
G1 Y133.999
G1 X87.25
G1 Y137.3
G1 X93.849
G1 Y133.999
G1 X104.249
; Layer Trayectorias_de_corte_1 Pass 9 of 9
G1 Y137.3
G1 Y146.3
G1 X107.55
G1 Y152.9
G1 X104.249
G1 Y159.5
G1 X107.55
G1 Y166.099
G1 X104.249
G1 Y172.7
G1 X107.55
G1 Y179.299
G1 X104.249
G1 Y185.9
G1 X107.55
G1 Y192.5
G1 X104.249
G1 Y199.1
G1 X107.55
G1 Y205.7
G1 X104.249
G1 Y212.299
G1 X107.55
G1 Y218.9
G1 X104.249
G1 Y225.5
G1 X107.55
G1 Y232.1
G1 X104.249
G1 Y238.7
G1 X107.55
G1 Y245.299
G1 X104.249
G1 Y251.9
G1 X107.55
G1 Y258.499
G1 X104.249
G1 Y265.1
G1 X107.55
G1 Y271.7
G1 X104.249
G1 Y284
G1 X93.849
G1 Y280.7
G1 X87.25
G1 Y284
G1 X80.649
G1 Y280.7
G1 X74.049
G1 Y284
G1 X67.449
G1 Y280.7
G1 X60.849
G1 Y284
G1 X54.25
G1 Y280.7
G1 X47.649
G1 Y284
G1 X41.05
G1 Y280.7
G1 X34.449
G1 Y284
G1 X27.849
G1 Y280.7
G1 X21.25
G1 Y284
G1 X10.848
G1 Y133.999
G1 X21.25
G1 Y137.3
G1 X27.849
G1 Y133.999
G1 X34.449
G1 Y137.3
G1 X41.05
G1 Y133.999
G1 X47.649
G1 Y137.3
G1 X54.25
G1 Y133.999
G1 X60.849
G1 Y137.3
G1 X67.449
G1 Y133.999
G1 X74.049
G1 Y137.3
G1 X80.649
G1 Y133.999
G1 X87.25
G1 Y137.3
G1 X93.849
G1 Y133.999
G1 X104.249
G0 X159.198Y216.43
; Layer Trayectorias_de_corte_1 Pass 1 of 9
G1 Y240.349
G1 X199.198
G1 Y216.43
G1 X159.198
; Layer Trayectorias_de_corte_1 Pass 2 of 9
G1 Y240.349
G1 X199.198
G1 Y216.43
G1 X159.198
; Layer Trayectorias_de_corte_1 Pass 3 of 9
G1 Y240.349
G1 X199.198
G1 Y216.43
G1 X159.198
; Layer Trayectorias_de_corte_1 Pass 4 of 9
G1 Y240.349
G1 X199.198
G1 Y216.43
G1 X159.198
; Layer Trayectorias_de_corte_1 Pass 5 of 9
G1 Y240.349
G1 X199.198
G1 Y216.43
G1 X159.198
; Layer Trayectorias_de_corte_1 Pass 6 of 9
G1 Y240.349
G1 X199.198
G1 Y216.43
G1 X159.198
; Layer Trayectorias_de_corte_1 Pass 7 of 9
G1 Y240.349
G1 X199.198
G1 Y216.43
G1 X159.198
; Layer Trayectorias_de_corte_1 Pass 8 of 9
G1 Y240.349
G1 X199.198
G1 Y216.43
G1 X159.198
; Layer Trayectorias_de_corte_1 Pass 9 of 9
G1 Y240.349
G1 X199.198
G1 Y216.43
G1 X159.198
G0 X122.498Y213.55
; Layer Trayectorias_de_corte_1 Pass 1 of 9
G1 X119.198
G1 Y206.949
G1 X122.498
G1 Y200.35
G1 X119.198
G1 Y193.75
G1 X122.498
G1 Y187.15
G1 X119.198
G1 Y180.55
G1 X122.498
G1 Y173.949
G1 X119.198
G1 Y167.35
G1 X122.498
G1 Y156.95
G1 X129.698
G1 Y153.649
G1 X136.298
G1 Y156.95
G1 X142.899
G1 Y153.649
G1 X149.498
G1 Y156.95
G1 X156.099
G1 Y153.649
G1 X162.698
G1 Y156.95
G1 X169.298
G1 Y153.649
G1 X175.898
G1 Y156.95
G1 X182.498
G1 Y153.649
G1 X189.099
G1 Y156.95
G1 X195.698
G1 Y153.649
G1 X202.298
G1 Y156.95
G1 X208.898
G1 Y153.649
G1 X215.498
G1 Y156.95
G1 X222.099
G1 Y153.649
G1 X228.698
G1 Y156.95
G1 X235.898
G1 Y167.35
G1 X239.198
G1 Y173.949
G1 X235.898
G1 Y180.55
G1 X239.198
G1 Y187.15
G1 X235.898
G1 Y193.75
G1 X239.198
G1 Y200.35
G1 X235.898
G1 Y206.949
G1 X239.198
G1 Y213.55
G1 X235.898
G1 Y220.149
G1 X239.198
G1 Y226.75
G1 X235.898
G1 Y233.35
G1 X239.198
G1 Y239.949
G1 X235.898
G1 Y250.351
G1 X122.498
G1 Y239.949
G1 X119.198
G1 Y233.35
G1 X122.498
G1 Y226.75
G1 X119.198
G1 Y220.149
G1 X122.498
G1 Y213.55
; Layer Trayectorias_de_corte_1 Pass 2 of 9
G1 X119.198
G1 Y206.949
G1 X122.498
G1 Y200.35
G1 X119.198
G1 Y193.75
G1 X122.498
G1 Y187.15
G1 X119.198
G1 Y180.55
G1 X122.498
G1 Y173.949
G1 X119.198
G1 Y167.35
G1 X122.498
G1 Y156.95
G1 X129.698
G1 Y153.649
G1 X136.298
G1 Y156.95
G1 X142.899
G1 Y153.649
G1 X149.498
G1 Y156.95
G1 X156.099
G1 Y153.649
G1 X162.698
G1 Y156.95
G1 X169.298
G1 Y153.649
G1 X175.898
G1 Y156.95
G1 X182.498
G1 Y153.649
G1 X189.099
G1 Y156.95
G1 X195.698
G1 Y153.649
G1 X202.298
G1 Y156.95
G1 X208.898
G1 Y153.649
G1 X215.498
G1 Y156.95
G1 X222.099
G1 Y153.649
G1 X228.698
G1 Y156.95
G1 X235.898
G1 Y167.35
G1 X239.198
G1 Y173.949
G1 X235.898
G1 Y180.55
G1 X239.198
G1 Y187.15
G1 X235.898
G1 Y193.75
G1 X239.198
G1 Y200.35
G1 X235.898
G1 Y206.949
G1 X239.198
G1 Y213.55
G1 X235.898
G1 Y220.149
G1 X239.198
G1 Y226.75
G1 X235.898
G1 Y233.35
G1 X239.198
G1 Y239.949
G1 X235.898
G1 Y250.351
G1 X122.498
G1 Y239.949
G1 X119.198
G1 Y233.35
G1 X122.498
G1 Y226.75
G1 X119.198
G1 Y220.149
G1 X122.498
G1 Y213.55
; Layer Trayectorias_de_corte_1 Pass 3 of 9
G1 X119.198
G1 Y206.949
G1 X122.498
G1 Y200.35
G1 X119.198
G1 Y193.75
G1 X122.498
G1 Y187.15
G1 X119.198
G1 Y180.55
G1 X122.498
G1 Y173.949
G1 X119.198
G1 Y167.35
G1 X122.498
G1 Y156.95
G1 X129.698
G1 Y153.649
G1 X136.298
G1 Y156.95
G1 X142.899
G1 Y153.649
G1 X149.498
G1 Y156.95
G1 X156.099
G1 Y153.649
G1 X162.698
G1 Y156.95
G1 X169.298
G1 Y153.649
G1 X175.898
G1 Y156.95
G1 X182.498
G1 Y153.649
G1 X189.099
G1 Y156.95
G1 X195.698
G1 Y153.649
G1 X202.298
G1 Y156.95
G1 X208.898
G1 Y153.649
G1 X215.498
G1 Y156.95
G1 X222.099
G1 Y153.649
G1 X228.698
G1 Y156.95
G1 X235.898
G1 Y167.35
G1 X239.198
G1 Y173.949
G1 X235.898
G1 Y180.55
G1 X239.198
G1 Y187.15
G1 X235.898
G1 Y193.75
G1 X239.198
G1 Y200.35
G1 X235.898
G1 Y206.949
G1 X239.198
G1 Y213.55
G1 X235.898
G1 Y220.149
G1 X239.198
G1 Y226.75
G1 X235.898
G1 Y233.35
G1 X239.198
G1 Y239.949
G1 X235.898
G1 Y250.351
G1 X122.498
G1 Y239.949
G1 X119.198
G1 Y233.35
G1 X122.498
G1 Y226.75
G1 X119.198
G1 Y220.149
G1 X122.498
G1 Y213.55
; Layer Trayectorias_de_corte_1 Pass 4 of 9
G1 X119.198
G1 Y206.949
G1 X122.498
G1 Y200.35
G1 X119.198
G1 Y193.75
G1 X122.498
G1 Y187.15
G1 X119.198
G1 Y180.55
G1 X122.498
G1 Y173.949
G1 X119.198
G1 Y167.35
G1 X122.498
G1 Y156.95
G1 X129.698
G1 Y153.649
G1 X136.298
G1 Y156.95
G1 X142.899
G1 Y153.649
G1 X149.498
G1 Y156.95
G1 X156.099
G1 Y153.649
G1 X162.698
G1 Y156.95
G1 X169.298
G1 Y153.649
G1 X175.898
G1 Y156.95
G1 X182.498
G1 Y153.649
G1 X189.099
G1 Y156.95
G1 X195.698
G1 Y153.649
G1 X202.298
G1 Y156.95
G1 X208.898
G1 Y153.649
G1 X215.498
G1 Y156.95
G1 X222.099
G1 Y153.649
G1 X228.698
G1 Y156.95
G1 X235.898
G1 Y167.35
G1 X239.198
G1 Y173.949
G1 X235.898
G1 Y180.55
G1 X239.198
G1 Y187.15
G1 X235.898
G1 Y193.75
G1 X239.198
G1 Y200.35
G1 X235.898
G1 Y206.949
G1 X239.198
G1 Y213.55
G1 X235.898
G1 Y220.149
G1 X239.198
G1 Y226.75
G1 X235.898
G1 Y233.35
G1 X239.198
G1 Y239.949
G1 X235.898
G1 Y250.351
G1 X122.498
G1 Y239.949
G1 X119.198
G1 Y233.35
G1 X122.498
G1 Y226.75
G1 X119.198
G1 Y220.149
G1 X122.498
G1 Y213.55
; Layer Trayectorias_de_corte_1 Pass 5 of 9
G1 X119.198
G1 Y206.949
G1 X122.498
G1 Y200.35
G1 X119.198
G1 Y193.75
G1 X122.498
G1 Y187.15
G1 X119.198
G1 Y180.55
G1 X122.498
G1 Y173.949
G1 X119.198
G1 Y167.35
G1 X122.498
G1 Y156.95
G1 X129.698
G1 Y153.649
G1 X136.298
G1 Y156.95
G1 X142.899
G1 Y153.649
G1 X149.498
G1 Y156.95
G1 X156.099
G1 Y153.649
G1 X162.698
G1 Y156.95
G1 X169.298
G1 Y153.649
G1 X175.898
G1 Y156.95
G1 X182.498
G1 Y153.649
G1 X189.099
G1 Y156.95
G1 X195.698
G1 Y153.649
G1 X202.298
G1 Y156.95
G1 X208.898
G1 Y153.649
G1 X215.498
G1 Y156.95
G1 X222.099
G1 Y153.649
G1 X228.698
G1 Y156.95
G1 X235.898
G1 Y167.35
G1 X239.198
G1 Y173.949
G1 X235.898
G1 Y180.55
G1 X239.198
G1 Y187.15
G1 X235.898
G1 Y193.75
G1 X239.198
G1 Y200.35
G1 X235.898
G1 Y206.949
G1 X239.198
G1 Y213.55
G1 X235.898
G1 Y220.149
G1 X239.198
G1 Y226.75
G1 X235.898
G1 Y233.35
G1 X239.198
G1 Y239.949
G1 X235.898
G1 Y250.351
G1 X122.498
G1 Y239.949
G1 X119.198
G1 Y233.35
G1 X122.498
G1 Y226.75
G1 X119.198
G1 Y220.149
G1 X122.498
G1 Y213.55
; Layer Trayectorias_de_corte_1 Pass 6 of 9
G1 X119.198
G1 Y206.949
G1 X122.498
G1 Y200.35
G1 X119.198
G1 Y193.75
G1 X122.498
G1 Y187.15
G1 X119.198
G1 Y180.55
G1 X122.498
G1 Y173.949
G1 X119.198
G1 Y167.35
G1 X122.498
G1 Y156.95
G1 X129.698
G1 Y153.649
G1 X136.298
G1 Y156.95
G1 X142.899
G1 Y153.649
G1 X149.498
G1 Y156.95
G1 X156.099
G1 Y153.649
G1 X162.698
G1 Y156.95
G1 X169.298
G1 Y153.649
G1 X175.898
G1 Y156.95
G1 X182.498
G1 Y153.649
G1 X189.099
G1 Y156.95
G1 X195.698
G1 Y153.649
G1 X202.298
G1 Y156.95
G1 X208.898
G1 Y153.649
G1 X215.498
G1 Y156.95
G1 X222.099
G1 Y153.649
G1 X228.698
G1 Y156.95
G1 X235.898
G1 Y167.35
G1 X239.198
G1 Y173.949
G1 X235.898
G1 Y180.55
G1 X239.198
G1 Y187.15
G1 X235.898
G1 Y193.75
G1 X239.198
G1 Y200.35
G1 X235.898
G1 Y206.949
G1 X239.198
G1 Y213.55
G1 X235.898
G1 Y220.149
G1 X239.198
G1 Y226.75
G1 X235.898
G1 Y233.35
G1 X239.198
G1 Y239.949
G1 X235.898
G1 Y250.351
G1 X122.498
G1 Y239.949
G1 X119.198
G1 Y233.35
G1 X122.498
G1 Y226.75
G1 X119.198
G1 Y220.149
G1 X122.498
G1 Y213.55
; Layer Trayectorias_de_corte_1 Pass 7 of 9
G1 X119.198
G1 Y206.949
G1 X122.498
G1 Y200.35
G1 X119.198
G1 Y193.75
G1 X122.498
G1 Y187.15
G1 X119.198
G1 Y180.55
G1 X122.498
G1 Y173.949
G1 X119.198
G1 Y167.35
G1 X122.498
G1 Y156.95
G1 X129.698
G1 Y153.649
G1 X136.298
G1 Y156.95
G1 X142.899
G1 Y153.649
G1 X149.498
G1 Y156.95
G1 X156.099
G1 Y153.649
G1 X162.698
G1 Y156.95
G1 X169.298
G1 Y153.649
G1 X175.898
G1 Y156.95
G1 X182.498
G1 Y153.649
G1 X189.099
G1 Y156.95
G1 X195.698
G1 Y153.649
G1 X202.298
G1 Y156.95
G1 X208.898
G1 Y153.649
G1 X215.498
G1 Y156.95
G1 X222.099
G1 Y153.649
G1 X228.698
G1 Y156.95
G1 X235.898
G1 Y167.35
G1 X239.198
G1 Y173.949
G1 X235.898
G1 Y180.55
G1 X239.198
G1 Y187.15
G1 X235.898
G1 Y193.75
G1 X239.198
G1 Y200.35
G1 X235.898
G1 Y206.949
G1 X239.198
G1 Y213.55
G1 X235.898
G1 Y220.149
G1 X239.198
G1 Y226.75
G1 X235.898
G1 Y233.35
G1 X239.198
G1 Y239.949
G1 X235.898
G1 Y250.351
G1 X122.498
G1 Y239.949
G1 X119.198
G1 Y233.35
G1 X122.498
G1 Y226.75
G1 X119.198
G1 Y220.149
G1 X122.498
G1 Y213.55
; Layer Trayectorias_de_corte_1 Pass 8 of 9
G1 X119.198
G1 Y206.949
G1 X122.498
G1 Y200.35
G1 X119.198
G1 Y193.75
G1 X122.498
G1 Y187.15
G1 X119.198
G1 Y180.55
G1 X122.498
G1 Y173.949
G1 X119.198
G1 Y167.35
G1 X122.498
G1 Y156.95
G1 X129.698
G1 Y153.649
G1 X136.298
G1 Y156.95
G1 X142.899
G1 Y153.649
G1 X149.498
G1 Y156.95
G1 X156.099
G1 Y153.649
G1 X162.698
G1 Y156.95
G1 X169.298
G1 Y153.649
G1 X175.898
G1 Y156.95
G1 X182.498
G1 Y153.649
G1 X189.099
G1 Y156.95
G1 X195.698
G1 Y153.649
G1 X202.298
G1 Y156.95
G1 X208.898
G1 Y153.649
G1 X215.498
G1 Y156.95
G1 X222.099
G1 Y153.649
G1 X228.698
G1 Y156.95
G1 X235.898
G1 Y167.35
G1 X239.198
G1 Y173.949
G1 X235.898
G1 Y180.55
G1 X239.198
G1 Y187.15
G1 X235.898
G1 Y193.75
G1 X239.198
G1 Y200.35
G1 X235.898
G1 Y206.949
G1 X239.198
G1 Y213.55
G1 X235.898
G1 Y220.149
G1 X239.198
G1 Y226.75
G1 X235.898
G1 Y233.35
G1 X239.198
G1 Y239.949
G1 X235.898
G1 Y250.351
G1 X122.498
G1 Y239.949
G1 X119.198
G1 Y233.35
G1 X122.498
G1 Y226.75
G1 X119.198
G1 Y220.149
G1 X122.498
G1 Y213.55
; Layer Trayectorias_de_corte_1 Pass 9 of 9
G1 X119.198
G1 Y206.949
G1 X122.498
G1 Y200.35
G1 X119.198
G1 Y193.75
G1 X122.498
G1 Y187.15
G1 X119.198
G1 Y180.55
G1 X122.498
G1 Y173.949
G1 X119.198
G1 Y167.35
G1 X122.498
G1 Y156.95
G1 X129.698
G1 Y153.649
G1 X136.298
G1 Y156.95
G1 X142.899
G1 Y153.649
G1 X149.498
G1 Y156.95
G1 X156.099
G1 Y153.649
G1 X162.698
G1 Y156.95
G1 X169.298
G1 Y153.649
G1 X175.898
G1 Y156.95
G1 X182.498
G1 Y153.649
G1 X189.099
G1 Y156.95
G1 X195.698
G1 Y153.649
G1 X202.298
G1 Y156.95
G1 X208.898
G1 Y153.649
G1 X215.498
G1 Y156.95
G1 X222.099
G1 Y153.649
G1 X228.698
G1 Y156.95
G1 X235.898
G1 Y167.35
G1 X239.198
G1 Y173.949
G1 X235.898
G1 Y180.55
G1 X239.198
G1 Y187.15
G1 X235.898
G1 Y193.75
G1 X239.198
G1 Y200.35
G1 X235.898
G1 Y206.949
G1 X239.198
G1 Y213.55
G1 X235.898
G1 Y220.149
G1 X239.198
G1 Y226.75
G1 X235.898
G1 Y233.35
G1 X239.198
G1 Y239.949
G1 X235.898
G1 Y250.351
G1 X122.498
G1 Y239.949
G1 X119.198
G1 Y233.35
G1 X122.498
G1 Y226.75
G1 X119.198
G1 Y220.149
G1 X122.498
G1 Y213.55
G0 X93.85Y289.795
; Layer Trayectorias_de_corte_1 Pass 1 of 9
G1 Y293.094
G1 X104.25
G1 Y303.099
G1 X107.549
G1 Y309.699
G1 X104.25
G1 Y316.299
G1 X107.549
G1 Y322.9
G1 X104.25
G1 Y329.5
G1 X107.549
G1 Y336.101
G1 X104.25
G1 Y342.701
G1 X107.549
G1 Y349.298
G1 X104.25
G1 Y355.899
G1 X107.549
G1 Y362.499
G1 X104.25
G1 Y369.1
G1 X107.549
G1 Y375.7
G1 X104.25
G1 Y382.301
G1 X107.549
G1 Y388.901
G1 X104.25
G1 Y398.906
G1 X93.85
G1 Y402.204
G1 X87.249
G1 Y398.906
G1 X80.649
G1 Y402.204
G1 X74.049
G1 Y398.906
G1 X67.449
G1 Y402.204
G1 X60.85
G1 Y398.906
G1 X54.249
G1 Y402.204
G1 X47.65
G1 Y398.906
G1 X41.049
G1 Y402.204
G1 X34.449
G1 Y398.906
G1 X27.85
G1 Y402.204
G1 X21.249
G1 Y398.906
G1 X10.849
G1 Y293.094
G1 X21.249
G1 Y289.795
G1 X27.85
G1 Y293.094
G1 X34.449
G1 Y289.795
G1 X41.049
G1 Y293.094
G1 X47.65
G1 Y289.795
G1 X54.249
G1 Y293.094
G1 X60.85
G1 Y289.795
G1 X67.449
G1 Y293.094
G1 X74.049
G1 Y289.795
G1 X80.649
G1 Y293.094
G1 X87.249
G1 Y289.795
G1 X93.85
; Layer Trayectorias_de_corte_1 Pass 2 of 9
G1 Y293.094
G1 X104.25
G1 Y303.099
G1 X107.549
G1 Y309.699
G1 X104.25
G1 Y316.299
G1 X107.549
G1 Y322.9
G1 X104.25
G1 Y329.5
G1 X107.549
G1 Y336.101
G1 X104.25
G1 Y342.701
G1 X107.549
G1 Y349.298
G1 X104.25
G1 Y355.899
G1 X107.549
G1 Y362.499
G1 X104.25
G1 Y369.1
G1 X107.549
G1 Y375.7
G1 X104.25
G1 Y382.301
G1 X107.549
G1 Y388.901
G1 X104.25
G1 Y398.906
G1 X93.85
G1 Y402.204
G1 X87.249
G1 Y398.906
G1 X80.649
G1 Y402.204
G1 X74.049
G1 Y398.906
G1 X67.449
G1 Y402.204
G1 X60.85
G1 Y398.906
G1 X54.249
G1 Y402.204
G1 X47.65
G1 Y398.906
G1 X41.049
G1 Y402.204
G1 X34.449
G1 Y398.906
G1 X27.85
G1 Y402.204
G1 X21.249
G1 Y398.906
G1 X10.849
G1 Y293.094
G1 X21.249
G1 Y289.795
G1 X27.85
G1 Y293.094
G1 X34.449
G1 Y289.795
G1 X41.049
G1 Y293.094
G1 X47.65
G1 Y289.795
G1 X54.249
G1 Y293.094
G1 X60.85
G1 Y289.795
G1 X67.449
G1 Y293.094
G1 X74.049
G1 Y289.795
G1 X80.649
G1 Y293.094
G1 X87.249
G1 Y289.795
G1 X93.85
; Layer Trayectorias_de_corte_1 Pass 3 of 9
G1 Y293.094
G1 X104.25
G1 Y303.099
G1 X107.549
G1 Y309.699
G1 X104.25
G1 Y316.299
G1 X107.549
G1 Y322.9
G1 X104.25
G1 Y329.5
G1 X107.549
G1 Y336.101
G1 X104.25
G1 Y342.701
G1 X107.549
G1 Y349.298
G1 X104.25
G1 Y355.899
G1 X107.549
G1 Y362.499
G1 X104.25
G1 Y369.1
G1 X107.549
G1 Y375.7
G1 X104.25
G1 Y382.301
G1 X107.549
G1 Y388.901
G1 X104.25
G1 Y398.906
G1 X93.85
G1 Y402.204
G1 X87.249
G1 Y398.906
G1 X80.649
G1 Y402.204
G1 X74.049
G1 Y398.906
G1 X67.449
G1 Y402.204
G1 X60.85
G1 Y398.906
G1 X54.249
G1 Y402.204
G1 X47.65
G1 Y398.906
G1 X41.049
G1 Y402.204
G1 X34.449
G1 Y398.906
G1 X27.85
G1 Y402.204
G1 X21.249
G1 Y398.906
G1 X10.849
G1 Y293.094
G1 X21.249
G1 Y289.795
G1 X27.85
G1 Y293.094
G1 X34.449
G1 Y289.795
G1 X41.049
G1 Y293.094
G1 X47.65
G1 Y289.795
G1 X54.249
G1 Y293.094
G1 X60.85
G1 Y289.795
G1 X67.449
G1 Y293.094
G1 X74.049
G1 Y289.795
G1 X80.649
G1 Y293.094
G1 X87.249
G1 Y289.795
G1 X93.85
; Layer Trayectorias_de_corte_1 Pass 4 of 9
G1 Y293.094
G1 X104.25
G1 Y303.099
G1 X107.549
G1 Y309.699
G1 X104.25
G1 Y316.299
G1 X107.549
G1 Y322.9
G1 X104.25
G1 Y329.5
G1 X107.549
G1 Y336.101
G1 X104.25
G1 Y342.701
G1 X107.549
G1 Y349.298
G1 X104.25
G1 Y355.899
G1 X107.549
G1 Y362.499
G1 X104.25
G1 Y369.1
G1 X107.549
G1 Y375.7
G1 X104.25
G1 Y382.301
G1 X107.549
G1 Y388.901
G1 X104.25
G1 Y398.906
G1 X93.85
G1 Y402.204
G1 X87.249
G1 Y398.906
G1 X80.649
G1 Y402.204
G1 X74.049
G1 Y398.906
G1 X67.449
G1 Y402.204
G1 X60.85
G1 Y398.906
G1 X54.249
G1 Y402.204
G1 X47.65
G1 Y398.906
G1 X41.049
G1 Y402.204
G1 X34.449
G1 Y398.906
G1 X27.85
G1 Y402.204
G1 X21.249
G1 Y398.906
G1 X10.849
G1 Y293.094
G1 X21.249
G1 Y289.795
G1 X27.85
G1 Y293.094
G1 X34.449
G1 Y289.795
G1 X41.049
G1 Y293.094
G1 X47.65
G1 Y289.795
G1 X54.249
G1 Y293.094
G1 X60.85
G1 Y289.795
G1 X67.449
G1 Y293.094
G1 X74.049
G1 Y289.795
G1 X80.649
G1 Y293.094
G1 X87.249
G1 Y289.795
G1 X93.85
; Layer Trayectorias_de_corte_1 Pass 5 of 9
G1 Y293.094
G1 X104.25
G1 Y303.099
G1 X107.549
G1 Y309.699
G1 X104.25
G1 Y316.299
G1 X107.549
G1 Y322.9
G1 X104.25
G1 Y329.5
G1 X107.549
G1 Y336.101
G1 X104.25
G1 Y342.701
G1 X107.549
G1 Y349.298
G1 X104.25
G1 Y355.899
G1 X107.549
G1 Y362.499
G1 X104.25
G1 Y369.1
G1 X107.549
G1 Y375.7
G1 X104.25
G1 Y382.301
G1 X107.549
G1 Y388.901
G1 X104.25
G1 Y398.906
G1 X93.85
G1 Y402.204
G1 X87.249
G1 Y398.906
G1 X80.649
G1 Y402.204
G1 X74.049
G1 Y398.906
G1 X67.449
G1 Y402.204
G1 X60.85
G1 Y398.906
G1 X54.249
G1 Y402.204
G1 X47.65
G1 Y398.906
G1 X41.049
G1 Y402.204
G1 X34.449
G1 Y398.906
G1 X27.85
G1 Y402.204
G1 X21.249
G1 Y398.906
G1 X10.849
G1 Y293.094
G1 X21.249
G1 Y289.795
G1 X27.85
G1 Y293.094
G1 X34.449
G1 Y289.795
G1 X41.049
G1 Y293.094
G1 X47.65
G1 Y289.795
G1 X54.249
G1 Y293.094
G1 X60.85
G1 Y289.795
G1 X67.449
G1 Y293.094
G1 X74.049
G1 Y289.795
G1 X80.649
G1 Y293.094
G1 X87.249
G1 Y289.795
G1 X93.85
; Layer Trayectorias_de_corte_1 Pass 6 of 9
G1 Y293.094
G1 X104.25
G1 Y303.099
G1 X107.549
G1 Y309.699
G1 X104.25
G1 Y316.299
G1 X107.549
G1 Y322.9
G1 X104.25
G1 Y329.5
G1 X107.549
G1 Y336.101
G1 X104.25
G1 Y342.701
G1 X107.549
G1 Y349.298
G1 X104.25
G1 Y355.899
G1 X107.549
G1 Y362.499
G1 X104.25
G1 Y369.1
G1 X107.549
G1 Y375.7
G1 X104.25
G1 Y382.301
G1 X107.549
G1 Y388.901
G1 X104.25
G1 Y398.906
G1 X93.85
G1 Y402.204
G1 X87.249
G1 Y398.906
G1 X80.649
G1 Y402.204
G1 X74.049
G1 Y398.906
G1 X67.449
G1 Y402.204
G1 X60.85
G1 Y398.906
G1 X54.249
G1 Y402.204
G1 X47.65
G1 Y398.906
G1 X41.049
G1 Y402.204
G1 X34.449
G1 Y398.906
G1 X27.85
G1 Y402.204
G1 X21.249
G1 Y398.906
G1 X10.849
G1 Y293.094
G1 X21.249
G1 Y289.795
G1 X27.85
G1 Y293.094
G1 X34.449
G1 Y289.795
G1 X41.049
G1 Y293.094
G1 X47.65
G1 Y289.795
G1 X54.249
G1 Y293.094
G1 X60.85
G1 Y289.795
G1 X67.449
G1 Y293.094
G1 X74.049
G1 Y289.795
G1 X80.649
G1 Y293.094
G1 X87.249
G1 Y289.795
G1 X93.85
; Layer Trayectorias_de_corte_1 Pass 7 of 9
G1 Y293.094
G1 X104.25
G1 Y303.099
G1 X107.549
G1 Y309.699
G1 X104.25
G1 Y316.299
G1 X107.549
G1 Y322.9
G1 X104.25
G1 Y329.5
G1 X107.549
G1 Y336.101
G1 X104.25
G1 Y342.701
G1 X107.549
G1 Y349.298
G1 X104.25
G1 Y355.899
G1 X107.549
G1 Y362.499
G1 X104.25
G1 Y369.1
G1 X107.549
G1 Y375.7
G1 X104.25
G1 Y382.301
G1 X107.549
G1 Y388.901
G1 X104.25
G1 Y398.906
G1 X93.85
G1 Y402.204
G1 X87.249
G1 Y398.906
G1 X80.649
G1 Y402.204
G1 X74.049
G1 Y398.906
G1 X67.449
G1 Y402.204
G1 X60.85
G1 Y398.906
G1 X54.249
G1 Y402.204
G1 X47.65
G1 Y398.906
G1 X41.049
G1 Y402.204
G1 X34.449
G1 Y398.906
G1 X27.85
G1 Y402.204
G1 X21.249
G1 Y398.906
G1 X10.849
G1 Y293.094
G1 X21.249
G1 Y289.795
G1 X27.85
G1 Y293.094
G1 X34.449
G1 Y289.795
G1 X41.049
G1 Y293.094
G1 X47.65
G1 Y289.795
G1 X54.249
G1 Y293.094
G1 X60.85
G1 Y289.795
G1 X67.449
G1 Y293.094
G1 X74.049
G1 Y289.795
G1 X80.649
G1 Y293.094
G1 X87.249
G1 Y289.795
G1 X93.85
; Layer Trayectorias_de_corte_1 Pass 8 of 9
G1 Y293.094
G1 X104.25
G1 Y303.099
G1 X107.549
G1 Y309.699
G1 X104.25
G1 Y316.299
G1 X107.549
G1 Y322.9
G1 X104.25
G1 Y329.5
G1 X107.549
G1 Y336.101
G1 X104.25
G1 Y342.701
G1 X107.549
G1 Y349.298
G1 X104.25
G1 Y355.899
G1 X107.549
G1 Y362.499
G1 X104.25
G1 Y369.1
G1 X107.549
G1 Y375.7
G1 X104.25
G1 Y382.301
G1 X107.549
G1 Y388.901
G1 X104.25
G1 Y398.906
G1 X93.85
G1 Y402.204
G1 X87.249
G1 Y398.906
G1 X80.649
G1 Y402.204
G1 X74.049
G1 Y398.906
G1 X67.449
G1 Y402.204
G1 X60.85
G1 Y398.906
G1 X54.249
G1 Y402.204
G1 X47.65
G1 Y398.906
G1 X41.049
G1 Y402.204
G1 X34.449
G1 Y398.906
G1 X27.85
G1 Y402.204
G1 X21.249
G1 Y398.906
G1 X10.849
G1 Y293.094
G1 X21.249
G1 Y289.795
G1 X27.85
G1 Y293.094
G1 X34.449
G1 Y289.795
G1 X41.049
G1 Y293.094
G1 X47.65
G1 Y289.795
G1 X54.249
G1 Y293.094
G1 X60.85
G1 Y289.795
G1 X67.449
G1 Y293.094
G1 X74.049
G1 Y289.795
G1 X80.649
G1 Y293.094
G1 X87.249
G1 Y289.795
G1 X93.85
; Layer Trayectorias_de_corte_1 Pass 9 of 9
G1 Y293.094
G1 X104.25
G1 Y303.099
G1 X107.549
G1 Y309.699
G1 X104.25
G1 Y316.299
G1 X107.549
G1 Y322.9
G1 X104.25
G1 Y329.5
G1 X107.549
G1 Y336.101
G1 X104.25
G1 Y342.701
G1 X107.549
G1 Y349.298
G1 X104.25
G1 Y355.899
G1 X107.549
G1 Y362.499
G1 X104.25
G1 Y369.1
G1 X107.549
G1 Y375.7
G1 X104.25
G1 Y382.301
G1 X107.549
G1 Y388.901
G1 X104.25
G1 Y398.906
G1 X93.85
G1 Y402.204
G1 X87.249
G1 Y398.906
G1 X80.649
G1 Y402.204
G1 X74.049
G1 Y398.906
G1 X67.449
G1 Y402.204
G1 X60.85
G1 Y398.906
G1 X54.249
G1 Y402.204
G1 X47.65
G1 Y398.906
G1 X41.049
G1 Y402.204
G1 X34.449
G1 Y398.906
G1 X27.85
G1 Y402.204
G1 X21.249
G1 Y398.906
G1 X10.849
G1 Y293.094
G1 X21.249
G1 Y289.795
G1 X27.85
G1 Y293.094
G1 X34.449
G1 Y289.795
G1 X41.049
G1 Y293.094
G1 X47.65
G1 Y289.795
G1 X54.249
G1 Y293.094
G1 X60.85
G1 Y289.795
G1 X67.449
G1 Y293.094
G1 X74.049
G1 Y289.795
G1 X80.649
G1 Y293.094
G1 X87.249
G1 Y289.795
G1 X93.85
G0 X150.198Y296
; Layer Trayectorias_de_corte_1 Pass 1 of 9
G1 Y364
G1 X202.198
G1 Y296
G1 X150.198
; Layer Trayectorias_de_corte_1 Pass 2 of 9
G1 Y364
G1 X202.198
G1 Y296
G1 X150.198
; Layer Trayectorias_de_corte_1 Pass 3 of 9
G1 Y364
G1 X202.198
G1 Y296
G1 X150.198
; Layer Trayectorias_de_corte_1 Pass 4 of 9
G1 Y364
G1 X202.198
G1 Y296
G1 X150.198
; Layer Trayectorias_de_corte_1 Pass 5 of 9
G1 Y364
G1 X202.198
G1 Y296
G1 X150.198
; Layer Trayectorias_de_corte_1 Pass 6 of 9
G1 Y364
G1 X202.198
G1 Y296
G1 X150.198
; Layer Trayectorias_de_corte_1 Pass 7 of 9
G1 Y364
G1 X202.198
G1 Y296
G1 X150.198
; Layer Trayectorias_de_corte_1 Pass 8 of 9
G1 Y364
G1 X202.198
G1 Y296
G1 X150.198
; Layer Trayectorias_de_corte_1 Pass 9 of 9
G1 Y364
G1 X202.198
G1 Y296
G1 X150.198
G0 X119.499Y293.65
; Layer Trayectorias_de_corte_1 Pass 1 of 9
G1 X116.198
G1 Y287.049
G1 X119.499
G1 Y280.45
G1 X116.198
G1 Y273.849
G1 X119.499
G1 Y267.25
G1 X116.198
G1 Y254.95
G1 X126.697
G1 Y258.25
G1 X133.298
G1 Y254.95
G1 X139.898
G1 Y258.25
G1 X146.497
G1 Y254.95
G1 X153.098
G1 Y258.25
G1 X159.697
G1 Y254.95
G1 X166.298
G1 Y258.25
G1 X172.898
G1 Y254.95
G1 X179.498
G1 Y258.25
G1 X186.098
G1 Y254.95
G1 X192.697
G1 Y258.25
G1 X199.298
G1 Y254.95
G1 X205.898
G1 Y258.25
G1 X212.498
G1 Y254.95
G1 X219.098
G1 Y258.25
G1 X225.699
G1 Y254.95
G1 X236.198
G1 Y258.25
G1 Y267.25
G1 X232.897
G1 Y273.849
G1 X236.198
G1 Y280.45
G1 X232.897
G1 Y287.049
G1 X236.198
G1 Y293.65
G1 X232.897
G1 Y300.25
G1 X236.198
G1 Y306.849
G1 X232.897
G1 Y313.45
G1 X236.198
G1 Y320.049
G1 X232.897
G1 Y326.65
G1 X236.198
G1 Y333.25
G1 X232.897
G1 Y339.85
G1 X236.198
G1 Y346.45
G1 X232.897
G1 Y353.049
G1 X236.198
G1 Y359.65
G1 X232.897
G1 Y366.249
G1 X236.198
G1 Y372.85
G1 X232.897
G1 Y379.45
G1 X236.198
G1 Y386.049
G1 X232.897
G1 Y392.65
G1 X236.198
G1 Y404.95
G1 X225.699
G1 Y401.65
G1 X219.098
G1 Y404.95
G1 X212.498
G1 Y401.65
G1 X205.898
G1 Y404.95
G1 X199.298
G1 Y401.65
G1 X192.697
G1 Y404.95
G1 X186.098
G1 Y401.65
G1 X179.498
G1 Y404.95
G1 X172.898
G1 Y401.65
G1 X166.298
G1 Y404.95
G1 X159.697
G1 Y401.65
G1 X153.098
G1 Y404.95
G1 X146.497
G1 Y401.65
G1 X139.898
G1 Y404.95
G1 X133.298
G1 Y401.65
G1 X126.697
G1 Y404.95
G1 X116.198
G1 Y392.65
G1 X119.499
G1 Y386.049
G1 X116.198
G1 Y379.45
G1 X119.499
G1 Y372.85
G1 X116.198
G1 Y366.249
G1 X119.499
G1 Y359.65
G1 X116.198
G1 Y353.049
G1 X119.499
G1 Y346.45
G1 X116.198
G1 Y339.85
G1 X119.499
G1 Y333.25
G1 X116.198
G1 Y326.65
G1 X119.499
G1 Y320.049
G1 X116.198
G1 Y313.45
G1 X119.499
G1 Y306.849
G1 X116.198
G1 Y300.25
G1 X119.499
G1 Y293.65
; Layer Trayectorias_de_corte_1 Pass 2 of 9
G1 X116.198
G1 Y287.049
G1 X119.499
G1 Y280.45
G1 X116.198
G1 Y273.849
G1 X119.499
G1 Y267.25
G1 X116.198
G1 Y254.95
G1 X126.697
G1 Y258.25
G1 X133.298
G1 Y254.95
G1 X139.898
G1 Y258.25
G1 X146.497
G1 Y254.95
G1 X153.098
G1 Y258.25
G1 X159.697
G1 Y254.95
G1 X166.298
G1 Y258.25
G1 X172.898
G1 Y254.95
G1 X179.498
G1 Y258.25
G1 X186.098
G1 Y254.95
G1 X192.697
G1 Y258.25
G1 X199.298
G1 Y254.95
G1 X205.898
G1 Y258.25
G1 X212.498
G1 Y254.95
G1 X219.098
G1 Y258.25
G1 X225.699
G1 Y254.95
G1 X236.198
G1 Y258.25
G1 Y267.25
G1 X232.897
G1 Y273.849
G1 X236.198
G1 Y280.45
G1 X232.897
G1 Y287.049
G1 X236.198
G1 Y293.65
G1 X232.897
G1 Y300.25
G1 X236.198
G1 Y306.849
G1 X232.897
G1 Y313.45
G1 X236.198
G1 Y320.049
G1 X232.897
G1 Y326.65
G1 X236.198
G1 Y333.25
G1 X232.897
G1 Y339.85
G1 X236.198
G1 Y346.45
G1 X232.897
G1 Y353.049
G1 X236.198
G1 Y359.65
G1 X232.897
G1 Y366.249
G1 X236.198
G1 Y372.85
G1 X232.897
G1 Y379.45
G1 X236.198
G1 Y386.049
G1 X232.897
G1 Y392.65
G1 X236.198
G1 Y404.95
G1 X225.699
G1 Y401.65
G1 X219.098
G1 Y404.95
G1 X212.498
G1 Y401.65
G1 X205.898
G1 Y404.95
G1 X199.298
G1 Y401.65
G1 X192.697
G1 Y404.95
G1 X186.098
G1 Y401.65
G1 X179.498
G1 Y404.95
G1 X172.898
G1 Y401.65
G1 X166.298
G1 Y404.95
G1 X159.697
G1 Y401.65
G1 X153.098
G1 Y404.95
G1 X146.497
G1 Y401.65
G1 X139.898
G1 Y404.95
G1 X133.298
G1 Y401.65
G1 X126.697
G1 Y404.95
G1 X116.198
G1 Y392.65
G1 X119.499
G1 Y386.049
G1 X116.198
G1 Y379.45
G1 X119.499
G1 Y372.85
G1 X116.198
G1 Y366.249
G1 X119.499
G1 Y359.65
G1 X116.198
G1 Y353.049
G1 X119.499
G1 Y346.45
G1 X116.198
G1 Y339.85
G1 X119.499
G1 Y333.25
G1 X116.198
G1 Y326.65
G1 X119.499
G1 Y320.049
G1 X116.198
G1 Y313.45
G1 X119.499
G1 Y306.849
G1 X116.198
G1 Y300.25
G1 X119.499
G1 Y293.65
; Layer Trayectorias_de_corte_1 Pass 3 of 9
G1 X116.198
G1 Y287.049
G1 X119.499
G1 Y280.45
G1 X116.198
G1 Y273.849
G1 X119.499
G1 Y267.25
G1 X116.198
G1 Y254.95
G1 X126.697
G1 Y258.25
G1 X133.298
G1 Y254.95
G1 X139.898
G1 Y258.25
G1 X146.497
G1 Y254.95
G1 X153.098
G1 Y258.25
G1 X159.697
G1 Y254.95
G1 X166.298
G1 Y258.25
G1 X172.898
G1 Y254.95
G1 X179.498
G1 Y258.25
G1 X186.098
G1 Y254.95
G1 X192.697
G1 Y258.25
G1 X199.298
G1 Y254.95
G1 X205.898
G1 Y258.25
G1 X212.498
G1 Y254.95
G1 X219.098
G1 Y258.25
G1 X225.699
G1 Y254.95
G1 X236.198
G1 Y258.25
G1 Y267.25
G1 X232.897
G1 Y273.849
G1 X236.198
G1 Y280.45
G1 X232.897
G1 Y287.049
G1 X236.198
G1 Y293.65
G1 X232.897
G1 Y300.25
G1 X236.198
G1 Y306.849
G1 X232.897
G1 Y313.45
G1 X236.198
G1 Y320.049
G1 X232.897
G1 Y326.65
G1 X236.198
G1 Y333.25
G1 X232.897
G1 Y339.85
G1 X236.198
G1 Y346.45
G1 X232.897
G1 Y353.049
G1 X236.198
G1 Y359.65
G1 X232.897
G1 Y366.249
G1 X236.198
G1 Y372.85
G1 X232.897
G1 Y379.45
G1 X236.198
G1 Y386.049
G1 X232.897
G1 Y392.65
G1 X236.198
G1 Y404.95
G1 X225.699
G1 Y401.65
G1 X219.098
G1 Y404.95
G1 X212.498
G1 Y401.65
G1 X205.898
G1 Y404.95
G1 X199.298
G1 Y401.65
G1 X192.697
G1 Y404.95
G1 X186.098
G1 Y401.65
G1 X179.498
G1 Y404.95
G1 X172.898
G1 Y401.65
G1 X166.298
G1 Y404.95
G1 X159.697
G1 Y401.65
G1 X153.098
G1 Y404.95
G1 X146.497
G1 Y401.65
G1 X139.898
G1 Y404.95
G1 X133.298
G1 Y401.65
G1 X126.697
G1 Y404.95
G1 X116.198
G1 Y392.65
G1 X119.499
G1 Y386.049
G1 X116.198
G1 Y379.45
G1 X119.499
G1 Y372.85
G1 X116.198
G1 Y366.249
G1 X119.499
G1 Y359.65
G1 X116.198
G1 Y353.049
G1 X119.499
G1 Y346.45
G1 X116.198
G1 Y339.85
G1 X119.499
G1 Y333.25
G1 X116.198
G1 Y326.65
G1 X119.499
G1 Y320.049
G1 X116.198
G1 Y313.45
G1 X119.499
G1 Y306.849
G1 X116.198
G1 Y300.25
G1 X119.499
G1 Y293.65
; Layer Trayectorias_de_corte_1 Pass 4 of 9
G1 X116.198
G1 Y287.049
G1 X119.499
G1 Y280.45
G1 X116.198
G1 Y273.849
G1 X119.499
G1 Y267.25
G1 X116.198
G1 Y254.95
G1 X126.697
G1 Y258.25
G1 X133.298
G1 Y254.95
G1 X139.898
G1 Y258.25
G1 X146.497
G1 Y254.95
G1 X153.098
G1 Y258.25
G1 X159.697
G1 Y254.95
G1 X166.298
G1 Y258.25
G1 X172.898
G1 Y254.95
G1 X179.498
G1 Y258.25
G1 X186.098
G1 Y254.95
G1 X192.697
G1 Y258.25
G1 X199.298
G1 Y254.95
G1 X205.898
G1 Y258.25
G1 X212.498
G1 Y254.95
G1 X219.098
G1 Y258.25
G1 X225.699
G1 Y254.95
G1 X236.198
G1 Y258.25
G1 Y267.25
G1 X232.897
G1 Y273.849
G1 X236.198
G1 Y280.45
G1 X232.897
G1 Y287.049
G1 X236.198
G1 Y293.65
G1 X232.897
G1 Y300.25
G1 X236.198
G1 Y306.849
G1 X232.897
G1 Y313.45
G1 X236.198
G1 Y320.049
G1 X232.897
G1 Y326.65
G1 X236.198
G1 Y333.25
G1 X232.897
G1 Y339.85
G1 X236.198
G1 Y346.45
G1 X232.897
G1 Y353.049
G1 X236.198
G1 Y359.65
G1 X232.897
G1 Y366.249
G1 X236.198
G1 Y372.85
G1 X232.897
G1 Y379.45
G1 X236.198
G1 Y386.049
G1 X232.897
G1 Y392.65
G1 X236.198
G1 Y404.95
G1 X225.699
G1 Y401.65
G1 X219.098
G1 Y404.95
G1 X212.498
G1 Y401.65
G1 X205.898
G1 Y404.95
G1 X199.298
G1 Y401.65
G1 X192.697
G1 Y404.95
G1 X186.098
G1 Y401.65
G1 X179.498
G1 Y404.95
G1 X172.898
G1 Y401.65
G1 X166.298
G1 Y404.95
G1 X159.697
G1 Y401.65
G1 X153.098
G1 Y404.95
G1 X146.497
G1 Y401.65
G1 X139.898
G1 Y404.95
G1 X133.298
G1 Y401.65
G1 X126.697
G1 Y404.95
G1 X116.198
G1 Y392.65
G1 X119.499
G1 Y386.049
G1 X116.198
G1 Y379.45
G1 X119.499
G1 Y372.85
G1 X116.198
G1 Y366.249
G1 X119.499
G1 Y359.65
G1 X116.198
G1 Y353.049
G1 X119.499
G1 Y346.45
G1 X116.198
G1 Y339.85
G1 X119.499
G1 Y333.25
G1 X116.198
G1 Y326.65
G1 X119.499
G1 Y320.049
G1 X116.198
G1 Y313.45
G1 X119.499
G1 Y306.849
G1 X116.198
G1 Y300.25
G1 X119.499
G1 Y293.65
; Layer Trayectorias_de_corte_1 Pass 5 of 9
G1 X116.198
G1 Y287.049
G1 X119.499
G1 Y280.45
G1 X116.198
G1 Y273.849
G1 X119.499
G1 Y267.25
G1 X116.198
G1 Y254.95
G1 X126.697
G1 Y258.25
G1 X133.298
G1 Y254.95
G1 X139.898
G1 Y258.25
G1 X146.497
G1 Y254.95
G1 X153.098
G1 Y258.25
G1 X159.697
G1 Y254.95
G1 X166.298
G1 Y258.25
G1 X172.898
G1 Y254.95
G1 X179.498
G1 Y258.25
G1 X186.098
G1 Y254.95
G1 X192.697
G1 Y258.25
G1 X199.298
G1 Y254.95
G1 X205.898
G1 Y258.25
G1 X212.498
G1 Y254.95
G1 X219.098
G1 Y258.25
G1 X225.699
G1 Y254.95
G1 X236.198
G1 Y258.25
G1 Y267.25
G1 X232.897
G1 Y273.849
G1 X236.198
G1 Y280.45
G1 X232.897
G1 Y287.049
G1 X236.198
G1 Y293.65
G1 X232.897
G1 Y300.25
G1 X236.198
G1 Y306.849
G1 X232.897
G1 Y313.45
G1 X236.198
G1 Y320.049
G1 X232.897
G1 Y326.65
G1 X236.198
G1 Y333.25
G1 X232.897
G1 Y339.85
G1 X236.198
G1 Y346.45
G1 X232.897
G1 Y353.049
G1 X236.198
G1 Y359.65
G1 X232.897
G1 Y366.249
G1 X236.198
G1 Y372.85
G1 X232.897
G1 Y379.45
G1 X236.198
G1 Y386.049
G1 X232.897
G1 Y392.65
G1 X236.198
G1 Y404.95
G1 X225.699
G1 Y401.65
G1 X219.098
G1 Y404.95
G1 X212.498
G1 Y401.65
G1 X205.898
G1 Y404.95
G1 X199.298
G1 Y401.65
G1 X192.697
G1 Y404.95
G1 X186.098
G1 Y401.65
G1 X179.498
G1 Y404.95
G1 X172.898
G1 Y401.65
G1 X166.298
G1 Y404.95
G1 X159.697
G1 Y401.65
G1 X153.098
G1 Y404.95
G1 X146.497
G1 Y401.65
G1 X139.898
G1 Y404.95
G1 X133.298
G1 Y401.65
G1 X126.697
G1 Y404.95
G1 X116.198
G1 Y392.65
G1 X119.499
G1 Y386.049
G1 X116.198
G1 Y379.45
G1 X119.499
G1 Y372.85
G1 X116.198
G1 Y366.249
G1 X119.499
G1 Y359.65
G1 X116.198
G1 Y353.049
G1 X119.499
G1 Y346.45
G1 X116.198
G1 Y339.85
G1 X119.499
G1 Y333.25
G1 X116.198
G1 Y326.65
G1 X119.499
G1 Y320.049
G1 X116.198
G1 Y313.45
G1 X119.499
G1 Y306.849
G1 X116.198
G1 Y300.25
G1 X119.499
G1 Y293.65
; Layer Trayectorias_de_corte_1 Pass 6 of 9
G1 X116.198
G1 Y287.049
G1 X119.499
G1 Y280.45
G1 X116.198
G1 Y273.849
G1 X119.499
G1 Y267.25
G1 X116.198
G1 Y254.95
G1 X126.697
G1 Y258.25
G1 X133.298
G1 Y254.95
G1 X139.898
G1 Y258.25
G1 X146.497
G1 Y254.95
G1 X153.098
G1 Y258.25
G1 X159.697
G1 Y254.95
G1 X166.298
G1 Y258.25
G1 X172.898
G1 Y254.95
G1 X179.498
G1 Y258.25
G1 X186.098
G1 Y254.95
G1 X192.697
G1 Y258.25
G1 X199.298
G1 Y254.95
G1 X205.898
G1 Y258.25
G1 X212.498
G1 Y254.95
G1 X219.098
G1 Y258.25
G1 X225.699
G1 Y254.95
G1 X236.198
G1 Y258.25
G1 Y267.25
G1 X232.897
G1 Y273.849
G1 X236.198
G1 Y280.45
G1 X232.897
G1 Y287.049
G1 X236.198
G1 Y293.65
G1 X232.897
G1 Y300.25
G1 X236.198
G1 Y306.849
G1 X232.897
G1 Y313.45
G1 X236.198
G1 Y320.049
G1 X232.897
G1 Y326.65
G1 X236.198
G1 Y333.25
G1 X232.897
G1 Y339.85
G1 X236.198
G1 Y346.45
G1 X232.897
G1 Y353.049
G1 X236.198
G1 Y359.65
G1 X232.897
G1 Y366.249
G1 X236.198
G1 Y372.85
G1 X232.897
G1 Y379.45
G1 X236.198
G1 Y386.049
G1 X232.897
G1 Y392.65
G1 X236.198
G1 Y404.95
G1 X225.699
G1 Y401.65
G1 X219.098
G1 Y404.95
G1 X212.498
G1 Y401.65
G1 X205.898
G1 Y404.95
G1 X199.298
G1 Y401.65
G1 X192.697
G1 Y404.95
G1 X186.098
G1 Y401.65
G1 X179.498
G1 Y404.95
G1 X172.898
G1 Y401.65
G1 X166.298
G1 Y404.95
G1 X159.697
G1 Y401.65
G1 X153.098
G1 Y404.95
G1 X146.497
G1 Y401.65
G1 X139.898
G1 Y404.95
G1 X133.298
G1 Y401.65
G1 X126.697
G1 Y404.95
G1 X116.198
G1 Y392.65
G1 X119.499
G1 Y386.049
G1 X116.198
G1 Y379.45
G1 X119.499
G1 Y372.85
G1 X116.198
G1 Y366.249
G1 X119.499
G1 Y359.65
G1 X116.198
G1 Y353.049
G1 X119.499
G1 Y346.45
G1 X116.198
G1 Y339.85
G1 X119.499
G1 Y333.25
G1 X116.198
G1 Y326.65
G1 X119.499
G1 Y320.049
G1 X116.198
G1 Y313.45
G1 X119.499
G1 Y306.849
G1 X116.198
G1 Y300.25
G1 X119.499
G1 Y293.65
; Layer Trayectorias_de_corte_1 Pass 7 of 9
G1 X116.198
G1 Y287.049
G1 X119.499
G1 Y280.45
G1 X116.198
G1 Y273.849
G1 X119.499
G1 Y267.25
G1 X116.198
G1 Y254.95
G1 X126.697
G1 Y258.25
G1 X133.298
G1 Y254.95
G1 X139.898
G1 Y258.25
G1 X146.497
G1 Y254.95
G1 X153.098
G1 Y258.25
G1 X159.697
G1 Y254.95
G1 X166.298
G1 Y258.25
G1 X172.898
G1 Y254.95
G1 X179.498
G1 Y258.25
G1 X186.098
G1 Y254.95
G1 X192.697
G1 Y258.25
G1 X199.298
G1 Y254.95
G1 X205.898
G1 Y258.25
G1 X212.498
G1 Y254.95
G1 X219.098
G1 Y258.25
G1 X225.699
G1 Y254.95
G1 X236.198
G1 Y258.25
G1 Y267.25
G1 X232.897
G1 Y273.849
G1 X236.198
G1 Y280.45
G1 X232.897
G1 Y287.049
G1 X236.198
G1 Y293.65
G1 X232.897
G1 Y300.25
G1 X236.198
G1 Y306.849
G1 X232.897
G1 Y313.45
G1 X236.198
G1 Y320.049
G1 X232.897
G1 Y326.65
G1 X236.198
G1 Y333.25
G1 X232.897
G1 Y339.85
G1 X236.198
G1 Y346.45
G1 X232.897
G1 Y353.049
G1 X236.198
G1 Y359.65
G1 X232.897
G1 Y366.249
G1 X236.198
G1 Y372.85
G1 X232.897
G1 Y379.45
G1 X236.198
G1 Y386.049
G1 X232.897
G1 Y392.65
G1 X236.198
G1 Y404.95
G1 X225.699
G1 Y401.65
G1 X219.098
G1 Y404.95
G1 X212.498
G1 Y401.65
G1 X205.898
G1 Y404.95
G1 X199.298
G1 Y401.65
G1 X192.697
G1 Y404.95
G1 X186.098
G1 Y401.65
G1 X179.498
G1 Y404.95
G1 X172.898
G1 Y401.65
G1 X166.298
G1 Y404.95
G1 X159.697
G1 Y401.65
G1 X153.098
G1 Y404.95
G1 X146.497
G1 Y401.65
G1 X139.898
G1 Y404.95
G1 X133.298
G1 Y401.65
G1 X126.697
G1 Y404.95
G1 X116.198
G1 Y392.65
G1 X119.499
G1 Y386.049
G1 X116.198
G1 Y379.45
G1 X119.499
G1 Y372.85
G1 X116.198
G1 Y366.249
G1 X119.499
G1 Y359.65
G1 X116.198
G1 Y353.049
G1 X119.499
G1 Y346.45
G1 X116.198
G1 Y339.85
G1 X119.499
G1 Y333.25
G1 X116.198
G1 Y326.65
G1 X119.499
G1 Y320.049
G1 X116.198
G1 Y313.45
G1 X119.499
G1 Y306.849
G1 X116.198
G1 Y300.25
G1 X119.499
G1 Y293.65
; Layer Trayectorias_de_corte_1 Pass 8 of 9
G1 X116.198
G1 Y287.049
G1 X119.499
G1 Y280.45
G1 X116.198
G1 Y273.849
G1 X119.499
G1 Y267.25
G1 X116.198
G1 Y254.95
G1 X126.697
G1 Y258.25
G1 X133.298
G1 Y254.95
G1 X139.898
G1 Y258.25
G1 X146.497
G1 Y254.95
G1 X153.098
G1 Y258.25
G1 X159.697
G1 Y254.95
G1 X166.298
G1 Y258.25
G1 X172.898
G1 Y254.95
G1 X179.498
G1 Y258.25
G1 X186.098
G1 Y254.95
G1 X192.697
G1 Y258.25
G1 X199.298
G1 Y254.95
G1 X205.898
G1 Y258.25
G1 X212.498
G1 Y254.95
G1 X219.098
G1 Y258.25
G1 X225.699
G1 Y254.95
G1 X236.198
G1 Y258.25
G1 Y267.25
G1 X232.897
G1 Y273.849
G1 X236.198
G1 Y280.45
G1 X232.897
G1 Y287.049
G1 X236.198
G1 Y293.65
G1 X232.897
G1 Y300.25
G1 X236.198
G1 Y306.849
G1 X232.897
G1 Y313.45
G1 X236.198
G1 Y320.049
G1 X232.897
G1 Y326.65
G1 X236.198
G1 Y333.25
G1 X232.897
G1 Y339.85
G1 X236.198
G1 Y346.45
G1 X232.897
G1 Y353.049
G1 X236.198
G1 Y359.65
G1 X232.897
G1 Y366.249
G1 X236.198
G1 Y372.85
G1 X232.897
G1 Y379.45
G1 X236.198
G1 Y386.049
G1 X232.897
G1 Y392.65
G1 X236.198
G1 Y404.95
G1 X225.699
G1 Y401.65
G1 X219.098
G1 Y404.95
G1 X212.498
G1 Y401.65
G1 X205.898
G1 Y404.95
G1 X199.298
G1 Y401.65
G1 X192.697
G1 Y404.95
G1 X186.098
G1 Y401.65
G1 X179.498
G1 Y404.95
G1 X172.898
G1 Y401.65
G1 X166.298
G1 Y404.95
G1 X159.697
G1 Y401.65
G1 X153.098
G1 Y404.95
G1 X146.497
G1 Y401.65
G1 X139.898
G1 Y404.95
G1 X133.298
G1 Y401.65
G1 X126.697
G1 Y404.95
G1 X116.198
G1 Y392.65
G1 X119.499
G1 Y386.049
G1 X116.198
G1 Y379.45
G1 X119.499
G1 Y372.85
G1 X116.198
G1 Y366.249
G1 X119.499
G1 Y359.65
G1 X116.198
G1 Y353.049
G1 X119.499
G1 Y346.45
G1 X116.198
G1 Y339.85
G1 X119.499
G1 Y333.25
G1 X116.198
G1 Y326.65
G1 X119.499
G1 Y320.049
G1 X116.198
G1 Y313.45
G1 X119.499
G1 Y306.849
G1 X116.198
G1 Y300.25
G1 X119.499
G1 Y293.65
; Layer Trayectorias_de_corte_1 Pass 9 of 9
G1 X116.198
G1 Y287.049
G1 X119.499
G1 Y280.45
G1 X116.198
G1 Y273.849
G1 X119.499
G1 Y267.25
G1 X116.198
G1 Y254.95
G1 X126.697
G1 Y258.25
G1 X133.298
G1 Y254.95
G1 X139.898
G1 Y258.25
G1 X146.497
G1 Y254.95
G1 X153.098
G1 Y258.25
G1 X159.697
G1 Y254.95
G1 X166.298
G1 Y258.25
G1 X172.898
G1 Y254.95
G1 X179.498
G1 Y258.25
G1 X186.098
G1 Y254.95
G1 X192.697
G1 Y258.25
G1 X199.298
G1 Y254.95
G1 X205.898
G1 Y258.25
G1 X212.498
G1 Y254.95
G1 X219.098
G1 Y258.25
G1 X225.699
G1 Y254.95
G1 X236.198
G1 Y258.25
G1 Y267.25
G1 X232.897
G1 Y273.849
G1 X236.198
G1 Y280.45
G1 X232.897
G1 Y287.049
G1 X236.198
G1 Y293.65
G1 X232.897
G1 Y300.25
G1 X236.198
G1 Y306.849
G1 X232.897
G1 Y313.45
G1 X236.198
G1 Y320.049
G1 X232.897
G1 Y326.65
G1 X236.198
G1 Y333.25
G1 X232.897
G1 Y339.85
G1 X236.198
G1 Y346.45
G1 X232.897
G1 Y353.049
G1 X236.198
G1 Y359.65
G1 X232.897
G1 Y366.249
G1 X236.198
G1 Y372.85
G1 X232.897
G1 Y379.45
G1 X236.198
G1 Y386.049
G1 X232.897
G1 Y392.65
G1 X236.198
G1 Y404.95
G1 X225.699
G1 Y401.65
G1 X219.098
G1 Y404.95
G1 X212.498
G1 Y401.65
G1 X205.898
G1 Y404.95
G1 X199.298
G1 Y401.65
G1 X192.697
G1 Y404.95
G1 X186.098
G1 Y401.65
G1 X179.498
G1 Y404.95
G1 X172.898
G1 Y401.65
G1 X166.298
G1 Y404.95
G1 X159.697
G1 Y401.65
G1 X153.098
G1 Y404.95
G1 X146.497
G1 Y401.65
G1 X139.898
G1 Y404.95
G1 X133.298
G1 Y401.65
G1 X126.697
G1 Y404.95
G1 X116.198
G1 Y392.65
G1 X119.499
G1 Y386.049
G1 X116.198
G1 Y379.45
G1 X119.499
G1 Y372.85
G1 X116.198
G1 Y366.249
G1 X119.499
G1 Y359.65
G1 X116.198
G1 Y353.049
G1 X119.499
G1 Y346.45
G1 X116.198
G1 Y339.85
G1 X119.499
G1 Y333.25
G1 X116.198
G1 Y326.65
G1 X119.499
G1 Y320.049
G1 X116.198
G1 Y313.45
G1 X119.499
G1 Y306.849
G1 X116.198
G1 Y300.25
G1 X119.499
G1 Y293.65
G0 X248.79Y296.616
; Layer Trayectorias_de_corte_1 Pass 1 of 9
G1 X252.09
G1 Y290.015
G1 X248.79
G1 Y283.416
G1 X252.09
G1 Y276.816
G1 X248.79
G1 Y270.215
G1 X252.09
G1 Y263.616
G1 X248.79
G1 Y257.015
G1 X252.09
G1 Y250.416
G1 X248.79
G1 Y243.816
G1 X252.09
G1 Y237.216
G1 X248.79
G1 Y230.616
G1 X252.09
G1 Y224.015
G1 X248.79
G1 Y213.615
G1 X252.09
G1 X263.894
G1 Y210.316
G1 X270.495
G1 Y213.615
G1 X277.094
G1 Y210.316
G1 X283.695
G1 Y213.615
G1 X290.295
G1 Y210.316
G1 X296.895
G1 Y213.615
G1 X303.495
G1 Y210.316
G1 X310.094
G1 Y213.615
G1 X316.695
G1 Y210.316
G1 X323.295
G1 Y213.615
G1 X329.897
G1 Y210.316
G1 X336.494
G1 Y213.615
G1 X343.095
G1 Y210.316
G1 X349.695
G1 Y213.615
G1 X356.295
G1 Y210.316
G1 X362.896
G1 Y213.615
G1 X369.496
G1 Y210.316
G1 X376.097
G1 Y213.615
G1 X391.199
G1 Y224.015
G1 X387.901
G1 Y230.616
G1 X391.199
G1 Y237.216
G1 X387.901
G1 Y243.816
G1 X391.199
G1 Y250.416
G1 X387.901
G1 Y257.015
G1 X391.199
G1 Y263.616
G1 X387.901
G1 Y270.215
G1 X391.199
G1 Y276.816
G1 X387.901
G1 Y283.416
G1 X391.199
G1 Y290.015
G1 X387.901
G1 Y296.616
G1 X391.199
G1 Y307.016
G1 X248.79
G1 Y296.616
; Layer Trayectorias_de_corte_1 Pass 2 of 9
G1 X252.09
G1 Y290.015
G1 X248.79
G1 Y283.416
G1 X252.09
G1 Y276.816
G1 X248.79
G1 Y270.215
G1 X252.09
G1 Y263.616
G1 X248.79
G1 Y257.015
G1 X252.09
G1 Y250.416
G1 X248.79
G1 Y243.816
G1 X252.09
G1 Y237.216
G1 X248.79
G1 Y230.616
G1 X252.09
G1 Y224.015
G1 X248.79
G1 Y213.615
G1 X252.09
G1 X263.894
G1 Y210.316
G1 X270.495
G1 Y213.615
G1 X277.094
G1 Y210.316
G1 X283.695
G1 Y213.615
G1 X290.295
G1 Y210.316
G1 X296.895
G1 Y213.615
G1 X303.495
G1 Y210.316
G1 X310.094
G1 Y213.615
G1 X316.695
G1 Y210.316
G1 X323.295
G1 Y213.615
G1 X329.897
G1 Y210.316
G1 X336.494
G1 Y213.615
G1 X343.095
G1 Y210.316
G1 X349.695
G1 Y213.615
G1 X356.295
G1 Y210.316
G1 X362.896
G1 Y213.615
G1 X369.496
G1 Y210.316
G1 X376.097
G1 Y213.615
G1 X391.199
G1 Y224.015
G1 X387.901
G1 Y230.616
G1 X391.199
G1 Y237.216
G1 X387.901
G1 Y243.816
G1 X391.199
G1 Y250.416
G1 X387.901
G1 Y257.015
G1 X391.199
G1 Y263.616
G1 X387.901
G1 Y270.215
G1 X391.199
G1 Y276.816
G1 X387.901
G1 Y283.416
G1 X391.199
G1 Y290.015
G1 X387.901
G1 Y296.616
G1 X391.199
G1 Y307.016
G1 X248.79
G1 Y296.616
; Layer Trayectorias_de_corte_1 Pass 3 of 9
G1 X252.09
G1 Y290.015
G1 X248.79
G1 Y283.416
G1 X252.09
G1 Y276.816
G1 X248.79
G1 Y270.215
G1 X252.09
G1 Y263.616
G1 X248.79
G1 Y257.015
G1 X252.09
G1 Y250.416
G1 X248.79
G1 Y243.816
G1 X252.09
G1 Y237.216
G1 X248.79
G1 Y230.616
G1 X252.09
G1 Y224.015
G1 X248.79
G1 Y213.615
G1 X252.09
G1 X263.894
G1 Y210.316
G1 X270.495
G1 Y213.615
G1 X277.094
G1 Y210.316
G1 X283.695
G1 Y213.615
G1 X290.295
G1 Y210.316
G1 X296.895
G1 Y213.615
G1 X303.495
G1 Y210.316
G1 X310.094
G1 Y213.615
G1 X316.695
G1 Y210.316
G1 X323.295
G1 Y213.615
G1 X329.897
G1 Y210.316
G1 X336.494
G1 Y213.615
G1 X343.095
G1 Y210.316
G1 X349.695
G1 Y213.615
G1 X356.295
G1 Y210.316
G1 X362.896
G1 Y213.615
G1 X369.496
G1 Y210.316
G1 X376.097
G1 Y213.615
G1 X391.199
G1 Y224.015
G1 X387.901
G1 Y230.616
G1 X391.199
G1 Y237.216
G1 X387.901
G1 Y243.816
G1 X391.199
G1 Y250.416
G1 X387.901
G1 Y257.015
G1 X391.199
G1 Y263.616
G1 X387.901
G1 Y270.215
G1 X391.199
G1 Y276.816
G1 X387.901
G1 Y283.416
G1 X391.199
G1 Y290.015
G1 X387.901
G1 Y296.616
G1 X391.199
G1 Y307.016
G1 X248.79
G1 Y296.616
; Layer Trayectorias_de_corte_1 Pass 4 of 9
G1 X252.09
G1 Y290.015
G1 X248.79
G1 Y283.416
G1 X252.09
G1 Y276.816
G1 X248.79
G1 Y270.215
G1 X252.09
G1 Y263.616
G1 X248.79
G1 Y257.015
G1 X252.09
G1 Y250.416
G1 X248.79
G1 Y243.816
G1 X252.09
G1 Y237.216
G1 X248.79
G1 Y230.616
G1 X252.09
G1 Y224.015
G1 X248.79
G1 Y213.615
G1 X252.09
G1 X263.894
G1 Y210.316
G1 X270.495
G1 Y213.615
G1 X277.094
G1 Y210.316
G1 X283.695
G1 Y213.615
G1 X290.295
G1 Y210.316
G1 X296.895
G1 Y213.615
G1 X303.495
G1 Y210.316
G1 X310.094
G1 Y213.615
G1 X316.695
G1 Y210.316
G1 X323.295
G1 Y213.615
G1 X329.897
G1 Y210.316
G1 X336.494
G1 Y213.615
G1 X343.095
G1 Y210.316
G1 X349.695
G1 Y213.615
G1 X356.295
G1 Y210.316
G1 X362.896
G1 Y213.615
G1 X369.496
G1 Y210.316
G1 X376.097
G1 Y213.615
G1 X391.199
G1 Y224.015
G1 X387.901
G1 Y230.616
G1 X391.199
G1 Y237.216
G1 X387.901
G1 Y243.816
G1 X391.199
G1 Y250.416
G1 X387.901
G1 Y257.015
G1 X391.199
G1 Y263.616
G1 X387.901
G1 Y270.215
G1 X391.199
G1 Y276.816
G1 X387.901
G1 Y283.416
G1 X391.199
G1 Y290.015
G1 X387.901
G1 Y296.616
G1 X391.199
G1 Y307.016
G1 X248.79
G1 Y296.616
; Layer Trayectorias_de_corte_1 Pass 5 of 9
G1 X252.09
G1 Y290.015
G1 X248.79
G1 Y283.416
G1 X252.09
G1 Y276.816
G1 X248.79
G1 Y270.215
G1 X252.09
G1 Y263.616
G1 X248.79
G1 Y257.015
G1 X252.09
G1 Y250.416
G1 X248.79
G1 Y243.816
G1 X252.09
G1 Y237.216
G1 X248.79
G1 Y230.616
G1 X252.09
G1 Y224.015
G1 X248.79
G1 Y213.615
G1 X252.09
G1 X263.894
G1 Y210.316
G1 X270.495
G1 Y213.615
G1 X277.094
G1 Y210.316
G1 X283.695
G1 Y213.615
G1 X290.295
G1 Y210.316
G1 X296.895
G1 Y213.615
G1 X303.495
G1 Y210.316
G1 X310.094
G1 Y213.615
G1 X316.695
G1 Y210.316
G1 X323.295
G1 Y213.615
G1 X329.897
G1 Y210.316
G1 X336.494
G1 Y213.615
G1 X343.095
G1 Y210.316
G1 X349.695
G1 Y213.615
G1 X356.295
G1 Y210.316
G1 X362.896
G1 Y213.615
G1 X369.496
G1 Y210.316
G1 X376.097
G1 Y213.615
G1 X391.199
G1 Y224.015
G1 X387.901
G1 Y230.616
G1 X391.199
G1 Y237.216
G1 X387.901
G1 Y243.816
G1 X391.199
G1 Y250.416
G1 X387.901
G1 Y257.015
G1 X391.199
G1 Y263.616
G1 X387.901
G1 Y270.215
G1 X391.199
G1 Y276.816
G1 X387.901
G1 Y283.416
G1 X391.199
G1 Y290.015
G1 X387.901
G1 Y296.616
G1 X391.199
G1 Y307.016
G1 X248.79
G1 Y296.616
; Layer Trayectorias_de_corte_1 Pass 6 of 9
G1 X252.09
G1 Y290.015
G1 X248.79
G1 Y283.416
G1 X252.09
G1 Y276.816
G1 X248.79
G1 Y270.215
G1 X252.09
G1 Y263.616
G1 X248.79
G1 Y257.015
G1 X252.09
G1 Y250.416
G1 X248.79
G1 Y243.816
G1 X252.09
G1 Y237.216
G1 X248.79
G1 Y230.616
G1 X252.09
G1 Y224.015
G1 X248.79
G1 Y213.615
G1 X252.09
G1 X263.894
G1 Y210.316
G1 X270.495
G1 Y213.615
G1 X277.094
G1 Y210.316
G1 X283.695
G1 Y213.615
G1 X290.295
G1 Y210.316
G1 X296.895
G1 Y213.615
G1 X303.495
G1 Y210.316
G1 X310.094
G1 Y213.615
G1 X316.695
G1 Y210.316
G1 X323.295
G1 Y213.615
G1 X329.897
G1 Y210.316
G1 X336.494
G1 Y213.615
G1 X343.095
G1 Y210.316
G1 X349.695
G1 Y213.615
G1 X356.295
G1 Y210.316
G1 X362.896
G1 Y213.615
G1 X369.496
G1 Y210.316
G1 X376.097
G1 Y213.615
G1 X391.199
G1 Y224.015
G1 X387.901
G1 Y230.616
G1 X391.199
G1 Y237.216
G1 X387.901
G1 Y243.816
G1 X391.199
G1 Y250.416
G1 X387.901
G1 Y257.015
G1 X391.199
G1 Y263.616
G1 X387.901
G1 Y270.215
G1 X391.199
G1 Y276.816
G1 X387.901
G1 Y283.416
G1 X391.199
G1 Y290.015
G1 X387.901
G1 Y296.616
G1 X391.199
G1 Y307.016
G1 X248.79
G1 Y296.616
; Layer Trayectorias_de_corte_1 Pass 7 of 9
G1 X252.09
G1 Y290.015
G1 X248.79
G1 Y283.416
G1 X252.09
G1 Y276.816
G1 X248.79
G1 Y270.215
G1 X252.09
G1 Y263.616
G1 X248.79
G1 Y257.015
G1 X252.09
G1 Y250.416
G1 X248.79
G1 Y243.816
G1 X252.09
G1 Y237.216
G1 X248.79
G1 Y230.616
G1 X252.09
G1 Y224.015
G1 X248.79
G1 Y213.615
G1 X252.09
G1 X263.894
G1 Y210.316
G1 X270.495
G1 Y213.615
G1 X277.094
G1 Y210.316
G1 X283.695
G1 Y213.615
G1 X290.295
G1 Y210.316
G1 X296.895
G1 Y213.615
G1 X303.495
G1 Y210.316
G1 X310.094
G1 Y213.615
G1 X316.695
G1 Y210.316
G1 X323.295
G1 Y213.615
G1 X329.897
G1 Y210.316
G1 X336.494
G1 Y213.615
G1 X343.095
G1 Y210.316
G1 X349.695
G1 Y213.615
G1 X356.295
G1 Y210.316
G1 X362.896
G1 Y213.615
G1 X369.496
G1 Y210.316
G1 X376.097
G1 Y213.615
G1 X391.199
G1 Y224.015
G1 X387.901
G1 Y230.616
G1 X391.199
G1 Y237.216
G1 X387.901
G1 Y243.816
G1 X391.199
G1 Y250.416
G1 X387.901
G1 Y257.015
G1 X391.199
G1 Y263.616
G1 X387.901
G1 Y270.215
G1 X391.199
G1 Y276.816
G1 X387.901
G1 Y283.416
G1 X391.199
G1 Y290.015
G1 X387.901
G1 Y296.616
G1 X391.199
G1 Y307.016
G1 X248.79
G1 Y296.616
; Layer Trayectorias_de_corte_1 Pass 8 of 9
G1 X252.09
G1 Y290.015
G1 X248.79
G1 Y283.416
G1 X252.09
G1 Y276.816
G1 X248.79
G1 Y270.215
G1 X252.09
G1 Y263.616
G1 X248.79
G1 Y257.015
G1 X252.09
G1 Y250.416
G1 X248.79
G1 Y243.816
G1 X252.09
G1 Y237.216
G1 X248.79
G1 Y230.616
G1 X252.09
G1 Y224.015
G1 X248.79
G1 Y213.615
G1 X252.09
G1 X263.894
G1 Y210.316
G1 X270.495
G1 Y213.615
G1 X277.094
G1 Y210.316
G1 X283.695
G1 Y213.615
G1 X290.295
G1 Y210.316
G1 X296.895
G1 Y213.615
G1 X303.495
G1 Y210.316
G1 X310.094
G1 Y213.615
G1 X316.695
G1 Y210.316
G1 X323.295
G1 Y213.615
G1 X329.897
G1 Y210.316
G1 X336.494
G1 Y213.615
G1 X343.095
G1 Y210.316
G1 X349.695
G1 Y213.615
G1 X356.295
G1 Y210.316
G1 X362.896
G1 Y213.615
G1 X369.496
G1 Y210.316
G1 X376.097
G1 Y213.615
G1 X391.199
G1 Y224.015
G1 X387.901
G1 Y230.616
G1 X391.199
G1 Y237.216
G1 X387.901
G1 Y243.816
G1 X391.199
G1 Y250.416
G1 X387.901
G1 Y257.015
G1 X391.199
G1 Y263.616
G1 X387.901
G1 Y270.215
G1 X391.199
G1 Y276.816
G1 X387.901
G1 Y283.416
G1 X391.199
G1 Y290.015
G1 X387.901
G1 Y296.616
G1 X391.199
G1 Y307.016
G1 X248.79
G1 Y296.616
; Layer Trayectorias_de_corte_1 Pass 9 of 9
G1 X252.09
G1 Y290.015
G1 X248.79
G1 Y283.416
G1 X252.09
G1 Y276.816
G1 X248.79
G1 Y270.215
G1 X252.09
G1 Y263.616
G1 X248.79
G1 Y257.015
G1 X252.09
G1 Y250.416
G1 X248.79
G1 Y243.816
G1 X252.09
G1 Y237.216
G1 X248.79
G1 Y230.616
G1 X252.09
G1 Y224.015
G1 X248.79
G1 Y213.615
G1 X252.09
G1 X263.894
G1 Y210.316
G1 X270.495
G1 Y213.615
G1 X277.094
G1 Y210.316
G1 X283.695
G1 Y213.615
G1 X290.295
G1 Y210.316
G1 X296.895
G1 Y213.615
G1 X303.495
G1 Y210.316
G1 X310.094
G1 Y213.615
G1 X316.695
G1 Y210.316
G1 X323.295
G1 Y213.615
G1 X329.897
G1 Y210.316
G1 X336.494
G1 Y213.615
G1 X343.095
G1 Y210.316
G1 X349.695
G1 Y213.615
G1 X356.295
G1 Y210.316
G1 X362.896
G1 Y213.615
G1 X369.496
G1 Y210.316
G1 X376.097
G1 Y213.615
G1 X391.199
G1 Y224.015
G1 X387.901
G1 Y230.616
G1 X391.199
G1 Y237.216
G1 X387.901
G1 Y243.816
G1 X391.199
G1 Y250.416
G1 X387.901
G1 Y257.015
G1 X391.199
G1 Y263.616
G1 X387.901
G1 Y270.215
G1 X391.199
G1 Y276.816
G1 X387.901
G1 Y283.416
G1 X391.199
G1 Y290.015
G1 X387.901
G1 Y296.616
G1 X391.199
G1 Y307.016
G1 X248.79
G1 Y296.616
G0 X260.098Y313.795
; Layer Trayectorias_de_corte_1 Pass 1 of 9
G1 Y317.094
G1 X266.699
G1 Y313.795
G1 X263.398
G1 X260.098
; Layer Trayectorias_de_corte_1 Pass 2 of 9
G1 Y317.094
G1 X266.699
G1 Y313.795
G1 X263.398
G1 X260.098
; Layer Trayectorias_de_corte_1 Pass 3 of 9
G1 Y317.094
G1 X266.699
G1 Y313.795
G1 X263.398
G1 X260.098
; Layer Trayectorias_de_corte_1 Pass 4 of 9
G1 Y317.094
G1 X266.699
G1 Y313.795
G1 X263.398
G1 X260.098
; Layer Trayectorias_de_corte_1 Pass 5 of 9
G1 Y317.094
G1 X266.699
G1 Y313.795
G1 X263.398
G1 X260.098
; Layer Trayectorias_de_corte_1 Pass 6 of 9
G1 Y317.094
G1 X266.699
G1 Y313.795
G1 X263.398
G1 X260.098
; Layer Trayectorias_de_corte_1 Pass 7 of 9
G1 Y317.094
G1 X266.699
G1 Y313.795
G1 X263.398
G1 X260.098
; Layer Trayectorias_de_corte_1 Pass 8 of 9
G1 Y317.094
G1 X266.699
G1 Y313.795
G1 X263.398
G1 X260.098
; Layer Trayectorias_de_corte_1 Pass 9 of 9
G1 Y317.094
G1 X266.699
G1 Y313.795
G1 X263.398
G1 X260.098
G0 X273.298Y313.795
; Layer Trayectorias_de_corte_1 Pass 1 of 9
G1 Y317.094
G1 X279.899
G1 Y313.795
G1 X276.598
G1 X273.298
; Layer Trayectorias_de_corte_1 Pass 2 of 9
G1 Y317.094
G1 X279.899
G1 Y313.795
G1 X276.598
G1 X273.298
; Layer Trayectorias_de_corte_1 Pass 3 of 9
G1 Y317.094
G1 X279.899
G1 Y313.795
G1 X276.598
G1 X273.298
; Layer Trayectorias_de_corte_1 Pass 4 of 9
G1 Y317.094
G1 X279.899
G1 Y313.795
G1 X276.598
G1 X273.298
; Layer Trayectorias_de_corte_1 Pass 5 of 9
G1 Y317.094
G1 X279.899
G1 Y313.795
G1 X276.598
G1 X273.298
; Layer Trayectorias_de_corte_1 Pass 6 of 9
G1 Y317.094
G1 X279.899
G1 Y313.795
G1 X276.598
G1 X273.298
; Layer Trayectorias_de_corte_1 Pass 7 of 9
G1 Y317.094
G1 X279.899
G1 Y313.795
G1 X276.598
G1 X273.298
; Layer Trayectorias_de_corte_1 Pass 8 of 9
G1 Y317.094
G1 X279.899
G1 Y313.795
G1 X276.598
G1 X273.298
; Layer Trayectorias_de_corte_1 Pass 9 of 9
G1 Y317.094
G1 X279.899
G1 Y313.795
G1 X276.598
G1 X273.298
G0 X286.498Y313.795
; Layer Trayectorias_de_corte_1 Pass 1 of 9
G1 Y317.094
G1 X293.098
G1 Y313.795
G1 X289.798
G1 X286.498
; Layer Trayectorias_de_corte_1 Pass 2 of 9
G1 Y317.094
G1 X293.098
G1 Y313.795
G1 X289.798
G1 X286.498
; Layer Trayectorias_de_corte_1 Pass 3 of 9
G1 Y317.094
G1 X293.098
G1 Y313.795
G1 X289.798
G1 X286.498
; Layer Trayectorias_de_corte_1 Pass 4 of 9
G1 Y317.094
G1 X293.098
G1 Y313.795
G1 X289.798
G1 X286.498
; Layer Trayectorias_de_corte_1 Pass 5 of 9
G1 Y317.094
G1 X293.098
G1 Y313.795
G1 X289.798
G1 X286.498
; Layer Trayectorias_de_corte_1 Pass 6 of 9
G1 Y317.094
G1 X293.098
G1 Y313.795
G1 X289.798
G1 X286.498
; Layer Trayectorias_de_corte_1 Pass 7 of 9
G1 Y317.094
G1 X293.098
G1 Y313.795
G1 X289.798
G1 X286.498
; Layer Trayectorias_de_corte_1 Pass 8 of 9
G1 Y317.094
G1 X293.098
G1 Y313.795
G1 X289.798
G1 X286.498
; Layer Trayectorias_de_corte_1 Pass 9 of 9
G1 Y317.094
G1 X293.098
G1 Y313.795
G1 X289.798
G1 X286.498
G0 X299.698Y313.795
; Layer Trayectorias_de_corte_1 Pass 1 of 9
G1 Y317.094
G1 X306.298
G1 Y313.795
G1 X302.997
G1 X299.698
; Layer Trayectorias_de_corte_1 Pass 2 of 9
G1 Y317.094
G1 X306.298
G1 Y313.795
G1 X302.997
G1 X299.698
; Layer Trayectorias_de_corte_1 Pass 3 of 9
G1 Y317.094
G1 X306.298
G1 Y313.795
G1 X302.997
G1 X299.698
; Layer Trayectorias_de_corte_1 Pass 4 of 9
G1 Y317.094
G1 X306.298
G1 Y313.795
G1 X302.997
G1 X299.698
; Layer Trayectorias_de_corte_1 Pass 5 of 9
G1 Y317.094
G1 X306.298
G1 Y313.795
G1 X302.997
G1 X299.698
; Layer Trayectorias_de_corte_1 Pass 6 of 9
G1 Y317.094
G1 X306.298
G1 Y313.795
G1 X302.997
G1 X299.698
; Layer Trayectorias_de_corte_1 Pass 7 of 9
G1 Y317.094
G1 X306.298
G1 Y313.795
G1 X302.997
G1 X299.698
; Layer Trayectorias_de_corte_1 Pass 8 of 9
G1 Y317.094
G1 X306.298
G1 Y313.795
G1 X302.997
G1 X299.698
; Layer Trayectorias_de_corte_1 Pass 9 of 9
G1 Y317.094
G1 X306.298
G1 Y313.795
G1 X302.997
G1 X299.698
G0 X312.899Y313.795
; Layer Trayectorias_de_corte_1 Pass 1 of 9
G1 Y317.094
G1 X319.498
G1 Y313.795
G1 X316.198
G1 X312.899
; Layer Trayectorias_de_corte_1 Pass 2 of 9
G1 Y317.094
G1 X319.498
G1 Y313.795
G1 X316.198
G1 X312.899
; Layer Trayectorias_de_corte_1 Pass 3 of 9
G1 Y317.094
G1 X319.498
G1 Y313.795
G1 X316.198
G1 X312.899
; Layer Trayectorias_de_corte_1 Pass 4 of 9
G1 Y317.094
G1 X319.498
G1 Y313.795
G1 X316.198
G1 X312.899
; Layer Trayectorias_de_corte_1 Pass 5 of 9
G1 Y317.094
G1 X319.498
G1 Y313.795
G1 X316.198
G1 X312.899
; Layer Trayectorias_de_corte_1 Pass 6 of 9
G1 Y317.094
G1 X319.498
G1 Y313.795
G1 X316.198
G1 X312.899
; Layer Trayectorias_de_corte_1 Pass 7 of 9
G1 Y317.094
G1 X319.498
G1 Y313.795
G1 X316.198
G1 X312.899
; Layer Trayectorias_de_corte_1 Pass 8 of 9
G1 Y317.094
G1 X319.498
G1 Y313.795
G1 X316.198
G1 X312.899
; Layer Trayectorias_de_corte_1 Pass 9 of 9
G1 Y317.094
G1 X319.498
G1 Y313.795
G1 X316.198
G1 X312.899
G0 X326.098Y313.795
; Layer Trayectorias_de_corte_1 Pass 1 of 9
G1 Y317.094
G1 X332.698
G1 Y313.795
G1 X329.398
G1 X326.098
; Layer Trayectorias_de_corte_1 Pass 2 of 9
G1 Y317.094
G1 X332.698
G1 Y313.795
G1 X329.398
G1 X326.098
; Layer Trayectorias_de_corte_1 Pass 3 of 9
G1 Y317.094
G1 X332.698
G1 Y313.795
G1 X329.398
G1 X326.098
; Layer Trayectorias_de_corte_1 Pass 4 of 9
G1 Y317.094
G1 X332.698
G1 Y313.795
G1 X329.398
G1 X326.098
; Layer Trayectorias_de_corte_1 Pass 5 of 9
G1 Y317.094
G1 X332.698
G1 Y313.795
G1 X329.398
G1 X326.098
; Layer Trayectorias_de_corte_1 Pass 6 of 9
G1 Y317.094
G1 X332.698
G1 Y313.795
G1 X329.398
G1 X326.098
; Layer Trayectorias_de_corte_1 Pass 7 of 9
G1 Y317.094
G1 X332.698
G1 Y313.795
G1 X329.398
G1 X326.098
; Layer Trayectorias_de_corte_1 Pass 8 of 9
G1 Y317.094
G1 X332.698
G1 Y313.795
G1 X329.398
G1 X326.098
; Layer Trayectorias_de_corte_1 Pass 9 of 9
G1 Y317.094
G1 X332.698
G1 Y313.795
G1 X329.398
G1 X326.098
G0 X339.298Y313.795
; Layer Trayectorias_de_corte_1 Pass 1 of 9
G1 Y317.094
G1 X345.898
G1 Y313.795
G1 X342.598
G1 X339.298
; Layer Trayectorias_de_corte_1 Pass 2 of 9
G1 Y317.094
G1 X345.898
G1 Y313.795
G1 X342.598
G1 X339.298
; Layer Trayectorias_de_corte_1 Pass 3 of 9
G1 Y317.094
G1 X345.898
G1 Y313.795
G1 X342.598
G1 X339.298
; Layer Trayectorias_de_corte_1 Pass 4 of 9
G1 Y317.094
G1 X345.898
G1 Y313.795
G1 X342.598
G1 X339.298
; Layer Trayectorias_de_corte_1 Pass 5 of 9
G1 Y317.094
G1 X345.898
G1 Y313.795
G1 X342.598
G1 X339.298
; Layer Trayectorias_de_corte_1 Pass 6 of 9
G1 Y317.094
G1 X345.898
G1 Y313.795
G1 X342.598
G1 X339.298
; Layer Trayectorias_de_corte_1 Pass 7 of 9
G1 Y317.094
G1 X345.898
G1 Y313.795
G1 X342.598
G1 X339.298
; Layer Trayectorias_de_corte_1 Pass 8 of 9
G1 Y317.094
G1 X345.898
G1 Y313.795
G1 X342.598
G1 X339.298
; Layer Trayectorias_de_corte_1 Pass 9 of 9
G1 Y317.094
G1 X345.898
G1 Y313.795
G1 X342.598
G1 X339.298
G0 X352.498Y313.795
; Layer Trayectorias_de_corte_1 Pass 1 of 9
G1 Y317.094
G1 X359.099
G1 Y313.795
G1 X355.798
G1 X352.498
; Layer Trayectorias_de_corte_1 Pass 2 of 9
G1 Y317.094
G1 X359.099
G1 Y313.795
G1 X355.798
G1 X352.498
; Layer Trayectorias_de_corte_1 Pass 3 of 9
G1 Y317.094
G1 X359.099
G1 Y313.795
G1 X355.798
G1 X352.498
; Layer Trayectorias_de_corte_1 Pass 4 of 9
G1 Y317.094
G1 X359.099
G1 Y313.795
G1 X355.798
G1 X352.498
; Layer Trayectorias_de_corte_1 Pass 5 of 9
G1 Y317.094
G1 X359.099
G1 Y313.795
G1 X355.798
G1 X352.498
; Layer Trayectorias_de_corte_1 Pass 6 of 9
G1 Y317.094
G1 X359.099
G1 Y313.795
G1 X355.798
G1 X352.498
; Layer Trayectorias_de_corte_1 Pass 7 of 9
G1 Y317.094
G1 X359.099
G1 Y313.795
G1 X355.798
G1 X352.498
; Layer Trayectorias_de_corte_1 Pass 8 of 9
G1 Y317.094
G1 X359.099
G1 Y313.795
G1 X355.798
G1 X352.498
; Layer Trayectorias_de_corte_1 Pass 9 of 9
G1 Y317.094
G1 X359.099
G1 Y313.795
G1 X355.798
G1 X352.498
G0 X365.698Y313.795
; Layer Trayectorias_de_corte_1 Pass 1 of 9
G1 Y317.094
G1 X372.298
G1 Y313.795
G1 X368.998
G1 X365.698
; Layer Trayectorias_de_corte_1 Pass 2 of 9
G1 Y317.094
G1 X372.298
G1 Y313.795
G1 X368.998
G1 X365.698
; Layer Trayectorias_de_corte_1 Pass 3 of 9
G1 Y317.094
G1 X372.298
G1 Y313.795
G1 X368.998
G1 X365.698
; Layer Trayectorias_de_corte_1 Pass 4 of 9
G1 Y317.094
G1 X372.298
G1 Y313.795
G1 X368.998
G1 X365.698
; Layer Trayectorias_de_corte_1 Pass 5 of 9
G1 Y317.094
G1 X372.298
G1 Y313.795
G1 X368.998
G1 X365.698
; Layer Trayectorias_de_corte_1 Pass 6 of 9
G1 Y317.094
G1 X372.298
G1 Y313.795
G1 X368.998
G1 X365.698
; Layer Trayectorias_de_corte_1 Pass 7 of 9
G1 Y317.094
G1 X372.298
G1 Y313.795
G1 X368.998
G1 X365.698
; Layer Trayectorias_de_corte_1 Pass 8 of 9
G1 Y317.094
G1 X372.298
G1 Y313.795
G1 X368.998
G1 X365.698
; Layer Trayectorias_de_corte_1 Pass 9 of 9
G1 Y317.094
G1 X372.298
G1 Y313.795
G1 X368.998
G1 X365.698
G0 X384.103Y327.1
; Layer Trayectorias_de_corte_1 Pass 1 of 9
G1 Y333.7
G1 X387.402
G1 Y330.4
G1 Y327.1
G1 X384.103
; Layer Trayectorias_de_corte_1 Pass 2 of 9
G1 Y333.7
G1 X387.402
G1 Y330.4
G1 Y327.1
G1 X384.103
; Layer Trayectorias_de_corte_1 Pass 3 of 9
G1 Y333.7
G1 X387.402
G1 Y330.4
G1 Y327.1
G1 X384.103
; Layer Trayectorias_de_corte_1 Pass 4 of 9
G1 Y333.7
G1 X387.402
G1 Y330.4
G1 Y327.1
G1 X384.103
; Layer Trayectorias_de_corte_1 Pass 5 of 9
G1 Y333.7
G1 X387.402
G1 Y330.4
G1 Y327.1
G1 X384.103
; Layer Trayectorias_de_corte_1 Pass 6 of 9
G1 Y333.7
G1 X387.402
G1 Y330.4
G1 Y327.1
G1 X384.103
; Layer Trayectorias_de_corte_1 Pass 7 of 9
G1 Y333.7
G1 X387.402
G1 Y330.4
G1 Y327.1
G1 X384.103
; Layer Trayectorias_de_corte_1 Pass 8 of 9
G1 Y333.7
G1 X387.402
G1 Y330.4
G1 Y327.1
G1 X384.103
; Layer Trayectorias_de_corte_1 Pass 9 of 9
G1 Y333.7
G1 X387.402
G1 Y330.4
G1 Y327.1
G1 X384.103
G0 X384.103Y340.299
; Layer Trayectorias_de_corte_1 Pass 1 of 9
G1 Y346.9
G1 X387.402
G1 Y343.6
G1 Y340.299
G1 X384.103
; Layer Trayectorias_de_corte_1 Pass 2 of 9
G1 Y346.9
G1 X387.402
G1 Y343.6
G1 Y340.299
G1 X384.103
; Layer Trayectorias_de_corte_1 Pass 3 of 9
G1 Y346.9
G1 X387.402
G1 Y343.6
G1 Y340.299
G1 X384.103
; Layer Trayectorias_de_corte_1 Pass 4 of 9
G1 Y346.9
G1 X387.402
G1 Y343.6
G1 Y340.299
G1 X384.103
; Layer Trayectorias_de_corte_1 Pass 5 of 9
G1 Y346.9
G1 X387.402
G1 Y343.6
G1 Y340.299
G1 X384.103
; Layer Trayectorias_de_corte_1 Pass 6 of 9
G1 Y346.9
G1 X387.402
G1 Y343.6
G1 Y340.299
G1 X384.103
; Layer Trayectorias_de_corte_1 Pass 7 of 9
G1 Y346.9
G1 X387.402
G1 Y343.6
G1 Y340.299
G1 X384.103
; Layer Trayectorias_de_corte_1 Pass 8 of 9
G1 Y346.9
G1 X387.402
G1 Y343.6
G1 Y340.299
G1 X384.103
; Layer Trayectorias_de_corte_1 Pass 9 of 9
G1 Y346.9
G1 X387.402
G1 Y343.6
G1 Y340.299
G1 X384.103
G0 X384.103Y353.499
; Layer Trayectorias_de_corte_1 Pass 1 of 9
G1 Y360.1
G1 X387.402
G1 Y356.8
G1 Y353.499
G1 X384.103
; Layer Trayectorias_de_corte_1 Pass 2 of 9
G1 Y360.1
G1 X387.402
G1 Y356.8
G1 Y353.499
G1 X384.103
; Layer Trayectorias_de_corte_1 Pass 3 of 9
G1 Y360.1
G1 X387.402
G1 Y356.8
G1 Y353.499
G1 X384.103
; Layer Trayectorias_de_corte_1 Pass 4 of 9
G1 Y360.1
G1 X387.402
G1 Y356.8
G1 Y353.499
G1 X384.103
; Layer Trayectorias_de_corte_1 Pass 5 of 9
G1 Y360.1
G1 X387.402
G1 Y356.8
G1 Y353.499
G1 X384.103
; Layer Trayectorias_de_corte_1 Pass 6 of 9
G1 Y360.1
G1 X387.402
G1 Y356.8
G1 Y353.499
G1 X384.103
; Layer Trayectorias_de_corte_1 Pass 7 of 9
G1 Y360.1
G1 X387.402
G1 Y356.8
G1 Y353.499
G1 X384.103
; Layer Trayectorias_de_corte_1 Pass 8 of 9
G1 Y360.1
G1 X387.402
G1 Y356.8
G1 Y353.499
G1 X384.103
; Layer Trayectorias_de_corte_1 Pass 9 of 9
G1 Y360.1
G1 X387.402
G1 Y356.8
G1 Y353.499
G1 X384.103
G0 X384.103Y366.7
; Layer Trayectorias_de_corte_1 Pass 1 of 9
G1 Y373.3
G1 X387.402
G1 Y370
G1 Y366.7
G1 X384.103
; Layer Trayectorias_de_corte_1 Pass 2 of 9
G1 Y373.3
G1 X387.402
G1 Y370
G1 Y366.7
G1 X384.103
; Layer Trayectorias_de_corte_1 Pass 3 of 9
G1 Y373.3
G1 X387.402
G1 Y370
G1 Y366.7
G1 X384.103
; Layer Trayectorias_de_corte_1 Pass 4 of 9
G1 Y373.3
G1 X387.402
G1 Y370
G1 Y366.7
G1 X384.103
; Layer Trayectorias_de_corte_1 Pass 5 of 9
G1 Y373.3
G1 X387.402
G1 Y370
G1 Y366.7
G1 X384.103
; Layer Trayectorias_de_corte_1 Pass 6 of 9
G1 Y373.3
G1 X387.402
G1 Y370
G1 Y366.7
G1 X384.103
; Layer Trayectorias_de_corte_1 Pass 7 of 9
G1 Y373.3
G1 X387.402
G1 Y370
G1 Y366.7
G1 X384.103
; Layer Trayectorias_de_corte_1 Pass 8 of 9
G1 Y373.3
G1 X387.402
G1 Y370
G1 Y366.7
G1 X384.103
; Layer Trayectorias_de_corte_1 Pass 9 of 9
G1 Y373.3
G1 X387.402
G1 Y370
G1 Y366.7
G1 X384.103
G0 X384.103Y379.9
; Layer Trayectorias_de_corte_1 Pass 1 of 9
G1 Y386.499
G1 X387.402
G1 Y383.2
G1 Y379.9
G1 X384.103
; Layer Trayectorias_de_corte_1 Pass 2 of 9
G1 Y386.499
G1 X387.402
G1 Y383.2
G1 Y379.9
G1 X384.103
; Layer Trayectorias_de_corte_1 Pass 3 of 9
G1 Y386.499
G1 X387.402
G1 Y383.2
G1 Y379.9
G1 X384.103
; Layer Trayectorias_de_corte_1 Pass 4 of 9
G1 Y386.499
G1 X387.402
G1 Y383.2
G1 Y379.9
G1 X384.103
; Layer Trayectorias_de_corte_1 Pass 5 of 9
G1 Y386.499
G1 X387.402
G1 Y383.2
G1 Y379.9
G1 X384.103
; Layer Trayectorias_de_corte_1 Pass 6 of 9
G1 Y386.499
G1 X387.402
G1 Y383.2
G1 Y379.9
G1 X384.103
; Layer Trayectorias_de_corte_1 Pass 7 of 9
G1 Y386.499
G1 X387.402
G1 Y383.2
G1 Y379.9
G1 X384.103
; Layer Trayectorias_de_corte_1 Pass 8 of 9
G1 Y386.499
G1 X387.402
G1 Y383.2
G1 Y379.9
G1 X384.103
; Layer Trayectorias_de_corte_1 Pass 9 of 9
G1 Y386.499
G1 X387.402
G1 Y383.2
G1 Y379.9
G1 X384.103
G0 X384.103Y393.1
; Layer Trayectorias_de_corte_1 Pass 1 of 9
G1 Y399.7
G1 X387.402
G1 Y396.4
G1 Y393.1
G1 X384.103
; Layer Trayectorias_de_corte_1 Pass 2 of 9
G1 Y399.7
G1 X387.402
G1 Y396.4
G1 Y393.1
G1 X384.103
; Layer Trayectorias_de_corte_1 Pass 3 of 9
G1 Y399.7
G1 X387.402
G1 Y396.4
G1 Y393.1
G1 X384.103
; Layer Trayectorias_de_corte_1 Pass 4 of 9
G1 Y399.7
G1 X387.402
G1 Y396.4
G1 Y393.1
G1 X384.103
; Layer Trayectorias_de_corte_1 Pass 5 of 9
G1 Y399.7
G1 X387.402
G1 Y396.4
G1 Y393.1
G1 X384.103
; Layer Trayectorias_de_corte_1 Pass 6 of 9
G1 Y399.7
G1 X387.402
G1 Y396.4
G1 Y393.1
G1 X384.103
; Layer Trayectorias_de_corte_1 Pass 7 of 9
G1 Y399.7
G1 X387.402
G1 Y396.4
G1 Y393.1
G1 X384.103
; Layer Trayectorias_de_corte_1 Pass 8 of 9
G1 Y399.7
G1 X387.402
G1 Y396.4
G1 Y393.1
G1 X384.103
; Layer Trayectorias_de_corte_1 Pass 9 of 9
G1 Y399.7
G1 X387.402
G1 Y396.4
G1 Y393.1
G1 X384.103
G0 X384.103Y406.3
; Layer Trayectorias_de_corte_1 Pass 1 of 9
G1 Y412.9
G1 X387.402
G1 Y409.6
G1 Y406.3
G1 X384.103
; Layer Trayectorias_de_corte_1 Pass 2 of 9
G1 Y412.9
G1 X387.402
G1 Y409.6
G1 Y406.3
G1 X384.103
; Layer Trayectorias_de_corte_1 Pass 3 of 9
G1 Y412.9
G1 X387.402
G1 Y409.6
G1 Y406.3
G1 X384.103
; Layer Trayectorias_de_corte_1 Pass 4 of 9
G1 Y412.9
G1 X387.402
G1 Y409.6
G1 Y406.3
G1 X384.103
; Layer Trayectorias_de_corte_1 Pass 5 of 9
G1 Y412.9
G1 X387.402
G1 Y409.6
G1 Y406.3
G1 X384.103
; Layer Trayectorias_de_corte_1 Pass 6 of 9
G1 Y412.9
G1 X387.402
G1 Y409.6
G1 Y406.3
G1 X384.103
; Layer Trayectorias_de_corte_1 Pass 7 of 9
G1 Y412.9
G1 X387.402
G1 Y409.6
G1 Y406.3
G1 X384.103
; Layer Trayectorias_de_corte_1 Pass 8 of 9
G1 Y412.9
G1 X387.402
G1 Y409.6
G1 Y406.3
G1 X384.103
; Layer Trayectorias_de_corte_1 Pass 9 of 9
G1 Y412.9
G1 X387.402
G1 Y409.6
G1 Y406.3
G1 X384.103
G0 X372.298Y422.904
; Layer Trayectorias_de_corte_1 Pass 1 of 9
G1 X365.698
G1 Y426.205
G1 X368.998
G1 X372.298
G1 Y422.904
; Layer Trayectorias_de_corte_1 Pass 2 of 9
G1 X365.698
G1 Y426.205
G1 X368.998
G1 X372.298
G1 Y422.904
; Layer Trayectorias_de_corte_1 Pass 3 of 9
G1 X365.698
G1 Y426.205
G1 X368.998
G1 X372.298
G1 Y422.904
; Layer Trayectorias_de_corte_1 Pass 4 of 9
G1 X365.698
G1 Y426.205
G1 X368.998
G1 X372.298
G1 Y422.904
; Layer Trayectorias_de_corte_1 Pass 5 of 9
G1 X365.698
G1 Y426.205
G1 X368.998
G1 X372.298
G1 Y422.904
; Layer Trayectorias_de_corte_1 Pass 6 of 9
G1 X365.698
G1 Y426.205
G1 X368.998
G1 X372.298
G1 Y422.904
; Layer Trayectorias_de_corte_1 Pass 7 of 9
G1 X365.698
G1 Y426.205
G1 X368.998
G1 X372.298
G1 Y422.904
; Layer Trayectorias_de_corte_1 Pass 8 of 9
G1 X365.698
G1 Y426.205
G1 X368.998
G1 X372.298
G1 Y422.904
; Layer Trayectorias_de_corte_1 Pass 9 of 9
G1 X365.698
G1 Y426.205
G1 X368.998
G1 X372.298
G1 Y422.904
G0 X359.099Y422.904
; Layer Trayectorias_de_corte_1 Pass 1 of 9
G1 X352.498
G1 Y426.205
G1 X355.798
G1 X359.099
G1 Y422.904
; Layer Trayectorias_de_corte_1 Pass 2 of 9
G1 X352.498
G1 Y426.205
G1 X355.798
G1 X359.099
G1 Y422.904
; Layer Trayectorias_de_corte_1 Pass 3 of 9
G1 X352.498
G1 Y426.205
G1 X355.798
G1 X359.099
G1 Y422.904
; Layer Trayectorias_de_corte_1 Pass 4 of 9
G1 X352.498
G1 Y426.205
G1 X355.798
G1 X359.099
G1 Y422.904
; Layer Trayectorias_de_corte_1 Pass 5 of 9
G1 X352.498
G1 Y426.205
G1 X355.798
G1 X359.099
G1 Y422.904
; Layer Trayectorias_de_corte_1 Pass 6 of 9
G1 X352.498
G1 Y426.205
G1 X355.798
G1 X359.099
G1 Y422.904
; Layer Trayectorias_de_corte_1 Pass 7 of 9
G1 X352.498
G1 Y426.205
G1 X355.798
G1 X359.099
G1 Y422.904
; Layer Trayectorias_de_corte_1 Pass 8 of 9
G1 X352.498
G1 Y426.205
G1 X355.798
G1 X359.099
G1 Y422.904
; Layer Trayectorias_de_corte_1 Pass 9 of 9
G1 X352.498
G1 Y426.205
G1 X355.798
G1 X359.099
G1 Y422.904
G0 X345.898Y422.904
; Layer Trayectorias_de_corte_1 Pass 1 of 9
G1 X339.298
G1 Y426.205
G1 X342.598
G1 X345.898
G1 Y422.904
; Layer Trayectorias_de_corte_1 Pass 2 of 9
G1 X339.298
G1 Y426.205
G1 X342.598
G1 X345.898
G1 Y422.904
; Layer Trayectorias_de_corte_1 Pass 3 of 9
G1 X339.298
G1 Y426.205
G1 X342.598
G1 X345.898
G1 Y422.904
; Layer Trayectorias_de_corte_1 Pass 4 of 9
G1 X339.298
G1 Y426.205
G1 X342.598
G1 X345.898
G1 Y422.904
; Layer Trayectorias_de_corte_1 Pass 5 of 9
G1 X339.298
G1 Y426.205
G1 X342.598
G1 X345.898
G1 Y422.904
; Layer Trayectorias_de_corte_1 Pass 6 of 9
G1 X339.298
G1 Y426.205
G1 X342.598
G1 X345.898
G1 Y422.904
; Layer Trayectorias_de_corte_1 Pass 7 of 9
G1 X339.298
G1 Y426.205
G1 X342.598
G1 X345.898
G1 Y422.904
; Layer Trayectorias_de_corte_1 Pass 8 of 9
G1 X339.298
G1 Y426.205
G1 X342.598
G1 X345.898
G1 Y422.904
; Layer Trayectorias_de_corte_1 Pass 9 of 9
G1 X339.298
G1 Y426.205
G1 X342.598
G1 X345.898
G1 Y422.904
G0 X332.698Y422.904
; Layer Trayectorias_de_corte_1 Pass 1 of 9
G1 X326.098
G1 Y426.205
G1 X329.398
G1 X332.698
G1 Y422.904
; Layer Trayectorias_de_corte_1 Pass 2 of 9
G1 X326.098
G1 Y426.205
G1 X329.398
G1 X332.698
G1 Y422.904
; Layer Trayectorias_de_corte_1 Pass 3 of 9
G1 X326.098
G1 Y426.205
G1 X329.398
G1 X332.698
G1 Y422.904
; Layer Trayectorias_de_corte_1 Pass 4 of 9
G1 X326.098
G1 Y426.205
G1 X329.398
G1 X332.698
G1 Y422.904
; Layer Trayectorias_de_corte_1 Pass 5 of 9
G1 X326.098
G1 Y426.205
G1 X329.398
G1 X332.698
G1 Y422.904
; Layer Trayectorias_de_corte_1 Pass 6 of 9
G1 X326.098
G1 Y426.205
G1 X329.398
G1 X332.698
G1 Y422.904
; Layer Trayectorias_de_corte_1 Pass 7 of 9
G1 X326.098
G1 Y426.205
G1 X329.398
G1 X332.698
G1 Y422.904
; Layer Trayectorias_de_corte_1 Pass 8 of 9
G1 X326.098
G1 Y426.205
G1 X329.398
G1 X332.698
G1 Y422.904
; Layer Trayectorias_de_corte_1 Pass 9 of 9
G1 X326.098
G1 Y426.205
G1 X329.398
G1 X332.698
G1 Y422.904
G0 X319.498Y422.904
; Layer Trayectorias_de_corte_1 Pass 1 of 9
G1 X312.899
G1 Y426.205
G1 X316.198
G1 X319.498
G1 Y422.904
; Layer Trayectorias_de_corte_1 Pass 2 of 9
G1 X312.899
G1 Y426.205
G1 X316.198
G1 X319.498
G1 Y422.904
; Layer Trayectorias_de_corte_1 Pass 3 of 9
G1 X312.899
G1 Y426.205
G1 X316.198
G1 X319.498
G1 Y422.904
; Layer Trayectorias_de_corte_1 Pass 4 of 9
G1 X312.899
G1 Y426.205
G1 X316.198
G1 X319.498
G1 Y422.904
; Layer Trayectorias_de_corte_1 Pass 5 of 9
G1 X312.899
G1 Y426.205
G1 X316.198
G1 X319.498
G1 Y422.904
; Layer Trayectorias_de_corte_1 Pass 6 of 9
G1 X312.899
G1 Y426.205
G1 X316.198
G1 X319.498
G1 Y422.904
; Layer Trayectorias_de_corte_1 Pass 7 of 9
G1 X312.899
G1 Y426.205
G1 X316.198
G1 X319.498
G1 Y422.904
; Layer Trayectorias_de_corte_1 Pass 8 of 9
G1 X312.899
G1 Y426.205
G1 X316.198
G1 X319.498
G1 Y422.904
; Layer Trayectorias_de_corte_1 Pass 9 of 9
G1 X312.899
G1 Y426.205
G1 X316.198
G1 X319.498
G1 Y422.904
G0 X306.298Y422.904
; Layer Trayectorias_de_corte_1 Pass 1 of 9
G1 X299.698
G1 Y426.205
G1 X302.997
G1 X306.298
G1 Y422.904
; Layer Trayectorias_de_corte_1 Pass 2 of 9
G1 X299.698
G1 Y426.205
G1 X302.997
G1 X306.298
G1 Y422.904
; Layer Trayectorias_de_corte_1 Pass 3 of 9
G1 X299.698
G1 Y426.205
G1 X302.997
G1 X306.298
G1 Y422.904
; Layer Trayectorias_de_corte_1 Pass 4 of 9
G1 X299.698
G1 Y426.205
G1 X302.997
G1 X306.298
G1 Y422.904
; Layer Trayectorias_de_corte_1 Pass 5 of 9
G1 X299.698
G1 Y426.205
G1 X302.997
G1 X306.298
G1 Y422.904
; Layer Trayectorias_de_corte_1 Pass 6 of 9
G1 X299.698
G1 Y426.205
G1 X302.997
G1 X306.298
G1 Y422.904
; Layer Trayectorias_de_corte_1 Pass 7 of 9
G1 X299.698
G1 Y426.205
G1 X302.997
G1 X306.298
G1 Y422.904
; Layer Trayectorias_de_corte_1 Pass 8 of 9
G1 X299.698
G1 Y426.205
G1 X302.997
G1 X306.298
G1 Y422.904
; Layer Trayectorias_de_corte_1 Pass 9 of 9
G1 X299.698
G1 Y426.205
G1 X302.997
G1 X306.298
G1 Y422.904
G0 X293.098Y422.904
; Layer Trayectorias_de_corte_1 Pass 1 of 9
G1 X286.498
G1 Y426.205
G1 X289.798
G1 X293.098
G1 Y422.904
; Layer Trayectorias_de_corte_1 Pass 2 of 9
G1 X286.498
G1 Y426.205
G1 X289.798
G1 X293.098
G1 Y422.904
; Layer Trayectorias_de_corte_1 Pass 3 of 9
G1 X286.498
G1 Y426.205
G1 X289.798
G1 X293.098
G1 Y422.904
; Layer Trayectorias_de_corte_1 Pass 4 of 9
G1 X286.498
G1 Y426.205
G1 X289.798
G1 X293.098
G1 Y422.904
; Layer Trayectorias_de_corte_1 Pass 5 of 9
G1 X286.498
G1 Y426.205
G1 X289.798
G1 X293.098
G1 Y422.904
; Layer Trayectorias_de_corte_1 Pass 6 of 9
G1 X286.498
G1 Y426.205
G1 X289.798
G1 X293.098
G1 Y422.904
; Layer Trayectorias_de_corte_1 Pass 7 of 9
G1 X286.498
G1 Y426.205
G1 X289.798
G1 X293.098
G1 Y422.904
; Layer Trayectorias_de_corte_1 Pass 8 of 9
G1 X286.498
G1 Y426.205
G1 X289.798
G1 X293.098
G1 Y422.904
; Layer Trayectorias_de_corte_1 Pass 9 of 9
G1 X286.498
G1 Y426.205
G1 X289.798
G1 X293.098
G1 Y422.904
G0 X279.899Y422.904
; Layer Trayectorias_de_corte_1 Pass 1 of 9
G1 X273.298
G1 Y426.205
G1 X276.598
G1 X279.899
G1 Y422.904
; Layer Trayectorias_de_corte_1 Pass 2 of 9
G1 X273.298
G1 Y426.205
G1 X276.598
G1 X279.899
G1 Y422.904
; Layer Trayectorias_de_corte_1 Pass 3 of 9
G1 X273.298
G1 Y426.205
G1 X276.598
G1 X279.899
G1 Y422.904
; Layer Trayectorias_de_corte_1 Pass 4 of 9
G1 X273.298
G1 Y426.205
G1 X276.598
G1 X279.899
G1 Y422.904
; Layer Trayectorias_de_corte_1 Pass 5 of 9
G1 X273.298
G1 Y426.205
G1 X276.598
G1 X279.899
G1 Y422.904
; Layer Trayectorias_de_corte_1 Pass 6 of 9
G1 X273.298
G1 Y426.205
G1 X276.598
G1 X279.899
G1 Y422.904
; Layer Trayectorias_de_corte_1 Pass 7 of 9
G1 X273.298
G1 Y426.205
G1 X276.598
G1 X279.899
G1 Y422.904
; Layer Trayectorias_de_corte_1 Pass 8 of 9
G1 X273.298
G1 Y426.205
G1 X276.598
G1 X279.899
G1 Y422.904
; Layer Trayectorias_de_corte_1 Pass 9 of 9
G1 X273.298
G1 Y426.205
G1 X276.598
G1 X279.899
G1 Y422.904
G0 X266.699Y422.904
; Layer Trayectorias_de_corte_1 Pass 1 of 9
G1 X260.098
G1 Y426.205
G1 X263.398
G1 X266.699
G1 Y422.904
; Layer Trayectorias_de_corte_1 Pass 2 of 9
G1 X260.098
G1 Y426.205
G1 X263.398
G1 X266.699
G1 Y422.904
; Layer Trayectorias_de_corte_1 Pass 3 of 9
G1 X260.098
G1 Y426.205
G1 X263.398
G1 X266.699
G1 Y422.904
; Layer Trayectorias_de_corte_1 Pass 4 of 9
G1 X260.098
G1 Y426.205
G1 X263.398
G1 X266.699
G1 Y422.904
; Layer Trayectorias_de_corte_1 Pass 5 of 9
G1 X260.098
G1 Y426.205
G1 X263.398
G1 X266.699
G1 Y422.904
; Layer Trayectorias_de_corte_1 Pass 6 of 9
G1 X260.098
G1 Y426.205
G1 X263.398
G1 X266.699
G1 Y422.904
; Layer Trayectorias_de_corte_1 Pass 7 of 9
G1 X260.098
G1 Y426.205
G1 X263.398
G1 X266.699
G1 Y422.904
; Layer Trayectorias_de_corte_1 Pass 8 of 9
G1 X260.098
G1 Y426.205
G1 X263.398
G1 X266.699
G1 Y422.904
; Layer Trayectorias_de_corte_1 Pass 9 of 9
G1 X260.098
G1 Y426.205
G1 X263.398
G1 X266.699
G1 Y422.904
G0 X248.293Y412.9
; Layer Trayectorias_de_corte_1 Pass 1 of 9
G1 Y406.3
G1 X244.993
G1 Y409.6
G1 Y412.9
G1 X248.293
; Layer Trayectorias_de_corte_1 Pass 2 of 9
G1 Y406.3
G1 X244.993
G1 Y409.6
G1 Y412.9
G1 X248.293
; Layer Trayectorias_de_corte_1 Pass 3 of 9
G1 Y406.3
G1 X244.993
G1 Y409.6
G1 Y412.9
G1 X248.293
; Layer Trayectorias_de_corte_1 Pass 4 of 9
G1 Y406.3
G1 X244.993
G1 Y409.6
G1 Y412.9
G1 X248.293
; Layer Trayectorias_de_corte_1 Pass 5 of 9
G1 Y406.3
G1 X244.993
G1 Y409.6
G1 Y412.9
G1 X248.293
; Layer Trayectorias_de_corte_1 Pass 6 of 9
G1 Y406.3
G1 X244.993
G1 Y409.6
G1 Y412.9
G1 X248.293
; Layer Trayectorias_de_corte_1 Pass 7 of 9
G1 Y406.3
G1 X244.993
G1 Y409.6
G1 Y412.9
G1 X248.293
; Layer Trayectorias_de_corte_1 Pass 8 of 9
G1 Y406.3
G1 X244.993
G1 Y409.6
G1 Y412.9
G1 X248.293
; Layer Trayectorias_de_corte_1 Pass 9 of 9
G1 Y406.3
G1 X244.993
G1 Y409.6
G1 Y412.9
G1 X248.293
G0 X248.293Y399.7
; Layer Trayectorias_de_corte_1 Pass 1 of 9
G1 Y393.1
G1 X244.993
G1 Y396.4
G1 Y399.7
G1 X248.293
; Layer Trayectorias_de_corte_1 Pass 2 of 9
G1 Y393.1
G1 X244.993
G1 Y396.4
G1 Y399.7
G1 X248.293
; Layer Trayectorias_de_corte_1 Pass 3 of 9
G1 Y393.1
G1 X244.993
G1 Y396.4
G1 Y399.7
G1 X248.293
; Layer Trayectorias_de_corte_1 Pass 4 of 9
G1 Y393.1
G1 X244.993
G1 Y396.4
G1 Y399.7
G1 X248.293
; Layer Trayectorias_de_corte_1 Pass 5 of 9
G1 Y393.1
G1 X244.993
G1 Y396.4
G1 Y399.7
G1 X248.293
; Layer Trayectorias_de_corte_1 Pass 6 of 9
G1 Y393.1
G1 X244.993
G1 Y396.4
G1 Y399.7
G1 X248.293
; Layer Trayectorias_de_corte_1 Pass 7 of 9
G1 Y393.1
G1 X244.993
G1 Y396.4
G1 Y399.7
G1 X248.293
; Layer Trayectorias_de_corte_1 Pass 8 of 9
G1 Y393.1
G1 X244.993
G1 Y396.4
G1 Y399.7
G1 X248.293
; Layer Trayectorias_de_corte_1 Pass 9 of 9
G1 Y393.1
G1 X244.993
G1 Y396.4
G1 Y399.7
G1 X248.293
G0 X248.293Y386.499
; Layer Trayectorias_de_corte_1 Pass 1 of 9
G1 Y379.9
G1 X244.993
G1 Y383.2
G1 Y386.499
G1 X248.293
; Layer Trayectorias_de_corte_1 Pass 2 of 9
G1 Y379.9
G1 X244.993
G1 Y383.2
G1 Y386.499
G1 X248.293
; Layer Trayectorias_de_corte_1 Pass 3 of 9
G1 Y379.9
G1 X244.993
G1 Y383.2
G1 Y386.499
G1 X248.293
; Layer Trayectorias_de_corte_1 Pass 4 of 9
G1 Y379.9
G1 X244.993
G1 Y383.2
G1 Y386.499
G1 X248.293
; Layer Trayectorias_de_corte_1 Pass 5 of 9
G1 Y379.9
G1 X244.993
G1 Y383.2
G1 Y386.499
G1 X248.293
; Layer Trayectorias_de_corte_1 Pass 6 of 9
G1 Y379.9
G1 X244.993
G1 Y383.2
G1 Y386.499
G1 X248.293
; Layer Trayectorias_de_corte_1 Pass 7 of 9
G1 Y379.9
G1 X244.993
G1 Y383.2
G1 Y386.499
G1 X248.293
; Layer Trayectorias_de_corte_1 Pass 8 of 9
G1 Y379.9
G1 X244.993
G1 Y383.2
G1 Y386.499
G1 X248.293
; Layer Trayectorias_de_corte_1 Pass 9 of 9
G1 Y379.9
G1 X244.993
G1 Y383.2
G1 Y386.499
G1 X248.293
G0 X248.293Y373.3
; Layer Trayectorias_de_corte_1 Pass 1 of 9
G1 Y366.7
G1 X244.993
G1 Y370
G1 Y373.3
G1 X248.293
; Layer Trayectorias_de_corte_1 Pass 2 of 9
G1 Y366.7
G1 X244.993
G1 Y370
G1 Y373.3
G1 X248.293
; Layer Trayectorias_de_corte_1 Pass 3 of 9
G1 Y366.7
G1 X244.993
G1 Y370
G1 Y373.3
G1 X248.293
; Layer Trayectorias_de_corte_1 Pass 4 of 9
G1 Y366.7
G1 X244.993
G1 Y370
G1 Y373.3
G1 X248.293
; Layer Trayectorias_de_corte_1 Pass 5 of 9
G1 Y366.7
G1 X244.993
G1 Y370
G1 Y373.3
G1 X248.293
; Layer Trayectorias_de_corte_1 Pass 6 of 9
G1 Y366.7
G1 X244.993
G1 Y370
G1 Y373.3
G1 X248.293
; Layer Trayectorias_de_corte_1 Pass 7 of 9
G1 Y366.7
G1 X244.993
G1 Y370
G1 Y373.3
G1 X248.293
; Layer Trayectorias_de_corte_1 Pass 8 of 9
G1 Y366.7
G1 X244.993
G1 Y370
G1 Y373.3
G1 X248.293
; Layer Trayectorias_de_corte_1 Pass 9 of 9
G1 Y366.7
G1 X244.993
G1 Y370
G1 Y373.3
G1 X248.293
G0 X248.293Y360.1
; Layer Trayectorias_de_corte_1 Pass 1 of 9
G1 Y353.499
G1 X244.993
G1 Y356.8
G1 Y360.1
G1 X248.293
; Layer Trayectorias_de_corte_1 Pass 2 of 9
