; LightBurn 1.3.01
; GRBL device profile, absolute coords
; Bounds: X10 Y10 to X423.4 Y279.63
G00 G17 G40 G21 G54
G90
M4
; Scan @ 3000 mm/min, 100% power
M8
G0 X53.194Y71.565
; Layer Grabado etapa1
G91
G0 X1.25
G1 X0.141F3000S1000
G0 X1.25
G0 X0.087Y0.1
G0 X-1.25
G1 X-0.317
G0 X-1.25
G0 X-0.089Y0.1
G0 X1.25
G1 X0.492
G0 X1.25
G0 X0.087Y0.1
G0 X-1.25
G1 X-0.669
G0 X-1.25
G0 X-0.089Y0.1
G0 X1.25
G1 X0.845
G0 X1.25
G0 X0.087Y0.1
G0 X-1.25
G1 X-1.021
G0 X-1.25
G0 X-0.089Y0.1
G0 X1.25
G1 X1.196
G0 X1.25
G0 X0.087Y0.1
G0 X-1.25
G1 X-1.372
G0 X-1.25
G0 X-0.088Y0.1
G0 X1.25
G1 X1.547
G0 X1.25
G0 X0.086Y0.1
G0 X-1.25
G1 X-1.722
G0 X-1.25
G0 X-0.088Y0.1
G0 X1.25
G1 X1.897
G0 X1.25
G0 X0.087Y0.1
G0 X-1.25
G1 X-2.073
G0 X-1.25
G0 X-0.086Y0.1
G0 X1.25
G1 X2.245
G0 X1.25
G0 X0.083Y0.1
G0 X-1.25
G1 X-2.415
G0 X-1.25
G0 X-0.086Y0.1
G0 X1.25
G1 X2.583
G0 X1.25
G0 X0.083Y0.1
G0 X-1.25
G1 X-2.752
G0 X-1.25
G0 X-0.085Y0.1
G0 X1.25
G1 X2.919
G0 X1.25
G0 X0.083Y0.1
G0 X-1.25
G1 X-3.084
G0 X-1.25
G0 X-0.083Y0.1
G0 X1.25
G1 X3.246
G0 X1.25
G0 X0.076Y0.1
G0 X-1.25
G1 X-3.405
G0 X-1.25
G0 X-0.08Y0.1
G0 X1.25
G1 X3.561
G0 X1.25
G0 X0.076Y0.1
G0 X-1.25
G1 X-3.715
G0 X-1.25
G0 X-6.402Y0.1
G0 X1.25
G1 X0.059
G1 X6.265F5000S0
G1 X3.869F3000S1000
G1 X6.3F5000S0
G1 X0.06F3000S1000
G0 X1.25
G0 X0.025Y0.1
G0 X-1.25
G1 X-0.377
G1 X-5.932F5000S0
G1 X-4.021F3000S1000
G1 X-5.897F5000S0
G1 X-0.376F3000S1000
G0 X-1.25
G0 X-0.025Y0.1
G0 X1.25
G1 X0.693
G1 X5.535F5000S0
G1 X4.166F3000S1000
G1 X5.565F5000S0
G1 X0.694F3000S1000
G0 X1.25
G0 X0.025Y0.1
G0 X-1.25
G1 X-1.01
G1 X-5.203F5000S0
G1 X-4.306F3000S1000
G1 X-5.174F5000S0
G1 X-1.01F3000S1000
G0 X-1.25
G0 X-0.025Y0.1
G0 X1.25
G1 X1.327
G1 X4.812F5000S0
G1 X4.448F3000S1000
G1 X4.839F5000S0
G1 X1.327F3000S1000
G0 X1.25
G0 X0.025Y0.1
G0 X-1.25
G1 X-1.644
G1 X-4.477F5000S0
G1 X-4.587F3000S1000
G1 X-4.451F5000S0
G1 X-1.644F3000S1000
G0 X-1.25
G0 X-0.025Y0.1
G0 X1.25
G1 X1.948
G1 X4.102F5000S0
G1 X4.725F3000S1000
G1 X4.13F5000S0
G1 X1.948F3000S1000
G0 X1.25
G0 X0.025Y0.1
G0 X-1.25
G1 X-2.244
G1 X-3.791F5000S0
G1 X-4.86F3000S1000
G1 X-3.764F5000S0
G1 X-2.244F3000S1000
G0 X-1.25
G0 X-0.025Y0.1
G0 X1.25
G1 X2.539
G1 X3.436F5000S0
G1 X4.984F3000S1000
G1 X3.454F5000S0
G1 X2.54F3000S1000
G0 X1.25
G0 X0.024Y0.1
G0 X-1.25
G1 X-2.805
G1 X-3.149F5000S0
G1 X-2.505F3000S1000
G1 X-0.144S0
G1 X-2.457S1000
G1 X-3.137F5000S0
G1 X-2.805F3000S1000
G0 X-1.25
G0 X-0.025Y0.1
G0 X1.25
G1 X3.072
G1 X2.837F5000S0
G1 X2.45F3000S1000
G1 X0.29S0
G1 X2.488S1000
G1 X2.844F5000S0
G1 X3.071F3000S1000
G0 X1.25
G0 X0.024Y0.1
G0 X-1.25
G1 X-3.335
G1 X-2.545F5000S0
G1 X-2.466F3000S1000
G1 X-0.435S0
G1 X-2.444S1000
G1 X-2.54F5000S0
G1 X-3.335F3000S1000
G0 X-1.25
G0 X-0.022Y0.1
G0 X1.25
G1 X3.58
G1 X2.26F5000S0
G1 X2.436F3000S1000
G1 X0.582S0
G1 X2.442S1000
G1 X2.264F5000S0
G1 X3.58F3000S1000
G0 X1.25
G0 X0.023Y0.1
G0 X-1.25
G1 X-3.817
G1 X-1.994F5000S0
G1 X-2.422F3000S1000
G1 X-0.722S0
G1 X-2.43S1000
G1 X-1.987F5000S0
G1 X-3.817F3000S1000
G0 X-1.25
G0 X-0.019Y0.1
G0 X1.25
G1 X4.043
G1 X1.727F5000S0
G1 X2.418F3000S1000
G1 X0.86S0
G1 X2.403S1000
G1 X1.733F5000S0
G1 X4.042F3000S1000
G0 X1.25
G0 X0.019Y0.1
G0 X-1.25
G1 X-4.256
G1 X-1.483F5000S0
G1 X-2.385F3000S1000
G1 X-0.998S0
G1 X-2.407S1000
G1 X-1.478F5000S0
G1 X-4.256F3000S1000
G0 X-1.25
G0 X-0.019Y0.1
G0 X1.25
G1 X4.453
G1 X1.247F5000S0
G1 X2.396F3000S1000
G1 X1.134F5000S0
G1 X2.368F3000S1000
G1 X1.249F5000S0
G1 X4.453F3000S1000
G0 X1.25
G0 X0.016Y0.1
G0 X-1.25
G1 X-4.637
G1 X-1.027F5000S0
G1 X-2.36F3000S1000
G1 X-1.261F5000S0
G1 X-2.385F3000S1000
G1 X-1.025F5000S0
G1 X-4.637F3000S1000
G0 X-1.25
G0 X-0.016Y0.1
G0 X1.25
G1 X4.817
G1 X0.808S0
G1 X2.376S1000
G1 X1.384F5000S0
G1 X2.354F3000S1000
G1 X0.809S0
G1 X4.816S1000
G0 X1.25
G0 X0.016Y0.1
G0 X-1.25
G1 X-4.996
G1 X-0.59S0
G1 X-2.348S1000
G1 X-1.506F5000S0
G1 X-2.369F3000S1000
G1 X-0.591S0
G1 X-4.995S1000
G0 X-1.25
G0 X-0.015Y0.1
G0 X1.25
G1 X5.174
G1 X0.374S0
G1 X2.362S1000
G1 X1.627F5000S0
G1 X2.342F3000S1000
G1 X0.372S0
G1 X5.174S1000
G0 X1.25
G0 X0.013Y0.1
G0 X-1.25
G1 X-5.351
G1 X-0.154S0
G1 X-2.343S1000
G1 X-1.741F5000S0
G1 X-2.354F3000S1000
G1 X-0.158S0
G1 X-5.351S1000
G0 X-1.25
G0 X-0.014Y0.1
G0 X1.25
G1 X7.819
G1 X1.852F5000S0
G1 X7.809F3000S1000
G0 X1.25
G0 X0.014Y0.1
G0 X-1.25
G1 X-7.77
G1 X-1.959F5000S0
G1 X-7.778F3000S1000
G0 X-1.25
G0 X-0.012Y0.1
G0 X1.25
G1 X7.735
G1 X2.067F5000S0
G1 X7.728F3000S1000
G0 X1.25
G0 X0.011Y0.1
G0 X-1.25
G1 X-7.689
G1 X-2.172F5000S0
G1 X-7.691F3000S1000
G0 X-1.25
G0 X-0.011Y0.1
G0 X1.25
G1 X7.648
G1 X2.272F5000S0
G1 X7.655F3000S1000
G0 X1.25
G0 X0.011Y0.1
G0 X-1.25
G1 X-1.946
G1 X-0.291S0
G1 X-5.383S1000
G1 X-2.369F5000S0
G1 X-5.371F3000S1000
G1 X-0.292S0
G1 X-1.945S1000
G0 X-1.25
G0 X-0.012Y0.1
G0 X1.25
G1 X1.945
G1 X0.545S0
G1 X5.08S1000
G1 X2.465F5000S0
G1 X5.096F3000S1000
G1 X0.544S0
G1 X1.945S1000
G0 X1.25
G0 X0.011Y0.1
G0 X-1.25
G1 X-1.951
G1 X-0.753S0
G1 X-4.846S1000
G1 X-2.56F5000S0
G1 X-4.827F3000S1000
G1 X-0.753S0
G1 X-1.952S1000
G0 X-1.25
G0 X-0.011Y0.1
G0 X1.25
G1 X1.96
G1 X0.944S0
G1 X4.59S1000
G1 X2.652F5000S0
G1 X4.615F3000S1000
G1 X0.943S0
G1 X1.961S1000
G0 X1.25
G0 X0.009Y0.1
G0 X-1.25
G1 X-1.969
G1 X-1.131F5000S0
G1 X-4.388F3000S1000
G1 X-2.741F5000S0
G1 X-4.355F3000S1000
G1 X-1.13F5000S0
G1 X-1.969F3000S1000
G0 X-1.25
G0 X-0.008Y0.1
G0 X1.25
G1 X1.977
G1 X1.296F5000S0
G1 X4.146F3000S1000
G1 X2.824F5000S0
G1 X4.182F3000S1000
G1 X1.297F5000S0
G1 X1.976F3000S1000
G0 X1.25
G0 X0.008Y0.1
G0 X-1.25
G1 X-1.986
G1 X-1.461F5000S0
G1 X-3.976F3000S1000
G1 X-2.906F5000S0
G1 X-3.938F3000S1000
G1 X-1.461F5000S0
G1 X-1.985F3000S1000
G0 X-1.25
G0 X-0.008Y0.1
G0 X1.25
G1 X1.995
G1 X1.624F5000S0
G1 X3.73F3000S1000
G1 X2.989F5000S0
G1 X3.772F3000S1000
G1 X1.623F5000S0
G1 X1.995F3000S1000
G0 X1.25
G0 X0.008Y0.1
G0 X-1.25
G1 X-2.005
G1 X-1.772F5000S0
G1 X-3.583F3000S1000
G1 X-3.067F5000S0
G1 X-3.54F3000S1000
G1 X-1.771F5000S0
G1 X-2.005F3000S1000
G0 X-1.25
G0 X-0.007Y0.1
G0 X1.25
G1 X2.015
G1 X1.919F5000S0
G1 X3.356F3000S1000
G1 X3.134F5000S0
G1 X3.398F3000S1000
G1 X1.919F5000S0
G1 X2.016F3000S1000
G0 X1.25
G0 X0.008Y0.1
G0 X-1.25
G1 X-2.027
G1 X-2.067F5000S0
G1 X-3.212F3000S1000
G1 X-3.202F5000S0
G1 X-3.172F3000S1000
G1 X-2.066F5000S0
G1 X-2.027F3000S1000
G0 X-1.25
G0 X-0.007Y0.1
G0 X1.25
G1 X2.037
G1 X2.204F5000S0
G1 X2.998F3000S1000
G1 X3.269F5000S0
G1 X3.038F3000S1000
G1 X2.203F5000S0
G1 X2.037F3000S1000
G0 X1.25
G0 X0.005Y0.1
G0 X-1.25
G1 X-2.046
G1 X-2.337F5000S0
G1 X-2.866F3000S1000
G1 X-3.336F5000S0
G1 X-2.828F3000S1000
G1 X-2.336F5000S0
G1 X-2.047F3000S1000
G0 X-1.25
G0 X-0.005Y0.1
G0 X1.25
G1 X2.056
G1 X2.47F5000S0
G1 X2.663F3000S1000
G1 X3.397F5000S0
G1 X2.695F3000S1000
G1 X2.469F5000S0
G1 X2.057F3000S1000
G0 X1.25
G0 Y0.1
G0 X-1.245
G1 X-2.066
G1 X-2.598F5000S0
G1 X-2.534F3000S1000
G1 X-3.451F5000S0
G1 X-2.504F3000S1000
G1 X-2.598F5000S0
G1 X-2.066F3000S1000
G0 X-1.25
G0 X-0.005Y0.1
G0 X1.25
G1 X2.077
G1 X2.715F5000S0
G1 X2.355F3000S1000
G1 X3.505F5000S0
G1 X2.382F3000S1000
G1 X2.716F5000S0
G1 X2.077F3000S1000
G0 X1.25
G0 X0.005Y0.1
G0 X-1.25
G1 X-2.088
G1 X-2.833F5000S0
G1 X-2.23F3000S1000
G1 X-3.56F5000S0
G1 X-2.205F3000S1000
G1 X-2.834F5000S0
G1 X-2.088F3000S1000
G0 X-1.25
G0 Y0.1
G0 X1.245
G1 X2.099
G1 X2.951F5000S0
G1 X2.057F3000S1000
G1 X3.613F5000S0
G1 X2.079F3000S1000
G1 X2.951F5000S0
G1 X2.098F3000S1000
G0 X1.25
G0 X0.005Y0.1
G0 X-1.25
G1 X-2.11
G1 X-3.052F5000S0
G1 X-1.943F3000S1000
G1 X-3.661F5000S0
G1 X-1.929F3000S1000
G1 X-3.053F5000S0
G1 X-2.11F3000S1000
G0 X-1.25
G0 X-0.005Y0.1
G0 X1.25
G1 X2.122
G1 X3.151F5000S0
G1 X1.803F3000S1000
G1 X3.704F5000S0
G1 X1.816F3000S1000
G1 X3.151F5000S0
G1 X2.122F3000S1000
G0 X1.25
G0 Y0.1
G0 X-1.245
G1 X-2.134
G1 X-3.249F5000S0
G1 X-1.689F3000S1000
G1 X-3.747F5000S0
G1 X-1.677F3000S1000
G1 X-3.249F5000S0
G1 X-2.134F3000S1000
G0 X-1.25
G0 X-0.005Y0.1
G0 X1.25
G1 X2.146
G1 X3.337F5000S0
G1 X1.562F3000S1000
G1 X3.789F5000S0
G1 X1.572F3000S1000
G1 X3.337F5000S0
G1 X2.146F3000S1000
G0 X1.25
G0 X0.005Y0.1
G0 X-1.25
G1 X-2.158
G1 X-3.421F5000S0
G1 X-1.46F3000S1000
G1 X-3.831F5000S0
G1 X-1.451F3000S1000
G1 X-3.42F5000S0
G1 X-2.159F3000S1000
G0 X-1.25
G0 Y0.1
G0 X1.245
G1 X2.171
G1 X3.49F5000S0
G1 X1.358F3000S1000
G1 X3.869F5000S0
G1 X1.362F3000S1000
G1 X3.49F5000S0
G1 X2.17F3000S1000
G0 X1.25
G0 X0.006Y0.1
G0 X-1.25
G1 X-2.183
G1 X-3.547F5000S0
G1 X-1.286F3000S1000
G1 X-3.896F5000S0
G1 X-1.28F3000S1000
G1 X-3.546F5000S0
G1 X-2.183F3000S1000
G0 X-1.25
G0 X-0.005Y0.1
G0 X1.25
G1 X2.196
G1 X3.591F5000S0
G1 X1.211F3000S1000
G1 X3.924F5000S0
G1 X1.222F3000S1000
G1 X3.591F5000S0
G1 X2.196F3000S1000
G0 X1.25
G0 Y0.1
G0 X-1.245
G1 X-2.21
G1 X-3.614F5000S0
G1 X-1.178F3000S1000
G1 X-3.952F5000S0
G1 X-1.163F3000S1000
G1 X-3.614F5000S0
G1 X-2.21F3000S1000
G0 X-1.25
G0 X-0.005Y0.1
G0 X1.25
G1 X2.224
G1 X3.635F5000S0
G1 X1.117F3000S1000
G1 X3.979F5000S0
G1 X1.137F3000S1000
G1 X3.635F5000S0
G1 X2.224F3000S1000
G0 X1.25
G0 X1.766Y0.1
G0 X-1.25
G1 X-3.999
G1 X-3.644F5000S0
G1 X-1.107F3000S1000
G1 X-4.003F5000S0
G1 X-1.087F3000S1000
G1 X-3.644F5000S0
G1 X-3.999F3000S1000
G0 X-1.25
G0 X-1.09Y0.1
G0 X1.25
G1 X5.098
G1 X3.651F5000S0
G1 X1.059F3000S1000
G1 X4.027F5000S0
G1 X1.079F3000S1000
G1 X3.651F5000S0
G1 X5.098F3000S1000
G0 X1.25
G0 X0.75Y0.1
G0 X-1.25
G1 X-5.857
G1 X-3.657F5000S0
G1 X-1.053F3000S1000
G1 X-4.049F5000S0
G1 X-1.034F3000S1000
G1 X-3.656F5000S0
G1 X-5.858F3000S1000
G0 X-1.25
G0 X-0.556Y0.1
G0 X1.25
G1 X6.423
G1 X3.656F5000S0
G1 X1.013F3000S1000
G1 X4.073F5000S0
G1 X1.032F3000S1000
G1 X3.657F5000S0
G1 X6.422F3000S1000
G0 X1.25
G0 X0.422Y0.1
G0 X-1.25
G1 X-6.856
G1 X-3.653F5000S0
G1 X-1.012F3000S1000
G1 X-4.096F5000S0
G1 X-0.993F3000S1000
G1 X-3.654F5000S0
G1 X-6.855F3000S1000
G0 X-1.25
G0 X-0.401Y0.1
G0 X1.25
G1 X7.267
G1 X3.652F5000S0
G1 X0.976F3000S1000
G1 X4.115F5000S0
G1 X0.992F3000S1000
G1 X3.651F5000S0
G1 X7.267F3000S1000
G0 X1.25
G0 X0.401Y0.1
G0 X-1.25
G1 X-7.679
G1 X-3.647F5000S0
G1 X-0.983F3000S1000
G1 X-4.124F5000S0
G1 X-0.962F3000S1000
G1 X-3.647F5000S0
G1 X-7.68F3000S1000
G0 X-1.25
G0 X-0.008Y0.1
G0 X1.25
G1 X7.701
G1 X3.64F5000S0
G1 X0.95F3000S1000
G1 X4.133F5000S0
G1 X0.974F3000S1000
G1 X3.64F5000S0
G1 X7.701F3000S1000
G0 X1.25
G0 X-0.034Y0.1
G0 X-1.25
G1 X-7.681
G1 X-3.632F5000S0
G1 X-0.966F3000S1000
G1 X-4.142F5000S0
G1 X-0.937F3000S1000
G1 X-3.633F5000S0
G1 X-7.68F3000S1000
G0 X-1.25
G0 X0.034Y0.1
G0 X1.25
G1 X7.662
G1 X3.621F5000S0
G1 X0.927F3000S1000
G1 X4.15F5000S0
G1 X0.959F3000S1000
G1 X3.622F5000S0
G1 X7.662F3000S1000
G0 X1.25
G0 X-0.035Y0.1
G0 X-1.25
G1 X-7.644
G1 X-3.61F5000S0
G1 X-0.952F3000S1000
G1 X-4.155F5000S0
G1 X-0.919F3000S1000
G1 X-3.609F5000S0
G1 X-7.645F3000S1000
G0 X-1.25
G0 X0.035Y0.1
G0 X1.25
G1 X7.632
G1 X3.592F5000S0
G1 X0.914F3000S1000
G1 X1.364F5000S0
G1 X0.026F3000S1000
G1 X1.409F5000S0
G1 X0.026F3000S1000
G1 X1.333F5000S0
G1 X0.944F3000S1000
G1 X3.593F5000S0
G1 X7.632F3000S1000
G0 X1.25
G0 X-0.034Y0.1
G0 X-1.25
G1 X-7.628
G1 X-3.567F5000S0
G1 X-0.938F3000S1000
G1 X-1.304F5000S0
G1 X-0.08F3000S1000
G1 X-1.363F5000S0
G1 X-0.08F3000S1000
G1 X-1.334F5000S0
G1 X-0.909F3000S1000
G1 X-3.566F5000S0
G1 X-7.628F3000S1000
G0 X-1.25
G0 X0.034Y0.1
G0 X1.25
G1 X7.634
G1 X3.531F5000S0
G1 X0.903F3000S1000
G1 X1.303F5000S0
G1 X0.135F3000S1000
G1 X1.317F5000S0
G1 X0.134F3000S1000
G1 X1.275F5000S0
G1 X0.932F3000S1000
G1 X3.531F5000S0
G1 X7.634F3000S1000
G0 X1.25
G0 X-0.035Y0.1
G0 X-1.25
G1 X-7.64
G1 X-3.494F5000S0
G1 X-0.926F3000S1000
G1 X-1.246F5000S0
G1 X-0.188F3000S1000
G1 X-1.271F5000S0
G1 X-0.189F3000S1000
G1 X-1.271F5000S0
G1 X-0.9F3000S1000
G1 X-3.494F5000S0
G1 X-7.641F3000S1000
G0 X-1.25
G0 X0.035Y0.1
G0 X1.25
G1 X7.66
G1 X3.445F5000S0
G1 X0.902F3000S1000
G1 X1.233F5000S0
G1 X0.243F3000S1000
G1 X1.224F5000S0
G1 X0.244F3000S1000
G1 X1.217F5000S0
G1 X0.918F3000S1000
G1 X3.445F5000S0
G1 X7.66F3000S1000
G0 X1.25
G0 X-0.034Y0.1
G0 X-1.25
G1 X-7.701
G1 X-3.374F5000S0
G1 X-0.919F3000S1000
G1 X-1.181F5000S0
G1 X-0.298F3000S1000
G1 X-1.178F5000S0
G1 X-0.297F3000S1000
G1 X-1.195F5000S0
G1 X-0.905F3000S1000
G1 X-3.373F5000S0
G1 X-7.702F3000S1000
G0 X-1.25
G0 X0.034Y0.1
G0 X1.25
G1 X7.745
G1 X3.3F5000S0
G1 X0.909F3000S1000
G1 X1.157F5000S0
G1 X0.351F3000S1000
G1 X1.131F5000S0
G1 X0.351F3000S1000
G1 X1.146F5000S0
G1 X0.92F3000S1000
G1 X3.299F5000S0
G1 X7.745F3000S1000
G0 X1.25
G0 X-0.034Y0.1
G0 X-1.25
G1 X-7.829
G1 X-3.185F5000S0
G1 X-0.921F3000S1000
G1 X-1.113F5000S0
G1 X-0.402F3000S1000
G1 X-1.085F5000S0
G1 X-0.403F3000S1000
G1 X-1.12F5000S0
G1 X-0.913F3000S1000
G1 X-3.187F5000S0
G1 X-7.828F3000S1000
G0 X-1.25
G0 X0.035Y0.1
G0 X1.25
G1 X7.937
G1 X3.046F5000S0
G1 X0.924F3000S1000
G1 X1.078F5000S0
G1 X0.454F3000S1000
G1 X1.039F5000S0
G1 X0.454F3000S1000
G1 X1.079F5000S0
G1 X0.922F3000S1000
G1 X3.042F5000S0
G1 X7.942F3000S1000
G0 X1.25
G0 X-0.034Y0.1
G0 X-1.25
G1 X-8.08
G1 X-2.873F5000S0
G1 X-0.927F3000S1000
G1 X-1.048F5000S0
G1 X-0.501F3000S1000
G1 X-0.991S0
G1 X-0.502S1000
G1 X-1.041F5000S0
G1 X-0.933F3000S1000
G1 X-2.883F5000S0
G1 X-8.07F3000S1000
G0 X-1.25
G0 X0.034Y0.1
G0 X1.25
G1 X2.15
G1 X2.757F5000S0
G1 X3.311F3000S1000
G1 X2.705F5000S0
G1 X0.942F3000S1000
G1 X1.004F5000S0
G1 X0.55F3000S1000
G1 X0.942S0
G1 X0.55S1000
G1 X1.013F5000S0
G1 X0.934F3000S1000
G1 X2.686F5000S0
G1 X3.329F3000S1000
G1 X2.758F5000S0
G1 X2.149F3000S1000
G0 X1.25
G0 X-0.034Y0.1
G0 X-1.25
G1 X-2.138
G1 X-3.496F5000S0
G1 X-2.742F3000S1000
G1 X-2.515F5000S0
G1 X-0.942F3000S1000
G1 X-0.98S0
G1 X-0.598S1000
G1 X-0.889S0
G1 X-0.599S1000
G1 X-0.969S0
G1 X-0.952S1000
G1 X-2.524F5000S0
G1 X-2.734F3000S1000
G1 X-3.495F5000S0
G1 X-2.139F3000S1000
G0 X-1.25
G0 X0.036Y0.1
G0 X1.25
G1 X2.142
G1 X3.845F5000S0
G1 X2.524F3000S1000
G1 X2.348F5000S0
G1 X0.964F3000S1000
G1 X0.935S0
G1 X0.646S1000
G1 X0.833S0
G1 X0.645S1000
G1 X0.95S0
G1 X0.95S1000
G1 X2.345F5000S0
G1 X2.527F3000S1000
G1 X3.845F5000S0
G1 X2.141F3000S1000
G0 X1.25
G0 X-0.037Y0.1
G0 X-1.25
G1 X-2.148
G1 X-4.124F5000S0
G1 X-2.377F3000S1000
G1 X-2.174F5000S0
G1 X-0.962F3000S1000
G1 X-0.919S0
G1 X-0.695S1000
G1 X-0.767S0
G1 X-0.696S1000
G1 X-0.902S0
G1 X-0.978S1000
G1 X-2.176F5000S0
G1 X-2.375F3000S1000
G1 X-4.124F5000S0
G1 X-2.149F3000S1000
G0 X-1.25
G0 X0.037Y0.1
G0 X1.25
G1 X2.159
G1 X4.368F5000S0
G1 X2.244F3000S1000
G1 X2.019F5000S0
G1 X0.992F3000S1000
G1 X0.874S0
G1 X0.744S1000
G1 X0.692S0
G1 X0.744S1000
G1 X0.89S0
G1 X0.978S1000
G1 X2.003F5000S0
G1 X2.259F3000S1000
G1 X4.367F5000S0
G1 X2.159F3000S1000
G0 X1.25
G0 X-0.036Y0.1
G0 X-1.25
G1 X-2.172
G1 X-4.568F5000S0
G1 X-2.162F3000S1000
G1 X-1.853F5000S0
G1 X-0.997F3000S1000
G1 X-0.852S0
G1 X-0.811S1000
G1 X-0.59S0
G1 X-0.81S1000
G1 X-0.837S0
G1 X-1.012S1000
G1 X-1.86F5000S0
G1 X-2.155F3000S1000
G1 X-4.569F5000S0
G1 X-2.171F3000S1000
G0 X-1.25
G0 X0.037Y0.1
G0 X1.25
G1 X2.183
G1 X4.77F5000S0
G1 X2.057F3000S1000
G1 X1.709F5000S0
G1 X1.035F3000S1000
G1 X0.791S0
G1 X0.928S1000
G1 X0.399S0
G1 X0.93S1000
G1 X0.801S0
G1 X1.024S1000
G1 X1.71F5000S0
G1 X2.054F3000S1000
G1 X4.771F5000S0
G1 X2.183F3000S1000
G0 X1.25
G0 X-0.037Y0.1
G0 X-1.25
G1 X-2.198
G1 X-4.938F5000S0
G1 X-1.978F3000S1000
G1 X-1.568F5000S0
G1 X-1.057F3000S1000
G1 X-0.708S0
G1 X-2.361S1000
G1 X-0.717S0
G1 X-1.064S1000
G1 X-1.561F5000S0
G1 X-1.985F3000S1000
G1 X-4.938F5000S0
G1 X-2.198F3000S1000
G0 X-1.25
G0 X0.037Y0.1
G0 X1.25
G1 X2.213
G1 X5.093F5000S0
G1 X1.925F3000S1000
G1 X1.415F5000S0
G1 X1.105F3000S1000
G1 X0.594S0
G1 X2.541S1000
G1 X0.555S0
G1 X1.111S1000
G1 X1.424F5000S0
G1 X1.914F3000S1000
G1 X5.093F5000S0
G1 X2.214F3000S1000
G0 X1.25
G0 X-0.04Y0.1
G0 X-1.25
G1 X-2.226
G1 X-5.248F5000S0
G1 X-1.85F3000S1000
G1 X-1.279F5000S0
G1 X-1.256F3000S1000
G1 X-0.205S0
G1 X-2.96S1000
G1 X-0.3S0
G1 X-1.188S1000
G1 X-1.278F5000S0
G1 X-1.854F3000S1000
G1 X-5.248F5000S0
G1 X-2.226F3000S1000
G0 X-1.25
G0 X0.042Y0.1
G0 X1.25
G1 X2.239
G1 X5.383F5000S0
G1 X1.797F3000S1000
G1 X1.142F5000S0
G1 X5.914F3000S1000
G1 X1.147F5000S0
G1 X1.791F3000S1000
G1 X5.383F5000S0
G1 X2.239F3000S1000
G0 X1.25
G0 X-0.042Y0.1
G0 X-1.25
G1 X-2.252
G1 X-5.503F5000S0
G1 X-1.743F3000S1000
G1 X-1.017F5000S0
G1 X-5.92F3000S1000
G1 X-1.005F5000S0
G1 X-1.756F3000S1000
G1 X-5.504F5000S0
G1 X-2.252F3000S1000
G0 X-1.25
G0 X0.042Y0.1
G0 X1.25
G1 X2.265
G1 X5.624F5000S0
G1 X1.715F3000S1000
G1 X0.863S0
G1 X5.935S1000
G1 X0.883S0
G1 X1.695S1000
G1 X5.623F5000S0
G1 X2.266F3000S1000
G0 X1.25
G0 X-0.042Y0.1
G0 X-1.25
G1 X-2.279
G1 X-5.739F5000S0
G1 X-1.653F3000S1000
G1 X-0.746S0
G1 X-5.951S1000
G1 X-0.72S0
G1 X-1.679S1000
G1 X-5.739F5000S0
G1 X-2.28F3000S1000
G0 X-1.25
G0 X0.042Y0.1
G0 X1.25
G1 X2.296
G1 X5.834F5000S0
G1 X1.684F3000S1000
G1 X0.545S0
G1 X5.984S1000
G1 X0.597S0
G1 X1.632S1000
G1 X5.835F5000S0
G1 X2.296F3000S1000
G0 X1.25
G0 X-0.041Y0.1
G0 X-1.25
G1 X-2.313
G1 X-5.923F5000S0
G1 X-1.628F3000S1000
G1 X-0.429S0
G1 X-6.04S1000
G1 X-0.344S0
G1 X-1.708S1000
G1 X-5.924F5000S0
G1 X-2.312F3000S1000
G0 X-1.25
G0 X0.043Y0.1
G0 X1.25
G1 X2.327
G1 X6.005F5000S0
G1 X8.091F3000S1000
G1 X0.081S0
G1 X1.699S1000
G1 X6.005F5000S0
G1 X2.326F3000S1000
G0 X1.25
G0 X-0.045Y0.1
G0 X-1.25
G1 X-2.342
G1 X-6.071F5000S0
G1 X-9.617F3000S1000
G1 X-6.072F5000S0
G1 X-2.342F3000S1000
G0 X-1.25
G0 X0.045Y0.1
G0 X1.25
G1 X2.358
G1 X6.132F5000S0
G1 X3.883F3000S1000
G1 X1.609F5000S0
G1 X3.883F3000S1000
G1 X6.132F5000S0
G1 X2.357F3000S1000
G0 X1.25
G0 X-0.045Y0.1
G0 X-1.25
G1 X-2.373
G1 X-6.178F5000S0
G1 X-3.289F3000S1000
G1 X-2.583F5000S0
G1 X-3.29F3000S1000
G1 X-6.178F5000S0
G1 X-2.372F3000S1000
G0 X-1.25
G0 X0.047Y0.1
G0 X1.25
G1 X2.39
G1 X6.209F5000S0
G1 X2.853F3000S1000
G1 X3.264F5000S0
G1 X2.854F3000S1000
G1 X6.209F5000S0
G1 X2.389F3000S1000
G0 X1.25
G0 X-0.047Y0.1
G0 X-1.25
G1 X-2.408
G1 X-6.229F5000S0
G1 X-2.513F3000S1000
G1 X-3.774F5000S0
G1 X-2.513F3000S1000
G1 X-6.229F5000S0
G1 X-2.407F3000S1000
G0 X-1.25
G0 X0.049Y0.1
G0 X1.25
G1 X2.425
G1 X6.225F5000S0
G1 X2.226F3000S1000
G1 X4.222F5000S0
G1 X2.226F3000S1000
G1 X6.226F5000S0
G1 X2.425F3000S1000
G0 X1.25
G0 X-0.051Y0.1
G0 X-1.25
G1 X-2.45
G1 X-6.191F5000S0
G1 X-1.99F3000S1000
G1 X-4.611F5000S0
G1 X-1.99F3000S1000
G1 X-6.192F5000S0
G1 X-2.449F3000S1000
G0 X-1.25
G0 X0.051Y0.1
G0 X1.25
G1 X2.474
G1 X4.256F5000S0
G1 X0.475F3000S1000
G1 X1.398F5000S0
G1 X1.794F3000S1000
G1 X4.977F5000S0
G1 X1.794F3000S1000
G1 X1.398F5000S0
G1 X0.474F3000S1000
G1 X4.257F5000S0
G1 X2.473F3000S1000
G0 X1.25
G0 X-0.055Y0.1
G0 X-1.25
G1 X-2.494
G1 X-4.246F5000S0
G1 X-0.704F3000S1000
G1 X-1.078F5000S0
G1 X-1.657F3000S1000
G1 X-5.301F5000S0
G1 X-1.657F3000S1000
G1 X-1.079F5000S0
G1 X-0.704F3000S1000
G1 X-4.246F5000S0
G1 X-2.494F3000S1000
G0 X-1.25
G0 X0.057Y0.1
G0 X1.25
G1 X2.518
G1 X4.249F5000S0
G1 X0.918F3000S1000
G1 X0.722S0
G1 X1.554S1000
G1 X5.625F5000S0
G1 X1.554F3000S1000
G1 X0.721S0
G1 X0.918S1000
G1 X4.25F5000S0
G1 X2.518F3000S1000
G0 X1.25
G0 X-0.06Y0.1
G0 X-1.25
G1 X-2.546
G1 X-4.249F5000S0
G1 X-1.268F3000S1000
G1 X-0.096S0
G1 X-1.606S1000
G1 X-5.897F5000S0
G1 X-1.607F3000S1000
G1 X-0.095S0
G1 X-1.268S1000
G1 X-4.249F5000S0
G1 X-2.547F3000S1000
G0 X-1.25
G0 X0.061Y0.1
G0 X1.25
G1 X2.573
G1 X4.258F5000S0
G1 X2.739F3000S1000
G1 X6.167F5000S0
G1 X2.738F3000S1000
G1 X4.258F5000S0
G1 X2.573F3000S1000
G0 X1.25
G0 X-0.061Y0.1
G0 X-1.25
G1 X-2.6
G1 X-4.266F5000S0
G1 X-2.515F3000S1000
G1 X-6.422F5000S0
G1 X-2.515F3000S1000
G1 X-4.266F5000S0
G1 X-2.599F3000S1000
G0 X-1.25
G0 X0.061Y0.1
G0 X1.25
G1 X2.634
G1 X4.267F5000S0
G1 X2.306F3000S1000
G1 X6.647F5000S0
G1 X2.306F3000S1000
G1 X4.267F5000S0
G1 X2.634F3000S1000
G0 X1.25
G0 X-0.061Y0.1
G0 X-1.25
G1 X-2.673
G1 X-4.263F5000S0
G1 X-2.098F3000S1000
G1 X-6.871F5000S0
G1 X-2.098F3000S1000
G1 X-4.264F5000S0
G1 X-2.672F3000S1000
G0 X-1.25
G0 X0.061Y0.1
G0 X1.25
G1 X2.711
G1 X4.256F5000S0
G1 X1.901F3000S1000
G1 X7.081F5000S0
G1 X1.9F3000S1000
G1 X4.257F5000S0
G1 X2.71F3000S1000
G0 X1.25
G0 X-0.061Y0.1
G0 X-1.25
G1 X-2.749
G1 X-4.245F5000S0
G1 X-1.718F3000S1000
G1 X-7.269F5000S0
G1 X-1.718F3000S1000
G1 X-4.246F5000S0
G1 X-2.749F3000S1000
G0 X-1.25
G0 X0.061Y0.1
G0 X1.25
G1 X2.799
G1 X4.215F5000S0
G1 X1.544F3000S1000
G1 X7.456F5000S0
G1 X1.544F3000S1000
G1 X4.216F5000S0
G1 X2.798F3000S1000
G0 X1.25
G0 X-0.061Y0.1
G0 X-1.25
G1 X-2.849
G1 X-4.164F5000S0
G1 X-1.393F3000S1000
G1 X-7.637F5000S0
G1 X-1.394F3000S1000
G1 X-4.164F5000S0
G1 X-2.848F3000S1000
G0 X-1.25
G0 X-0.129Y0.1
G0 X1.25
G1 X3.089
G1 X4.072F5000S0
G1 X1.296F3000S1000
G1 X7.793F5000S0
G1 X1.296F3000S1000
G1 X4.072F5000S0
G1 X3.089F3000S1000
G0 X1.25
G0 X0.182Y0.1
G0 X-1.25
G1 X-3.386
G1 X-2.271F5000S0
G1 X-0.518F3000S1000
G1 X-1.133F5000S0
G1 X-1.253F3000S1000
G1 X-7.949F5000S0
G1 X-1.254F3000S1000
G1 X-1.132F5000S0
G1 X-0.517F3000S1000
G1 X-2.272F5000S0
G1 X-3.387F3000S1000
G0 X-1.25
G0 X-0.183Y0.1
G0 X1.25
G1 X3.694
G1 X2.201F5000S0
G1 X0.721F3000S1000
G1 X0.792S0
G1 X1.259S1000
G1 X8.105F5000S0
G1 X1.259F3000S1000
G1 X0.791S0
G1 X0.723S1000
G1 X2.2F5000S0
G1 X3.693F3000S1000
G0 X1.25
G0 X0.183Y0.1
G0 X-1.25
G1 X-4.001
G1 X-2.156F5000S0
G1 X-0.898F3000S1000
G1 X-0.416S0
G1 X-1.31S1000
G1 X-8.241F5000S0
G1 X-1.311F3000S1000
G1 X-0.415S0
G1 X-0.897S1000
G1 X-2.157F5000S0
G1 X-4.002F3000S1000
G0 X-1.25
G0 X-0.182Y0.1
G0 X1.25
G1 X4.308
G1 X2.121F5000S0
G1 X2.47F3000S1000
G1 X8.371F5000S0
G1 X2.47F3000S1000
G1 X2.121F5000S0
G1 X4.308F3000S1000
G0 X1.25
G0 X0.176Y0.1
G0 X-1.25
G1 X-4.621
G1 X-2.088F5000S0
G1 X-2.301F3000S1000
G1 X-8.501F5000S0
G1 X-2.301F3000S1000
G1 X-2.088F5000S0
G1 X-4.622F3000S1000
G0 X-1.25
G0 X-0.166Y0.1
G0 X1.25
G1 X4.927
G1 X2.053F5000S0
G1 X2.132F3000S1000
G1 X8.631F5000S0
G1 X2.132F3000S1000
G1 X2.053F5000S0
G1 X4.927F3000S1000
G0 X1.25
G0 X0.156Y0.1
G0 X-1.25
G1 X-5.221
G1 X-2.02F5000S0
G1 X-1.973F3000S1000
G1 X-8.74F5000S0
G1 X-1.975F3000S1000
G1 X-2.016F5000S0
G1 X-5.222F3000S1000
G0 X-1.25
G0 X-0.15Y0.1
G0 X1.25
G1 X5.524
G1 X1.965F5000S0
G1 X1.82F3000S1000
G1 X8.848F5000S0
G1 X1.816F3000S1000
G1 X1.971F5000S0
G1 X5.523F3000S1000
G0 X1.25
G0 X0.146Y0.1
G0 X-1.25
G1 X-5.827
G1 X-1.906F5000S0
G1 X-1.669F3000S1000
G1 X-8.956F5000S0
G1 X-1.673F3000S1000
G1 X-1.901F5000S0
G1 X-5.828F3000S1000
G0 X-1.25
G0 X-0.141Y0.1
G0 X1.25
G1 X6.127
G1 X1.825F5000S0
G1 X1.537F3000S1000
G1 X9.064F5000S0
G1 X1.529F3000S1000
G1 X1.835F5000S0
G1 X6.126F3000S1000
G0 X1.25
G0 X0.14Y0.1
G0 X-1.25
G1 X-6.446
G1 X-1.734F5000S0
G1 X-1.401F3000S1000
G1 X-9.161F5000S0
G1 X-1.409F3000S1000
G1 X-1.726F5000S0
G1 X-6.446F3000S1000
G0 X-1.25
G0 X-0.135Y0.1
G0 X1.25
G1 X6.764
G1 X1.605F5000S0
G1 X1.299F3000S1000
G1 X9.257F5000S0
G1 X1.292F3000S1000
G1 X1.613F5000S0
G1 X6.763F3000S1000
G0 X1.25
G0 X0.131Y0.1
G0 X-1.25
G1 X-7.087
G1 X-1.467F5000S0
G1 X-1.197F3000S1000
G1 X-9.353F5000S0
G1 X-1.205F3000S1000
G1 X-1.458F5000S0
G1 X-7.089F3000S1000
G0 X-1.25
G0 X-0.131Y0.1
G0 X1.25
G1 X4.392
G1 X0.968S0
G1 X2.067S1000
G1 X1.271F5000S0
G1 X1.141F3000S1000
G1 X9.441F5000S0
G1 X1.123F3000S1000
G1 X1.294F5000S0
G1 X2.062F3000S1000
G1 X0.975S0
G1 X4.385S1000
G0 X1.25
G0 X0.132Y0.1
G0 X-1.25
G1 X-4.203
G1 X-1.484F5000S0
G1 X-2.078F3000S1000
G1 X-1.086F5000S0
G1 X-1.077F3000S1000
G1 X-9.528F5000S0
G1 X-1.117F3000S1000
G1 X-1.03F5000S0
G1 X-2.093F3000S1000
G1 X-1.501F5000S0
G1 X-4.186F3000S1000
G0 X-1.25
G0 X-0.132Y0.1
G0 X1.25
G1 X4.033
G1 X1.957F5000S0
G1 X2.162F3000S1000
G1 X0.746S0
G1 X1.12S1000
G1 X9.61F5000S0
G1 X1.069F3000S1000
G1 X0.831S0
G1 X2.129S1000
G1 X1.927F5000S0
G1 X4.062F3000S1000
G0 X1.25
G0 X0.121Y0.1
G0 X-1.25
G1 X-3.945
G1 X-2.327F5000S0
G1 X-2.222F3000S1000
G1 X-0.49S0
G1 X-1.118S1000
G1 X-9.683F5000S0
G1 X-1.215F3000S1000
G1 X-0.283S0
G1 X-2.332S1000
G1 X-2.377F5000S0
G1 X-3.896F3000S1000
G0 X-1.25
G0 X-0.121Y0.1
G0 X1.25
G1 X3.788
G1 X2.774F5000S0
G1 X3.626F3000S1000
G1 X9.755F5000S0
G1 X3.626F3000S1000
G1 X2.728F5000S0
G1 X3.834F3000S1000
G0 X1.25
G0 X0.121Y0.1
G0 X-1.25
G1 X-3.739
G1 X-3.116F5000S0
G1 X-3.427F3000S1000
G1 X-9.81F5000S0
G1 X-3.427F3000S1000
G1 X-3.162F5000S0
G1 X-3.692F3000S1000
G0 X-1.25
G0 X-0.122Y0.1
G0 X1.25
G1 X3.618
G1 X3.54F5000S0
G1 X3.219F3000S1000
G1 X9.863F5000S0
G1 X3.218F3000S1000
G1 X3.512F5000S0
G1 X3.646F3000S1000
G0 X1.25
G0 X0.12Y0.1
G0 X-1.25
G1 X-3.568
G1 X-3.902F5000S0
G1 X-3.005F3000S1000
G1 X-9.905F5000S0
G1 X-3.005F3000S1000
G1 X-3.928F5000S0
G1 X-3.542F3000S1000
G0 X-1.25
G0 X-0.115Y0.1
G0 X1.25
G1 X3.461
G1 X4.321F5000S0
G1 X2.791F3000S1000
G1 X9.939F5000S0
G1 X2.79F3000S1000
G1 X4.299F5000S0
G1 X3.484F3000S1000
G0 X1.25
G0 X0.115Y0.1
G0 X-1.25
G1 X-3.415
G1 X-4.696F5000S0
G1 X-2.562F3000S1000
G1 X-9.968F5000S0
G1 X-2.563F3000S1000
G1 X-4.714F5000S0
G1 X-3.398F3000S1000
G0 X-1.25
G0 X-0.115Y0.1
G0 X1.25
G1 X3.352
G1 X5.094F5000S0
G1 X2.334F3000S1000
G1 X9.988F5000S0
G1 X2.333F3000S1000
G1 X5.097F5000S0
G1 X3.349F3000S1000
G0 X1.25
G0 X0.115Y0.1
G0 X-1.25
G1 X-3.293
G1 X-5.514F5000S0
G1 X-2.078F3000S1000
G1 X-10.006F5000S0
G1 X-2.08F3000S1000
G1 X-5.5F5000S0
G1 X-3.306F3000S1000
G0 X-1.25
G0 X-0.116Y0.1
G0 X1.25
G1 X3.26
G1 X5.918F5000S0
G1 X1.819F3000S1000
G1 X10.017F5000S0
G1 X1.816F3000S1000
G1 X5.933F5000S0
G1 X3.245F3000S1000
G0 X1.25
G0 X0.116Y0.1
G0 X-1.25
G1 X-3.206
G1 X-6.333F5000S0
G1 X-1.567F3000S1000
G1 X-10.024F5000S0
G1 X-1.569F3000S1000
G1 X-6.322F5000S0
G1 X-3.217F3000S1000
G0 X-1.25
G0 X-0.115Y0.1
G0 X1.25
G1 X3.187
G1 X6.665F5000S0
G1 X1.368F3000S1000
G1 X10.032F5000S0
G1 X1.366F3000S1000
G1 X6.669F5000S0
G1 X3.182F3000S1000
G0 X1.25
G0 X0.115Y0.1
G0 X-1.25
G1 X-3.163
G1 X-6.929F5000S0
G1 X-1.238F3000S1000
G1 X-10.035F5000S0
G1 X-1.242F3000S1000
G1 X-6.936F5000S0
G1 X-3.157F3000S1000
G0 X-1.25
G0 X-0.115Y0.1
G0 X1.25
G1 X3.127
G1 X7.167F5000S0
G1 X1.155F3000S1000
G1 X10.037F5000S0
G1 X1.149F3000S1000
G1 X7.14F5000S0
G1 X3.155F3000S1000
G0 X1.25
G0 X0.116Y0.1
G0 X-1.25
G1 X-3.148
G1 X-7.286F5000S0
G1 X-1.125F3000S1000
G1 X-10.038F5000S0
G1 X-1.131F3000S1000
G1 X-7.336F5000S0
G1 X-3.097F3000S1000
G0 X-1.25
G0 X-0.049Y0.1
G0 X1.25
G1 X3.121
G1 X7.376F5000S0
G1 X1.116F3000S1000
G1 X10.038F5000S0
G1 X1.112F3000S1000
G1 X7.422F5000S0
G1 X3.073F3000S1000
G0 X1.25
G0 X-0.112Y0.1
G0 X-1.25
G1 X-3.06
G1 X-7.303F5000S0
G1 X-1.133F3000S1000
G1 X-10.036F5000S0
G1 X-1.134F3000S1000
G1 X-7.235F5000S0
G1 X-3.133F3000S1000
G0 X-1.25
G0 X0.112Y0.1
G0 X1.25
G1 X3.144
G1 X7.075F5000S0
G1 X1.173F3000S1000
G1 X10.033F5000S0
G1 X1.182F3000S1000
G1 X7.101F5000S0
G1 X3.102F3000S1000
G0 X1.25
G0 X-0.112Y0.1
G0 X-1.25
G1 X-3.145
G1 X-6.858F5000S0
G1 X-1.271F3000S1000
G1 X-10.031F5000S0
G1 X-1.253F3000S1000
G1 X-6.867F5000S0
G1 X-3.16F3000S1000
G0 X-1.25
G0 X0.112Y0.1
G0 X1.25
G1 X3.18
G1 X6.575F5000S0
G1 X1.418F3000S1000
G1 X10.022F5000S0
G1 X1.435F3000S1000
G1 X6.543F5000S0
G1 X3.188F3000S1000
G0 X1.25
G0 X-0.112Y0.1
G0 X-1.25
G1 X-3.231
G1 X-6.171F5000S0
G1 X-1.656F3000S1000
G1 X-10.014F5000S0
G1 X-1.656F3000S1000
G1 X-6.199F5000S0
G1 X-3.21F3000S1000
G0 X-1.25
G0 X0.112Y0.1
G0 X1.25
G1 X3.247
G1 X5.767F5000S0
G1 X1.944F3000S1000
G1 X10.005F5000S0
G1 X1.915F3000S1000
G1 X5.762F5000S0
G1 X3.273F3000S1000
G0 X1.25
G0 X-0.113Y0.1
G0 X-1.25
G1 X-3.323
G1 X-5.35F5000S0
G1 X-2.173F3000S1000
G1 X-9.987F5000S0
G1 X-2.204F3000S1000
G1 X-5.357F5000S0
G1 X-3.293F3000S1000
G0 X-1.25
G0 X0.113Y0.1
G0 X1.25
G1 X3.345
G1 X4.967F5000S0
G1 X2.439F3000S1000
G1 X9.968F5000S0
G1 X2.421F3000S1000
G1 X4.947F5000S0
G1 X3.374F3000S1000
G0 X1.25
G0 X-0.114Y0.1
G0 X-1.25
G1 X-3.429
G1 X-4.565F5000S0
G1 X-2.645F3000S1000
G1 X-9.945F5000S0
G1 X-2.661F3000S1000
G1 X-4.581F5000S0
G1 X-3.408F3000S1000
G0 X-1.25
G0 X0.113Y0.1
G0 X1.25
G1 X3.476
G1 X4.203F5000S0
G1 X2.873F3000S1000
G1 X9.914F5000S0
G1 X2.872F3000S1000
G1 X4.172F5000S0
G1 X3.498F3000S1000
G0 X1.25
G0 X-0.114Y0.1
G0 X-1.25
G1 X-3.567
G1 X-3.798F5000S0
G1 X-3.079F3000S1000
G1 X-9.881F5000S0
G1 X-3.085F3000S1000
G1 X-3.803F5000S0
G1 X-3.566F3000S1000
G0 X-1.25
G0 X0.116Y0.1
G0 X1.25
G1 X3.658
G1 X3.41F5000S0
G1 X3.297F3000S1000
G1 X9.827F5000S0
G1 X3.298F3000S1000
G1 X3.41F5000S0
G1 X3.647F3000S1000
G0 X1.25
G0 X-0.117Y0.1
G0 X-1.25
G1 X-3.732
G1 X-3.033F5000S0
G1 X-3.501F3000S1000
G1 X-9.772F5000S0
G1 X-3.5F3000S1000
G1 X-3.026F5000S0
G1 X-3.75F3000S1000
G0 X-1.25
G0 X0.116Y0.1
G0 X1.25
G1 X3.865
G1 X2.62F5000S0
G1 X3.702F3000S1000
G1 X9.718F5000S0
G1 X3.698F3000S1000
G1 X2.644F5000S0
G1 X3.835F3000S1000
G0 X1.25
G0 X-0.12Y0.1
G0 X-1.25
G1 X-3.951
G1 X-2.242F5000S0
G1 X-2.229F3000S1000
G1 X-0.551S0
G1 X-1.112S1000
G1 X-9.664F5000S0
G1 X-1.12F3000S1000
G1 X-0.551S0
G1 X-2.225S1000
G1 X-2.196F5000S0
G1 X-4.001F3000S1000
G0 X-1.25
G0 X0.121Y0.1
G0 X1.25
G1 X4.137
G1 X1.772F5000S0
G1 X2.137F3000S1000
G1 X0.887S0
G1 X1.077S1000
G1 X9.588F5000S0
G1 X1.07F3000S1000
G1 X0.887S0
G1 X2.135S1000
G1 X1.806F5000S0
G1 X4.105F3000S1000
G0 X1.25
G0 X-0.121Y0.1
G0 X-1.25
G1 X-4.267
G1 X-1.343F5000S0
G1 X-2.08F3000S1000
G1 X-1.143F5000S0
G1 X-1.091F3000S1000
G1 X-9.505F5000S0
G1 X-1.097F3000S1000
G1 X-1.144F5000S0
G1 X-2.072F3000S1000
G1 X-1.321F5000S0
G1 X-4.296F3000S1000
G0 X-1.25
G0 X0.126Y0.1
G0 X1.25
G1 X4.467
G1 X0.852S0
G1 X2.043S1000
G1 X1.328F5000S0
G1 X1.155F3000S1000
G1 X9.422F5000S0
G1 X1.149F3000S1000
G1 X1.329F5000S0
G1 X2.097F3000S1000
G1 X0.796S0
G1 X4.469S1000
G0 X1.25
G0 X-0.128Y0.1
G0 X-1.25
G1 X-7.037
G1 X-1.49F5000S0
G1 X-1.227F3000S1000
G1 X-9.339F5000S0
G1 X-1.232F3000S1000
G1 X-1.49F5000S0
G1 X-2.024F3000S1000
G1 X-0.374S0
G1 X-4.638S1000
G0 X-1.25
G0 X0.129Y0.1
G0 X1.25
G1 X6.721
G1 X1.627F5000S0
G1 X1.325F3000S1000
G1 X9.253F5000S0
G1 X1.319F3000S1000
G1 X1.626F5000S0
G1 X6.722F3000S1000
G0 X1.25
G0 X-0.144Y0.1
G0 X-1.25
G1 X-6.403
G1 X-1.731F5000S0
G1 X-1.441F3000S1000
G1 X-9.149F5000S0
G1 X-1.448F3000S1000
G1 X-1.731F5000S0
G1 X-6.402F3000S1000
G0 X-1.25
G0 X0.143Y0.1
G0 X1.25
G1 X6.084
G1 X1.83F5000S0
G1 X1.576F3000S1000
G1 X9.046F5000S0
G1 X1.568F3000S1000
G1 X1.83F5000S0
G1 X6.084F3000S1000
G0 X1.25
G0 X-0.144Y0.1
G0 X-1.25
G1 X-5.777
G1 X-1.904F5000S0
G1 X-1.708F3000S1000
G1 X-8.943F5000S0
G1 X-1.717F3000S1000
G1 X-1.904F5000S0
G1 X-5.777F3000S1000
G0 X-1.25
G0 X0.144Y0.1
G0 X1.25
G1 X5.476
G1 X1.967F5000S0
G1 X1.863F3000S1000
G1 X8.839F5000S0
G1 X1.854F3000S1000
G1 X1.967F5000S0
G1 X5.477F3000S1000
G0 X1.25
G0 X-0.169Y0.1
G0 X-1.25
G1 X-5.151
G1 X-2.02F5000S0
G1 X-2.019F3000S1000
G1 X-8.722F5000S0
G1 X-2.022F3000S1000
G1 X-2.021F5000S0
G1 X-5.15F3000S1000
G0 X-1.25
G0 X0.173Y0.1
G0 X1.25
G1 X4.83
G1 X2.064F5000S0
G1 X2.191F3000S1000
G1 X8.596F5000S0
G1 X2.184F3000S1000
G1 X2.064F5000S0
G1 X4.83F3000S1000
G0 X1.25
G0 X-0.173Y0.1
G0 X-1.25
G1 X-4.517
G1 X-2.1F5000S0
G1 X-2.35F3000S1000
G1 X-8.469F5000S0
G1 X-2.36F3000S1000
G1 X-2.1F5000S0
G1 X-4.518F3000S1000
G0 X-1.25
G0 X0.178Y0.1
G0 X1.25
G1 X4.2
G1 X2.138F5000S0
G1 X2.527F3000S1000
G1 X8.341F5000S0
G1 X2.514F3000S1000
G1 X2.139F5000S0
G1 X4.2F3000S1000
G0 X1.25
G0 X-0.187Y0.1
G0 X-1.25
G1 X-3.879
G1 X-2.188F5000S0
G1 X-0.832F3000S1000
G1 X-0.556S0
G1 X-1.284S1000
G1 X-8.203F5000S0
G1 X-1.288F3000S1000
G1 X-0.556S0
G1 X-0.833S1000
G1 X-2.187F5000S0
G1 X-3.879F3000S1000
G0 X-1.25
G0 X0.187Y0.1
G0 X1.25
G1 X3.571
G1 X2.239F5000S0
G1 X0.649F3000S1000
G1 X0.918S0
G1 X1.255S1000
G1 X8.053F5000S0
G1 X1.248F3000S1000
G1 X0.919S0
G1 X0.649S1000
G1 X2.238F5000S0
G1 X3.571F3000S1000
G0 X1.25
G0 X-0.187Y0.1
G0 X-1.25
G1 X-3.263
G1 X-2.329F5000S0
G1 X-0.397F3000S1000
G1 X-1.272F5000S0
G1 X-1.251F3000S1000
G1 X-7.899F5000S0
G1 X-1.263F3000S1000
G1 X-1.272F5000S0
G1 X-0.397F3000S1000
G1 X-2.33F5000S0
G1 X-3.263F3000S1000
G0 X-1.25
G0 X0.187Y0.1
G0 X1.25
G1 X2.958
G1 X4.129F5000S0
G1 X1.331F3000S1000
G1 X7.738F5000S0
G1 X1.32F3000S1000
G1 X4.129F5000S0
G1 X2.957F3000S1000
G0 X1.25
G0 X-0.034Y0.1
G0 X-1.25
G1 X-2.82
G1 X-4.193F5000S0
G1 X-1.447F3000S1000
G1 X-7.571F5000S0
G1 X-1.449F3000S1000
G1 X-4.193F5000S0
G1 X-2.821F3000S1000
G0 X-1.25
G0 X-0.061Y0.1
G0 X1.25
G1 X2.779
G1 X4.228F5000S0
G1 X1.609F3000S1000
G1 X7.391F5000S0
G1 X1.602F3000S1000
G1 X4.229F5000S0
G1 X2.778F3000S1000
G0 X1.25
G0 X0.062Y0.1
G0 X-1.25
G1 X-2.737
G1 X-4.25F5000S0
G1 X-1.776F3000S1000
G1 X-7.202F5000S0
G1 X-1.787F3000S1000
G1 X-4.25F5000S0
G1 X-2.737F3000S1000
G0 X-1.25
G0 X-0.061Y0.1
G0 X1.25
G1 X2.704
G1 X4.252F5000S0
G1 X1.976F3000S1000
G1 X7F5000S0
G1 X1.973F3000S1000
G1 X4.252F5000S0
G1 X2.704F3000S1000
G0 X1.25
G0 X0.061Y0.1
G0 X-1.25
G1 X-2.673
G1 X-4.25F5000S0
G1 X-2.172F3000S1000
G1 X-6.797F5000S0
G1 X-2.168F3000S1000
G1 X-4.251F5000S0
G1 X-2.672F3000S1000
G0 X-1.25
G0 X-0.061Y0.1
G0 X1.25
G1 X2.64
G1 X4.248F5000S0
G1 X2.382F3000S1000
G1 X6.567F5000S0
G1 X2.38F3000S1000
G1 X4.247F5000S0
G1 X2.641F3000S1000
G0 X1.25
G0 X0.061Y0.1
G0 X-1.25
G1 X-2.612
G1 X-4.241F5000S0
G1 X-2.601F3000S1000
G1 X-6.323F5000S0
G1 X-2.598F3000S1000
G1 X-4.241F5000S0
G1 X-2.612F3000S1000
G0 X-1.25
G0 X-0.061Y0.1
G0 X1.25
G1 X2.589
G1 X4.229F5000S0
G1 X2.812F3000S1000
G1 X6.079F5000S0
G1 X2.823F3000S1000
G1 X4.23F5000S0
G1 X2.588F3000S1000
G0 X1.25
G0 X0.062Y0.1
G0 X-1.25
G1 X-2.566
G1 X-4.22F5000S0
G1 X-1.086F3000S1000
G1 X-0.425S0
G1 X-1.548S1000
G1 X-5.798F5000S0
G1 X-1.533F3000S1000
G1 X-0.426S0
G1 X-1.086S1000
G1 X-4.219F5000S0
G1 X-2.566F3000S1000
G0 X-1.25
G0 X-0.058Y0.1
G0 X1.25
G1 X2.539
G1 X4.218F5000S0
G1 X0.838F3000S1000
G1 X0.862S0
G1 X1.577S1000
G1 X5.501F5000S0
G1 X1.597F3000S1000
G1 X0.861S0
G1 X0.839S1000
G1 X4.217F5000S0
G1 X2.539F3000S1000
G0 X1.25
G0 X0.057Y0.1
G0 X-1.25
G1 X-2.515
G1 X-4.222F5000S0
G1 X-0.62F3000S1000
G1 X-1.203F5000S0
G1 X-1.709F3000S1000
G1 X-5.196F5000S0
G1 X-1.676F3000S1000
G1 X-1.203F5000S0
G1 X-0.62F3000S1000
G1 X-4.222F5000S0
G1 X-2.516F3000S1000
G0 X-1.25
G0 X-0.052Y0.1
G0 X1.25
G1 X2.491
G1 X4.25F5000S0
G1 X0.361F3000S1000
G1 X1.522F5000S0
G1 X1.844F3000S1000
G1 X4.833F5000S0
G1 X1.88F3000S1000
G1 X1.524F5000S0
G1 X0.361F3000S1000
G1 X4.25F5000S0
G1 X2.491F3000S1000
G0 X1.25
G0 X0.051Y0.1
G0 X-1.25
G1 X-2.465
G1 X-6.186F5000S0
G1 X-2.095F3000S1000
G1 X-4.461F5000S0
G1 X-2.055F3000S1000
G1 X-6.182F5000S0
G1 X-2.466F3000S1000
G0 X-1.25
G0 X-0.051Y0.1
G0 X1.25
G1 X2.44
G1 X6.206F5000S0
G1 X2.319F3000S1000
G1 X4.019F5000S0
G1 X2.378F3000S1000
G1 X6.211F5000S0
G1 X2.439F3000S1000
G0 X1.25
G0 X0.048Y0.1
G0 X-1.25
G1 X-2.414
G1 X-6.214F5000S0
G1 X-2.679F3000S1000
G1 X-3.551F5000S0
G1 X-2.626F3000S1000
G1 X-6.209F5000S0
G1 X-2.414F3000S1000
G0 X-1.25
G0 X-0.048Y0.1
G0 X1.25
G1 X2.392
G1 X6.192F5000S0
G1 X3.004F3000S1000
G1 X2.949F5000S0
G1 X3.074F3000S1000
G1 X6.2F5000S0
G1 X2.391F3000S1000
G0 X1.25
G0 X0.048Y0.1
G0 X-1.25
G1 X-2.369
G1 X-6.168F5000S0
G1 X-3.548F3000S1000
G1 X-2.223F5000S0
G1 X-3.46F3000S1000
G1 X-6.16F5000S0
G1 X-2.369F3000S1000
G0 X-1.25
G0 X-0.045Y0.1
G0 X1.25
G1 X2.343
G1 X6.12F5000S0
G1 X4.18F3000S1000
G1 X1.005F5000S0
G1 X4.269F3000S1000
G1 X6.126F5000S0
G1 X2.344F3000S1000
G0 X1.25
G0 X0.045Y0.1
G0 X-1.25
G1 X-2.323
G1 X-6.073F5000S0
G1 X-9.696F3000S1000
G1 X-6.063F5000S0
G1 X-2.322F3000S1000
G0 X-1.25
G0 X-0.045Y0.1
G0 X1.25
G1 X2.304
G1 X5.993F5000S0
G1 X1.784F3000S1000
G1 X0.142S0
G1 X6.123S1000
G1 X0.166S0
G1 X1.748S1000
G1 X6.002F5000S0
G1 X2.304F3000S1000
G0 X1.25
G0 X0.043Y0.1
G0 X-1.25
G1 X-2.284
G1 X-5.925F5000S0
G1 X-1.681F3000S1000
G1 X-0.429S0
G1 X-6.013S1000
G1 X-0.41S0
G1 X-1.709S1000
G1 X-5.917F5000S0
G1 X-2.283F3000S1000
G0 X-1.25
G0 X-0.041Y0.1
G0 X1.25
G1 X2.261
G1 X5.828F5000S0
G1 X1.692F3000S1000
G1 X0.599S0
G1 X5.972S1000
G1 X0.609S0
G1 X1.671S1000
G1 X5.84F5000S0
G1 X2.261F3000S1000
G0 X1.25
G0 X0.041Y0.1
G0 X-1.25
G1 X-2.244
G1 X-5.734F5000S0
G1 X-1.684F3000S1000
G1 X-0.773S0
G1 X-5.946S1000
G1 X-0.773S0
G1 X-1.688S1000
G1 X-5.729F5000S0
G1 X-2.245F3000S1000
G0 X-1.25
G0 X-0.041Y0.1
G0 X1.25
G1 X2.23
G1 X5.61F5000S0
G1 X1.717F3000S1000
G1 X0.927S0
G1 X5.929S1000
G1 X0.916S0
G1 X1.72S1000
G1 X5.619F5000S0
G1 X2.231F3000S1000
G0 X1.25
G0 X0.041Y0.1
G0 X-1.25
G1 X-2.216
G1 X-5.505F5000S0
G1 X-1.757F3000S1000
G1 X-1.054F5000S0
G1 X-5.918F3000S1000
G1 X-1.073F5000S0
G1 X-1.752F3000S1000
G1 X-5.49F5000S0
G1 X-2.217F3000S1000
G0 X-1.25
G0 X-0.041Y0.1
G0 X1.25
G1 X2.202
G1 X5.371F5000S0
G1 X1.786F3000S1000
G1 X1.217F5000S0
G1 X5.912F3000S1000
G1 X1.191F5000S0
G1 X1.807F3000S1000
G1 X5.377F5000S0
G1 X2.202F3000S1000
G0 X1.25
G0 X0.041Y0.1
G0 X-1.25
G1 X-2.195
G1 X-5.224F5000S0
G1 X-1.874F3000S1000
G1 X-1.328F5000S0
G1 X-1.173F3000S1000
G1 X-0.387S0
G1 X-2.792S1000
G1 X-0.363S0
G1 X-1.192S1000
G1 X-1.357F5000S0
G1 X-1.849F3000S1000
G1 X-5.218F5000S0
G1 X-2.196F3000S1000
G0 X-1.25
G0 X-0.038Y0.1
G0 X1.25
G1 X2.187
G1 X5.058F5000S0
G1 X1.917F3000S1000
G1 X1.497F5000S0
G1 X1.111F3000S1000
G1 X0.584S0
G1 X2.509S1000
G1 X0.613S0
G1 X1.089S1000
G1 X1.468F5000S0
G1 X1.935F3000S1000
G1 X5.07F5000S0
G1 X2.186F3000S1000
G0 X1.25
G0 X0.037Y0.1
G0 X-1.25
G1 X-2.176
G1 X-4.903F5000S0
G1 X-2.001F3000S1000
G1 X-1.615F5000S0
G1 X-1.056F3000S1000
G1 X-0.73S0
G1 X-2.352S1000
G1 X-0.7S0
G1 X-1.07S1000
G1 X-1.639F5000S0
G1 X-1.981F3000S1000
G1 X-4.898F5000S0
G1 X-2.177F3000S1000
G0 X-1.25
G0 X-0.036Y0.1
G0 X1.25
G1 X2.167
G1 X4.708F5000S0
G1 X2.067F3000S1000
G1 X1.789F5000S0
G1 X1.036F3000S1000
G1 X0.778S0
G1 X0.894S1000
G1 X0.492S0
G1 X0.874S1000
G1 X0.803S0
G1 X1.031S1000
G1 X1.762F5000S0
G1 X2.093F3000S1000
G1 X4.709F5000S0
G1 X2.168F3000S1000
G0 X1.25
G0 X0.037Y0.1
G0 X-1.25
G1 X-2.164
G1 X-4.511F5000S0
G1 X-2.175F3000S1000
G1 X-1.918F5000S0
G1 X-1.01F3000S1000
G1 X-0.847S0
G1 X-0.783S1000
G1 X-0.629S0
G1 X-0.796S1000
G1 X-0.831S0
G1 X-1.014S1000
G1 X-1.938F5000S0
G1 X-2.167F3000S1000
G1 X-4.498F5000S0
G1 X-2.164F3000S1000
G0 X-1.25
G0 X-0.037Y0.1
G0 X1.25
G1 X2.16
G1 X4.289F5000S0
G1 X2.261F3000S1000
G1 X2.091F5000S0
G1 X0.995F3000S1000
G1 X0.877S0
G1 X0.727S1000
G1 X0.72S0
G1 X0.725S1000
G1 X0.878S0
G1 X0.994S1000
G1 X2.076F5000S0
G1 X2.287F3000S1000
G1 X4.279F5000S0
G1 X2.16F3000S1000
G0 X1.25
G0 X0.037Y0.1
G0 X-1.25
G1 X-2.158
G1 X-4.021F5000S0
G1 X-2.422F3000S1000
G1 X-2.236F5000S0
G1 X-0.98F3000S1000
G1 X-0.906S0
G1 X-0.677S1000
G1 X-0.791S0
G1 X-0.671S1000
G1 X-0.914S0
G1 X-0.981S1000
G1 X-2.25F5000S0
G1 X-2.418F3000S1000
G1 X-4.011F5000S0
G1 X-2.157F3000S1000
G0 X-1.25
G0 X-0.037Y0.1
G0 X1.25
G1 X2.156
G1 X3.727F5000S0
G1 X2.578F3000S1000
G1 X2.409F5000S0
G1 X0.969F3000S1000
G1 X0.945S0
G1 X0.626S1000
G1 X0.85S0
G1 X0.628S1000
G1 X0.94S0
G1 X0.968S1000
G1 X2.411F5000S0
G1 X2.575F3000S1000
G1 X3.729F5000S0
G1 X2.156F3000S1000
G0 X1.25
G0 X0.035Y0.1
G0 X-1.25
G1 X-2.155
G1 X-3.163F5000S0
G1 X-2.998F3000S1000
G1 X-2.587F5000S0
G1 X-0.955F3000S1000
G1 X-0.975S0
G1 X-0.581S1000
G1 X-0.905S0
G1 X-0.584S1000
G1 X-0.975S0
G1 X-0.956S1000
G1 X-2.586F5000S0
G1 X-2.914F3000S1000
G1 X-3.249F5000S0
G1 X-2.154F3000S1000
G0 X-1.25
G0 X-0.034Y0.1
G0 X1.25
G1 X2.166
G1 X2.271F5000S0
G1 X3.733F3000S1000
G1 X2.763F5000S0
G1 X0.949F3000S1000
G1 X1.002F5000S0
G1 X0.544F3000S1000
G1 X0.954S0
G1 X0.533S1000
G1 X1.011F5000S0
G1 X0.945F3000S1000
G1 X2.763F5000S0
G1 X3.833F3000S1000
G1 X2.172F5000S0
G1 X2.166F3000S1000
G0 X1.25
G0 X0.034Y0.1
G0 X-1.25
G1 X-8.026
G1 X-2.938F5000S0
G1 X-0.937F3000S1000
G1 X-1.047F5000S0
G1 X-0.485F3000S1000
G1 X-1.002F5000S0
G1 X-0.504F3000S1000
G1 X-1.03F5000S0
G1 X-0.941F3000S1000
G1 X-2.945F5000S0
G1 X-8.019F3000S1000
G0 X-1.25
G0 X-0.034Y0.1
G0 X1.25
G1 X7.892
G1 X3.102F5000S0
G1 X0.934F3000S1000
G1 X1.056F5000S0
G1 X0.465F3000S1000
G1 X1.05F5000S0
G1 X0.435F3000S1000
G1 X1.084F5000S0
G1 X0.93F3000S1000
G1 X3.071F5000S0
G1 X7.923F3000S1000
G0 X1.25
G0 X0.035Y0.1
G0 X-1.25
G1 X-7.822
G1 X-3.203F5000S0
G1 X-0.922F3000S1000
G1 X-1.124F5000S0
G1 X-0.384F3000S1000
G1 X-1.098F5000S0
G1 X-0.421F3000S1000
G1 X-1.085F5000S0
G1 X-0.928F3000S1000
G1 X-3.232F5000S0
G1 X-7.792F3000S1000
G0 X-1.25
G0 X-0.034Y0.1
G0 X1.25
G1 X7.723
G1 X3.331F5000S0
G1 X0.927F3000S1000
G1 X1.112F5000S0
G1 X0.373F3000S1000
G1 X1.148F5000S0
G1 X0.331F3000S1000
G1 X1.16F5000S0
G1 X0.919F3000S1000
G1 X3.29F5000S0
G1 X7.765F3000S1000
G0 X1.25
G0 X0.034Y0.1
G0 X-1.25
G1 X-7.711
G1 X-3.374F5000S0
G1 X-0.918F3000S1000
G1 X-1.195F5000S0
G1 X-0.278F3000S1000
G1 X-1.201F5000S0
G1 X-0.322F3000S1000
G1 X-1.139F5000S0
G1 X-0.924F3000S1000
G1 X-3.401F5000S0
G1 X-7.685F3000S1000
G0 X-1.25
G0 X-0.034Y0.1
G0 X1.25
G1 X7.647
G1 X3.469F5000S0
G1 X0.922F3000S1000
G1 X1.177F5000S0
G1 X0.255F3000S1000
G1 X1.259F5000S0
G1 X0.223F3000S1000
G1 X1.232F5000S0
G1 X0.917F3000S1000
G1 X3.437F5000S0
G1 X7.678F3000S1000
G0 X1.25
G0 X0.035Y0.1
G0 X-1.25
G1 X-7.662
G1 X-3.484F5000S0
G1 X-0.915F3000S1000
G1 X-1.269F5000S0
G1 X-0.169F3000S1000
G1 X-1.328F5000S0
G1 X-0.175F3000S1000
G1 X-1.216F5000S0
G1 X-0.921F3000S1000
G1 X-3.508F5000S0
G1 X-7.638F3000S1000
G0 X-1.25
G0 X-0.034Y0.1
G0 X1.25
G1 X7.631
G1 X3.544F5000S0
G1 X0.92F3000S1000
G1 X2.748F5000S0
G1 X0.115F3000S1000
G1 X1.305F5000S0
G1 X0.914F3000S1000
G1 X3.532F5000S0
G1 X7.644F3000S1000
G0 X1.25
G0 X0.034Y0.1
G0 X-1.25
G1 X-7.638
G1 X-3.567F5000S0
G1 X-0.917F3000S1000
G1 X-1.339F5000S0
G1 X-0.06F3000S1000
G1 X-2.776F5000S0
G1 X-0.919F3000S1000
G1 X-3.58F5000S0
G1 X-7.626F3000S1000
G0 X-1.25
G0 X-0.034Y0.1
G0 X1.25
G1 X7.636
G1 X3.599F5000S0
G1 X0.92F3000S1000
G1 X4.176F5000S0
G1 X0.925F3000S1000
G1 X3.595F5000S0
G1 X7.639F3000S1000
G0 X1.25
G0 X0.035Y0.1
G0 X-1.25
G1 X-7.648
G1 X-3.617F5000S0
G1 X-0.932F3000S1000
G1 X-4.169F5000S0
G1 X-0.929F3000S1000
G1 X-3.615F5000S0
G1 X-7.649F3000S1000
G0 X-1.25
G0 X-0.034Y0.1
G0 X1.25
G1 X7.665
G1 X3.629F5000S0
G1 X0.936F3000S1000
G1 X4.163F5000S0
G1 X0.94F3000S1000
G1 X3.636F5000S0
G1 X7.658F3000S1000
G0 X1.25
G0 X0.034Y0.1
G0 X-1.25
G1 X-7.673
G1 X-3.65F5000S0
G1 X-0.948F3000S1000
G1 X-4.156F5000S0
G1 X-0.945F3000S1000
G1 X-3.639F5000S0
G1 X-7.685F3000S1000
G0 X-1.25
G0 X-0.034Y0.1
G0 X1.25
G1 X7.705
G1 X3.647F5000S0
G1 X0.954F3000S1000
G1 X4.151F5000S0
G1 X0.956F3000S1000
G1 X3.662F5000S0
G1 X7.69F3000S1000
G0 X1.25
G0 X-0.168Y0.1
G0 X-1.25
G1 X-7.506
G1 X-3.672F5000S0
G1 X-0.97F3000S1000
G1 X-4.139F5000S0
G1 X-0.964F3000S1000
G1 X-3.654F5000S0
G1 X-7.525F3000S1000
G0 X-1.25
G0 X0.401Y0.1
G0 X1.25
G1 X7.113
G1 X3.657F5000S0
G1 X0.975F3000S1000
G1 X4.126F5000S0
G1 X0.988F3000S1000
G1 X3.676F5000S0
G1 X7.094F3000S1000
G0 X1.25
G0 X-0.401Y0.1
G0 X-1.25
G1 X-6.68
G1 X-3.68F5000S0
G1 X-1.006F3000S1000
G1 X-4.113F5000S0
G1 X-0.988F3000S1000
G1 X-3.66F5000S0
G1 X-6.7F3000S1000
G0 X-1.25
G0 X0.46Y0.1
G0 X1.25
G1 X6.229
G1 X3.662F5000S0
G1 X1.01F3000S1000
G1 X4.09F5000S0
G1 X1.025F3000S1000
G1 X3.681F5000S0
G1 X6.21F3000S1000
G0 X1.25
G0 X-0.614Y0.1
G0 X-1.25
G1 X-5.586
G1 X-3.682F5000S0
G1 X-1.044F3000S1000
G1 X-4.068F5000S0
G1 X-1.032F3000S1000
G1 X-3.66F5000S0
G1 X-5.607F3000S1000
G0 X-1.25
G0 X0.832Y0.1
G0 X1.25
G1 X4.766
G1 X3.653F5000S0
G1 X1.06F3000S1000
G1 X4.046F5000S0
G1 X1.071F3000S1000
G1 X3.674F5000S0
G1 X4.745F3000S1000
G0 X1.25
G0 X-1.414Y0.1
G0 X-1.25
G1 X-3.323
G1 X-3.666F5000S0
G1 X-1.101F3000S1000
G1 X-4.02F5000S0
G1 X-1.088F3000S1000
G1 X-3.646F5000S0
G1 X-3.344F3000S1000
G0 X-1.25
G0 X1.12Y0.1
G0 X1.25
G1 X2.216
G1 X3.631F5000S0
G1 X1.124F3000S1000
G1 X3.99F5000S0
G1 X1.141F3000S1000
G1 X3.65F5000S0
G1 X2.196F3000S1000
G0 X1.25
G0 Y0.1
G0 X-1.255
G1 X-2.184
G1 X-3.627F5000S0
G1 X-1.187F3000S1000
G1 X-3.962F5000S0
G1 X-1.166F3000S1000
G1 X-3.61F5000S0
G1 X-2.201F3000S1000
G0 X-1.25
G0 Y0.1
G0 X1.255
G1 X2.187
G1 X3.578F5000S0
G1 X1.219F3000S1000
G1 X3.934F5000S0
G1 X1.243F3000S1000
G1 X3.593F5000S0
G1 X2.173F3000S1000
G0 X1.25
G0 X-0.005Y0.1
G0 X-1.25
G1 X-2.162
G1 X-3.546F5000S0
G1 X-1.312F3000S1000
G1 X-3.897F5000S0
G1 X-1.292F3000S1000
G1 X-3.533F5000S0
G1 X-2.175F3000S1000
G0 X-1.25
G0 X0.005Y0.1
G0 X1.25
G1 X2.164
G1 X3.467F5000S0
G1 X1.385F3000S1000
G1 X3.86F5000S0
G1 X1.4F3000S1000
G1 X3.479F5000S0
G1 X2.151F3000S1000
G0 X1.25
G0 Y0.1
G0 X-1.255
G1 X-2.141
G1 X-3.403F5000S0
G1 X-1.502F3000S1000
G1 X-3.818F5000S0
G1 X-1.488F3000S1000
G1 X-3.392F5000S0
G1 X-2.152F3000S1000
G0 X-1.25
G0 X0.005Y0.1
G0 X1.25
G1 X2.141
G1 X3.307F5000S0
G1 X1.6F3000S1000
G1 X3.774F5000S0
G1 X1.616F3000S1000
G1 X3.317F5000S0
G1 X2.131F3000S1000
G0 X1.25
G0 X-0.005Y0.1
G0 X-1.25
G1 X-2.121
G1 X-3.221F5000S0
G1 X-1.739F3000S1000
G1 X-3.731F5000S0
G1 X-1.718F3000S1000
G1 X-3.216F5000S0
G1 X-2.129F3000S1000
G0 X-1.25
G0 Y0.1
G0 X1.255
G1 X2.117
G1 X3.124F5000S0
G1 X1.838F3000S1000
G1 X3.687F5000S0
G1 X1.868F3000S1000
G1 X3.119F5000S0
G1 X2.112F3000S1000
G0 X1.25
G0 X-0.005Y0.1
G0 X-1.25
G1 X-2.102
G1 X-3.019F5000S0
G1 X-1.995F3000S1000
G1 X-3.645F5000S0
G1 X-1.963F3000S1000
G1 X-3.025F5000S0
G1 X-2.106F3000S1000
G0 X-1.25
G0 X0.005Y0.1
G0 X1.25
G1 X2.096
G1 X2.918F5000S0
G1 X2.104F3000S1000
G1 X3.594F5000S0
G1 X2.134F3000S1000
G1 X2.906F5000S0
G1 X2.092F3000S1000
G0 X1.25
G0 Y0.1
G0 X-1.255
G1 X-2.084
G1 X-2.786F5000S0
G1 X-2.286F3000S1000
G1 X-3.535F5000S0
G1 X-2.247F3000S1000
G1 X-2.81F5000S0
G1 X-2.086F3000S1000
G0 X-1.25
G0 X0.006Y0.1
G0 X1.25
G1 X2.075
G1 X2.692F5000S0
G1 X2.4F3000S1000
G1 X3.476F5000S0
G1 X2.439F3000S1000
G1 X2.666F5000S0
G1 X2.075F3000S1000
G0 X1.25
G0 X-0.005Y0.1
G0 X-1.25
G1 X-2.067
G1 X-2.542F5000S0
G1 X-2.594F3000S1000
G1 X-3.419F5000S0
G1 X-2.553F3000S1000
G1 X-2.572F5000S0
G1 X-2.066F3000S1000
G0 X-1.25
G0 Y0.1
G0 X1.255
G1 X2.057
G1 X2.443F5000S0
G1 X2.716F3000S1000
G1 X3.36F5000S0
G1 X2.759F3000S1000
G1 X2.408F5000S0
G1 X2.06F3000S1000
G0 X1.25
G0 X-0.005Y0.1
G0 X-1.25
G1 X-2.053
G1 X-2.273F5000S0
G1 X-2.925F3000S1000
G1 X-3.301F5000S0
G1 X-2.882F3000S1000
G1 X-2.31F5000S0
G1 X-2.049F3000S1000
G0 X-1.25
G0 X0.005Y0.1
G0 X1.25
G1 X2.04
G1 X2.167F5000S0
G1 X3.059F3000S1000
G1 X3.241F5000S0
G1 X3.092F3000S1000
G1 X2.138F5000S0
G1 X2.045F3000S1000
G0 X1.25
G0 X-0.007Y0.1
G0 X-1.25
G1 X-2.037
G1 X-1.992F5000S0
G1 X-3.275F3000S1000
G1 X-3.168F5000S0
G1 X-3.249F3000S1000
G1 X-2.016F5000S0
G1 X-2.03F3000S1000
G0 X-1.25
G0 X0.007Y0.1
G0 X1.25
G1 X2.021
G1 X1.864F5000S0
G1 X3.442F3000S1000
G1 X3.093F5000S0
G1 X3.46F3000S1000
G1 X1.843F5000S0
G1 X2.029F3000S1000
G0 X1.25
G0 X-0.007Y0.1
G0 X-1.25
G1 X-2.022
G1 X-1.694F5000S0
G1 X-3.646F3000S1000
G1 X-3.017F5000S0
G1 X-3.634F3000S1000
G1 X-1.713F5000S0
G1 X-2.011F3000S1000
G0 X-1.25
G0 X0.007Y0.1
G0 X1.25
G1 X2.003
G1 X1.55F5000S0
G1 X3.837F3000S1000
G1 X2.942F5000S0
G1 X3.838F3000S1000
G1 X1.537F5000S0
G1 X2.015F3000S1000
G0 X1.25
G0 X-0.007Y0.1
G0 X-1.25
G1 X-2.01
G1 X-1.372F5000S0
G1 X-4.037F3000S1000
G1 X-2.867F5000S0
G1 X-4.058F3000S1000
G1 X-1.368F5000S0
G1 X-1.995F3000S1000
G0 X-1.25
G0 X0.007Y0.1
G0 X1.25
G1 X1.989
G1 X1.185F5000S0
G1 X4.279F3000S1000
G1 X2.787F5000S0
G1 X4.241F3000S1000
G1 X1.208F5000S0
G1 X2.003F3000S1000
G0 X1.25
G0 X-0.007Y0.1
G0 X-1.25
G1 X-2.001
G1 X-1.031F5000S0
G1 X-4.458F3000S1000
G1 X-2.703F5000S0
G1 X-4.5F3000S1000
G1 X-1.001F5000S0
G1 X-1.983F3000S1000
G0 X-1.25
G0 X0.01Y0.1
G0 X1.25
G1 X1.975
G1 X0.808S0
G1 X4.739S1000
G1 X2.61F5000S0
G1 X4.686F3000S1000
G1 X0.843S0
G1 X1.996S1000
G0 X1.25
G0 X-0.012Y0.1
G0 X-1.25
G1 X-1.992
G1 X-0.651S0
G1 X-4.915S1000
G1 X-2.517F5000S0
G1 X-4.992F3000S1000
G1 X-0.596S0
G1 X-1.971S1000
G0 X-1.25
G0 X0.012Y0.1
G0 X1.25
G1 X1.969
G1 X0.368S0
G1 X5.259S1000
G1 X2.423F5000S0
G1 X5.171F3000S1000
G1 X0.429S0
G1 X1.992S1000
G0 X1.25
G0 X-0.011Y0.1
G0 X-1.25
G1 X-2.007
G1 X-0.134S0
G1 X-5.489S1000
G1 X-2.326F5000S0
G1 X-5.547F3000S1000
G1 X-0.104S0
G1 X-1.982S1000
G0 X-1.25
G0 X0.011Y0.1
G0 X1.25
G1 X7.671
G1 X2.225F5000S0
G1 X7.671F3000S1000
G0 X1.25
G0 X-0.012Y0.1
G0 X-1.25
G1 X-7.711
G1 X-2.124F5000S0
G1 X-7.709F3000S1000
G0 X-1.25
G0 X0.011Y0.1
G0 X1.25
G1 X7.748
G1 X2.021F5000S0
G1 X7.753F3000S1000
G0 X1.25
G0 X-0.012Y0.1
G0 X-1.25
G1 X-7.794
G1 X-1.909F5000S0
G1 X-7.795F3000S1000
G0 X-1.25
G0 X0.014Y0.1
G0 X1.25
G1 X5.464
G1 X0.016S0
G1 X2.36S1000
G1 X1.793F5000S0
G1 X2.354F3000S1000
G1 X0.019S0
G1 X5.464S1000
G0 X1.25
G0 X-0.014Y0.1
G0 X-1.25
G1 X-5.286
G1 X-0.236S0
G1 X-2.358S1000
G1 X-1.677F5000S0
G1 X-2.365F3000S1000
G1 X-0.233S0
G1 X-5.287S1000
G0 X-1.25
G0 X0.014Y0.1
G0 X1.25
G1 X5.109
G1 X0.452S0
G1 X2.369S1000
G1 X1.561F5000S0
G1 X2.361F3000S1000
G1 X0.453S0
G1 X5.11S1000
G0 X1.25
G0 X-0.016Y0.1
G0 X-1.25
G1 X-4.93
G1 X-0.67S0
G1 X-2.364S1000
G1 X-1.446F5000S0
G1 X-2.373F3000S1000
G1 X-0.67S0
G1 X-4.931S1000
G0 X-1.25
G0 X0.016Y0.1
G0 X1.25
G1 X4.751
G1 X0.888S0
G1 X2.379S1000
G1 X1.325F5000S0
G1 X2.371F3000S1000
G1 X0.887S0
G1 X4.751S1000
G0 X1.25
G0 X-0.016Y0.1
G0 X-1.25
G1 X-4.571
G1 X-1.104F5000S0
G1 X-2.378F3000S1000
G1 X-1.202F5000S0
G1 X-2.387F3000S1000
G1 X-1.106F5000S0
G1 X-4.572F3000S1000
G0 X-1.25
G0 X0.017Y0.1
G0 X1.25
G1 X4.383
G1 X1.333F5000S0
G1 X2.396F3000S1000
G1 X1.074F5000S0
G1 X2.388F3000S1000
G1 X1.33F5000S0
G1 X4.383F3000S1000
G0 X1.25
G0 X292.47Y0.1
G0 X-1.25
G1 X-0.346
G1 X-292.143F5000S0
G1 X-4.178F3000S1000
G1 X-1.569F5000S0
G1 X-2.4F3000S1000
G1 X-0.944S0
G1 X-2.407S1000
G1 X-1.573F5000S0
G1 X-4.178F3000S1000
G0 X-1.25
G0 X0.018Y0.1
G0 X1.25
G1 X3.962
G1 X1.826F5000S0
G1 X2.416F3000S1000
G1 X0.812S0
G1 X2.415S1000
G1 X1.819F5000S0
G1 X3.962F3000S1000
G1 X291.214F5000S0
G1 X2.377F3000S1000
G0 X1.25
G0 X0.391Y0.1
G0 X-1.25
G1 X-3.23
G1 X-290.771F5000S0
G1 X-3.733F3000S1000
G1 X-2.084F5000S0
G1 X-2.434F3000S1000
G1 X-0.673S0
G1 X-2.426S1000
G1 X-2.09F5000S0
G1 X-3.733F3000S1000
G0 X-1.25
G0 X0.022Y0.1
G0 X1.25
G1 X3.491
G1 X2.367F5000S0
G1 X2.434F3000S1000
G1 X0.528S0
G1 X2.456S1000
G1 X2.362F5000S0
G1 X3.49F3000S1000
G1 X290.422F5000S0
G1 X3.938F3000S1000
G0 X1.25
G0 X0.233Y0.1
G0 X-1.25
G1 X-4.445
G1 X-290.171F5000S0
G1 X-3.24F3000S1000
G1 X-2.648F5000S0
G1 X-2.479F3000S1000
G1 X-0.383S0
G1 X-2.44S1000
G1 X-2.653F5000S0
G1 X-3.24F3000S1000
G0 X-1.25
G0 X0.024Y0.1
G0 X1.25
G1 X2.975
G1 X2.955F5000S0
G1 X2.444F3000S1000
G1 X0.237S0
G1 X2.502S1000
G1 X2.947F5000S0
G1 X2.974F3000S1000
G1 X289.935F5000S0
G1 X4.939F3000S1000
G0 X1.25
G0 X0.191Y0.1
G0 X-1.25
G1 X-5.359
G1 X-289.731F5000S0
G1 X-2.708F3000S1000
G1 X-3.246F5000S0
G1 X-2.526F3000S1000
G1 X-0.09S0
G1 X-2.445S1000
G1 X-3.26F5000S0
G1 X-2.709F3000S1000
G0 X-1.25
G0 X0.025Y0.1
G0 X1.25
G1 X2.432
G1 X3.576F5000S0
G1 X4.939F3000S1000
G1 X3.555F5000S0
G1 X2.432F3000S1000
G1 X289.558F5000S0
G1 X5.722F3000S1000
G0 X1.25
G0 X0.165Y0.1
G0 X-1.25
G1 X-6.085
G1 X-289.385F5000S0
G1 X-2.136F3000S1000
G1 X-3.885F5000S0
G1 X-4.813F3000S1000
G1 X-3.914F5000S0
G1 X-2.136F3000S1000
G0 X-1.25
G0 X0.025Y0.1
G0 X1.25
G1 X1.84
G1 X4.253F5000S0
G1 X4.675F3000S1000
G1 X4.226F5000S0
G1 X1.841F3000S1000
G1 X289.232F5000S0
G1 X6.417F3000S1000
G0 X1.25
G0 X0.116Y0.1
G0 X-1.25
G1 X-6.689
G1 X-289.101F5000S0
G1 X-1.529F3000S1000
G1 X-4.582F5000S0
G1 X-4.537F3000S1000
G1 X-4.608F5000S0
G1 X-1.529F3000S1000
G0 X-1.25
G0 X0.025Y0.1
G0 X1.25
G1 X1.212
G1 X4.971F5000S0
G1 X4.396F3000S1000
G1 X4.944F5000S0
G1 X1.212F3000S1000
G1 X288.97F5000S0
G1 X6.962F3000S1000
G0 X1.25
G0 X0.117Y0.1
G0 X-1.25
G1 X-7.235
G1 X-288.839F5000S0
G1 X-0.895F3000S1000
G1 X-5.306F5000S0
G1 X-4.255F3000S1000
G1 X-5.334F5000S0
G1 X-0.895F3000S1000
G0 X-1.25
G0 X0.025Y0.1
G0 X1.25
G1 X0.578
G1 X5.698F5000S0
G1 X4.114F3000S1000
G1 X5.667F5000S0
G1 X0.578F3000S1000
G1 X288.735F5000S0
G1 X7.48F3000S1000
G0 X1.25
G0 X0.09Y0.1
G0 X-1.25
G1 X-7.695
G1 X-288.635F5000S0
G1 X-0.261F3000S1000
G1 X-6.029F5000S0
G1 X-3.968F3000S1000
G1 X-6.066F5000S0
G1 X-0.261F3000S1000
G0 X-1.25
G0 X6.403Y0.1
G0 X1.25
G1 X3.813
G1 X294.878F5000S0
G1 X7.909F3000S1000
G0 X1.25
G0 X0.089Y0.1
G0 X-1.25
G1 X-8.123
G1 X-294.831F5000S0
G1 X-3.659F3000S1000
G0 X-1.25
G0 X0.076Y0.1
G0 X1.25
G1 X3.505
G1 X294.798F5000S0
G1 X8.322F3000S1000
G0 X1.25
G0 X0.086Y0.1
G0 X-1.25
G1 X-8.512
G1 X-294.775F5000S0
G1 X-3.348F3000S1000
G0 X-1.25
G0 X0.076Y0.1
G0 X1.25
G1 X3.189
G1 X294.755F5000S0
G1 X8.682F3000S1000
G0 X1.25
G0 X0.067Y0.1
G0 X-1.25
G1 X-8.853
G1 X-294.734F5000S0
G1 X-3.024F3000S1000
G0 X-1.25
G0 X0.083Y0.1
G0 X1.25
G1 X2.858
G1 X294.713F5000S0
G1 X9.024F3000S1000
G0 X1.25
G0 X0.067Y0.1
G0 X-1.25
G1 X-9.194
G1 X-294.696F5000S0
G1 X-2.69F3000S1000
G0 X-1.25
G0 X0.083Y0.1
G0 X1.25
G1 X2.521
G1 X294.678F5000S0
G1 X9.364F3000S1000
G0 X1.25
G0 X0.054Y0.1
G0 X-1.25
G1 X-9.511
G1 X-294.671F5000S0
G1 X-2.353F3000S1000
G0 X-1.25
G0 X0.084Y0.1
G0 X1.25
G1 X2.183
G1 X294.668F5000S0
G1 X9.647F3000S1000
G0 X1.25
G0 X0.049Y0.1
G0 X-1.25
G1 X-9.785
G1 X-294.668F5000S0
G1 X-2.009F3000S1000
G0 X-1.25
G0 X0.087Y0.1
G0 X1.25
G1 X1.834
G1 X294.667F5000S0
G1 X9.922F3000S1000
G0 X1.25
G0 X0.049Y0.1
G0 X-1.25
G1 X-3.616
G1 X-0.458S0
G1 X-5.986S1000
G1 X-294.667F5000S0
G1 X-1.658F3000S1000
G0 X-1.25
G0 X0.086Y0.1
G0 X1.25
G1 X1.484
G1 X294.666F5000S0
G1 X5.638F3000S1000
G1 X1.252F5000S0
G1 X3.308F3000S1000
G0 X1.25
G0 X0.035Y0.1
G0 X-1.25
G1 X-3.153
G1 X-1.654F5000S0
G1 X-5.515F3000S1000
G1 X-294.666F5000S0
G1 X-1.308F3000S1000
G0 X-1.25
G0 X0.087Y0.1
G0 X1.25
G1 X1.132
G1 X294.67F5000S0
G1 X5.428F3000S1000
G1 X1.961F5000S0
G1 X3.051F3000S1000
G0 X1.25
G0 X0.033Y0.1
G0 X-1.25
G1 X-2.976
G1 X-2.222F5000S0
G1 X-5.35F3000S1000
G1 X-294.684F5000S0
G1 X-0.956F3000S1000
G0 X-1.25
G0 X0.086Y0.1
G0 X1.25
G1 X0.781
G1 X294.697F5000S0
G1 X5.304F3000S1000
G1 X2.438F5000S0
G1 X2.915F3000S1000
G0 X1.25
G0 X0.033Y0.1
G0 X-1.25
G1 X-2.876
G1 X-2.625F5000S0
G1 X-5.265F3000S1000
G1 X-294.71F5000S0
G1 X-0.605F3000S1000
G0 X-1.25
G0 X0.087Y0.1
G0 X1.25
G1 X0.429
G1 X294.723F5000S0
G1 X5.242F3000S1000
G1 X2.786F5000S0
G1 X2.847F3000S1000
G0 X1.25
G0 X0.033Y0.1
G0 X-1.25
G1 X-2.828
G1 X-2.924F5000S0
G1 X-5.232F3000S1000
G1 X-294.737F5000S0
G1 X-0.253F3000S1000
G0 X-1.25
G0 X0.087Y0.1
G0 X1.25
G1 X0.077
G1 X294.75F5000S0
G1 X5.221F3000S1000
G1 X3.054F5000S0
G1 X2.812F3000S1000
G0 X1.25
G0 X0.023Y0.1
G0 X-1.25
G1 X-2.798
G1 X-3.159F5000S0
G1 X-5.229F3000S1000
G0 X-1.25
G0 X-0.071Y0.1
G0 X1.25
G1 X5.233
G1 X3.262F5000S0
G1 X2.784F3000S1000
G0 X1.25
G0 X0.023Y0.1
G0 X-1.25
G1 X-2.77
G1 X-3.366F5000S0
G1 X-5.231F3000S1000
G0 X-1.25
G0 X-0.064Y0.1
G0 X1.25
G1 X5.228
G1 X3.46F5000S0
G1 X2.766F3000S1000
G0 X1.25
G0 X0.022Y0.1
G0 X-1.25
G1 X-2.762
G1 X-3.552F5000S0
G1 X-5.227F3000S1000
G0 X-1.25
G0 X-0.064Y0.1
G0 X1.25
G1 X5.232
G1 X3.636F5000S0
G1 X2.76F3000S1000
G0 X1.25
G0 X0.022Y0.1
G0 X-1.25
G1 X-2.757
G1 X-3.72F5000S0
G1 X-5.238F3000S1000
G0 X-1.25
G0 X-0.064Y0.1
G0 X1.25
G1 X5.244
G1 X3.794F5000S0
G1 X2.753F3000S1000
G0 X1.25
G0 X0.013Y0.1
G0 X-1.25
G1 X-2.751
G1 X-3.868F5000S0
G1 X-5.249F3000S1000
G0 X-1.25
G0 X-0.065Y0.1
G0 X1.25
G1 X5.256
G1 X3.941F5000S0
G1 X2.748F3000S1000
G0 X1.25
G0 X0.013Y0.1
G0 X-1.25
G1 X-2.747
G1 X-4.005F5000S0
G1 X-5.26F3000S1000
G0 X-1.25
G0 X-0.055Y0.1
G0 X1.25
G1 X5.264
G1 X4.061F5000S0
G1 X2.755F3000S1000
G0 X1.25
G0 X0.012Y0.1
G0 X-1.25
G1 X-2.761
G1 X-4.118F5000S0
G1 X-5.268F3000S1000
G0 X-1.25
G0 X-0.055Y0.1
G0 X1.25
G1 X5.272
G1 X4.174F5000S0
G1 X2.769F3000S1000
G0 X1.25
G0 X0.008Y0.1
G0 X-1.25
G1 X-2.773
G1 X-4.229F5000S0
G1 X-5.275F3000S1000
G0 X-1.25
G0 X-0.055Y0.1
G0 X1.25
G1 X5.287
G1 X4.271F5000S0
G1 X2.776F3000S1000
G0 X1.25
G0 Y0.1
G0 X-1.247
G1 X-2.779
G1 X-4.315F5000S0
G1 X-5.298F3000S1000
G0 X-1.25
G0 X-0.054Y0.1
G0 X1.25
G1 X5.309
G1 X4.357F5000S0
G1 X2.783F3000S1000
G0 X1.25
G0 Y0.1
G0 X-1.247
G1 X-2.786
G1 X-4.401F5000S0
G1 X-5.32F3000S1000
G0 X-1.25
G0 X-0.055Y0.1
G0 X1.25
G1 X5.332
G1 X4.443F5000S0
G1 X2.79F3000S1000
G0 X1.25
G0 Y0.1
G0 X-1.248
G1 X-2.792
G1 X-4.484F5000S0
G1 X-5.346F3000S1000
G0 X-1.25
G0 X-0.054Y0.1
G0 X1.25
G1 X5.362
G1 X4.521F5000S0
G1 X2.796F3000S1000
G0 X1.25
G0 Y0.1
G0 X-1.252
G1 X-2.797
G1 X-4.557F5000S0
G1 X-5.371F3000S1000
G0 X-1.25
G0 X-0.047Y0.1
G0 X1.25
G1 X5.38
G1 X4.586F5000S0
G1 X2.804F3000S1000
G0 X1.25
G0 Y0.1
G0 X-1.253
G1 X-2.81
G1 X-4.616F5000S0
G1 X-5.388F3000S1000
G0 X-1.25
G0 X-0.048Y0.1
G0 X1.25
G1 X5.397
G1 X4.646F5000S0
G1 X2.816F3000S1000
G0 X1.25
G0 Y0.1
G0 X-1.253
G1 X-2.822
G1 X-4.675F5000S0
G1 X-5.406F3000S1000
G0 X-1.25
G0 X-0.048Y0.1
G0 X1.25
G1 X5.415
G1 X4.704F5000S0
G1 X2.83F3000S1000
G0 X1.25
G0 Y0.1
G0 X-1.255
G1 X-2.834
G1 X-4.733F5000S0
G1 X-5.424F3000S1000
G0 X-1.25
G0 X-0.047Y0.1
G0 X1.25
G1 X5.436
G1 X4.759F5000S0
G1 X2.834F3000S1000
G0 X1.25
G0 X-0.009Y0.1
G0 X-1.25
G1 X-2.837
G1 X-4.781F5000S0
G1 X-5.45F3000S1000
G0 X-1.25
G0 X-0.047Y0.1
G0 X1.25
G1 X5.463
G1 X4.797F5000S0
G1 X2.847F3000S1000
G0 X1.25
G0 X-0.009Y0.1
G0 X-1.25
G1 X-2.856
G1 X-4.812F5000S0
G1 X-5.477F3000S1000
G0 X-1.25
G0 X-0.048Y0.1
G0 X1.25
G1 X5.491
G1 X4.828F5000S0
G1 X2.865F3000S1000
G0 X1.25
G0 X-0.009Y0.1
G0 X-1.25
G1 X-2.874
G1 X-4.843F5000S0
G1 X-5.501F3000S1000
G0 X-1.25
G0 X-0.04Y0.1
G0 X1.25
G1 X5.507
G1 X4.859F5000S0
G1 X2.878F3000S1000
G0 X1.25
G0 X-0.015Y0.1
G0 X-1.25
G1 X-2.881
G1 X-4.874F5000S0
G1 X-5.515F3000S1000
G0 X-1.25
G0 X-0.04Y0.1
G0 X1.25
G1 X5.521
G1 X4.89F5000S0
G1 X2.884F3000S1000
G0 X1.25
G0 X-0.015Y0.1
G0 X-1.25
G1 X-2.892
G1 X-4.898F5000S0
G1 X-5.53F3000S1000
G0 X-1.25
G0 X-0.041Y0.1
G0 X1.25
G1 X5.543
G1 X4.899F5000S0
G1 X2.904F3000S1000
G0 X1.25
G0 X-0.015Y0.1
G0 X-1.25
G1 X-2.916
G1 X-4.901F5000S0
G1 X-5.554F3000S1000
G0 X-1.25
G0 X-0.04Y0.1
G0 X1.25
G1 X5.565
G1 X4.903F5000S0
G1 X2.926F3000S1000
G0 X1.25
G0 X-0.021Y0.1
G0 X-1.25
G1 X-2.932
G1 X-4.904F5000S0
G1 X-5.578F3000S1000
G0 X-1.25
G0 X-0.04Y0.1
G0 X1.25
G1 X5.589
G1 X4.906F5000S0
G1 X2.938F3000S1000
G0 X1.25
G0 X-0.021Y0.1
G0 X-1.25
G1 X-2.944
G1 X-4.908F5000S0
G1 X-5.601F3000S1000
G0 X-1.25
G0 X-0.04Y0.1
G0 X1.25
G1 X5.613
G1 X4.909F5000S0
G1 X2.949F3000S1000
G0 X1.25
G0 X-0.021Y0.1
G0 X-1.25
G1 X-2.964
G1 X-4.902F5000S0
G1 X-5.624F3000S1000
G0 X-1.25
G0 X-0.035Y0.1
G0 X1.25
G1 X5.632
G1 X4.893F5000S0
G1 X2.979F3000S1000
G0 X1.25
G0 X-0.028Y0.1
G0 X-1.25
G1 X-2.987
G1 X-4.881F5000S0
G1 X-5.642F3000S1000
G0 X-1.25
G0 X-0.033Y0.1
G0 X1.25
G1 X5.651
G1 X4.868F5000S0
G1 X2.997F3000S1000
G0 X1.25
G0 X-0.028Y0.1
G0 X-1.25
G1 X-3.005
G1 X-4.856F5000S0
G1 X-5.661F3000S1000
G0 X-1.25
G0 X-0.034Y0.1
G0 X1.25
G1 X5.671
G1 X4.844F5000S0
G1 X3.013F3000S1000
G0 X1.25
G0 X-0.027Y0.1
G0 X-1.25
G1 X-3.023
G1 X-4.831F5000S0
G1 X-5.68F3000S1000
G0 X-1.25
G0 X-0.034Y0.1
G0 X1.25
G1 X5.691
G1 X4.812F5000S0
G1 X3.037F3000S1000
G0 X1.25
G0 X-0.032Y0.1
G0 X-1.25
G1 X-3.051
G1 X-4.79F5000S0
G1 X-5.701F3000S1000
G0 X-1.25
G0 X-0.034Y0.1
G0 X1.25
G1 X5.711
G1 X4.768F5000S0
G1 X3.063F3000S1000
G0 X1.25
G0 X-0.035Y0.1
G0 X-1.25
G1 X-3.075
G1 X-4.745F5000S0
G1 X-5.72F3000S1000
G0 X-1.25
G0 X-0.034Y0.1
G0 X1.25
G1 X5.733
G1 X4.72F5000S0
G1 X3.087F3000S1000
G0 X1.25
G0 X-0.034Y0.1
G0 X-1.25
G1 X-3.1
G1 X-4.693F5000S0
G1 X-5.747F3000S1000
G0 X-1.25
G0 X-0.033Y0.1
G0 X1.25
G1 X5.759
G1 X4.668F5000S0
G1 X3.111F3000S1000
G0 X1.25
G0 X-0.037Y0.1
G0 X-1.25
G1 X-3.124
G1 X-4.639F5000S0
G1 X-5.769F3000S1000
G0 X-1.25
G0 X-0.029Y0.1
G0 X1.25
G1 X5.778
G1 X4.601F5000S0
G1 X3.14F3000S1000
G0 X1.25
G0 X-0.041Y0.1
G0 X-1.25
G1 X-3.156
G1 X-4.565F5000S0
G1 X-5.787F3000S1000
G0 X-1.25
G0 X-0.029Y0.1
G0 X1.25
G1 X5.795
G1 X4.529F5000S0
G1 X3.172F3000S1000
G0 X1.25
G0 X-0.041Y0.1
G0 X-1.25
G1 X-3.189
G1 X-4.491F5000S0
G1 X-5.805F3000S1000
G0 X-1.25
G0 X-0.029Y0.1
G0 X1.25
G1 X5.813
G1 X4.455F5000S0
G1 X3.205F3000S1000
G0 X1.25
G0 X-0.045Y0.1
G0 X-1.25
G1 X-3.217
G1 X-4.418F5000S0
G1 X-5.823F3000S1000
G0 X-1.25
G0 X-0.03Y0.1
G0 X1.25
G1 X5.832
G1 X4.376F5000S0
G1 X3.231F3000S1000
G0 X1.25
G0 X-0.048Y0.1
G0 X-1.25
G1 X-3.253
G1 X-4.327F5000S0
G1 X-5.84F3000S1000
G0 X-1.25
G0 X-0.03Y0.1
G0 X1.25
G1 X5.85
G1 X4.278F5000S0
G1 X3.274F3000S1000
G0 X1.25
G0 X-0.049Y0.1
G0 X-1.25
G1 X-3.295
G1 X-4.229F5000S0
G1 X-5.858F3000S1000
G0 X-1.25
G0 X-0.026Y0.1
G0 X1.25
G1 X5.863
G1 X4.181F5000S0
G1 X3.315F3000S1000
G0 X1.25
G0 X-0.051Y0.1
G0 X-1.25
G1 X-3.333
G1 X-4.132F5000S0
G1 X-5.87F3000S1000
G0 X-1.25
G0 X-0.027Y0.1
G0 X1.25
G1 X5.877
G1 X4.082F5000S0
G1 X3.348F3000S1000
G0 X1.25
G0 X-0.054Y0.1
G0 X-1.25
G1 X-3.372
G1 X-4.021F5000S0
G1 X-5.886F3000S1000
G0 X-1.25
G0 X-0.027Y0.1
G0 X1.25
G1 X5.896
G1 X3.959F5000S0
G1 X3.397F3000S1000
G0 X1.25
G0 X-0.054Y0.1
G0 X-1.25
G1 X-3.422
G1 X-3.896F5000S0
G1 X-5.907F3000S1000
G0 X-1.25
G0 X-0.026Y0.1
G0 X1.25
G1 X5.916
G1 X3.834F5000S0
G1 X3.446F3000S1000
G0 X1.25
G0 X-0.054Y0.1
G0 X-1.25
G1 X-3.471
G1 X-3.772F5000S0
G1 X-5.926F3000S1000
G0 X-1.25
G0 X-0.027Y0.1
G0 X1.25
G1 X5.936
G1 X3.711F5000S0
G1 X3.495F3000S1000
G0 X1.25
G0 X-0.055Y0.1
G0 X-1.25
G1 X-3.519
G1 X-3.649F5000S0
G1 X-5.945F3000S1000
G0 X-1.25
G0 X-0.026Y0.1
G0 X1.25
G1 X5.954
G1 X3.587F5000S0
G1 X3.544F3000S1000
G0 X1.25
G0 X-0.062Y0.1
G0 X-1.25
G1 X-3.561
G1 X-3.524F5000S0
G1 X-5.962F3000S1000
G0 X-1.25
G0 X-0.023Y0.1
G0 X1.25
G1 X5.968
G1 X3.462F5000S0
G1 X3.578F3000S1000
G0 X1.25
G0 X-0.063Y0.1
G0 X-1.25
G1 X-3.594
G1 X-3.4F5000S0
G1 X-5.975F3000S1000
G0 X-1.25
G0 X-0.024Y0.1
G0 X1.25
G1 X5.982
G1 X3.337F5000S0
G1 X3.612F3000S1000
G0 X1.25
G0 X-0.062Y0.1
G0 X-1.25
G1 X-3.637
G1 X-3.267F5000S0
G1 X-5.988F3000S1000
G0 X-1.25
G0 X-0.024Y0.1
G0 X1.25
G1 X5.995
G1 X3.197F5000S0
G1 X3.661F3000S1000
G0 X1.25
G0 X-0.062Y0.1
G0 X-1.25
G1 X-3.686
G1 X-3.126F5000S0
G1 X-6.003F3000S1000
G0 X-1.25
G0 X-0.024Y0.1
G0 X1.25
G1 X6.01
G1 X3.056F5000S0
G1 X3.71F3000S1000
G0 X1.25
G0 X-0.062Y0.1
G0 X-1.25
G1 X-3.735
G1 X-2.985F5000S0
G1 X-6.017F3000S1000
G0 X-1.25
G0 X-0.024Y0.1
G0 X1.25
G1 X6.028
G1 X2.911F5000S0
G1 X3.753F3000S1000
G0 X1.25
G0 X-0.071Y0.1
G0 X-1.25
G1 X-3.769
G1 X-2.837F5000S0
G1 X-6.037F3000S1000
G0 X-1.25
G0 X-0.021Y0.1
G0 X1.25
G1 X6.045
G1 X2.763F5000S0
G1 X3.785F3000S1000
G0 X1.25
G0 X-0.071Y0.1
G0 X-1.25
G1 X-3.801
G1 X-2.689F5000S0
G1 X-6.053F3000S1000
G0 X-1.25
G0 X-0.021Y0.1
G0 X1.25
G1 X6.061
G1 X2.615F5000S0
G1 X3.817F3000S1000
G0 X1.25
G0 X-0.071Y0.1
G0 X-1.25
G1 X-3.833
G1 X-2.541F5000S0
G1 X-6.069F3000S1000
G0 X-1.25
G0 X-0.021Y0.1
G0 X1.25
G1 X6.077
G1 X2.459F5000S0
G1 X3.857F3000S1000
G0 X1.25
G0 X-0.071Y0.1
G0 X-1.25
G1 X-3.881
G1 X-2.377F5000S0
G1 X-6.085F3000S1000
G0 X-1.25
G0 X-0.02Y0.1
G0 X1.25
G1 X6.092
G1 X2.294F5000S0
G1 X3.906F3000S1000
G0 X1.25
G0 X-0.079Y0.1
G0 X-1.25
G1 X-3.923
G1 X-2.211F5000S0
G1 X-6.1F3000S1000
G0 X-1.25
G0 X-0.021Y0.1
G0 X1.25
G1 X6.108
G1 X2.128F5000S0
G1 X3.939F3000S1000
G0 X1.25
G0 X-0.081Y0.1
G0 X-1.25
G1 X-3.954
G1 X-2.045F5000S0
G1 X-6.116F3000S1000
G0 X-1.25
G0 X-0.02Y0.1
G0 X1.25
G1 X6.122
G1 X1.964F5000S0
G1 X3.969F3000S1000
G0 X1.25
G0 X-0.081Y0.1
G0 X-1.25
G1 X-3.984
G1 X-1.881F5000S0
G1 X-6.128F3000S1000
G0 X-1.25
G0 X-0.019Y0.1
G0 X1.25
G1 X6.134
G1 X1.798F5000S0
G1 X4F3000S1000
G0 X1.25
G0 X-0.081Y0.1
G0 X-1.25
G1 X-4.015
G1 X-1.715F5000S0
G1 X-6.14F3000S1000
G0 X-1.25
G0 X-0.019Y0.1
G0 X1.25
G1 X6.148
G1 X1.63F5000S0
G1 X4.031F3000S1000
G0 X1.25
G0 X-0.083Y0.1
G0 X-1.25
G1 X-4.053
G1 X-1.535F5000S0
G1 X-6.157F3000S1000
G0 X-1.25
G0 X-0.019Y0.1
G0 X1.25
G1 X6.167
G1 X1.438F5000S0
G1 X4.071F3000S1000
G0 X1.25
G0 X-0.088Y0.1
G0 X-1.25
G1 X-4.088
G1 X-1.342F5000S0
G1 X-6.177F3000S1000
G0 X-1.25
G0 X-0.019Y0.1
G0 X1.25
G1 X6.186
G1 X1.247F5000S0
G1 X4.105F3000S1000
G0 X1.25
G0 X-0.088Y0.1
G0 X-1.25
G1 X-4.123
G1 X-1.15F5000S0
G1 X-6.196F3000S1000
G0 X-1.25
G0 X-0.019Y0.1
G0 X1.25
G1 X6.206
G1 X1.054F5000S0
G1 X4.14F3000S1000
G0 X1.25
G0 X-0.088Y0.1
G0 X-1.25
G1 X-4.158
G1 X-0.958S0
G1 X-6.215S1000
G0 X-1.25
G0 X-0.019Y0.1
G0 X1.25
G1 X6.225
G1 X0.862S0
G1 X4.175S1000
G0 X1.25
G0 X-0.088Y0.1
G0 X-1.25
G1 X-4.192
G1 X-0.767S0
G1 X-6.234S1000
G0 X-1.25
G0 X-0.019Y0.1
G0 X1.25
G1 X6.244
G1 X0.67S0
G1 X4.206S1000
G0 X1.25
G0 X-0.094Y0.1
G0 X-1.25
G1 X-4.221
G1 X-0.57S0
G1 X-6.254S1000
G0 X-1.25
G0 X-0.019Y0.1
G0 X1.25
G1 X6.263
G1 X0.468S0
G1 X4.238S1000
G0 X1.25
G0 X-0.095Y0.1
G0 X-1.25
G1 X-4.254
G1 X-0.366S0
G1 X-6.271S1000
G0 X-1.25
G0 X-0.017Y0.1
G0 X1.25
G1 X6.279
G1 X0.264S0
G1 X4.27S1000
G0 X1.25
G0 X-0.095Y0.1
G0 X-1.25
G1 X-4.287
G1 X-0.162S0
G1 X-6.286S1000
G0 X-1.25
G0 X-0.017Y0.1
G0 X1.25
G1 X6.294
G1 X0.06S0
G1 X4.303S1000
G0 X1.25
G0 X-0.095Y0.1
G0 X-1.25
G1 X-10.579
G0 X-1.25
G0 X-0.017Y0.1
G0 X1.25
G1 X10.501
G0 X1.25
G0 X-0.102Y0.1
G0 X-1.25
G1 X-10.416
G0 X-1.25
G0 X-0.017Y0.1
G0 X1.25
G1 X10.331
G0 X1.25
G0 X-0.102Y0.1
G0 X-1.25
G1 X-10.246
G0 X-1.25
G0 X-0.017Y0.1
G0 X1.25
G1 X10.16
G0 X1.25
G0 X-0.102Y0.1
G0 X-1.25
G1 X-10.075
G0 X-1.25
G0 X-0.017Y0.1
G0 X1.25
G1 X9.99
G0 X1.25
G0 X-0.103Y0.1
G0 X-1.25
G1 X-9.904
G0 X-1.25
G0 X-0.017Y0.1
G0 X1.25
G1 X9.819
G0 X1.25
G0 X-0.108Y0.1
G0 X-1.25
G1 X-9.728
G0 X-1.25
G0 X-0.017Y0.1
G0 X1.25
G1 X9.635
G0 X1.25
G0 X-0.111Y0.1
G0 X-1.25
G1 X-9.539
G0 X-1.25
G0 X-0.015Y0.1
G0 X1.25
G1 X9.444
G0 X1.25
G0 X-0.11Y0.1
G0 X-1.25
G1 X-9.349
G0 X-1.25
G0 X-272.327Y0.1
G0 X1.25
G1 X0.699
G1 X271.613F5000S0
G1 X9.253F3000S1000
G0 X1.25
G0 X14.242Y0.1
G0 X-1.25
G1 X-1.145
G1 X-13.207F5000S0
G1 X-9.158F3000S1000
G1 X-7.838F5000S0
G1 X-1.145F3000S1000
G1 X-37.887F5000S0
G1 X-1.418F3000S1000
G1 X-20.768F5000S0
G1 X-2.197F3000S1000
G1 X-48.674F5000S0
G1 X-1.118F3000S1000
G1 X-32.201F5000S0
G1 X-1.183F3000S1000
G1 X-16.418F5000S0
G1 X-1.145F3000S1000
G1 X-58.698F5000S0
G1 X-1.118F3000S1000
G1 X-38.248F5000S0
G1 X-3.833F3000S1000
G0 X-1.25
G0 X-0.716Y0.1
G0 X1.25
G1 X5.254
G1 X18.135F5000S0
G1 X2.015F3000S1000
G1 X16.94F5000S0
G1 X2.045F3000S1000
G1 X42.935F5000S0
G1 X1.662F3000S1000
G1 X13.175F5000S0
G1 X2.068F3000S1000
G1 X15.277F5000S0
G1 X2.368F3000S1000
G1 X12.366F5000S0
G1 X1.978F3000S1000
G1 X16.889F5000S0
G1 X2.045F3000S1000
G1 X47.334F5000S0
G1 X3.906F3000S1000
G1 X19.386F5000S0
G1 X2.636F3000S1000
G1 X11.266F5000S0
G1 X1.796F3000S1000
G1 X23.695F5000S0
G1 X2.067F3000S1000
G1 X7.352F5000S0
G1 X9.063F3000S1000
G1 X12.865F5000S0
G1 X2.068F3000S1000
G0 X1.25
G0 X0.356Y0.1
G0 X-1.25
G1 X-2.721
G1 X-12.68F5000S0
G1 X-8.966F3000S1000
G1 X-6.981F5000S0
G1 X-2.721F3000S1000
G1 X-22.882F5000S0
G1 X-2.822F3000S1000
G1 X-10.298F5000S0
G1 X-3.449F3000S1000
G1 X-18.501F5000S0
G1 X-5.001F3000S1000
G1 X-46.412F5000S0
G1 X-2.689F3000S1000
G1 X-16.084F5000S0
G1 X-3.033F3000S1000
G1 X-11.495F5000S0
G1 X-3.141F3000S1000
G1 X-14.481F5000S0
G1 X-2.721F3000S1000
G1 X-12.462F5000S0
G1 X-2.508F3000S1000
G1 X-42.149F5000S0
G1 X-2.689F3000S1000
G1 X-16.097F5000S0
G1 X-3.085F3000S1000
G1 X-17.093F5000S0
G1 X-6.317F3000S1000
G0 X-1.25
G0 X-0.43Y0.1
G0 X1.25
G1 X7.183
G1 X16.287F5000S0
G1 X3.868F3000S1000
G1 X15.434F5000S0
G1 X3.165F3000S1000
G1 X9.019F5000S0
G1 X0.692F3000S1000
G1 X31.898F5000S0
G1 X3.104F3000S1000
G1 X11.944F5000S0
G1 X3.183F3000S1000
G1 X13.958F5000S0
G1 X3.701F3000S1000
G1 X10.835F5000S0
G1 X3.816F3000S1000
G1 X15.448F5000S0
G1 X3.165F3000S1000
G1 X45.728F5000S0
G1 X5.874F3000S1000
G1 X17.783F5000S0
G1 X4.101F3000S1000
G1 X9.593F5000S0
G1 X3.53F3000S1000
G1 X22.294F5000S0
G1 X3.183F3000S1000
G1 X6.74F5000S0
G1 X8.87F3000S1000
G1 X12.555F5000S0
G1 X3.183F3000S1000
G0 X1.25
G0 X0.226Y0.1
G0 X-1.25
G1 X-3.62
G1 X-12.455F5000S0
G1 X-8.774F3000S1000
G1 X-6.499F5000S0
G1 X-3.62F3000S1000
G1 X-21.796F5000S0
G1 X-4.11F3000S1000
G1 X-9.001F5000S0
G1 X-4.645F3000S1000
G1 X-17.179F5000S0
G1 X-6.631F3000S1000
G1 X-45.105F5000S0
G1 X-3.581F3000S1000
G1 X-14.943F5000S0
G1 X-4.436F3000S1000
G1 X-10.302F5000S0
G1 X-4.225F3000S1000
G1 X-13.436F5000S0
G1 X-3.619F3000S1000
G1 X-11.498F5000S0
G1 X-3.584F3000S1000
G1 X-31.315F5000S0
G1 X-1.346F3000S1000
G1 X-8.478F5000S0
G1 X-3.581F3000S1000
G1 X-14.953F5000S0
G1 X-4.464F3000S1000
G1 X-15.582F5000S0
G1 X-7.986F3000S1000
G0 X-1.25
G0 X-0.334Y0.1
G0 X1.25
G1 X8.644
G1 X15.01F5000S0
G1 X5.001F3000S1000
G1 X14.476F5000S0
G1 X3.952F3000S1000
G1 X8.097F5000S0
G1 X1.739F3000S1000
G1 X30.909F5000S0
G1 X4.007F3000S1000
G1 X11.116F5000S0
G1 X3.972F3000S1000
G1 X13.032F5000S0
G1 X4.643F3000S1000
G1 X9.83F5000S0
G1 X4.989F3000S1000
G1 X14.477F5000S0
G1 X3.952F3000S1000
G1 X44.588F5000S0
G1 X7.282F3000S1000
G1 X16.656F5000S0
G1 X5.119F3000S1000
G1 X8.473F5000S0
G1 X4.626F3000S1000
G1 X21.37F5000S0
G1 X3.972F3000S1000
G1 X6.302F5000S0
G1 X8.677F3000S1000
G1 X12.397F5000S0
G1 X3.972F3000S1000
G0 X1.25
G0 X0.158Y0.1
G0 X-1.25
G1 X-4.289
G1 X-12.349F5000S0
G1 X-8.581F3000S1000
G1 X-6.129F5000S0
G1 X-4.289F3000S1000
G1 X-20.989F5000S0
G1 X-5.063F3000S1000
G1 X-8.02F5000S0
G1 X-5.562F3000S1000
G1 X-16.173F5000S0
G1 X-7.884F3000S1000
G1 X-44.107F5000S0
G1 X-4.253F3000S1000
G1 X-14.1F5000S0
G1 X-5.457F3000S1000
G1 X-9.422F5000S0
G1 X-5.029F3000S1000
G1 X-12.662F5000S0
G1 X-4.289F3000S1000
G1 X-10.788F5000S0
G1 X-4.367F3000S1000
G1 X-30.568F5000S0
G1 X-2.037F3000S1000
G1 X-7.791F5000S0
G1 X-4.252F3000S1000
G1 X-14.109F5000S0
G1 X-5.455F3000S1000
G1 X-14.462F5000S0
G1 X-9.284F3000S1000
G0 X-1.25
G0 X-0.298Y0.1
G0 X1.25
G1 X9.851
G1 X13.986F5000S0
G1 X5.879F3000S1000
G1 X13.748F5000S0
G1 X4.554F3000S1000
G1 X7.484F5000S0
G1 X2.311F3000S1000
G1 X30.28F5000S0
G1 X4.697F3000S1000
G1 X10.476F5000S0
G1 X4.592F3000S1000
G1 X12.29F5000S0
G1 X5.406F3000S1000
G1 X9.033F5000S0
G1 X5.902F3000S1000
G1 X13.738F5000S0
G1 X4.554F3000S1000
G1 X43.674F5000S0
G1 X8.425F3000S1000
G1 X15.737F5000S0
G1 X5.947F3000S1000
G1 X7.6F5000S0
G1 X5.468F3000S1000
G1 X20.643F5000S0
G1 X4.592F3000S1000
G1 X5.957F5000S0
G1 X8.485F3000S1000
G1 X12.314F5000S0
G1 X4.592F3000S1000
G0 X1.25
G0 X0.139Y0.1
G0 X-1.25
G1 X-4.854
G1 X-12.303F5000S0
G1 X-8.388F3000S1000
G1 X-5.803F5000S0
G1 X-4.855F3000S1000
G1 X-20.333F5000S0
G1 X-5.834F3000S1000
G1 X-7.209F5000S0
G1 X-6.298F3000S1000
G1 X-15.364F5000S0
G1 X-8.931F3000S1000
G1 X-43.262F5000S0
G1 X-4.824F3000S1000
G1 X-13.411F5000S0
G1 X-6.272F3000S1000
G1 X-8.717F5000S0
G1 X-5.714F3000S1000
G1 X-11.985F5000S0
G1 X-4.855F3000S1000
G1 X-10.215F5000S0
G1 X-4.99F3000S1000
G1 X-30.034F5000S0
G1 X-2.538F3000S1000
G1 X-7.208F5000S0
G1 X-4.824F3000S1000
G1 X-13.407F5000S0
G1 X-6.27F3000S1000
G1 X-13.537F5000S0
G1 X-10.385F3000S1000
G0 X-1.25
G0 X-0.266Y0.1
G0 X1.25
G1 X10.889
G1 X13.119F5000S0
G1 X6.62F3000S1000
G1 X13.126F5000S0
G1 X5.05F3000S1000
G1 X6.99F5000S0
G1 X2.729F3000S1000
G1 X29.807F5000S0
G1 X5.263F3000S1000
G1 X9.958F5000S0
G1 X5.093F3000S1000
G1 X11.707F5000S0
G1 X6.014F3000S1000
G1 X8.405F5000S0
G1 X6.633F3000S1000
G1 X13.114F5000S0
G1 X5.05F3000S1000
G1 X42.905F5000S0
G1 X9.401F3000S1000
G1 X14.997F5000S0
G1 X6.615F3000S1000
G1 X6.856F5000S0
G1 X6.178F3000S1000
G1 X20.041F5000S0
G1 X5.094F3000S1000
G1 X5.672F5000S0
G1 X8.292F3000S1000
G1 X12.29F5000S0
G1 X5.094F3000S1000
G0 X1.25
G0 X0.115Y0.1
G0 X-1.25
G1 X-5.318
G1 X-12.292F5000S0
G1 X-8.196F3000S1000
G1 X-5.542F5000S0
G1 X-5.318F3000S1000
G1 X-19.776F5000S0
G1 X-6.481F3000S1000
G1 X-6.532F5000S0
G1 X-6.932F3000S1000
G1 X-14.653F5000S0
G1 X-9.834F3000S1000
G1 X-42.56F5000S0
G1 X-5.277F3000S1000
G1 X-12.837F5000S0
G1 X-6.95F3000S1000
G1 X-8.131F5000S0
G1 X-6.3F3000S1000
G1 X-11.428F5000S0
G1 X-5.318F3000S1000
G1 X-9.727F5000S0
G1 X-5.513F3000S1000
G1 X-29.619F5000S0
G1 X-2.893F3000S1000
G1 X-6.77F5000S0
G1 X-5.276F3000S1000
G1 X-12.845F5000S0
G1 X-6.949F3000S1000
G1 X-12.733F5000S0
G1 X-11.36F3000S1000
G0 X-1.25
G0 X-0.225Y0.1
G0 X1.25
G1 X11.811
G1 X12.362F5000S0
G1 X7.265F3000S1000
G1 X12.568F5000S0
G1 X5.497F3000S1000
G1 X6.551F5000S0
G1 X3.058F3000S1000
G1 X29.434F5000S0
G1 X5.746F3000S1000
G1 X9.524F5000S0
G1 X5.527F3000S1000
G1 X11.159F5000S0
G1 X6.57F3000S1000
G1 X7.863F5000S0
G1 X7.268F3000S1000
G1 X12.566F5000S0
G1 X5.497F3000S1000
G1 X42.216F5000S0
G1 X10.255F3000S1000
G1 X14.332F5000S0
G1 X7.232F3000S1000
G1 X6.214F5000S0
G1 X6.781F3000S1000
G1 X19.53F5000S0
G1 X5.526F3000S1000
G1 X5.412F5000S0
G1 X8.099F3000S1000
G1 X12.311F5000S0
G1 X5.526F3000S1000
G0 X1.25
G0 X0.104Y0.1
G0 X-1.25
G1 X-5.724
G1 X-12.328F5000S0
G1 X-8.002F3000S1000
G1 X-5.294F5000S0
G1 X-5.724F3000S1000
G1 X-19.298F5000S0
G1 X-7.061F3000S1000
G1 X-5.923F5000S0
G1 X-7.495F3000S1000
G1 X-14.04F5000S0
G1 X-10.646F3000S1000
G1 X-41.899F5000S0
G1 X-5.687F3000S1000
G1 X-12.336F5000S0
G1 X-7.552F3000S1000
G1 X-7.61F5000S0
G1 X-6.81F3000S1000
G1 X-10.928F5000S0
G1 X-5.725F3000S1000
G1 X-9.32F5000S0
G1 X-5.953F3000S1000
G1 X-29.243F5000S0
G1 X-3.243F3000S1000
G1 X-6.356F5000S0
G1 X-5.687F3000S1000
G1 X-12.34F5000S0
G1 X-7.553F3000S1000
G1 X-12.02F5000S0
G1 X-12.232F3000S1000
G0 X-1.25
G0 X-0.217Y0.1
G0 X1.25
G1 X12.646
G1 X11.687F5000S0
G1 X7.827F3000S1000
G1 X12.117F5000S0
G1 X5.865F3000S1000
G1 X6.19F5000S0
G1 X3.33F3000S1000
G1 X29.131F5000S0
G1 X6.147F3000S1000
G1 X9.131F5000S0
G1 X5.91F3000S1000
G1 X10.708F5000S0
G1 X7.04F3000S1000
G1 X7.376F5000S0
G1 X7.827F3000S1000
G1 X12.108F5000S0
G1 X5.865F3000S1000
G1 X41.617F5000S0
G1 X10.999F3000S1000
G1 X13.762F5000S0
G1 X7.758F3000S1000
G1 X5.642F5000S0
G1 X7.33F3000S1000
G1 X19.067F5000S0
G1 X5.911F3000S1000
G1 X5.188F5000S0
G1 X7.904F3000S1000
G1 X12.345F5000S0
G1 X5.911F3000S1000
G0 X1.25
G0 X0.092Y0.1
G0 X-1.25
G1 X-6.097
G1 X-12.364F5000S0
G1 X-7.804F3000S1000
G1 X-5.082F5000S0
G1 X-6.098F3000S1000
G1 X-18.835F5000S0
G1 X-7.6F3000S1000
G1 X-5.361F5000S0
G1 X-8.021F3000S1000
G1 X-13.486F5000S0
G1 X-11.35F3000S1000
G1 X-41.335F5000S0
G1 X-6.044F3000S1000
G1 X-11.886F5000S0
G1 X-8.095F3000S1000
G1 X-7.142F5000S0
G1 X-7.269F3000S1000
G1 X-10.488F5000S0
G1 X-6.097F3000S1000
G1 X-8.945F5000S0
G1 X-6.336F3000S1000
G1 X-29.003F5000S0
G1 X-3.433F3000S1000
G1 X-6.025F5000S0
G1 X-6.043F3000S1000
G1 X-11.895F5000S0
G1 X-8.083F3000S1000
G1 X-11.372F5000S0
G1 X-13.036F3000S1000
G0 X-1.25
G0 X-0.193Y0.1
G0 X1.25
G1 X13.4
G1 X11.082F5000S0
G1 X8.34F3000S1000
G1 X11.671F5000S0
G1 X6.222F3000S1000
G1 X5.859F5000S0
G1 X3.524F3000S1000
G1 X28.888F5000S0
G1 X6.526F3000S1000
G1 X8.763F5000S0
G1 X6.279F3000S1000
G1 X10.267F5000S0
G1 X7.499F3000S1000
G1 X6.924F5000S0
G1 X8.335F3000S1000
G1 X11.677F5000S0
G1 X6.222F3000S1000
G1 X41.054F5000S0
G1 X11.68F3000S1000
G1 X13.23F5000S0
G1 X8.269F3000S1000
G1 X5.099F5000S0
G1 X7.855F3000S1000
G1 X18.62F5000S0
G1 X6.278F3000S1000
G1 X4.977F5000S0
G1 X7.703F3000S1000
G1 X12.39F5000S0
G1 X6.278F3000S1000
G0 X1.25
G0 X0.093Y0.1
G0 X-1.25
G1 X-6.45
G1 X-12.425F5000S0
G1 X-7.602F3000S1000
G1 X-4.871F5000S0
G1 X-6.451F3000S1000
G1 X-18.415F5000S0
G1 X-8.099F3000S1000
G1 X-4.847F5000S0
G1 X-8.501F3000S1000
G1 X-12.989F5000S0
G1 X-11.994F3000S1000
G1 X-40.789F5000S0
G1 X-6.4F3000S1000
G1 X-11.468F5000S0
G1 X-8.575F3000S1000
G1 X-6.706F5000S0
G1 X-7.705F3000S1000
G1 X-10.071F5000S0
G1 X-6.45F3000S1000
G1 X-8.591F5000S0
G1 X-6.713F3000S1000
G1 X-28.776F5000S0
G1 X-3.615F3000S1000
G1 X-5.693F5000S0
G1 X-6.4F3000S1000
G1 X-11.474F5000S0
G1 X-8.571F3000S1000
G1 X-10.791F5000S0
G1 X-13.766F3000S1000
G0 X-1.25
G0 X-0.179Y0.1
G0 X1.25
G1 X14.117
G1 X10.515F5000S0
G1 X8.787F3000S1000
G1 X11.282F5000S0
G1 X6.573F3000S1000
G1 X5.549F5000S0
G1 X3.687F3000S1000
G1 X28.678F5000S0
G1 X6.882F3000S1000
G1 X8.42F5000S0
G1 X6.622F3000S1000
G1 X9.876F5000S0
G1 X7.909F3000S1000
G1 X6.489F5000S0
G1 X8.805F3000S1000
G1 X11.273F5000S0
G1 X6.573F3000S1000
G1 X40.537F5000S0
G1 X12.287F3000S1000
G1 X12.761F5000S0
G1 X8.728F3000S1000
G1 X4.595F5000S0
G1 X8.344F3000S1000
G1 X18.21F5000S0
G1 X6.622F3000S1000
G1 X4.766F5000S0
G1 X7.5F3000S1000
G1 X12.46F5000S0
G1 X6.622F3000S1000
G0 X1.25
G0 X0.093Y0.1
G0 X-1.25
G1 X-6.794
G1 X-12.495F5000S0
G1 X-7.399F3000S1000
G1 X-4.66F5000S0
G1 X-6.794F3000S1000
G1 X-18.009F5000S0
G1 X-8.584F3000S1000
G1 X-4.344F5000S0
G1 X-8.954F3000S1000
G1 X-12.545F5000S0
G1 X-12.568F3000S1000
G1 X-40.286F5000S0
G1 X-6.739F3000S1000
G1 X-11.091F5000S0
G1 X-9.016F3000S1000
G1 X-6.285F5000S0
G1 X-8.112F3000S1000
G1 X-9.682F5000S0
G1 X-6.794F3000S1000
G1 X-8.248F5000S0
G1 X-7.052F3000S1000
G1 X-28.58F5000S0
G1 X-3.757F3000S1000
G1 X-5.407F5000S0
G1 X-6.739F3000S1000
G1 X-11.097F5000S0
G1 X-8.992F3000S1000
G1 X-10.264F5000S0
G1 X-14.439F3000S1000
G0 X-1.25
G0 X-0.163Y0.1
G0 X1.25
G1 X14.753
G1 X10.02F5000S0
G1 X9.197F3000S1000
G1 X10.913F5000S0
G1 X6.893F3000S1000
G1 X5.276F5000S0
G1 X3.828F3000S1000
G1 X28.481F5000S0
G1 X7.22F3000S1000
G1 X8.077F5000S0
G1 X6.955F3000S1000
G1 X9.5F5000S0
G1 X8.306F3000S1000
G1 X6.091F5000S0
G1 X9.225F3000S1000
G1 X10.911F5000S0
G1 X6.893F3000S1000
G1 X40.045F5000S0
G1 X12.85F3000S1000
G1 X12.328F5000S0
G1 X9.181F3000S1000
G1 X4.104F5000S0
G1 X8.805F3000S1000
G1 X17.816F5000S0
G1 X6.954F3000S1000
G1 X4.566F5000S0
G1 X7.298F3000S1000
G1 X12.53F5000S0
G1 X6.954F3000S1000
G0 X1.25
G0 X0.079Y0.1
G0 X-1.25
G1 X-7.112
G1 X-12.566F5000S0
G1 X-7.196F3000S1000
G1 X-4.474F5000S0
G1 X-7.112F3000S1000
G1 X-17.623F5000S0
G1 X-9.026F3000S1000
G1 X-3.864F5000S0
G1 X-9.407F3000S1000
G1 X-12.12F5000S0
G1 X-13.118F3000S1000
G1 X-39.812F5000S0
G1 X-7.045F3000S1000
G1 X-10.737F5000S0
G1 X-9.429F3000S1000
G1 X-5.901F5000S0
G1 X-8.495F3000S1000
G1 X-9.32F5000S0
G1 X-7.113F3000S1000
G1 X-7.92F5000S0
G1 X-7.374F3000S1000
G1 X-28.384F5000S0
G1 X-3.897F3000S1000
G1 X-5.148F5000S0
G1 X-7.045F3000S1000
G1 X-10.736F5000S0
G1 X-9.395F3000S1000
G1 X-9.776F5000S0
G1 X-15.068F3000S1000
G0 X-1.25
G0 X-0.164Y0.1
G0 X1.25
G1 X15.383
G1 X9.532F5000S0
G1 X9.585F3000S1000
G1 X10.567F5000S0
G1 X7.197F3000S1000
G1 X5.019F5000S0
G1 X3.967F3000S1000
G1 X28.286F5000S0
G1 X7.53F3000S1000
G1 X7.773F5000S0
G1 X7.26F3000S1000
G1 X9.153F5000S0
G1 X8.67F3000S1000
G1 X5.725F5000S0
G1 X9.615F3000S1000
G1 X10.567F5000S0
G1 X7.198F3000S1000
G1 X39.597F5000S0
G1 X13.361F3000S1000
G1 X11.928F5000S0
G1 X9.608F3000S1000
G1 X3.639F5000S0
G1 X9.249F3000S1000
G1 X17.439F5000S0
G1 X7.26F3000S1000
G1 X4.382F5000S0
G1 X7.095F3000S1000
G1 X12.611F5000S0
G1 X7.26F3000S1000
G0 X1.25
G0 X0.079Y0.1
G0 X-1.25
G1 X-7.405
G1 X-12.659F5000S0
G1 X-6.994F3000S1000
G1 X-4.29F5000S0
G1 X-7.405F3000S1000
G1 X-17.265F5000S0
G1 X-9.457F3000S1000
G1 X-3.424F5000S0
G1 X-9.8F3000S1000
G1 X-11.743F5000S0
G1 X-13.604F3000S1000
G1 X-39.382F5000S0
G1 X-7.35F3000S1000
G1 X-10.397F5000S0
G1 X-9.803F3000S1000
G1 X-5.547F5000S0
G1 X-8.843F3000S1000
G1 X-8.99F5000S0
G1 X-7.405F3000S1000
G1 X-7.627F5000S0
G1 X-7.676F3000S1000
G1 X-28.197F5000S0
G1 X-4.026F3000S1000
G1 X-4.902F5000S0
G1 X-7.35F3000S1000
G1 X-10.397F5000S0
G1 X-9.775F3000S1000
G1 X-9.304F5000S0
G1 X-15.664F3000S1000
G0 X-1.25
G0 X-0.143Y0.1
G0 X1.25
G1 X15.94
G1 X9.078F5000S0
G1 X9.965F3000S1000
G1 X10.231F5000S0
G1 X7.499F3000S1000
G1 X4.786F5000S0
G1 X4.083F3000S1000
G1 X28.116F5000S0
G1 X7.815F3000S1000
G1 X7.482F5000S0
G1 X7.55F3000S1000
G1 X8.826F5000S0
G1 X9.015F3000S1000
G1 X5.371F5000S0
G1 X9.989F3000S1000
G1 X10.231F5000S0
G1 X7.498F3000S1000
G1 X39.168F5000S0
G1 X13.841F3000S1000
G1 X11.565F5000S0
G1 X9.991F3000S1000
G1 X3.212F5000S0
G1 X9.659F3000S1000
G1 X17.093F5000S0
G1 X7.551F3000S1000
G1 X4.198F5000S0
G1 X6.892F3000S1000
G1 X12.707F5000S0
G1 X7.551F3000S1000
G0 X1.25
G0 X0.079Y0.1
G0 X-1.25
G1 X-7.696
G1 X-12.755F5000S0
G1 X-6.791F3000S1000
G1 X-4.106F5000S0
G1 X-7.696F3000S1000
G1 X-16.923F5000S0
G1 X-9.859F3000S1000
G1 X-3.001F5000S0
G1 X-10.183F3000S1000
G1 X-11.393F5000S0
G1 X-14.071F3000S1000
G1 X-38.953F5000S0
G1 X-7.639F3000S1000
G1 X-10.073F5000S0
G1 X-10.167F3000S1000
G1 X-5.202F5000S0
G1 X-9.189F3000S1000
G1 X-8.661F5000S0
G1 X-7.696F3000S1000
G1 X-7.336F5000S0
G1 X-7.953F3000S1000
G1 X-28.036F5000S0
G1 X-4.139F3000S1000
G1 X-4.672F5000S0
G1 X-7.639F3000S1000
G1 X-10.073F5000S0
G1 X-10.146F3000S1000
G1 X-8.86F5000S0
G1 X-16.216F3000S1000
G0 X-1.25
G0 X-0.142Y0.1
G0 X1.25
G1 X16.492
G1 X8.651F5000S0
G1 X10.318F3000S1000
G1 X9.916F5000S0
G1 X7.779F3000S1000
G1 X4.557F5000S0
G1 X4.196F3000S1000
G1 X27.954F5000S0
G1 X8.092F3000S1000
G1 X7.191F5000S0
G1 X7.841F3000S1000
G1 X8.497F5000S0
G1 X9.361F3000S1000
G1 X5.036F5000S0
G1 X10.343F3000S1000
G1 X9.916F5000S0
G1 X7.779F3000S1000
G1 X38.745F5000S0
G1 X14.293F3000S1000
G1 X11.223F5000S0
G1 X10.374F3000S1000
G1 X2.789F5000S0
G1 X10.06F3000S1000
G1 X16.752F5000S0
G1 X7.841F3000S1000
G1 X4.015F5000S0
G1 X6.69F3000S1000
G1 X12.803F5000S0
G1 X7.84F3000S1000
G0 X1.25
G0 X0.071Y0.1
G0 X-1.25
G1 X-7.978
G1 X-12.851F5000S0
G1 X-6.588F3000S1000
G1 X-3.931F5000S0
G1 X-7.978F3000S1000
G1 X-16.587F5000S0
G1 X-10.246F3000S1000
G1 X-2.587F5000S0
G1 X-10.566F3000S1000
G1 X-11.053F5000S0
G1 X-14.501F3000S1000
G1 X-38.558F5000S0
G1 X-7.912F3000S1000
G1 X-9.763F5000S0
G1 X-10.514F3000S1000
G1 X-4.875F5000S0
G1 X-9.528F3000S1000
G1 X-8.342F5000S0
G1 X-7.977F3000S1000
G1 X-7.047F5000S0
G1 X-8.23F3000S1000
G1 X-27.873F5000S0
G1 X-4.25F3000S1000
G1 X-4.452F5000S0
G1 X-7.912F3000S1000
G1 X-9.763F5000S0
G1 X-10.486F3000S1000
G1 X-8.456F5000S0
G1 X-16.753F3000S1000
G0 X-1.25
G0 X-0.131Y0.1
G0 X1.25
G1 X9.023
G1 X1.344F5000S0
G1 X6.635F3000S1000
G1 X8.263F5000S0
G1 X10.65F3000S1000
G1 X9.613F5000S0
G1 X8.041F3000S1000
G1 X4.355F5000S0
G1 X4.3F3000S1000
G1 X27.792F5000S0
G1 X8.357F3000S1000
G1 X6.924F5000S0
G1 X8.1F3000S1000
G1 X8.189F5000S0
G1 X9.689F3000S1000
G1 X4.725F5000S0
G1 X10.678F3000S1000
G1 X9.613F5000S0
G1 X8.041F3000S1000
G1 X38.374F5000S0
G1 X14.7F3000S1000
G1 X10.904F5000S0
G1 X10.742F3000S1000
G1 X2.39F5000S0
G1 X10.428F3000S1000
G1 X16.437F5000S0
G1 X8.099F3000S1000
G1 X3.852F5000S0
G1 X6.592F3000S1000
G1 X12.805F5000S0
G1 X8.099F3000S1000
G0 X1.25
G0 X0.067Y0.1
G0 X-1.25
G1 X-3.438
G1 X-0.493S0
G1 X-4.29S1000
G1 X-12.688F5000S0
G1 X-6.667F3000S1000
G1 X-3.772F5000S0
G1 X-3.449F3000S1000
G1 X-0.498S0
G1 X-4.274S1000
G1 X-16.286F5000S0
G1 X-10.611F3000S1000
G1 X-2.203F5000S0
G1 X-10.906F3000S1000
G1 X-10.757F5000S0
G1 X-9.391F3000S1000
G1 X-1.165F5000S0
G1 X-4.343F3000S1000
G1 X-38.19F5000S0
G1 X-3.452F3000S1000
G1 X-0.492S0
G1 X-4.225S1000
G1 X-9.464F5000S0
G1 X-2.997F3000S1000
G1 X-0.593S0
G1 X-7.246S1000
G1 X-4.582F5000S0
G1 X-4.13F3000S1000
G1 X-0.708S0
G1 X-5.01S1000
G1 X-8.037F5000S0
G1 X-3.439F3000S1000
G1 X-0.492S0
G1 X-4.291S1000
G1 X-6.802F5000S0
G1 X-8.474F3000S1000
G1 X-27.72F5000S0
G1 X-4.351F3000S1000
G1 X-4.258F5000S0
G1 X-3.452F3000S1000
G1 X-0.492S0
G1 X-4.225S1000
G1 X-9.464F5000S0
G1 X-2.996F3000S1000
G1 X-0.594S0
G1 X-7.224S1000
G1 X-8.07F5000S0
G1 X-5.946F3000S1000
G1 X-2.989F5000S0
G1 X-8.309F3000S1000
G0 X-1.25
G0 X-0.124Y0.1
G0 X1.25
G1 X7.928
G1 X4.001F5000S0
G1 X5.557F3000S1000
G1 X7.877F5000S0
G1 X7.045F3000S1000
G1 X1.109F5000S0
G1 X2.824F3000S1000
G1 X9.314F5000S0
G1 X4.097F3000S1000
G1 X0.879S0
G1 X3.322S1000
G1 X4.161F5000S0
G1 X4.401F3000S1000
G1 X27.654F5000S0
G1 X4.998F3000S1000
G1 X0.486S0
G1 X3.101S1000
G1 X6.681F5000S0
G1 X4.157F3000S1000
G1 X0.887S0
G1 X3.299S1000
G1 X7.886F5000S0
G1 X4.856F3000S1000
G1 X1.204F5000S0
G1 X3.948F3000S1000
G1 X4.439F5000S0
G1 X7.06F3000S1000
G1 X1.108F5000S0
G1 X2.825F3000S1000
G1 X9.314F5000S0
G1 X4.097F3000S1000
G1 X0.879S0
G1 X3.322S1000
G1 X38.007F5000S0
G1 X3.958F3000S1000
G1 X2.119F5000S0
G1 X9.019F3000S1000
G1 X10.61F5000S0
G1 X4.997F3000S1000
G1 X1.196F5000S0
G1 X4.877F3000S1000
G1 X2.019F5000S0
G1 X4.933F3000S1000
G1 X1.119F5000S0
G1 X4.739F3000S1000
G1 X16.136F5000S0
G1 X4.15F3000S1000
G1 X0.892S0
G1 X3.301S1000
G1 X3.694F5000S0
G1 X6.796F3000S1000
G1 X12.515F5000S0
G1 X4.156F3000S1000
G1 X0.888S0
G1 X3.299S1000
G0 X1.25
G0 X0.066Y0.1
G0 X-1.25
G1 X-3.221
G1 X-1.143F5000S0
G1 X-4.1F3000S1000
G1 X-12.342F5000S0
G1 X-6.925F3000S1000
G1 X-3.617F5000S0
G1 X-3.205F3000S1000
G1 X-1.16F5000S0
G1 X-4.099F3000S1000
G1 X-15.99F5000S0
G1 X-4.51F3000S1000
G1 X-1.68F5000S0
G1 X-4.771F3000S1000
G1 X-1.84F5000S0
G1 X-4.677F3000S1000
G1 X-1.76F5000S0
G1 X-4.798F3000S1000
G1 X-10.468F5000S0
G1 X-8.763F3000S1000
G1 X-2.792F5000S0
G1 X-3.733F3000S1000
G1 X-37.824F5000S0
G1 X-3.24F3000S1000
G1 X-1.139F5000S0
G1 X-4.039F3000S1000
G1 X-9.173F5000S0
G1 X-2.72F3000S1000
G1 X-1.483F5000S0
G1 X-6.948F3000S1000
G1 X-4.295F5000S0
G1 X-3.819F3000S1000
G1 X-1.567F5000S0
G1 X-4.769F3000S1000
G1 X-7.747F5000S0
G1 X-3.221F3000S1000
G1 X-1.143F5000S0
G1 X-4.101F3000S1000
G1 X-6.559F5000S0
G1 X-3.012F3000S1000
G1 X-0.741S0
G1 X-4.944S1000
G1 X-27.587F5000S0
G1 X-4.453F3000S1000
G1 X-4.062F5000S0
G1 X-3.241F3000S1000
G1 X-1.139F5000S0
G1 X-4.039F3000S1000
G1 X-9.173F5000S0
G1 X-2.72F3000S1000
G1 X-1.483F5000S0
G1 X-6.94F3000S1000
G1 X-7.683F5000S0
G1 X-5.28F3000S1000
G1 X-4.8F5000S0
G1 X-7.649F3000S1000
G0 X-1.25
G0 X-0.124Y0.1
G0 X1.25
G1 X7.441
G1 X5.472F5000S0
G1 X5.058F3000S1000
G1 X7.49F5000S0
G1 X6.892F3000S1000
G1 X1.746F5000S0
G1 X2.669F3000S1000
G1 X9.034F5000S0
G1 X4.009F3000S1000
G1 X1.341F5000S0
G1 X3.187F3000S1000
G1 X3.97F5000S0
G1 X4.498F3000S1000
G1 X27.521F5000S0
G1 X4.93F3000S1000
G1 X0.912S0
G1 X2.967S1000
G1 X6.437F5000S0
G1 X4.076F3000S1000
G1 X1.344F5000S0
G1 X3.167F3000S1000
G1 X7.607F5000S0
G1 X4.72F3000S1000
G1 X1.855F5000S0
G1 X3.728F3000S1000
G1 X4.157F5000S0
G1 X6.888F3000S1000
G1 X1.746F5000S0
G1 X2.669F3000S1000
G1 X9.034F5000S0
G1 X4.009F3000S1000
G1 X1.341F5000S0
G1 X3.186F3000S1000
G1 X37.656F5000S0
G1 X3.572F3000S1000
G1 X3.311F5000S0
G1 X8.577F3000S1000
G1 X10.332F5000S0
G1 X4.676F3000S1000
G1 X2.19F5000S0
G1 X4.533F3000S1000
G1 X1.662F5000S0
G1 X4.668F3000S1000
G1 X2.09F5000S0
G1 X4.368F3000S1000
G1 X15.848F5000S0
G1 X4.076F3000S1000
G1 X1.351F5000S0
G1 X3.159F3000S1000
G1 X3.539F5000S0
G1 X7.054F3000S1000
G1 X12.169F5000S0
G1 X4.076F3000S1000
G1 X1.344F5000S0
G1 X3.166F3000S1000
G0 X1.25
G0 X0.067Y0.1
G0 X-1.25
G1 X-3.128
G1 X-1.518F5000S0
G1 X-4.062F3000S1000
G1 X-11.996F5000S0
G1 X-7.184F3000S1000
G1 X-3.46F5000S0
G1 X-3.122F3000S1000
G1 X-1.524F5000S0
G1 X-4.062F3000S1000
G1 X-15.706F5000S0
G1 X-4.261F3000S1000
G1 X-2.432F5000S0
G1 X-4.599F3000S1000
G1 X-1.484F5000S0
G1 X-4.412F3000S1000
G1 X-2.557F5000S0
G1 X-4.594F3000S1000
G1 X-10.195F5000S0
G1 X-8.403F3000S1000
G1 X-3.777F5000S0
G1 X-3.451F3000S1000
G1 X-37.488F5000S0
G1 X-3.147F3000S1000
G1 X-1.518F5000S0
G1 X-3.99F3000S1000
G1 X-8.9F5000S0
G1 X-2.626F3000S1000
G1 X-1.988F5000S0
G1 X-6.835F3000S1000
G1 X-4.02F5000S0
G1 X-3.66F3000S1000
G1 X-2.093F5000S0
G1 X-4.697F3000S1000
G1 X-7.468F5000S0
G1 X-3.128F3000S1000
G1 X-1.518F5000S0
G1 X-4.063F3000S1000
G1 X-6.315F5000S0
G1 X-2.946F3000S1000
G1 X-1.04F5000S0
G1 X-4.935F3000S1000
G1 X-27.455F5000S0
G1 X-4.542F3000S1000
G1 X-3.879F5000S0
G1 X-3.147F3000S1000
G1 X-1.517F5000S0
G1 X-3.991F3000S1000
G1 X-8.899F5000S0
G1 X-2.627F3000S1000
G1 X-1.988F5000S0
G1 X-6.839F3000S1000
G1 X-7.31F5000S0
G1 X-4.876F3000S1000
G1 X-6.066F5000S0
G1 X-7.271F3000S1000
G0 X-1.25
G0 X-0.109Y0.1
G0 X1.25
G1 X7.105
G1 X6.602F5000S0
G1 X4.724F3000S1000
G1 X7.14F5000S0
G1 X6.816F3000S1000
G1 X2.174F5000S0
G1 X2.606F3000S1000
G1 X8.768F5000S0
G1 X3.974F3000S1000
G1 X1.677F5000S0
G1 X3.12F3000S1000
G1 X3.789F5000S0
G1 X4.588F3000S1000
G1 X27.388F5000S0
G1 X4.94F3000S1000
G1 X1.158F5000S0
G1 X2.934F3000S1000
G1 X6.202F5000S0
G1 X4.043F3000S1000
G1 X1.67F5000S0
G1 X3.107F3000S1000
G1 X7.331F5000S0
G1 X4.691F3000S1000
G1 X2.297F5000S0
G1 X3.609F3000S1000
G1 X3.885F5000S0
G1 X6.812F3000S1000
G1 X2.174F5000S0
G1 X2.606F3000S1000
G1 X8.768F5000S0
G1 X3.974F3000S1000
G1 X1.676F5000S0
G1 X3.121F3000S1000
G1 X37.322F5000S0
G1 X3.352F3000S1000
G1 X4.168F5000S0
G1 X8.283F3000S1000
G1 X10.059F5000S0
G1 X4.538F3000S1000
G1 X2.855F5000S0
G1 X4.334F3000S1000
G1 X1.308F5000S0
G1 X4.559F3000S1000
G1 X2.732F5000S0
G1 X4.164F3000S1000
G1 X15.572F5000S0
G1 X4.043F3000S1000
G1 X1.671F5000S0
G1 X3.106F3000S1000
G1 X3.384F5000S0
G1 X7.313F3000S1000
G1 X11.831F5000S0
G1 X4.043F3000S1000
G1 X1.669F5000S0
G1 X3.108F3000S1000
G0 X1.25
G0 X0.055Y0.1
G0 X-1.25
G1 X-3.083
G1 X-1.804F5000S0
G1 X-4.033F3000S1000
G1 X-11.668F5000S0
G1 X-7.442F3000S1000
G1 X-3.317F5000S0
G1 X-3.084F3000S1000
G1 X-1.804F5000S0
G1 X-4.033F3000S1000
G1 X-15.441F5000S0
G1 X-4.095F3000S1000
G1 X-2.996F5000S0
G1 X-4.52F3000S1000
G1 X-1.141F5000S0
G1 X-4.26F3000S1000
G1 X-3.119F5000S0
G1 X-4.51F3000S1000
G1 X-9.931F5000S0
G1 X-8.155F3000S1000
G1 X-4.532F5000S0
G1 X-3.278F3000S1000
G1 X-37.165F5000S0
G1 X-3.094F3000S1000
G1 X-1.815F5000S0
G1 X-3.97F3000S1000
G1 X-8.636F5000S0
G1 X-2.59F3000S1000
G1 X-2.356F5000S0
G1 X-6.789F3000S1000
G1 X-3.759F5000S0
G1 X-3.558F3000S1000
G1 X-2.488F5000S0
G1 X-4.688F3000S1000
G1 X-7.203F5000S0
G1 X-3.083F3000S1000
G1 X-1.804F5000S0
G1 X-4.033F3000S1000
G1 X-6.096F5000S0
G1 X-2.924F3000S1000
G1 X-1.265F5000S0
G1 X-4.948F3000S1000
G1 X-27.324F5000S0
G1 X-4.633F3000S1000
G1 X-3.707F5000S0
G1 X-3.094F3000S1000
G1 X-1.815F5000S0
G1 X-3.97F3000S1000
G1 X-8.636F5000S0
G1 X-2.589F3000S1000
G1 X-2.357F5000S0
G1 X-6.792F3000S1000
G1 X-6.975F5000S0
G1 X-4.577F3000S1000
G1 X-7.061F5000S0
G1 X-7.007F3000S1000
G0 X-1.25
G0 X-0.109Y0.1
G0 X1.25
G1 X6.915
G1 X7.48F5000S0
G1 X4.463F3000S1000
G1 X6.811F5000S0
G1 X6.786F3000S1000
G1 X2.509F5000S0
G1 X2.585F3000S1000
G1 X8.504F5000S0
G1 X3.966F3000S1000
G1 X1.939F5000S0
G1 X3.082F3000S1000
G1 X3.628F5000S0
G1 X4.675F3000S1000
G1 X27.267F5000S0
G1 X4.955F3000S1000
G1 X1.367F5000S0
G1 X2.907F3000S1000
G1 X5.995F5000S0
G1 X4.024F3000S1000
G1 X1.929F5000S0
G1 X3.068F3000S1000
G1 X7.074F5000S0
G1 X4.686F3000S1000
G1 X2.659F5000S0
G1 X3.525F3000S1000
G1 X3.635F5000S0
G1 X6.784F3000S1000
G1 X2.509F5000S0
G1 X2.584F3000S1000
G1 X8.505F5000S0
G1 X3.966F3000S1000
G1 X1.939F5000S0
G1 X3.081F3000S1000
G1 X37.008F5000S0
G1 X3.222F3000S1000
G1 X4.855F5000S0
G1 X8.051F3000S1000
G1 X9.81F5000S0
G1 X4.474F3000S1000
G1 X3.362F5000S0
G1 X4.197F3000S1000
G1 X0.984S0
G1 X4.502S1000
G1 X3.239F5000S0
G1 X4.02F3000S1000
G1 X15.317F5000S0
G1 X4.024F3000S1000
G1 X1.929F5000S0
G1 X3.068F3000S1000
G1 X3.251F5000S0
G1 X7.57F3000S1000
G1 X11.506F5000S0
G1 X4.024F3000S1000
G1 X1.929F5000S0
G1 X3.068F3000S1000
G0 X1.25
G0 X0.056Y0.1
G0 X-1.25
G1 X-3.053
G1 X-2.049F5000S0
G1 X-4.02F3000S1000
G1 X-11.343F5000S0
G1 X-7.699F3000S1000
G1 X-3.184F5000S0
G1 X-3.053F3000S1000
G1 X-2.049F5000S0
G1 X-4.02F3000S1000
G1 X-15.193F5000S0
G1 X-3.96F3000S1000
G1 X-3.463F5000S0
G1 X-4.487F3000S1000
G1 X-0.827S0
G1 X-4.147S1000
G1 X-3.58F5000S0
G1 X-4.448F3000S1000
G1 X-9.693F5000S0
G1 X-7.959F3000S1000
G1 X-5.161F5000S0
G1 X-3.165F3000S1000
G1 X-36.855F5000S0
G1 X-3.069F3000S1000
G1 X-2.059F5000S0
G1 X-3.966F3000S1000
G1 X-8.373F5000S0
G1 X-2.579F3000S1000
G1 X-2.661F5000S0
G1 X-6.777F3000S1000
G1 X-3.513F5000S0
G1 X-3.493F3000S1000
G1 X-2.824F5000S0
G1 X-4.689F3000S1000
G1 X-6.946F5000S0
G1 X-3.053F3000S1000
G1 X-2.05F5000S0
G1 X-4.019F3000S1000
G1 X-5.895F5000S0
G1 X-2.894F3000S1000
G1 X-1.465F5000S0
G1 X-4.961F3000S1000
G1 X-27.209F5000S0
G1 X-4.715F3000S1000
G1 X-3.553F5000S0
G1 X-3.069F3000S1000
G1 X-2.059F5000S0
G1 X-3.966F3000S1000
G1 X-8.373F5000S0
G1 X-2.579F3000S1000
G1 X-2.66F5000S0
G1 X-6.782F3000S1000
G1 X-6.646F5000S0
G1 X-4.352F3000S1000
G1 X-7.885F5000S0
G1 X-6.835F3000S1000
G0 X-1.25
G0 X-0.109Y0.1
G0 X1.25
G1 X6.779
G1 X8.243F5000S0
G1 X4.264F3000S1000
G1 X6.481F5000S0
G1 X6.778F3000S1000
G1 X2.811F5000S0
G1 X2.574F3000S1000
G1 X8.249F5000S0
G1 X3.967F3000S1000
G1 X2.163F5000S0
G1 X3.064F3000S1000
G1 X3.477F5000S0
G1 X4.754F3000S1000
G1 X27.152F5000S0
G1 X4.973F3000S1000
G1 X1.553F5000S0
G1 X2.886F3000S1000
G1 X5.794F5000S0
G1 X4.023F3000S1000
G1 X2.162F5000S0
G1 X3.038F3000S1000
G1 X6.817F5000S0
G1 X4.699F3000S1000
G1 X2.973F5000S0
G1 X3.47F3000S1000
G1 X3.395F5000S0
G1 X6.768F3000S1000
G1 X2.811F5000S0
G1 X2.575F3000S1000
G1 X8.249F5000S0
G1 X3.967F3000S1000
G1 X2.163F5000S0
G1 X3.063F3000S1000
G1 X36.712F5000S0
G1 X3.125F3000S1000
G1 X5.44F5000S0
G1 X7.869F3000S1000
G1 X9.575F5000S0
G1 X4.429F3000S1000
G1 X3.79F5000S0
G1 X4.097F3000S1000
G1 X0.671S0
G1 X4.473S1000
G1 X3.673F5000S0
G1 X3.913F3000S1000
G1 X15.069F5000S0
G1 X4.023F3000S1000
G1 X2.162F5000S0
G1 X3.038F3000S1000
G1 X3.117F5000S0
G1 X7.825F3000S1000
G1 X11.183F5000S0
G1 X4.023F3000S1000
G1 X2.163F5000S0
G1 X3.037F3000S1000
G0 X1.25
G0 X0.056Y0.1
G0 X-1.25
G1 X-3.022
G1 X-2.275F5000S0
G1 X-4.027F3000S1000
G1 X-11.024F5000S0
G1 X-7.95F3000S1000
G1 X-3.05F5000S0
G1 X-3.022F3000S1000
G1 X-2.275F5000S0
G1 X-4.027F3000S1000
G1 X-14.945F5000S0
G1 X-3.867F3000S1000
G1 X-3.883F5000S0
G1 X-4.454F3000S1000
G1 X-0.519S0
G1 X-4.068S1000
G1 X-3.98F5000S0
G1 X-4.409F3000S1000
G1 X-9.467F5000S0
G1 X-7.794F3000S1000
G1 X-5.694F5000S0
G1 X-3.084F3000S1000
G1 X-36.569F5000S0
G1 X-3.058F3000S1000
G1 X-2.268F5000S0
G1 X-3.965F3000S1000
G1 X-8.13F5000S0
G1 X-2.568F3000S1000
G1 X-2.961F5000S0
G1 X-6.759F3000S1000
G1 X-3.276F5000S0
G1 X-3.453F3000S1000
G1 X-3.117F5000S0
G1 X-4.708F3000S1000
G1 X-6.69F5000S0
G1 X-3.022F3000S1000
G1 X-2.275F5000S0
G1 X-4.026F3000S1000
G1 X-5.693F5000S0
G1 X-2.877F3000S1000
G1 X-1.637F5000S0
G1 X-4.99F3000S1000
G1 X-27.095F5000S0
G1 X-4.793F3000S1000
G1 X-3.402F5000S0
G1 X-3.058F3000S1000
G1 X-2.267F5000S0
G1 X-3.966F3000S1000
G1 X-8.13F5000S0
G1 X-2.568F3000S1000
G1 X-2.96F5000S0
G1 X-6.774F3000S1000
G1 X-6.316F5000S0
G1 X-4.182F3000S1000
G1 X-8.596F5000S0
G1 X-6.723F3000S1000
G0 X-1.25
G0 X-0.096Y0.1
G0 X1.25
G1 X6.664
G1 X8.924F5000S0
G1 X4.114F3000S1000
G1 X6.151F5000S0
G1 X6.77F3000S1000
G1 X3.102F5000S0
G1 X2.565F3000S1000
G1 X8.014F5000S0
G1 X3.971F3000S1000
G1 X2.367F5000S0
G1 X3.052F3000S1000
G1 X3.326F5000S0
G1 X4.833F3000S1000
G1 X27.037F5000S0
G1 X5.008F3000S1000
G1 X1.716F5000S0
G1 X2.872F3000S1000
G1 X5.592F5000S0
G1 X4.036F3000S1000
G1 X2.38F5000S0
G1 X3.008F3000S1000
G1 X6.569F5000S0
G1 X4.711F3000S1000
G1 X3.26F5000S0
G1 X3.435F3000S1000
G1 X3.158F5000S0
G1 X6.75F3000S1000
G1 X3.102F5000S0
G1 X2.566F3000S1000
G1 X8.014F5000S0
G1 X3.971F3000S1000
G1 X2.366F5000S0
G1 X3.053F3000S1000
G1 X36.425F5000S0
G1 X3.05F3000S1000
G1 X5.939F5000S0
G1 X7.723F3000S1000
G1 X9.358F5000S0
G1 X4.399F3000S1000
G1 X4.161F5000S0
G1 X4.039F3000S1000
G1 X0.366S0
G1 X4.445S1000
G1 X4.075F5000S0
G1 X3.825F3000S1000
G1 X14.825F5000S0
G1 X4.036F3000S1000
G1 X2.381F5000S0
G1 X3.007F3000S1000
G1 X2.984F5000S0
G1 X8.075F3000S1000
G1 X10.865F5000S0
G1 X4.036F3000S1000
G1 X2.381F5000S0
G1 X3.007F3000S1000
G0 X1.25
G0 X0.056Y0.1
G0 X-1.25
G1 X-3.005
G1 X-2.469F5000S0
G1 X-4.051F3000S1000
G1 X-10.705F5000S0
G1 X-8.201F3000S1000
G1 X-2.917F5000S0
G1 X-3.005F3000S1000
G1 X-2.469F5000S0
G1 X-4.051F3000S1000
G1 X-14.708F5000S0
G1 X-3.795F3000S1000
G1 X-4.25F5000S0
G1 X-4.438F3000S1000
G1 X-0.214S0
G1 X-4.01S1000
G1 X-4.335F5000S0
G1 X-4.395F3000S1000
G1 X-9.249F5000S0
G1 X-7.651F3000S1000
G1 X-6.171F5000S0
G1 X-3.03F3000S1000
G1 X-36.282F5000S0
G1 X-3.046F3000S1000
G1 X-2.46F5000S0
G1 X-3.982F3000S1000
G1 X-7.899F5000S0
G1 X-2.562F3000S1000
G1 X-3.241F5000S0
G1 X-6.744F3000S1000
G1 X-3.039F5000S0
G1 X-3.418F3000S1000
G1 X-3.393F5000S0
G1 X-4.72F3000S1000
G1 X-6.452F5000S0
G1 X-3.006F3000S1000
G1 X-2.468F5000S0
G1 X-4.051F3000S1000
G1 X-5.491F5000S0
G1 X-2.871F3000S1000
G1 X-1.788F5000S0
G1 X-5.029F3000S1000
G1 X-26.98F5000S0
G1 X-4.871F3000S1000
G1 X-3.251F5000S0
G1 X-3.047F3000S1000
G1 X-2.46F5000S0
G1 X-3.982F3000S1000
G1 X-7.898F5000S0
G1 X-2.563F3000S1000
G1 X-3.241F5000S0
G1 X-6.76F3000S1000
G1 X-5.994F5000S0
G1 X-4.067F3000S1000
G1 X-9.215F5000S0
G1 X-6.621F3000S1000
G0 X-1.25
G0 X-0.096Y0.1
G0 X1.25
G1 X6.579
G1 X9.504F5000S0
G1 X4.009F3000S1000
G1 X5.854F5000S0
G1 X6.755F3000S1000
G1 X3.37F5000S0
G1 X2.56F3000S1000
G1 X7.783F5000S0
G1 X3.993F3000S1000
G1 X2.553F5000S0
G1 X3.04F3000S1000
G1 X3.178F5000S0
G1 X4.908F3000S1000
G1 X26.924F5000S0
G1 X5.056F3000S1000
G1 X1.853F5000S0
G1 X2.87F3000S1000
G1 X5.391F5000S0
G1 X4.066F3000S1000
G1 X2.556F5000S0
G1 X3.002F3000S1000
G1 X6.337F5000S0
G1 X4.729F3000S1000
G1 X3.526F5000S0
G1 X3.4F3000S1000
G1 X2.922F5000S0
G1 X6.746F3000S1000
G1 X3.37F5000S0
G1 X2.56F3000S1000
G1 X7.783F5000S0
G1 X3.993F3000S1000
G1 X2.553F5000S0
G1 X3.039F3000S1000
G1 X36.141F5000S0
G1 X3.009F3000S1000
G1 X6.385F5000S0
G1 X7.596F3000S1000
G1 X9.141F5000S0
G1 X4.391F3000S1000
G1 X4.51F5000S0
G1 X3.98F3000S1000
G1 X0.062S0
G1 X4.431S1000
G1 X4.426F5000S0
G1 X3.764F3000S1000
G1 X14.591F5000S0
G1 X4.066F3000S1000
G1 X2.556F5000S0
G1 X3.003F3000S1000
G1 X2.851F5000S0
G1 X8.326F3000S1000
G1 X10.546F5000S0
G1 X4.067F3000S1000
G1 X2.555F5000S0
G1 X3.002F3000S1000
G0 X1.25
G0 X0.05Y0.1
G0 X-1.25
G1 X-2.994
G1 X-2.641F5000S0
G1 X-4.084F3000S1000
G1 X-10.387F5000S0
G1 X-8.451F3000S1000
G1 X-2.791F5000S0
G1 X-2.994F3000S1000
G1 X-2.641F5000S0
G1 X-4.084F3000S1000
G1 X-14.474F5000S0
G1 X-3.733F3000S1000
G1 X-4.602F5000S0
G1 X-8.285F3000S1000
G1 X-4.68F5000S0
G1 X-4.391F3000S1000
G1 X-9.04F5000S0
G1 X-7.539F3000S1000
G1 X-6.594F5000S0
G1 X-2.988F3000S1000
G1 X-36.004F5000S0
G1 X-3.033F3000S1000
G1 X-2.638F5000S0
G1 X-4.007F3000S1000
G1 X-7.667F5000S0
G1 X-2.558F3000S1000
G1 X-3.499F5000S0
G1 X-6.743F3000S1000
G1 X-2.816F5000S0
G1 X-3.376F3000S1000
G1 X-3.66F5000S0
G1 X-4.738F3000S1000
G1 X-6.225F5000S0
G1 X-2.994F3000S1000
G1 X-2.641F5000S0
G1 X-4.084F3000S1000
G1 X-5.293F5000S0
G1 X-2.867F3000S1000
G1 X-1.917F5000S0
G1 X-5.084F3000S1000
G1 X-26.869F5000S0
G1 X-4.943F3000S1000
G1 X-3.111F5000S0
G1 X-3.033F3000S1000
G1 X-2.638F5000S0
G1 X-4.006F3000S1000
G1 X-7.668F5000S0
G1 X-2.557F3000S1000
G1 X-3.5F5000S0
G1 X-6.75F3000S1000
G1 X-5.714F5000S0
G1 X-3.95F3000S1000
G1 X-9.794F5000S0
G1 X-6.537F3000S1000
G0 X-1.25
G0 X-0.096Y0.1
G0 X1.25
G1 X6.516
G1 X10.062F5000S0
G1 X3.892F3000S1000
G1 X5.574F5000S0
G1 X6.745F3000S1000
G1 X3.623F5000S0
G1 X2.561F3000S1000
G1 X7.552F5000S0
G1 X4.023F3000S1000
G1 X2.719F5000S0
G1 X3.027F3000S1000
G1 X3.044F5000S0
G1 X4.978F3000S1000
G1 X26.817F5000S0
G1 X5.11F3000S1000
G1 X1.973F5000S0
G1 X2.868F3000S1000
G1 X5.198F5000S0
G1 X4.105F3000S1000
G1 X2.723F5000S0
G1 X2.986F3000S1000
G1 X6.114F5000S0
G1 X4.752F3000S1000
G1 X3.788F5000S0
G1 X3.351F3000S1000
G1 X2.712F5000S0
G1 X6.738F3000S1000
G1 X3.623F5000S0
G1 X2.561F3000S1000
G1 X7.553F5000S0
G1 X4.023F3000S1000
G1 X2.719F5000S0
G1 X3.027F3000S1000
G1 X35.88F5000S0
G1 X2.966F3000S1000
G1 X6.793F5000S0
G1 X7.48F3000S1000
G1 X8.942F5000S0
G1 X4.4F3000S1000
G1 X4.84F5000S0
G1 X8.101F3000S1000
G1 X4.76F5000S0
G1 X3.715F3000S1000
G1 X14.357F5000S0
G1 X4.105F3000S1000
G1 X2.723F5000S0
G1 X2.986F3000S1000
G1 X2.73F5000S0
G1 X8.577F3000S1000
G1 X10.228F5000S0
G1 X4.104F3000S1000
G1 X2.723F5000S0
G1 X2.986F3000S1000
G0 X1.25
G0 X0.05Y0.1
G0 X-1.25
G1 X-2.978
G1 X-2.805F5000S0
G1 X-4.125F3000S1000
G1 X-10.069F5000S0
G1 X-8.702F3000S1000
G1 X-2.669F5000S0
G1 X-2.978F3000S1000
G1 X-2.805F5000S0
G1 X-4.125F3000S1000
G1 X-14.247F5000S0
G1 X-3.692F3000S1000
G1 X-4.911F5000S0
G1 X-7.932F3000S1000
G1 X-4.992F5000S0
G1 X-4.401F3000S1000
G1 X-8.85F5000S0
G1 X-7.428F3000S1000
G1 X-6.985F5000S0
G1 X-2.945F3000S1000
G1 X-35.756F5000S0
G1 X-3.021F3000S1000
G1 X-2.801F5000S0
G1 X-4.039F3000S1000
G1 X-7.437F5000S0
G1 X-2.567F3000S1000
G1 X-3.744F5000S0
G1 X-6.735F3000S1000
G1 X-2.606F5000S0
G1 X-3.337F3000S1000
G1 X-3.901F5000S0
G1 X-4.771F3000S1000
G1 X-6.003F5000S0
G1 X-2.978F3000S1000
G1 X-2.806F5000S0
G1 X-4.125F3000S1000
G1 X-5.103F5000S0
G1 X-2.868F3000S1000
G1 X-2.027F5000S0
G1 X-5.136F3000S1000
G1 X-26.768F5000S0
G1 X-5.014F3000S1000
G1 X-2.975F5000S0
G1 X-3.021F3000S1000
G1 X-2.802F5000S0
G1 X-4.039F3000S1000
G1 X-7.437F5000S0
G1 X-2.567F3000S1000
G1 X-3.744F5000S0
G1 X-6.738F3000S1000
G1 X-5.434F5000S0
G1 X-3.834F3000S1000
G1 X-10.331F5000S0
G1 X-6.494F3000S1000
G0 X-1.25
G0 X-0.091Y0.1
G0 X1.25
G1 X6.468
G1 X10.576F5000S0
G1 X3.799F3000S1000
G1 X5.294F5000S0
G1 X6.733F3000S1000
G1 X3.865F5000S0
G1 X2.568F3000S1000
G1 X7.326F5000S0
G1 X4.056F3000S1000
G1 X2.883F5000S0
G1 X3.015F3000S1000
G1 X2.908F5000S0
G1 X5.049F3000S1000
G1 X26.72F5000S0
G1 X5.162F3000S1000
G1 X2.079F5000S0
G1 X2.868F3000S1000
G1 X5.012F5000S0
G1 X4.143F3000S1000
G1 X2.883F5000S0
G1 X2.974F3000S1000
G1 X5.893F5000S0
G1 X4.79F3000S1000
G1 X4.013F5000S0
G1 X3.323F3000S1000
G1 X2.501F5000S0
G1 X6.732F3000S1000
G1 X3.865F5000S0
G1 X2.568F3000S1000
G1 X7.326F5000S0
G1 X4.056F3000S1000
G1 X2.883F5000S0
G1 X3.015F3000S1000
G1 X35.63F5000S0
G1 X2.926F3000S1000
G1 X7.163F5000S0
G1 X7.388F3000S1000
G1 X8.759F5000S0
G1 X4.403F3000S1000
G1 X5.136F5000S0
G1 X7.77F3000S1000
G1 X5.061F5000S0
G1 X3.671F3000S1000
G1 X14.138F5000S0
G1 X4.142F3000S1000
G1 X2.883F5000S0
G1 X2.975F3000S1000
G1 X2.609F5000S0
G1 X8.825F3000S1000
G1 X9.914F5000S0
G1 X4.142F3000S1000
G1 X2.884F5000S0
G1 X2.974F3000S1000
G0 X1.25
G0 X0.049Y0.1
G0 X-1.25
G1 X-2.972
G1 X-2.959F5000S0
G1 X-4.155F3000S1000
G1 X-9.767F5000S0
G1 X-8.944F3000S1000
G1 X-2.551F5000S0
G1 X-2.974F3000S1000
G1 X-2.957F5000S0
G1 X-4.155F3000S1000
G1 X-14.035F5000S0
G1 X-3.648F3000S1000
G1 X-5.212F5000S0
G1 X-7.609F3000S1000
G1 X-5.275F5000S0
G1 X-4.409F3000S1000
G1 X-8.674F5000S0
G1 X-7.341F3000S1000
G1 X-7.339F5000S0
G1 X-2.909F3000S1000
G1 X-35.506F5000S0
G1 X-3.009F3000S1000
G1 X-2.964F5000S0
G1 X-4.073F3000S1000
G1 X-7.217F5000S0
G1 X-2.567F3000S1000
G1 X-3.983F5000S0
G1 X-6.732F3000S1000
G1 X-2.396F5000S0
G1 X-3.309F3000S1000
G1 X-4.126F5000S0
G1 X-4.808F3000S1000
G1 X-5.782F5000S0
G1 X-2.974F3000S1000
G1 X-2.958F5000S0
G1 X-4.155F3000S1000
G1 X-4.925F5000S0
G1 X-2.872F3000S1000
G1 X-2.128F5000S0
G1 X-5.188F3000S1000
G1 X-26.672F5000S0
G1 X-5.085F3000S1000
G1 X-2.84F5000S0
G1 X-3.009F3000S1000
G1 X-2.964F5000S0
G1 X-4.073F3000S1000
G1 X-7.217F5000S0
G1 X-2.567F3000S1000
G1 X-3.983F5000S0
G1 X-6.731F3000S1000
G1 X-5.154F5000S0
G1 X-3.765F3000S1000
G1 X-10.816F5000S0
G1 X-6.439F3000S1000
G0 X-1.25
G0 X-0.084Y0.1
G0 X1.25
G1 X6.424
G1 X11.042F5000S0
G1 X3.731F3000S1000
G1 X5.014F5000S0
G1 X6.737F3000S1000
G1 X4.091F5000S0
G1 X2.568F3000S1000
G1 X7.109F5000S0
G1 X4.088F3000S1000
G1 X3.043F5000S0
G1 X3.006F3000S1000
G1 X2.773F5000S0
G1 X5.119F3000S1000
G1 X26.624F5000S0
G1 X5.214F3000S1000
G1 X2.178F5000S0
G1 X2.876F3000S1000
G1 X4.838F5000S0
G1 X4.168F3000S1000
G1 X3.032F5000S0
G1 X2.974F3000S1000
G1 X5.67F5000S0
G1 X4.832F3000S1000
G1 X4.233F5000S0
G1 X3.297F3000S1000
G1 X2.294F5000S0
G1 X6.735F3000S1000
G1 X4.092F5000S0
G1 X2.568F3000S1000
G1 X7.109F5000S0
G1 X4.088F3000S1000
