; LightBurn 1.3.01
; GRBL device profile, absolute coords
; Bounds: X10 Y10 to X106.7 Y152.41
G00 G17 G40 G21 G54
G90
M4
; Cut @ 600 mm/min, 100% power
M8
G0 X13.299Y10
; Layer Trayectorias_de_corte_1 Pass 1 of 9
G1 X23.699S1000F600
G1 Y13.298
G1 X30.3
G1 Y10
G1 X36.899
G1 Y13.298
G1 X43.5
G1 Y10
G1 X50.099
G1 Y13.298
G1 X56.699
G1 Y10
G1 X63.3
G1 Y13.298
G1 X69.899
G1 Y10
G1 X76.5
G1 Y13.298
G1 X83.099
G1 Y10
G1 X89.699
G1 Y13.298
G1 X96.3
G1 Y10
G1 X106.7
G1 Y152.409
G1 X96.3
G1 Y149.109
G1 X89.699
G1 Y152.409
G1 X83.099
G1 Y149.109
G1 X76.5
G1 Y152.409
G1 X69.899
G1 Y149.109
G1 X63.3
G1 Y152.409
G1 X56.699
G1 Y149.109
G1 X50.1
G1 Y152.409
G1 X43.5
G1 Y149.109
G1 X36.899
G1 Y152.409
G1 X30.3
G1 Y149.109
G1 X23.699
G1 Y152.409
G1 X13.299
G1 Y149.109
G1 Y137.305
G1 X10
G1 Y130.704
G1 X13.299
G1 Y124.105
G1 X10
G1 Y117.504
G1 X13.299
G1 Y110.904
G1 X10
G1 Y104.304
G1 X13.299
G1 Y97.704
G1 X10
G1 Y91.105
G1 X13.299
G1 Y84.504
G1 X10
G1 Y77.904
G1 X13.299
G1 Y71.302
G1 X10
G1 Y64.705
G1 X13.299
G1 Y58.104
G1 X10
G1 Y51.504
G1 X13.299
G1 Y44.904
G1 X10
G1 Y38.303
G1 X13.299
G1 Y31.703
G1 X10
G1 Y25.102
G1 X13.299
G1 Y10
; Layer Trayectorias_de_corte_1 Pass 2 of 9
G1 X23.699
G1 Y13.298
G1 X30.3
G1 Y10
G1 X36.899
G1 Y13.298
G1 X43.5
G1 Y10
G1 X50.099
G1 Y13.298
G1 X56.699
G1 Y10
G1 X63.3
G1 Y13.298
G1 X69.899
G1 Y10
G1 X76.5
G1 Y13.298
G1 X83.099
G1 Y10
G1 X89.699
G1 Y13.298
G1 X96.3
G1 Y10
G1 X106.7
G1 Y152.409
G1 X96.3
G1 Y149.109
G1 X89.699
G1 Y152.409
G1 X83.099
G1 Y149.109
G1 X76.5
G1 Y152.409
G1 X69.899
G1 Y149.109
G1 X63.3
G1 Y152.409
G1 X56.699
G1 Y149.109
G1 X50.1
G1 Y152.409
G1 X43.5
G1 Y149.109
G1 X36.899
G1 Y152.409
G1 X30.3
G1 Y149.109
G1 X23.699
G1 Y152.409
G1 X13.299
G1 Y149.109
G1 Y137.305
G1 X10
G1 Y130.704
G1 X13.299
G1 Y124.105
G1 X10
G1 Y117.504
G1 X13.299
G1 Y110.904
G1 X10
G1 Y104.304
G1 X13.299
G1 Y97.704
G1 X10
G1 Y91.105
G1 X13.299
G1 Y84.504
G1 X10
G1 Y77.904
G1 X13.299
G1 Y71.302
G1 X10
G1 Y64.705
G1 X13.299
G1 Y58.104
G1 X10
G1 Y51.504
G1 X13.299
G1 Y44.904
G1 X10
G1 Y38.303
G1 X13.299
G1 Y31.703
G1 X10
G1 Y25.102
G1 X13.299
G1 Y10
; Layer Trayectorias_de_corte_1 Pass 3 of 9
G1 X23.699
G1 Y13.298
G1 X30.3
G1 Y10
G1 X36.899
G1 Y13.298
G1 X43.5
G1 Y10
G1 X50.099
G1 Y13.298
G1 X56.699
G1 Y10
G1 X63.3
G1 Y13.298
G1 X69.899
G1 Y10
G1 X76.5
G1 Y13.298
G1 X83.099
G1 Y10
G1 X89.699
G1 Y13.298
G1 X96.3
G1 Y10
G1 X106.7
G1 Y152.409
G1 X96.3
G1 Y149.109
G1 X89.699
G1 Y152.409
G1 X83.099
G1 Y149.109
G1 X76.5
G1 Y152.409
G1 X69.899
G1 Y149.109
G1 X63.3
G1 Y152.409
G1 X56.699
G1 Y149.109
G1 X50.1
G1 Y152.409
G1 X43.5
G1 Y149.109
G1 X36.899
G1 Y152.409
G1 X30.3
G1 Y149.109
G1 X23.699
G1 Y152.409
G1 X13.299
G1 Y149.109
G1 Y137.305
G1 X10
G1 Y130.704
G1 X13.299
G1 Y124.105
G1 X10
G1 Y117.504
G1 X13.299
G1 Y110.904
G1 X10
G1 Y104.304
G1 X13.299
G1 Y97.704
G1 X10
G1 Y91.105
G1 X13.299
G1 Y84.504
G1 X10
G1 Y77.904
G1 X13.299
G1 Y71.302
G1 X10
G1 Y64.705
G1 X13.299
G1 Y58.104
G1 X10
G1 Y51.504
G1 X13.299
G1 Y44.904
G1 X10
G1 Y38.303
G1 X13.299
G1 Y31.703
G1 X10
G1 Y25.102
G1 X13.299
G1 Y10
; Layer Trayectorias_de_corte_1 Pass 4 of 9
G1 X23.699
G1 Y13.298
G1 X30.3
G1 Y10
G1 X36.899
G1 Y13.298
G1 X43.5
G1 Y10
G1 X50.099
G1 Y13.298
G1 X56.699
G1 Y10
G1 X63.3
G1 Y13.298
G1 X69.899
G1 Y10
G1 X76.5
G1 Y13.298
G1 X83.099
G1 Y10
G1 X89.699
G1 Y13.298
G1 X96.3
G1 Y10
G1 X106.7
G1 Y152.409
G1 X96.3
G1 Y149.109
G1 X89.699
G1 Y152.409
G1 X83.099
G1 Y149.109
G1 X76.5
G1 Y152.409
G1 X69.899
G1 Y149.109
G1 X63.3
G1 Y152.409
G1 X56.699
G1 Y149.109
G1 X50.1
G1 Y152.409
G1 X43.5
G1 Y149.109
G1 X36.899
G1 Y152.409
G1 X30.3
G1 Y149.109
G1 X23.699
G1 Y152.409
G1 X13.299
G1 Y149.109
G1 Y137.305
G1 X10
G1 Y130.704
G1 X13.299
G1 Y124.105
G1 X10
G1 Y117.504
G1 X13.299
G1 Y110.904
G1 X10
G1 Y104.304
G1 X13.299
G1 Y97.704
G1 X10
G1 Y91.105
G1 X13.299
G1 Y84.504
G1 X10
G1 Y77.904
G1 X13.299
G1 Y71.302
G1 X10
G1 Y64.705
G1 X13.299
G1 Y58.104
G1 X10
G1 Y51.504
G1 X13.299
G1 Y44.904
G1 X10
G1 Y38.303
G1 X13.299
G1 Y31.703
G1 X10
G1 Y25.102
G1 X13.299
G1 Y10
; Layer Trayectorias_de_corte_1 Pass 5 of 9
G1 X23.699
G1 Y13.298
G1 X30.3
G1 Y10
G1 X36.899
G1 Y13.298
G1 X43.5
G1 Y10
G1 X50.099
G1 Y13.298
G1 X56.699
G1 Y10
G1 X63.3
G1 Y13.298
G1 X69.899
G1 Y10
G1 X76.5
G1 Y13.298
G1 X83.099
G1 Y10
G1 X89.699
G1 Y13.298
G1 X96.3
G1 Y10
G1 X106.7
G1 Y152.409
G1 X96.3
G1 Y149.109
G1 X89.699
G1 Y152.409
G1 X83.099
G1 Y149.109
G1 X76.5
G1 Y152.409
G1 X69.899
G1 Y149.109
G1 X63.3
G1 Y152.409
G1 X56.699
G1 Y149.109
G1 X50.1
G1 Y152.409
G1 X43.5
G1 Y149.109
G1 X36.899
G1 Y152.409
G1 X30.3
G1 Y149.109
G1 X23.699
G1 Y152.409
G1 X13.299
G1 Y149.109
G1 Y137.305
G1 X10
G1 Y130.704
G1 X13.299
G1 Y124.105
G1 X10
G1 Y117.504
G1 X13.299
G1 Y110.904
G1 X10
G1 Y104.304
G1 X13.299
G1 Y97.704
G1 X10
G1 Y91.105
G1 X13.299
G1 Y84.504
G1 X10
G1 Y77.904
G1 X13.299
G1 Y71.302
G1 X10
G1 Y64.705
G1 X13.299
G1 Y58.104
G1 X10
G1 Y51.504
G1 X13.299
G1 Y44.904
G1 X10
G1 Y38.303
G1 X13.299
G1 Y31.703
G1 X10
G1 Y25.102
G1 X13.299
G1 Y10
; Layer Trayectorias_de_corte_1 Pass 6 of 9
G1 X23.699
G1 Y13.298
G1 X30.3
G1 Y10
G1 X36.899
G1 Y13.298
G1 X43.5
G1 Y10
G1 X50.099
G1 Y13.298
G1 X56.699
G1 Y10
G1 X63.3
G1 Y13.298
G1 X69.899
G1 Y10
G1 X76.5
G1 Y13.298
G1 X83.099
G1 Y10
G1 X89.699
G1 Y13.298
G1 X96.3
G1 Y10
G1 X106.7
G1 Y152.409
G1 X96.3
G1 Y149.109
G1 X89.699
G1 Y152.409
G1 X83.099
G1 Y149.109
G1 X76.5
G1 Y152.409
G1 X69.899
G1 Y149.109
G1 X63.3
G1 Y152.409
G1 X56.699
G1 Y149.109
G1 X50.1
G1 Y152.409
G1 X43.5
G1 Y149.109
G1 X36.899
G1 Y152.409
G1 X30.3
G1 Y149.109
G1 X23.699
G1 Y152.409
G1 X13.299
G1 Y149.109
G1 Y137.305
G1 X10
G1 Y130.704
G1 X13.299
G1 Y124.105
G1 X10
G1 Y117.504
G1 X13.299
G1 Y110.904
G1 X10
G1 Y104.304
G1 X13.299
G1 Y97.704
G1 X10
G1 Y91.105
G1 X13.299
G1 Y84.504
G1 X10
G1 Y77.904
G1 X13.299
G1 Y71.302
G1 X10
G1 Y64.705
G1 X13.299
G1 Y58.104
G1 X10
G1 Y51.504
G1 X13.299
G1 Y44.904
G1 X10
G1 Y38.303
G1 X13.299
G1 Y31.703
G1 X10
G1 Y25.102
G1 X13.299
G1 Y10
; Layer Trayectorias_de_corte_1 Pass 7 of 9
G1 X23.699
G1 Y13.298
G1 X30.3
G1 Y10
G1 X36.899
G1 Y13.298
G1 X43.5
G1 Y10
G1 X50.099
G1 Y13.298
G1 X56.699
G1 Y10
G1 X63.3
G1 Y13.298
G1 X69.899
G1 Y10
G1 X76.5
G1 Y13.298
G1 X83.099
G1 Y10
G1 X89.699
G1 Y13.298
G1 X96.3
G1 Y10
G1 X106.7
G1 Y152.409
G1 X96.3
G1 Y149.109
G1 X89.699
G1 Y152.409
G1 X83.099
G1 Y149.109
G1 X76.5
G1 Y152.409
G1 X69.899
G1 Y149.109
G1 X63.3
G1 Y152.409
G1 X56.699
G1 Y149.109
G1 X50.1
G1 Y152.409
G1 X43.5
G1 Y149.109
G1 X36.899
G1 Y152.409
G1 X30.3
G1 Y149.109
G1 X23.699
G1 Y152.409
G1 X13.299
G1 Y149.109
G1 Y137.305
G1 X10
G1 Y130.704
G1 X13.299
G1 Y124.105
G1 X10
G1 Y117.504
G1 X13.299
G1 Y110.904
G1 X10
G1 Y104.304
G1 X13.299
G1 Y97.704
G1 X10
G1 Y91.105
G1 X13.299
G1 Y84.504
G1 X10
G1 Y77.904
G1 X13.299
G1 Y71.302
G1 X10
G1 Y64.705
G1 X13.299
G1 Y58.104
G1 X10
G1 Y51.504
G1 X13.299
G1 Y44.904
G1 X10
G1 Y38.303
G1 X13.299
G1 Y31.703
G1 X10
G1 Y25.102
G1 X13.299
G1 Y10
; Layer Trayectorias_de_corte_1 Pass 8 of 9
G1 X23.699
G1 Y13.298
G1 X30.3
G1 Y10
G1 X36.899
G1 Y13.298
G1 X43.5
G1 Y10
G1 X50.099
G1 Y13.298
G1 X56.699
G1 Y10
G1 X63.3
G1 Y13.298
G1 X69.899
G1 Y10
G1 X76.5
G1 Y13.298
G1 X83.099
G1 Y10
G1 X89.699
G1 Y13.298
G1 X96.3
G1 Y10
G1 X106.7
G1 Y152.409
G1 X96.3
G1 Y149.109
G1 X89.699
G1 Y152.409
G1 X83.099
G1 Y149.109
G1 X76.5
G1 Y152.409
G1 X69.899
G1 Y149.109
G1 X63.3
G1 Y152.409
G1 X56.699
G1 Y149.109
G1 X50.1
G1 Y152.409
G1 X43.5
G1 Y149.109
G1 X36.899
G1 Y152.409
G1 X30.3
G1 Y149.109
G1 X23.699
G1 Y152.409
G1 X13.299
G1 Y149.109
G1 Y137.305
G1 X10
G1 Y130.704
G1 X13.299
G1 Y124.105
G1 X10
G1 Y117.504
G1 X13.299
G1 Y110.904
G1 X10
G1 Y104.304
G1 X13.299
G1 Y97.704
G1 X10
G1 Y91.105
G1 X13.299
G1 Y84.504
G1 X10
G1 Y77.904
G1 X13.299
G1 Y71.302
G1 X10
G1 Y64.705
G1 X13.299
G1 Y58.104
G1 X10
G1 Y51.504
G1 X13.299
G1 Y44.904
G1 X10
G1 Y38.303
G1 X13.299
G1 Y31.703
G1 X10
G1 Y25.102
G1 X13.299
G1 Y10
; Layer Trayectorias_de_corte_1 Pass 9 of 9
G1 X23.699
G1 Y13.298
G1 X30.3
G1 Y10
G1 X36.899
G1 Y13.298
G1 X43.5
G1 Y10
G1 X50.099
G1 Y13.298
G1 X56.699
G1 Y10
G1 X63.3
G1 Y13.298
G1 X69.899
G1 Y10
G1 X76.5
G1 Y13.298
G1 X83.099
G1 Y10
G1 X89.699
G1 Y13.298
G1 X96.3
G1 Y10
G1 X106.7
G1 Y152.409
G1 X96.3
G1 Y149.109
G1 X89.699
G1 Y152.409
G1 X83.099
G1 Y149.109
G1 X76.5
G1 Y152.409
G1 X69.899
G1 Y149.109
G1 X63.3
G1 Y152.409
G1 X56.699
G1 Y149.109
G1 X50.1
G1 Y152.409
G1 X43.5
G1 Y149.109
G1 X36.899
G1 Y152.409
G1 X30.3
G1 Y149.109
G1 X23.699
G1 Y152.409
G1 X13.299
G1 Y149.109
G1 Y137.305
G1 X10
G1 Y130.704
G1 X13.299
G1 Y124.105
G1 X10
G1 Y117.504
G1 X13.299
G1 Y110.904
G1 X10
G1 Y104.304
G1 X13.299
G1 Y97.704
G1 X10
G1 Y91.105
G1 X13.299
G1 Y84.504
G1 X10
G1 Y77.904
G1 X13.299
G1 Y71.302
G1 X10
G1 Y64.705
G1 X13.299
G1 Y58.104
G1 X10
G1 Y51.504
G1 X13.299
G1 Y44.904
G1 X10
G1 Y38.303
G1 X13.299
G1 Y31.703
G1 X10
G1 Y25.102
G1 X13.299
G1 Y10
M9
G1 S0
M5
G90
; return to user-defined finish pos
G0 X0 Y0
M2
