; LightBurn 1.3.01
; GRBL device profile, absolute coords
; Bounds: X9 Y443.99 to X777 Y784.65
G00 G17 G40 G21 G54
G90
M4
; Cut @ 600 mm/min, 95% power
M8
G0 X10.069Y508.41
; Layer Corte Pass 1 of 10
G1 X242.38Y508.021S950F600
G1 X243.279Y508.008
G1 X250.308Y507.982
G1 X257.336Y507.995
G1 X258.156Y510.274
G1 X258.26Y510.635
G1 X258.438Y511.727
G1 X258.578Y512.833
G1 X258.678Y513.949
G1 X258.738Y515.073
G1 X258.904Y519.287
G1 X258.992Y523.506
G1 Y527.727
G1 X258.931Y531.948
G1 X258.867Y534.837
G1 X258.742Y537.721
G1 X258.555Y540.596
G1 X258.306Y543.46
G1 X258.213Y544.168
G1 X258.102Y544.869
G1 X256.492Y553.56
G1 X254.839Y562.231
G1 X253.144Y570.882
G1 X251.407Y579.512
G1 X249.629Y588.12
G1 X247.808Y596.706
G1 X245.945Y605.271
G1 X244.041Y613.812
G1 X242.976Y618.377
G1 X241.83Y622.89
G1 X240.604Y627.348
G1 X239.298Y631.747
G1 X238.615Y633.925
G1 X237.913Y636.087
G1 X237.192Y638.233
G1 X236.451Y640.363
G1 X235.691Y642.477
G1 X234.911Y644.574
G1 X234.113Y646.654
G1 X233.296Y648.716
G1 X232.22Y651.286
G1 X231.108Y653.814
G1 X229.962Y656.301
G1 X228.782Y658.744
G1 X227.568Y661.144
G1 X226.32Y663.5
G1 X225.04Y665.81
G1 X223.727Y668.074
G1 X222.383Y670.29
G1 X221.007Y672.459
G1 X219.6Y674.579
G1 X218.163Y676.65
G1 X216.697Y678.67
G1 X215.201Y680.638
G1 X213.676Y682.555
G1 X212.123Y684.418
G1 X210.195Y686.672
G1 X208.236Y688.853
G1 X206.247Y690.961
G1 X204.227Y692.996
G1 X202.177Y694.956
G1 X200.099Y696.841
G1 X197.994Y698.65
G1 X195.861Y700.382
G1 X193.694Y702.003
G1 X191.504Y703.541
G1 X189.291Y704.996
G1 X187.058Y706.366
G1 X184.804Y707.651
G1 X182.531Y708.851
G1 X180.24Y709.965
G1 X177.932Y710.992
G1 X176.182Y711.724
G1 X174.428Y712.425
G1 X172.67Y713.096
G1 X170.907Y713.736
G1 X169.14Y714.346
G1 X167.369Y714.926
G1 X165.595Y715.475
G1 X163.816Y715.994
G1 X162.035Y716.482
G1 X160.25Y716.939
G1 X158.462Y717.365
G1 X156.671Y717.761
G1 X154.876Y718.126
G1 X153.08Y718.46
G1 X151.281Y718.764
G1 X149.479Y719.036
G1 X147.246Y719.286
G1 X145.012Y719.5
G1 X142.777Y719.676
G1 X140.541Y719.816
G1 X138.304Y719.918
G1 X136.066Y719.983
G1 X133.828Y720.011
G1 X131.59
G1 X127.404Y719.974
G1 X123.219Y719.894
G1 X119.034Y719.762
G1 X114.85Y719.58
G1 X113Y719.342
G1 X111.153Y719.064
G1 X109.31Y718.745
G1 X107.47Y718.387
G1 X105.633Y717.988
G1 X103.801Y717.549
G1 X101.972Y717.071
G1 X100.149Y716.553
G1 X98.329Y715.995
G1 X96.515Y715.397
G1 X94.706Y714.76
G1 X92.903Y714.083
G1 X91.105Y713.367
G1 X89.313Y712.611
G1 X87.528Y711.817
G1 X85.749Y710.983
G1 X84.047Y710.141
G1 X82.356Y709.256
G1 X80.674Y708.326
G1 X79.004Y707.352
G1 X77.344Y706.334
G1 X75.696Y705.273
G1 X74.06Y704.169
G1 X72.435Y703.022
G1 X70.823Y701.832
G1 X69.223Y700.6
G1 X67.637Y699.325
G1 X66.064Y698.009
G1 X64.505Y696.651
G1 X62.96Y695.251
G1 X61.429Y693.81
G1 X59.913Y692.328
G1 X57.81Y690.168
G1 X55.749Y687.92
G1 X53.73Y685.586
G1 X51.755Y683.167
G1 X49.824Y680.664
G1 X47.938Y678.081
G1 X46.099Y675.417
G1 X44.307Y672.675
G1 X42.563Y669.856
G1 X40.869Y666.962
G1 X39.226Y663.994
G1 X37.634Y660.954
G1 X36.094Y657.844
G1 X34.608Y654.665
G1 X33.176Y651.419
G1 X31.8Y648.107
G1 X30.854Y645.624
G1 X29.933Y643.119
G1 X29.035Y640.592
G1 X28.163Y638.044
G1 X27.315Y635.476
G1 X26.492Y632.887
G1 X25.694Y630.278
G1 X24.921Y627.65
G1 X23.985Y624.394
G1 X23.071Y621.124
G1 X22.18Y617.839
G1 X21.312Y614.539
G1 X20.466Y611.225
G1 X19.643Y607.898
G1 X18.843Y604.556
G1 X18.066Y601.201
G1 X17.312Y597.834
G1 X16.581Y594.453
G1 X15.873Y591.06
G1 X15.188Y587.655
G1 X14.526Y584.238
G1 X13.888Y580.809
G1 X13.273Y577.369
G1 X12.682Y573.918
G1 X12.161Y570.723
G1 X11.685Y567.511
G1 X11.254Y564.284
G1 X10.867Y561.042
G1 X10.368Y555.852
G1 X9.951Y550.645
G1 X9.615Y545.423
G1 X9.36Y540.188
G1 X9.143Y534.821
G1 X9.023Y529.447
G1 X9.001Y524.071
G1 X9.076Y518.694
G1 X9.133Y516.94
G1 X9.236Y515.193
G1 X9.385Y513.453
G1 X9.58Y511.724
G1 X10.069Y508.41
; Layer Corte Pass 2 of 10
G1 X242.38Y508.021
G1 X243.279Y508.008
G1 X250.308Y507.982
G1 X257.336Y507.995
G1 X258.156Y510.274
G1 X258.26Y510.635
G1 X258.438Y511.727
G1 X258.578Y512.833
G1 X258.678Y513.949
G1 X258.738Y515.073
G1 X258.904Y519.287
G1 X258.992Y523.506
G1 Y527.727
G1 X258.931Y531.948
G1 X258.867Y534.837
G1 X258.742Y537.721
G1 X258.555Y540.596
G1 X258.306Y543.46
G1 X258.213Y544.168
G1 X258.102Y544.869
G1 X256.492Y553.56
G1 X254.839Y562.231
G1 X253.144Y570.882
G1 X251.407Y579.512
G1 X249.629Y588.12
G1 X247.808Y596.706
G1 X245.945Y605.271
G1 X244.041Y613.812
G1 X242.976Y618.377
G1 X241.83Y622.89
G1 X240.604Y627.348
G1 X239.298Y631.747
G1 X238.615Y633.925
G1 X237.913Y636.087
G1 X237.192Y638.233
G1 X236.451Y640.363
G1 X235.691Y642.477
G1 X234.911Y644.574
G1 X234.113Y646.654
G1 X233.296Y648.716
G1 X232.22Y651.286
G1 X231.108Y653.814
G1 X229.962Y656.301
G1 X228.782Y658.744
G1 X227.568Y661.144
G1 X226.32Y663.5
G1 X225.04Y665.81
G1 X223.727Y668.074
G1 X222.383Y670.29
G1 X221.007Y672.459
G1 X219.6Y674.579
G1 X218.163Y676.65
G1 X216.697Y678.67
G1 X215.201Y680.638
G1 X213.676Y682.555
G1 X212.123Y684.418
G1 X210.195Y686.672
G1 X208.236Y688.853
G1 X206.247Y690.961
G1 X204.227Y692.996
G1 X202.177Y694.956
G1 X200.099Y696.841
G1 X197.994Y698.65
G1 X195.861Y700.382
G1 X193.694Y702.003
G1 X191.504Y703.541
G1 X189.291Y704.996
G1 X187.058Y706.366
G1 X184.804Y707.651
G1 X182.531Y708.851
G1 X180.24Y709.965
G1 X177.932Y710.992
G1 X176.182Y711.724
G1 X174.428Y712.425
G1 X172.67Y713.096
G1 X170.907Y713.736
G1 X169.14Y714.346
G1 X167.369Y714.926
G1 X165.595Y715.475
G1 X163.816Y715.994
G1 X162.035Y716.482
G1 X160.25Y716.939
G1 X158.462Y717.365
G1 X156.671Y717.761
G1 X154.876Y718.126
G1 X153.08Y718.46
G1 X151.281Y718.764
G1 X149.479Y719.036
G1 X147.246Y719.286
G1 X145.012Y719.5
G1 X142.777Y719.676
G1 X140.541Y719.816
G1 X138.304Y719.918
G1 X136.066Y719.983
G1 X133.828Y720.011
G1 X131.59
G1 X127.404Y719.974
G1 X123.219Y719.894
G1 X119.034Y719.762
G1 X114.85Y719.58
G1 X113Y719.342
G1 X111.153Y719.064
G1 X109.31Y718.745
G1 X107.47Y718.387
G1 X105.633Y717.988
G1 X103.801Y717.549
G1 X101.972Y717.071
G1 X100.149Y716.553
G1 X98.329Y715.995
G1 X96.515Y715.397
G1 X94.706Y714.76
G1 X92.903Y714.083
G1 X91.105Y713.367
G1 X89.313Y712.611
G1 X87.528Y711.817
G1 X85.749Y710.983
G1 X84.047Y710.141
G1 X82.356Y709.256
G1 X80.674Y708.326
G1 X79.004Y707.352
G1 X77.344Y706.334
G1 X75.696Y705.273
G1 X74.06Y704.169
G1 X72.435Y703.022
G1 X70.823Y701.832
G1 X69.223Y700.6
G1 X67.637Y699.325
G1 X66.064Y698.009
G1 X64.505Y696.651
G1 X62.96Y695.251
G1 X61.429Y693.81
G1 X59.913Y692.328
G1 X57.81Y690.168
G1 X55.749Y687.92
G1 X53.73Y685.586
G1 X51.755Y683.167
G1 X49.824Y680.664
G1 X47.938Y678.081
G1 X46.099Y675.417
G1 X44.307Y672.675
G1 X42.563Y669.856
G1 X40.869Y666.962
G1 X39.226Y663.994
G1 X37.634Y660.954
G1 X36.094Y657.844
G1 X34.608Y654.665
G1 X33.176Y651.419
G1 X31.8Y648.107
G1 X30.854Y645.624
G1 X29.933Y643.119
G1 X29.035Y640.592
G1 X28.163Y638.044
G1 X27.315Y635.476
G1 X26.492Y632.887
G1 X25.694Y630.278
G1 X24.921Y627.65
G1 X23.985Y624.394
G1 X23.071Y621.124
G1 X22.18Y617.839
G1 X21.312Y614.539
G1 X20.466Y611.225
G1 X19.643Y607.898
G1 X18.843Y604.556
G1 X18.066Y601.201
G1 X17.312Y597.834
G1 X16.581Y594.453
G1 X15.873Y591.06
G1 X15.188Y587.655
G1 X14.526Y584.238
G1 X13.888Y580.809
G1 X13.273Y577.369
G1 X12.682Y573.918
G1 X12.161Y570.723
G1 X11.685Y567.511
G1 X11.254Y564.284
G1 X10.867Y561.042
G1 X10.368Y555.852
G1 X9.951Y550.645
G1 X9.615Y545.423
G1 X9.36Y540.188
G1 X9.143Y534.821
G1 X9.023Y529.447
G1 X9.001Y524.071
G1 X9.076Y518.694
G1 X9.133Y516.94
G1 X9.236Y515.193
G1 X9.385Y513.453
G1 X9.58Y511.724
G1 X10.069Y508.41
; Layer Corte Pass 3 of 10
G1 X242.38Y508.021
G1 X243.279Y508.008
G1 X250.308Y507.982
G1 X257.336Y507.995
G1 X258.156Y510.274
G1 X258.26Y510.635
G1 X258.438Y511.727
G1 X258.578Y512.833
G1 X258.678Y513.949
G1 X258.738Y515.073
G1 X258.904Y519.287
G1 X258.992Y523.506
G1 Y527.727
G1 X258.931Y531.948
G1 X258.867Y534.837
G1 X258.742Y537.721
G1 X258.555Y540.596
G1 X258.306Y543.46
G1 X258.213Y544.168
G1 X258.102Y544.869
G1 X256.492Y553.56
G1 X254.839Y562.231
G1 X253.144Y570.882
G1 X251.407Y579.512
G1 X249.629Y588.12
G1 X247.808Y596.706
G1 X245.945Y605.271
G1 X244.041Y613.812
G1 X242.976Y618.377
G1 X241.83Y622.89
G1 X240.604Y627.348
G1 X239.298Y631.747
G1 X238.615Y633.925
G1 X237.913Y636.087
G1 X237.192Y638.233
G1 X236.451Y640.363
G1 X235.691Y642.477
G1 X234.911Y644.574
G1 X234.113Y646.654
G1 X233.296Y648.716
G1 X232.22Y651.286
G1 X231.108Y653.814
G1 X229.962Y656.301
G1 X228.782Y658.744
G1 X227.568Y661.144
G1 X226.32Y663.5
G1 X225.04Y665.81
G1 X223.727Y668.074
G1 X222.383Y670.29
G1 X221.007Y672.459
G1 X219.6Y674.579
G1 X218.163Y676.65
G1 X216.697Y678.67
G1 X215.201Y680.638
G1 X213.676Y682.555
G1 X212.123Y684.418
G1 X210.195Y686.672
G1 X208.236Y688.853
G1 X206.247Y690.961
G1 X204.227Y692.996
G1 X202.177Y694.956
G1 X200.099Y696.841
G1 X197.994Y698.65
G1 X195.861Y700.382
G1 X193.694Y702.003
G1 X191.504Y703.541
G1 X189.291Y704.996
G1 X187.058Y706.366
G1 X184.804Y707.651
G1 X182.531Y708.851
G1 X180.24Y709.965
G1 X177.932Y710.992
G1 X176.182Y711.724
G1 X174.428Y712.425
G1 X172.67Y713.096
G1 X170.907Y713.736
G1 X169.14Y714.346
G1 X167.369Y714.926
G1 X165.595Y715.475
G1 X163.816Y715.994
G1 X162.035Y716.482
G1 X160.25Y716.939
G1 X158.462Y717.365
G1 X156.671Y717.761
G1 X154.876Y718.126
G1 X153.08Y718.46
G1 X151.281Y718.764
G1 X149.479Y719.036
G1 X147.246Y719.286
G1 X145.012Y719.5
G1 X142.777Y719.676
G1 X140.541Y719.816
G1 X138.304Y719.918
G1 X136.066Y719.983
G1 X133.828Y720.011
G1 X131.59
G1 X127.404Y719.974
G1 X123.219Y719.894
G1 X119.034Y719.762
G1 X114.85Y719.58
G1 X113Y719.342
G1 X111.153Y719.064
G1 X109.31Y718.745
G1 X107.47Y718.387
G1 X105.633Y717.988
G1 X103.801Y717.549
G1 X101.972Y717.071
G1 X100.149Y716.553
G1 X98.329Y715.995
G1 X96.515Y715.397
G1 X94.706Y714.76
G1 X92.903Y714.083
G1 X91.105Y713.367
G1 X89.313Y712.611
G1 X87.528Y711.817
G1 X85.749Y710.983
G1 X84.047Y710.141
G1 X82.356Y709.256
G1 X80.674Y708.326
G1 X79.004Y707.352
G1 X77.344Y706.334
G1 X75.696Y705.273
G1 X74.06Y704.169
G1 X72.435Y703.022
G1 X70.823Y701.832
G1 X69.223Y700.6
G1 X67.637Y699.325
G1 X66.064Y698.009
G1 X64.505Y696.651
G1 X62.96Y695.251
G1 X61.429Y693.81
G1 X59.913Y692.328
G1 X57.81Y690.168
G1 X55.749Y687.92
G1 X53.73Y685.586
G1 X51.755Y683.167
G1 X49.824Y680.664
G1 X47.938Y678.081
G1 X46.099Y675.417
G1 X44.307Y672.675
G1 X42.563Y669.856
G1 X40.869Y666.962
G1 X39.226Y663.994
G1 X37.634Y660.954
G1 X36.094Y657.844
G1 X34.608Y654.665
G1 X33.176Y651.419
G1 X31.8Y648.107
G1 X30.854Y645.624
G1 X29.933Y643.119
G1 X29.035Y640.592
G1 X28.163Y638.044
G1 X27.315Y635.476
G1 X26.492Y632.887
G1 X25.694Y630.278
G1 X24.921Y627.65
G1 X23.985Y624.394
G1 X23.071Y621.124
G1 X22.18Y617.839
G1 X21.312Y614.539
G1 X20.466Y611.225
G1 X19.643Y607.898
G1 X18.843Y604.556
G1 X18.066Y601.201
G1 X17.312Y597.834
G1 X16.581Y594.453
G1 X15.873Y591.06
G1 X15.188Y587.655
G1 X14.526Y584.238
G1 X13.888Y580.809
G1 X13.273Y577.369
G1 X12.682Y573.918
G1 X12.161Y570.723
G1 X11.685Y567.511
G1 X11.254Y564.284
G1 X10.867Y561.042
G1 X10.368Y555.852
G1 X9.951Y550.645
G1 X9.615Y545.423
G1 X9.36Y540.188
G1 X9.143Y534.821
G1 X9.023Y529.447
G1 X9.001Y524.071
G1 X9.076Y518.694
G1 X9.133Y516.94
G1 X9.236Y515.193
G1 X9.385Y513.453
G1 X9.58Y511.724
G1 X10.069Y508.41
; Layer Corte Pass 4 of 10
G1 X242.38Y508.021
G1 X243.279Y508.008
G1 X250.308Y507.982
G1 X257.336Y507.995
G1 X258.156Y510.274
G1 X258.26Y510.635
G1 X258.438Y511.727
G1 X258.578Y512.833
G1 X258.678Y513.949
G1 X258.738Y515.073
G1 X258.904Y519.287
G1 X258.992Y523.506
G1 Y527.727
G1 X258.931Y531.948
G1 X258.867Y534.837
G1 X258.742Y537.721
G1 X258.555Y540.596
G1 X258.306Y543.46
G1 X258.213Y544.168
G1 X258.102Y544.869
G1 X256.492Y553.56
G1 X254.839Y562.231
G1 X253.144Y570.882
G1 X251.407Y579.512
G1 X249.629Y588.12
G1 X247.808Y596.706
G1 X245.945Y605.271
G1 X244.041Y613.812
G1 X242.976Y618.377
G1 X241.83Y622.89
G1 X240.604Y627.348
G1 X239.298Y631.747
G1 X238.615Y633.925
G1 X237.913Y636.087
G1 X237.192Y638.233
G1 X236.451Y640.363
G1 X235.691Y642.477
G1 X234.911Y644.574
G1 X234.113Y646.654
G1 X233.296Y648.716
G1 X232.22Y651.286
G1 X231.108Y653.814
G1 X229.962Y656.301
G1 X228.782Y658.744
G1 X227.568Y661.144
G1 X226.32Y663.5
G1 X225.04Y665.81
G1 X223.727Y668.074
G1 X222.383Y670.29
G1 X221.007Y672.459
G1 X219.6Y674.579
G1 X218.163Y676.65
G1 X216.697Y678.67
G1 X215.201Y680.638
G1 X213.676Y682.555
G1 X212.123Y684.418
G1 X210.195Y686.672
G1 X208.236Y688.853
G1 X206.247Y690.961
G1 X204.227Y692.996
G1 X202.177Y694.956
G1 X200.099Y696.841
G1 X197.994Y698.65
G1 X195.861Y700.382
G1 X193.694Y702.003
G1 X191.504Y703.541
G1 X189.291Y704.996
G1 X187.058Y706.366
G1 X184.804Y707.651
G1 X182.531Y708.851
G1 X180.24Y709.965
G1 X177.932Y710.992
G1 X176.182Y711.724
G1 X174.428Y712.425
G1 X172.67Y713.096
G1 X170.907Y713.736
G1 X169.14Y714.346
G1 X167.369Y714.926
G1 X165.595Y715.475
G1 X163.816Y715.994
G1 X162.035Y716.482
G1 X160.25Y716.939
G1 X158.462Y717.365
G1 X156.671Y717.761
G1 X154.876Y718.126
G1 X153.08Y718.46
G1 X151.281Y718.764
G1 X149.479Y719.036
G1 X147.246Y719.286
G1 X145.012Y719.5
G1 X142.777Y719.676
G1 X140.541Y719.816
G1 X138.304Y719.918
G1 X136.066Y719.983
G1 X133.828Y720.011
G1 X131.59
G1 X127.404Y719.974
G1 X123.219Y719.894
G1 X119.034Y719.762
G1 X114.85Y719.58
G1 X113Y719.342
G1 X111.153Y719.064
G1 X109.31Y718.745
G1 X107.47Y718.387
G1 X105.633Y717.988
G1 X103.801Y717.549
G1 X101.972Y717.071
G1 X100.149Y716.553
G1 X98.329Y715.995
G1 X96.515Y715.397
G1 X94.706Y714.76
G1 X92.903Y714.083
G1 X91.105Y713.367
G1 X89.313Y712.611
G1 X87.528Y711.817
G1 X85.749Y710.983
G1 X84.047Y710.141
G1 X82.356Y709.256
G1 X80.674Y708.326
G1 X79.004Y707.352
G1 X77.344Y706.334
G1 X75.696Y705.273
G1 X74.06Y704.169
G1 X72.435Y703.022
G1 X70.823Y701.832
G1 X69.223Y700.6
G1 X67.637Y699.325
G1 X66.064Y698.009
G1 X64.505Y696.651
G1 X62.96Y695.251
G1 X61.429Y693.81
G1 X59.913Y692.328
G1 X57.81Y690.168
G1 X55.749Y687.92
G1 X53.73Y685.586
G1 X51.755Y683.167
G1 X49.824Y680.664
G1 X47.938Y678.081
G1 X46.099Y675.417
G1 X44.307Y672.675
G1 X42.563Y669.856
G1 X40.869Y666.962
G1 X39.226Y663.994
G1 X37.634Y660.954
G1 X36.094Y657.844
G1 X34.608Y654.665
G1 X33.176Y651.419
G1 X31.8Y648.107
G1 X30.854Y645.624
G1 X29.933Y643.119
G1 X29.035Y640.592
G1 X28.163Y638.044
G1 X27.315Y635.476
G1 X26.492Y632.887
G1 X25.694Y630.278
G1 X24.921Y627.65
G1 X23.985Y624.394
G1 X23.071Y621.124
G1 X22.18Y617.839
G1 X21.312Y614.539
G1 X20.466Y611.225
G1 X19.643Y607.898
G1 X18.843Y604.556
G1 X18.066Y601.201
G1 X17.312Y597.834
G1 X16.581Y594.453
G1 X15.873Y591.06
G1 X15.188Y587.655
G1 X14.526Y584.238
G1 X13.888Y580.809
G1 X13.273Y577.369
G1 X12.682Y573.918
G1 X12.161Y570.723
G1 X11.685Y567.511
G1 X11.254Y564.284
G1 X10.867Y561.042
G1 X10.368Y555.852
G1 X9.951Y550.645
G1 X9.615Y545.423
G1 X9.36Y540.188
G1 X9.143Y534.821
G1 X9.023Y529.447
G1 X9.001Y524.071
G1 X9.076Y518.694
G1 X9.133Y516.94
G1 X9.236Y515.193
G1 X9.385Y513.453
G1 X9.58Y511.724
G1 X10.069Y508.41
; Layer Corte Pass 5 of 10
G1 X242.38Y508.021
G1 X243.279Y508.008
G1 X250.308Y507.982
G1 X257.336Y507.995
G1 X258.156Y510.274
G1 X258.26Y510.635
G1 X258.438Y511.727
G1 X258.578Y512.833
G1 X258.678Y513.949
G1 X258.738Y515.073
G1 X258.904Y519.287
G1 X258.992Y523.506
G1 Y527.727
G1 X258.931Y531.948
G1 X258.867Y534.837
G1 X258.742Y537.721
G1 X258.555Y540.596
G1 X258.306Y543.46
G1 X258.213Y544.168
G1 X258.102Y544.869
G1 X256.492Y553.56
G1 X254.839Y562.231
G1 X253.144Y570.882
G1 X251.407Y579.512
G1 X249.629Y588.12
G1 X247.808Y596.706
G1 X245.945Y605.271
G1 X244.041Y613.812
G1 X242.976Y618.377
G1 X241.83Y622.89
G1 X240.604Y627.348
G1 X239.298Y631.747
G1 X238.615Y633.925
G1 X237.913Y636.087
G1 X237.192Y638.233
G1 X236.451Y640.363
G1 X235.691Y642.477
G1 X234.911Y644.574
G1 X234.113Y646.654
G1 X233.296Y648.716
G1 X232.22Y651.286
G1 X231.108Y653.814
G1 X229.962Y656.301
G1 X228.782Y658.744
G1 X227.568Y661.144
G1 X226.32Y663.5
G1 X225.04Y665.81
G1 X223.727Y668.074
G1 X222.383Y670.29
G1 X221.007Y672.459
G1 X219.6Y674.579
G1 X218.163Y676.65
G1 X216.697Y678.67
G1 X215.201Y680.638
G1 X213.676Y682.555
G1 X212.123Y684.418
G1 X210.195Y686.672
G1 X208.236Y688.853
G1 X206.247Y690.961
G1 X204.227Y692.996
G1 X202.177Y694.956
G1 X200.099Y696.841
G1 X197.994Y698.65
G1 X195.861Y700.382
G1 X193.694Y702.003
G1 X191.504Y703.541
G1 X189.291Y704.996
G1 X187.058Y706.366
G1 X184.804Y707.651
G1 X182.531Y708.851
G1 X180.24Y709.965
G1 X177.932Y710.992
G1 X176.182Y711.724
G1 X174.428Y712.425
G1 X172.67Y713.096
G1 X170.907Y713.736
G1 X169.14Y714.346
G1 X167.369Y714.926
G1 X165.595Y715.475
G1 X163.816Y715.994
G1 X162.035Y716.482
G1 X160.25Y716.939
G1 X158.462Y717.365
G1 X156.671Y717.761
G1 X154.876Y718.126
G1 X153.08Y718.46
G1 X151.281Y718.764
G1 X149.479Y719.036
G1 X147.246Y719.286
G1 X145.012Y719.5
G1 X142.777Y719.676
G1 X140.541Y719.816
G1 X138.304Y719.918
G1 X136.066Y719.983
G1 X133.828Y720.011
G1 X131.59
G1 X127.404Y719.974
G1 X123.219Y719.894
G1 X119.034Y719.762
G1 X114.85Y719.58
G1 X113Y719.342
G1 X111.153Y719.064
G1 X109.31Y718.745
G1 X107.47Y718.387
G1 X105.633Y717.988
G1 X103.801Y717.549
G1 X101.972Y717.071
G1 X100.149Y716.553
G1 X98.329Y715.995
G1 X96.515Y715.397
G1 X94.706Y714.76
G1 X92.903Y714.083
G1 X91.105Y713.367
G1 X89.313Y712.611
G1 X87.528Y711.817
G1 X85.749Y710.983
G1 X84.047Y710.141
G1 X82.356Y709.256
G1 X80.674Y708.326
G1 X79.004Y707.352
G1 X77.344Y706.334
G1 X75.696Y705.273
G1 X74.06Y704.169
G1 X72.435Y703.022
G1 X70.823Y701.832
G1 X69.223Y700.6
G1 X67.637Y699.325
G1 X66.064Y698.009
G1 X64.505Y696.651
G1 X62.96Y695.251
G1 X61.429Y693.81
G1 X59.913Y692.328
G1 X57.81Y690.168
G1 X55.749Y687.92
G1 X53.73Y685.586
G1 X51.755Y683.167
G1 X49.824Y680.664
G1 X47.938Y678.081
G1 X46.099Y675.417
G1 X44.307Y672.675
G1 X42.563Y669.856
G1 X40.869Y666.962
G1 X39.226Y663.994
G1 X37.634Y660.954
G1 X36.094Y657.844
G1 X34.608Y654.665
G1 X33.176Y651.419
G1 X31.8Y648.107
G1 X30.854Y645.624
G1 X29.933Y643.119
G1 X29.035Y640.592
G1 X28.163Y638.044
G1 X27.315Y635.476
G1 X26.492Y632.887
G1 X25.694Y630.278
G1 X24.921Y627.65
G1 X23.985Y624.394
G1 X23.071Y621.124
G1 X22.18Y617.839
G1 X21.312Y614.539
G1 X20.466Y611.225
G1 X19.643Y607.898
G1 X18.843Y604.556
G1 X18.066Y601.201
G1 X17.312Y597.834
G1 X16.581Y594.453
G1 X15.873Y591.06
G1 X15.188Y587.655
G1 X14.526Y584.238
G1 X13.888Y580.809
G1 X13.273Y577.369
G1 X12.682Y573.918
G1 X12.161Y570.723
G1 X11.685Y567.511
G1 X11.254Y564.284
G1 X10.867Y561.042
G1 X10.368Y555.852
G1 X9.951Y550.645
G1 X9.615Y545.423
G1 X9.36Y540.188
G1 X9.143Y534.821
G1 X9.023Y529.447
G1 X9.001Y524.071
G1 X9.076Y518.694
G1 X9.133Y516.94
G1 X9.236Y515.193
G1 X9.385Y513.453
G1 X9.58Y511.724
G1 X10.069Y508.41
; Layer Corte Pass 6 of 10
G1 X242.38Y508.021
G1 X243.279Y508.008
G1 X250.308Y507.982
G1 X257.336Y507.995
G1 X258.156Y510.274
G1 X258.26Y510.635
G1 X258.438Y511.727
G1 X258.578Y512.833
G1 X258.678Y513.949
G1 X258.738Y515.073
G1 X258.904Y519.287
G1 X258.992Y523.506
G1 Y527.727
G1 X258.931Y531.948
G1 X258.867Y534.837
G1 X258.742Y537.721
G1 X258.555Y540.596
G1 X258.306Y543.46
G1 X258.213Y544.168
G1 X258.102Y544.869
G1 X256.492Y553.56
G1 X254.839Y562.231
G1 X253.144Y570.882
G1 X251.407Y579.512
G1 X249.629Y588.12
G1 X247.808Y596.706
G1 X245.945Y605.271
G1 X244.041Y613.812
G1 X242.976Y618.377
G1 X241.83Y622.89
G1 X240.604Y627.348
G1 X239.298Y631.747
G1 X238.615Y633.925
G1 X237.913Y636.087
G1 X237.192Y638.233
G1 X236.451Y640.363
G1 X235.691Y642.477
G1 X234.911Y644.574
G1 X234.113Y646.654
G1 X233.296Y648.716
G1 X232.22Y651.286
G1 X231.108Y653.814
G1 X229.962Y656.301
G1 X228.782Y658.744
G1 X227.568Y661.144
G1 X226.32Y663.5
G1 X225.04Y665.81
G1 X223.727Y668.074
G1 X222.383Y670.29
G1 X221.007Y672.459
G1 X219.6Y674.579
G1 X218.163Y676.65
G1 X216.697Y678.67
G1 X215.201Y680.638
G1 X213.676Y682.555
G1 X212.123Y684.418
G1 X210.195Y686.672
G1 X208.236Y688.853
G1 X206.247Y690.961
G1 X204.227Y692.996
G1 X202.177Y694.956
G1 X200.099Y696.841
G1 X197.994Y698.65
G1 X195.861Y700.382
G1 X193.694Y702.003
G1 X191.504Y703.541
G1 X189.291Y704.996
G1 X187.058Y706.366
G1 X184.804Y707.651
G1 X182.531Y708.851
G1 X180.24Y709.965
G1 X177.932Y710.992
G1 X176.182Y711.724
G1 X174.428Y712.425
G1 X172.67Y713.096
G1 X170.907Y713.736
G1 X169.14Y714.346
G1 X167.369Y714.926
G1 X165.595Y715.475
G1 X163.816Y715.994
G1 X162.035Y716.482
G1 X160.25Y716.939
G1 X158.462Y717.365
G1 X156.671Y717.761
G1 X154.876Y718.126
G1 X153.08Y718.46
G1 X151.281Y718.764
G1 X149.479Y719.036
G1 X147.246Y719.286
G1 X145.012Y719.5
G1 X142.777Y719.676
G1 X140.541Y719.816
G1 X138.304Y719.918
G1 X136.066Y719.983
G1 X133.828Y720.011
G1 X131.59
G1 X127.404Y719.974
G1 X123.219Y719.894
G1 X119.034Y719.762
G1 X114.85Y719.58
G1 X113Y719.342
G1 X111.153Y719.064
G1 X109.31Y718.745
G1 X107.47Y718.387
G1 X105.633Y717.988
G1 X103.801Y717.549
G1 X101.972Y717.071
G1 X100.149Y716.553
G1 X98.329Y715.995
G1 X96.515Y715.397
G1 X94.706Y714.76
G1 X92.903Y714.083
G1 X91.105Y713.367
G1 X89.313Y712.611
G1 X87.528Y711.817
G1 X85.749Y710.983
G1 X84.047Y710.141
G1 X82.356Y709.256
G1 X80.674Y708.326
G1 X79.004Y707.352
G1 X77.344Y706.334
G1 X75.696Y705.273
G1 X74.06Y704.169
G1 X72.435Y703.022
G1 X70.823Y701.832
G1 X69.223Y700.6
G1 X67.637Y699.325
G1 X66.064Y698.009
G1 X64.505Y696.651
G1 X62.96Y695.251
G1 X61.429Y693.81
G1 X59.913Y692.328
G1 X57.81Y690.168
G1 X55.749Y687.92
G1 X53.73Y685.586
G1 X51.755Y683.167
G1 X49.824Y680.664
G1 X47.938Y678.081
G1 X46.099Y675.417
G1 X44.307Y672.675
G1 X42.563Y669.856
G1 X40.869Y666.962
G1 X39.226Y663.994
G1 X37.634Y660.954
G1 X36.094Y657.844
G1 X34.608Y654.665
G1 X33.176Y651.419
G1 X31.8Y648.107
G1 X30.854Y645.624
G1 X29.933Y643.119
G1 X29.035Y640.592
G1 X28.163Y638.044
G1 X27.315Y635.476
G1 X26.492Y632.887
G1 X25.694Y630.278
G1 X24.921Y627.65
G1 X23.985Y624.394
G1 X23.071Y621.124
G1 X22.18Y617.839
G1 X21.312Y614.539
G1 X20.466Y611.225
G1 X19.643Y607.898
G1 X18.843Y604.556
G1 X18.066Y601.201
G1 X17.312Y597.834
G1 X16.581Y594.453
G1 X15.873Y591.06
G1 X15.188Y587.655
G1 X14.526Y584.238
G1 X13.888Y580.809
G1 X13.273Y577.369
G1 X12.682Y573.918
G1 X12.161Y570.723
G1 X11.685Y567.511
G1 X11.254Y564.284
G1 X10.867Y561.042
G1 X10.368Y555.852
G1 X9.951Y550.645
G1 X9.615Y545.423
G1 X9.36Y540.188
G1 X9.143Y534.821
G1 X9.023Y529.447
G1 X9.001Y524.071
G1 X9.076Y518.694
G1 X9.133Y516.94
G1 X9.236Y515.193
G1 X9.385Y513.453
G1 X9.58Y511.724
G1 X10.069Y508.41
; Layer Corte Pass 7 of 10
G1 X242.38Y508.021
G1 X243.279Y508.008
G1 X250.308Y507.982
G1 X257.336Y507.995
G1 X258.156Y510.274
G1 X258.26Y510.635
G1 X258.438Y511.727
G1 X258.578Y512.833
G1 X258.678Y513.949
G1 X258.738Y515.073
G1 X258.904Y519.287
G1 X258.992Y523.506
G1 Y527.727
G1 X258.931Y531.948
G1 X258.867Y534.837
G1 X258.742Y537.721
G1 X258.555Y540.596
G1 X258.306Y543.46
G1 X258.213Y544.168
G1 X258.102Y544.869
G1 X256.492Y553.56
G1 X254.839Y562.231
G1 X253.144Y570.882
G1 X251.407Y579.512
G1 X249.629Y588.12
G1 X247.808Y596.706
G1 X245.945Y605.271
G1 X244.041Y613.812
G1 X242.976Y618.377
G1 X241.83Y622.89
G1 X240.604Y627.348
G1 X239.298Y631.747
G1 X238.615Y633.925
G1 X237.913Y636.087
G1 X237.192Y638.233
G1 X236.451Y640.363
G1 X235.691Y642.477
G1 X234.911Y644.574
G1 X234.113Y646.654
G1 X233.296Y648.716
G1 X232.22Y651.286
G1 X231.108Y653.814
G1 X229.962Y656.301
G1 X228.782Y658.744
G1 X227.568Y661.144
G1 X226.32Y663.5
G1 X225.04Y665.81
G1 X223.727Y668.074
G1 X222.383Y670.29
G1 X221.007Y672.459
G1 X219.6Y674.579
G1 X218.163Y676.65
G1 X216.697Y678.67
G1 X215.201Y680.638
G1 X213.676Y682.555
G1 X212.123Y684.418
G1 X210.195Y686.672
G1 X208.236Y688.853
G1 X206.247Y690.961
G1 X204.227Y692.996
G1 X202.177Y694.956
G1 X200.099Y696.841
G1 X197.994Y698.65
G1 X195.861Y700.382
G1 X193.694Y702.003
G1 X191.504Y703.541
G1 X189.291Y704.996
G1 X187.058Y706.366
G1 X184.804Y707.651
G1 X182.531Y708.851
G1 X180.24Y709.965
G1 X177.932Y710.992
G1 X176.182Y711.724
G1 X174.428Y712.425
G1 X172.67Y713.096
G1 X170.907Y713.736
G1 X169.14Y714.346
G1 X167.369Y714.926
G1 X165.595Y715.475
G1 X163.816Y715.994
G1 X162.035Y716.482
G1 X160.25Y716.939
G1 X158.462Y717.365
G1 X156.671Y717.761
G1 X154.876Y718.126
G1 X153.08Y718.46
G1 X151.281Y718.764
G1 X149.479Y719.036
G1 X147.246Y719.286
G1 X145.012Y719.5
G1 X142.777Y719.676
G1 X140.541Y719.816
G1 X138.304Y719.918
G1 X136.066Y719.983
G1 X133.828Y720.011
G1 X131.59
G1 X127.404Y719.974
G1 X123.219Y719.894
G1 X119.034Y719.762
G1 X114.85Y719.58
G1 X113Y719.342
G1 X111.153Y719.064
G1 X109.31Y718.745
G1 X107.47Y718.387
G1 X105.633Y717.988
G1 X103.801Y717.549
G1 X101.972Y717.071
G1 X100.149Y716.553
G1 X98.329Y715.995
G1 X96.515Y715.397
G1 X94.706Y714.76
G1 X92.903Y714.083
G1 X91.105Y713.367
G1 X89.313Y712.611
G1 X87.528Y711.817
G1 X85.749Y710.983
G1 X84.047Y710.141
G1 X82.356Y709.256
G1 X80.674Y708.326
G1 X79.004Y707.352
G1 X77.344Y706.334
G1 X75.696Y705.273
G1 X74.06Y704.169
G1 X72.435Y703.022
G1 X70.823Y701.832
G1 X69.223Y700.6
G1 X67.637Y699.325
G1 X66.064Y698.009
G1 X64.505Y696.651
G1 X62.96Y695.251
G1 X61.429Y693.81
G1 X59.913Y692.328
G1 X57.81Y690.168
G1 X55.749Y687.92
G1 X53.73Y685.586
G1 X51.755Y683.167
G1 X49.824Y680.664
G1 X47.938Y678.081
G1 X46.099Y675.417
G1 X44.307Y672.675
G1 X42.563Y669.856
G1 X40.869Y666.962
G1 X39.226Y663.994
G1 X37.634Y660.954
G1 X36.094Y657.844
G1 X34.608Y654.665
G1 X33.176Y651.419
G1 X31.8Y648.107
G1 X30.854Y645.624
G1 X29.933Y643.119
G1 X29.035Y640.592
G1 X28.163Y638.044
G1 X27.315Y635.476
G1 X26.492Y632.887
G1 X25.694Y630.278
G1 X24.921Y627.65
G1 X23.985Y624.394
G1 X23.071Y621.124
G1 X22.18Y617.839
G1 X21.312Y614.539
G1 X20.466Y611.225
G1 X19.643Y607.898
G1 X18.843Y604.556
G1 X18.066Y601.201
G1 X17.312Y597.834
G1 X16.581Y594.453
G1 X15.873Y591.06
G1 X15.188Y587.655
G1 X14.526Y584.238
G1 X13.888Y580.809
G1 X13.273Y577.369
G1 X12.682Y573.918
G1 X12.161Y570.723
G1 X11.685Y567.511
G1 X11.254Y564.284
G1 X10.867Y561.042
G1 X10.368Y555.852
G1 X9.951Y550.645
G1 X9.615Y545.423
G1 X9.36Y540.188
G1 X9.143Y534.821
G1 X9.023Y529.447
G1 X9.001Y524.071
G1 X9.076Y518.694
G1 X9.133Y516.94
G1 X9.236Y515.193
G1 X9.385Y513.453
G1 X9.58Y511.724
G1 X10.069Y508.41
; Layer Corte Pass 8 of 10
G1 X242.38Y508.021
G1 X243.279Y508.008
G1 X250.308Y507.982
G1 X257.336Y507.995
G1 X258.156Y510.274
G1 X258.26Y510.635
G1 X258.438Y511.727
G1 X258.578Y512.833
G1 X258.678Y513.949
G1 X258.738Y515.073
G1 X258.904Y519.287
G1 X258.992Y523.506
G1 Y527.727
G1 X258.931Y531.948
G1 X258.867Y534.837
G1 X258.742Y537.721
G1 X258.555Y540.596
G1 X258.306Y543.46
G1 X258.213Y544.168
G1 X258.102Y544.869
G1 X256.492Y553.56
G1 X254.839Y562.231
G1 X253.144Y570.882
G1 X251.407Y579.512
G1 X249.629Y588.12
G1 X247.808Y596.706
G1 X245.945Y605.271
G1 X244.041Y613.812
G1 X242.976Y618.377
G1 X241.83Y622.89
G1 X240.604Y627.348
G1 X239.298Y631.747
G1 X238.615Y633.925
G1 X237.913Y636.087
G1 X237.192Y638.233
G1 X236.451Y640.363
G1 X235.691Y642.477
G1 X234.911Y644.574
G1 X234.113Y646.654
G1 X233.296Y648.716
G1 X232.22Y651.286
G1 X231.108Y653.814
G1 X229.962Y656.301
G1 X228.782Y658.744
G1 X227.568Y661.144
G1 X226.32Y663.5
G1 X225.04Y665.81
G1 X223.727Y668.074
G1 X222.383Y670.29
G1 X221.007Y672.459
G1 X219.6Y674.579
G1 X218.163Y676.65
G1 X216.697Y678.67
G1 X215.201Y680.638
G1 X213.676Y682.555
G1 X212.123Y684.418
G1 X210.195Y686.672
G1 X208.236Y688.853
G1 X206.247Y690.961
G1 X204.227Y692.996
G1 X202.177Y694.956
G1 X200.099Y696.841
G1 X197.994Y698.65
G1 X195.861Y700.382
G1 X193.694Y702.003
G1 X191.504Y703.541
G1 X189.291Y704.996
G1 X187.058Y706.366
G1 X184.804Y707.651
G1 X182.531Y708.851
G1 X180.24Y709.965
G1 X177.932Y710.992
G1 X176.182Y711.724
G1 X174.428Y712.425
G1 X172.67Y713.096
G1 X170.907Y713.736
G1 X169.14Y714.346
G1 X167.369Y714.926
G1 X165.595Y715.475
G1 X163.816Y715.994
G1 X162.035Y716.482
G1 X160.25Y716.939
G1 X158.462Y717.365
G1 X156.671Y717.761
G1 X154.876Y718.126
G1 X153.08Y718.46
G1 X151.281Y718.764
G1 X149.479Y719.036
G1 X147.246Y719.286
G1 X145.012Y719.5
G1 X142.777Y719.676
G1 X140.541Y719.816
G1 X138.304Y719.918
G1 X136.066Y719.983
G1 X133.828Y720.011
G1 X131.59
G1 X127.404Y719.974
G1 X123.219Y719.894
G1 X119.034Y719.762
G1 X114.85Y719.58
G1 X113Y719.342
G1 X111.153Y719.064
G1 X109.31Y718.745
G1 X107.47Y718.387
G1 X105.633Y717.988
G1 X103.801Y717.549
G1 X101.972Y717.071
G1 X100.149Y716.553
G1 X98.329Y715.995
G1 X96.515Y715.397
G1 X94.706Y714.76
G1 X92.903Y714.083
G1 X91.105Y713.367
G1 X89.313Y712.611
G1 X87.528Y711.817
G1 X85.749Y710.983
G1 X84.047Y710.141
G1 X82.356Y709.256
G1 X80.674Y708.326
G1 X79.004Y707.352
G1 X77.344Y706.334
G1 X75.696Y705.273
G1 X74.06Y704.169
G1 X72.435Y703.022
G1 X70.823Y701.832
G1 X69.223Y700.6
G1 X67.637Y699.325
G1 X66.064Y698.009
G1 X64.505Y696.651
G1 X62.96Y695.251
G1 X61.429Y693.81
G1 X59.913Y692.328
G1 X57.81Y690.168
G1 X55.749Y687.92
G1 X53.73Y685.586
G1 X51.755Y683.167
G1 X49.824Y680.664
G1 X47.938Y678.081
G1 X46.099Y675.417
G1 X44.307Y672.675
G1 X42.563Y669.856
G1 X40.869Y666.962
G1 X39.226Y663.994
G1 X37.634Y660.954
G1 X36.094Y657.844
G1 X34.608Y654.665
G1 X33.176Y651.419
G1 X31.8Y648.107
G1 X30.854Y645.624
G1 X29.933Y643.119
G1 X29.035Y640.592
G1 X28.163Y638.044
G1 X27.315Y635.476
G1 X26.492Y632.887
G1 X25.694Y630.278
G1 X24.921Y627.65
G1 X23.985Y624.394
G1 X23.071Y621.124
G1 X22.18Y617.839
G1 X21.312Y614.539
G1 X20.466Y611.225
G1 X19.643Y607.898
G1 X18.843Y604.556
G1 X18.066Y601.201
G1 X17.312Y597.834
G1 X16.581Y594.453
G1 X15.873Y591.06
G1 X15.188Y587.655
G1 X14.526Y584.238
G1 X13.888Y580.809
G1 X13.273Y577.369
G1 X12.682Y573.918
G1 X12.161Y570.723
G1 X11.685Y567.511
G1 X11.254Y564.284
G1 X10.867Y561.042
G1 X10.368Y555.852
G1 X9.951Y550.645
G1 X9.615Y545.423
G1 X9.36Y540.188
G1 X9.143Y534.821
G1 X9.023Y529.447
G1 X9.001Y524.071
G1 X9.076Y518.694
G1 X9.133Y516.94
G1 X9.236Y515.193
G1 X9.385Y513.453
G1 X9.58Y511.724
G1 X10.069Y508.41
; Layer Corte Pass 9 of 10
G1 X242.38Y508.021
G1 X243.279Y508.008
G1 X250.308Y507.982
G1 X257.336Y507.995
G1 X258.156Y510.274
G1 X258.26Y510.635
G1 X258.438Y511.727
G1 X258.578Y512.833
G1 X258.678Y513.949
G1 X258.738Y515.073
G1 X258.904Y519.287
G1 X258.992Y523.506
G1 Y527.727
G1 X258.931Y531.948
G1 X258.867Y534.837
G1 X258.742Y537.721
G1 X258.555Y540.596
G1 X258.306Y543.46
G1 X258.213Y544.168
G1 X258.102Y544.869
G1 X256.492Y553.56
G1 X254.839Y562.231
G1 X253.144Y570.882
G1 X251.407Y579.512
G1 X249.629Y588.12
G1 X247.808Y596.706
G1 X245.945Y605.271
G1 X244.041Y613.812
G1 X242.976Y618.377
G1 X241.83Y622.89
G1 X240.604Y627.348
G1 X239.298Y631.747
G1 X238.615Y633.925
G1 X237.913Y636.087
G1 X237.192Y638.233
G1 X236.451Y640.363
G1 X235.691Y642.477
G1 X234.911Y644.574
G1 X234.113Y646.654
G1 X233.296Y648.716
G1 X232.22Y651.286
G1 X231.108Y653.814
G1 X229.962Y656.301
G1 X228.782Y658.744
G1 X227.568Y661.144
G1 X226.32Y663.5
G1 X225.04Y665.81
G1 X223.727Y668.074
G1 X222.383Y670.29
G1 X221.007Y672.459
G1 X219.6Y674.579
G1 X218.163Y676.65
G1 X216.697Y678.67
G1 X215.201Y680.638
G1 X213.676Y682.555
G1 X212.123Y684.418
G1 X210.195Y686.672
G1 X208.236Y688.853
G1 X206.247Y690.961
G1 X204.227Y692.996
G1 X202.177Y694.956
G1 X200.099Y696.841
G1 X197.994Y698.65
G1 X195.861Y700.382
G1 X193.694Y702.003
G1 X191.504Y703.541
G1 X189.291Y704.996
G1 X187.058Y706.366
G1 X184.804Y707.651
G1 X182.531Y708.851
G1 X180.24Y709.965
G1 X177.932Y710.992
G1 X176.182Y711.724
G1 X174.428Y712.425
G1 X172.67Y713.096
G1 X170.907Y713.736
G1 X169.14Y714.346
G1 X167.369Y714.926
G1 X165.595Y715.475
G1 X163.816Y715.994
G1 X162.035Y716.482
G1 X160.25Y716.939
G1 X158.462Y717.365
G1 X156.671Y717.761
G1 X154.876Y718.126
G1 X153.08Y718.46
G1 X151.281Y718.764
G1 X149.479Y719.036
G1 X147.246Y719.286
G1 X145.012Y719.5
G1 X142.777Y719.676
G1 X140.541Y719.816
G1 X138.304Y719.918
G1 X136.066Y719.983
G1 X133.828Y720.011
G1 X131.59
G1 X127.404Y719.974
G1 X123.219Y719.894
G1 X119.034Y719.762
G1 X114.85Y719.58
G1 X113Y719.342
G1 X111.153Y719.064
G1 X109.31Y718.745
G1 X107.47Y718.387
G1 X105.633Y717.988
G1 X103.801Y717.549
G1 X101.972Y717.071
G1 X100.149Y716.553
G1 X98.329Y715.995
G1 X96.515Y715.397
G1 X94.706Y714.76
G1 X92.903Y714.083
G1 X91.105Y713.367
G1 X89.313Y712.611
G1 X87.528Y711.817
G1 X85.749Y710.983
G1 X84.047Y710.141
G1 X82.356Y709.256
G1 X80.674Y708.326
G1 X79.004Y707.352
G1 X77.344Y706.334
G1 X75.696Y705.273
G1 X74.06Y704.169
G1 X72.435Y703.022
G1 X70.823Y701.832
G1 X69.223Y700.6
G1 X67.637Y699.325
G1 X66.064Y698.009
G1 X64.505Y696.651
G1 X62.96Y695.251
G1 X61.429Y693.81
G1 X59.913Y692.328
G1 X57.81Y690.168
G1 X55.749Y687.92
G1 X53.73Y685.586
G1 X51.755Y683.167
G1 X49.824Y680.664
G1 X47.938Y678.081
G1 X46.099Y675.417
G1 X44.307Y672.675
G1 X42.563Y669.856
G1 X40.869Y666.962
G1 X39.226Y663.994
G1 X37.634Y660.954
G1 X36.094Y657.844
G1 X34.608Y654.665
G1 X33.176Y651.419
G1 X31.8Y648.107
G1 X30.854Y645.624
G1 X29.933Y643.119
G1 X29.035Y640.592
G1 X28.163Y638.044
G1 X27.315Y635.476
G1 X26.492Y632.887
G1 X25.694Y630.278
G1 X24.921Y627.65
G1 X23.985Y624.394
G1 X23.071Y621.124
G1 X22.18Y617.839
G1 X21.312Y614.539
G1 X20.466Y611.225
G1 X19.643Y607.898
G1 X18.843Y604.556
G1 X18.066Y601.201
G1 X17.312Y597.834
G1 X16.581Y594.453
G1 X15.873Y591.06
G1 X15.188Y587.655
G1 X14.526Y584.238
G1 X13.888Y580.809
G1 X13.273Y577.369
G1 X12.682Y573.918
G1 X12.161Y570.723
G1 X11.685Y567.511
G1 X11.254Y564.284
G1 X10.867Y561.042
G1 X10.368Y555.852
G1 X9.951Y550.645
G1 X9.615Y545.423
G1 X9.36Y540.188
G1 X9.143Y534.821
G1 X9.023Y529.447
G1 X9.001Y524.071
G1 X9.076Y518.694
G1 X9.133Y516.94
G1 X9.236Y515.193
G1 X9.385Y513.453
G1 X9.58Y511.724
G1 X10.069Y508.41
; Layer Corte Pass 10 of 10
G1 X242.38Y508.021
G1 X243.279Y508.008
G1 X250.308Y507.982
G1 X257.336Y507.995
G1 X258.156Y510.274
G1 X258.26Y510.635
G1 X258.438Y511.727
G1 X258.578Y512.833
G1 X258.678Y513.949
G1 X258.738Y515.073
G1 X258.904Y519.287
G1 X258.992Y523.506
G1 Y527.727
G1 X258.931Y531.948
G1 X258.867Y534.837
G1 X258.742Y537.721
G1 X258.555Y540.596
G1 X258.306Y543.46
G1 X258.213Y544.168
G1 X258.102Y544.869
G1 X256.492Y553.56
G1 X254.839Y562.231
G1 X253.144Y570.882
G1 X251.407Y579.512
G1 X249.629Y588.12
G1 X247.808Y596.706
G1 X245.945Y605.271
G1 X244.041Y613.812
G1 X242.976Y618.377
G1 X241.83Y622.89
G1 X240.604Y627.348
G1 X239.298Y631.747
G1 X238.615Y633.925
G1 X237.913Y636.087
G1 X237.192Y638.233
G1 X236.451Y640.363
G1 X235.691Y642.477
G1 X234.911Y644.574
G1 X234.113Y646.654
G1 X233.296Y648.716
G1 X232.22Y651.286
G1 X231.108Y653.814
G1 X229.962Y656.301
G1 X228.782Y658.744
G1 X227.568Y661.144
G1 X226.32Y663.5
G1 X225.04Y665.81
G1 X223.727Y668.074
G1 X222.383Y670.29
G1 X221.007Y672.459
G1 X219.6Y674.579
G1 X218.163Y676.65
G1 X216.697Y678.67
G1 X215.201Y680.638
G1 X213.676Y682.555
G1 X212.123Y684.418
G1 X210.195Y686.672
G1 X208.236Y688.853
G1 X206.247Y690.961
G1 X204.227Y692.996
G1 X202.177Y694.956
G1 X200.099Y696.841
G1 X197.994Y698.65
G1 X195.861Y700.382
G1 X193.694Y702.003
G1 X191.504Y703.541
G1 X189.291Y704.996
G1 X187.058Y706.366
G1 X184.804Y707.651
G1 X182.531Y708.851
G1 X180.24Y709.965
G1 X177.932Y710.992
G1 X176.182Y711.724
G1 X174.428Y712.425
G1 X172.67Y713.096
G1 X170.907Y713.736
G1 X169.14Y714.346
G1 X167.369Y714.926
G1 X165.595Y715.475
G1 X163.816Y715.994
G1 X162.035Y716.482
G1 X160.25Y716.939
G1 X158.462Y717.365
G1 X156.671Y717.761
G1 X154.876Y718.126
G1 X153.08Y718.46
G1 X151.281Y718.764
G1 X149.479Y719.036
G1 X147.246Y719.286
G1 X145.012Y719.5
G1 X142.777Y719.676
G1 X140.541Y719.816
G1 X138.304Y719.918
G1 X136.066Y719.983
G1 X133.828Y720.011
G1 X131.59
G1 X127.404Y719.974
G1 X123.219Y719.894
G1 X119.034Y719.762
G1 X114.85Y719.58
G1 X113Y719.342
G1 X111.153Y719.064
G1 X109.31Y718.745
G1 X107.47Y718.387
G1 X105.633Y717.988
G1 X103.801Y717.549
G1 X101.972Y717.071
G1 X100.149Y716.553
G1 X98.329Y715.995
G1 X96.515Y715.397
G1 X94.706Y714.76
G1 X92.903Y714.083
G1 X91.105Y713.367
G1 X89.313Y712.611
G1 X87.528Y711.817
G1 X85.749Y710.983
G1 X84.047Y710.141
G1 X82.356Y709.256
G1 X80.674Y708.326
G1 X79.004Y707.352
G1 X77.344Y706.334
G1 X75.696Y705.273
G1 X74.06Y704.169
G1 X72.435Y703.022
G1 X70.823Y701.832
G1 X69.223Y700.6
G1 X67.637Y699.325
G1 X66.064Y698.009
G1 X64.505Y696.651
G1 X62.96Y695.251
G1 X61.429Y693.81
G1 X59.913Y692.328
G1 X57.81Y690.168
G1 X55.749Y687.92
G1 X53.73Y685.586
G1 X51.755Y683.167
G1 X49.824Y680.664
G1 X47.938Y678.081
G1 X46.099Y675.417
G1 X44.307Y672.675
G1 X42.563Y669.856
G1 X40.869Y666.962
G1 X39.226Y663.994
G1 X37.634Y660.954
G1 X36.094Y657.844
G1 X34.608Y654.665
G1 X33.176Y651.419
G1 X31.8Y648.107
G1 X30.854Y645.624
G1 X29.933Y643.119
G1 X29.035Y640.592
G1 X28.163Y638.044
G1 X27.315Y635.476
G1 X26.492Y632.887
G1 X25.694Y630.278
G1 X24.921Y627.65
G1 X23.985Y624.394
G1 X23.071Y621.124
G1 X22.18Y617.839
G1 X21.312Y614.539
G1 X20.466Y611.225
G1 X19.643Y607.898
G1 X18.843Y604.556
G1 X18.066Y601.201
G1 X17.312Y597.834
G1 X16.581Y594.453
G1 X15.873Y591.06
G1 X15.188Y587.655
G1 X14.526Y584.238
G1 X13.888Y580.809
G1 X13.273Y577.369
G1 X12.682Y573.918
G1 X12.161Y570.723
G1 X11.685Y567.511
G1 X11.254Y564.284
G1 X10.867Y561.042
G1 X10.368Y555.852
G1 X9.951Y550.645
G1 X9.615Y545.423
G1 X9.36Y540.188
G1 X9.143Y534.821
G1 X9.023Y529.447
G1 X9.001Y524.071
G1 X9.076Y518.694
G1 X9.133Y516.94
G1 X9.236Y515.193
G1 X9.385Y513.453
G1 X9.58Y511.724
G1 X10.069Y508.41
G0 X23Y723.35
; Layer Corte Pass 1 of 10
G1 X43
; Layer Corte Pass 2 of 10
G1 X23
; Layer Corte Pass 3 of 10
G1 X43
; Layer Corte Pass 4 of 10
G1 X23
; Layer Corte Pass 5 of 10
G1 X43
; Layer Corte Pass 6 of 10
G1 X23
; Layer Corte Pass 7 of 10
G1 X43
; Layer Corte Pass 8 of 10
G1 X23
; Layer Corte Pass 9 of 10
G1 X43
; Layer Corte Pass 10 of 10
G1 X23
G0 X43Y723.35
; Layer Corte Pass 1 of 10
G1 Y726.65
; Layer Corte Pass 2 of 10
G1 Y723.35
; Layer Corte Pass 3 of 10
G1 Y726.65
; Layer Corte Pass 4 of 10
G1 Y723.35
; Layer Corte Pass 5 of 10
G1 Y726.65
; Layer Corte Pass 6 of 10
G1 Y723.35
; Layer Corte Pass 7 of 10
G1 Y726.65
; Layer Corte Pass 8 of 10
G1 Y723.35
; Layer Corte Pass 9 of 10
G1 Y726.65
; Layer Corte Pass 10 of 10
G1 Y723.35
G0 X43Y726.65
; Layer Corte Pass 1 of 10
G1 X63
; Layer Corte Pass 2 of 10
G1 X43
; Layer Corte Pass 3 of 10
G1 X63
; Layer Corte Pass 4 of 10
G1 X43
; Layer Corte Pass 5 of 10
G1 X63
; Layer Corte Pass 6 of 10
G1 X43
; Layer Corte Pass 7 of 10
G1 X63
; Layer Corte Pass 8 of 10
G1 X43
; Layer Corte Pass 9 of 10
G1 X63
; Layer Corte Pass 10 of 10
G1 X43
G0 X63Y726.65
; Layer Corte Pass 1 of 10
G1 Y723.35
; Layer Corte Pass 2 of 10
G1 Y726.65
; Layer Corte Pass 3 of 10
G1 Y723.35
; Layer Corte Pass 4 of 10
G1 Y726.65
; Layer Corte Pass 5 of 10
G1 Y723.35
; Layer Corte Pass 6 of 10
G1 Y726.65
; Layer Corte Pass 7 of 10
G1 Y723.35
; Layer Corte Pass 8 of 10
G1 Y726.65
; Layer Corte Pass 9 of 10
G1 Y723.35
; Layer Corte Pass 10 of 10
G1 Y726.65
G0 X63Y723.35
; Layer Corte Pass 1 of 10
G1 X83
; Layer Corte Pass 2 of 10
G1 X63
; Layer Corte Pass 3 of 10
G1 X83
; Layer Corte Pass 4 of 10
G1 X63
; Layer Corte Pass 5 of 10
G1 X83
; Layer Corte Pass 6 of 10
G1 X63
; Layer Corte Pass 7 of 10
G1 X83
; Layer Corte Pass 8 of 10
G1 X63
; Layer Corte Pass 9 of 10
G1 X83
; Layer Corte Pass 10 of 10
G1 X63
G0 X83Y723.35
; Layer Corte Pass 1 of 10
G1 Y726.65
; Layer Corte Pass 2 of 10
G1 Y723.35
; Layer Corte Pass 3 of 10
G1 Y726.65
; Layer Corte Pass 4 of 10
G1 Y723.35
; Layer Corte Pass 5 of 10
G1 Y726.65
; Layer Corte Pass 6 of 10
G1 Y723.35
; Layer Corte Pass 7 of 10
G1 Y726.65
; Layer Corte Pass 8 of 10
G1 Y723.35
; Layer Corte Pass 9 of 10
G1 Y726.65
; Layer Corte Pass 10 of 10
G1 Y723.35
G0 X83Y726.65
; Layer Corte Pass 1 of 10
G1 X103
; Layer Corte Pass 2 of 10
G1 X83
; Layer Corte Pass 3 of 10
G1 X103
; Layer Corte Pass 4 of 10
G1 X83
; Layer Corte Pass 5 of 10
G1 X103
; Layer Corte Pass 6 of 10
G1 X83
; Layer Corte Pass 7 of 10
G1 X103
; Layer Corte Pass 8 of 10
G1 X83
; Layer Corte Pass 9 of 10
G1 X103
; Layer Corte Pass 10 of 10
G1 X83
G0 X103Y726.65
; Layer Corte Pass 1 of 10
G1 Y723.35
; Layer Corte Pass 2 of 10
G1 Y726.65
; Layer Corte Pass 3 of 10
G1 Y723.35
; Layer Corte Pass 4 of 10
G1 Y726.65
; Layer Corte Pass 5 of 10
G1 Y723.35
; Layer Corte Pass 6 of 10
G1 Y726.65
; Layer Corte Pass 7 of 10
G1 Y723.35
; Layer Corte Pass 8 of 10
G1 Y726.65
; Layer Corte Pass 9 of 10
G1 Y723.35
; Layer Corte Pass 10 of 10
G1 Y726.65
G0 X103Y723.35
; Layer Corte Pass 1 of 10
G1 X123
; Layer Corte Pass 2 of 10
G1 X103
; Layer Corte Pass 3 of 10
G1 X123
; Layer Corte Pass 4 of 10
G1 X103
; Layer Corte Pass 5 of 10
G1 X123
; Layer Corte Pass 6 of 10
G1 X103
; Layer Corte Pass 7 of 10
G1 X123
; Layer Corte Pass 8 of 10
G1 X103
; Layer Corte Pass 9 of 10
G1 X123
; Layer Corte Pass 10 of 10
G1 X103
G0 X123Y723.35
; Layer Corte Pass 1 of 10
G1 Y726.65
; Layer Corte Pass 2 of 10
G1 Y723.35
; Layer Corte Pass 3 of 10
G1 Y726.65
; Layer Corte Pass 4 of 10
G1 Y723.35
; Layer Corte Pass 5 of 10
G1 Y726.65
; Layer Corte Pass 6 of 10
G1 Y723.35
; Layer Corte Pass 7 of 10
G1 Y726.65
; Layer Corte Pass 8 of 10
G1 Y723.35
; Layer Corte Pass 9 of 10
G1 Y726.65
; Layer Corte Pass 10 of 10
G1 Y723.35
G0 X123Y726.65
; Layer Corte Pass 1 of 10
G1 X143
; Layer Corte Pass 2 of 10
G1 X123
; Layer Corte Pass 3 of 10
G1 X143
; Layer Corte Pass 4 of 10
G1 X123
; Layer Corte Pass 5 of 10
G1 X143
; Layer Corte Pass 6 of 10
G1 X123
; Layer Corte Pass 7 of 10
G1 X143
; Layer Corte Pass 8 of 10
G1 X123
; Layer Corte Pass 9 of 10
G1 X143
; Layer Corte Pass 10 of 10
G1 X123
G0 X143Y726.65
; Layer Corte Pass 1 of 10
G1 Y723.35
; Layer Corte Pass 2 of 10
G1 Y726.65
; Layer Corte Pass 3 of 10
G1 Y723.35
; Layer Corte Pass 4 of 10
G1 Y726.65
; Layer Corte Pass 5 of 10
G1 Y723.35
; Layer Corte Pass 6 of 10
G1 Y726.65
; Layer Corte Pass 7 of 10
G1 Y723.35
; Layer Corte Pass 8 of 10
G1 Y726.65
; Layer Corte Pass 9 of 10
G1 Y723.35
; Layer Corte Pass 10 of 10
G1 Y726.65
G0 X143Y723.35
; Layer Corte Pass 1 of 10
G1 X163
; Layer Corte Pass 2 of 10
G1 X143
; Layer Corte Pass 3 of 10
G1 X163
; Layer Corte Pass 4 of 10
G1 X143
; Layer Corte Pass 5 of 10
G1 X163
; Layer Corte Pass 6 of 10
G1 X143
; Layer Corte Pass 7 of 10
G1 X163
; Layer Corte Pass 8 of 10
G1 X143
; Layer Corte Pass 9 of 10
G1 X163
; Layer Corte Pass 10 of 10
G1 X143
G0 X151.36Y723.35
; Layer Corte Pass 1 of 10
G1 Y755.65
G1 X154.66
G1 Y723.35
; Layer Corte Pass 2 of 10
G1 Y755.65
G1 X151.36
G1 Y723.35
; Layer Corte Pass 3 of 10
G1 Y755.65
G1 X154.66
G1 Y723.35
; Layer Corte Pass 4 of 10
G1 Y755.65
G1 X151.36
G1 Y723.35
; Layer Corte Pass 5 of 10
G1 Y755.65
G1 X154.66
G1 Y723.35
; Layer Corte Pass 6 of 10
G1 Y755.65
G1 X151.36
G1 Y723.35
; Layer Corte Pass 7 of 10
G1 Y755.65
G1 X154.66
G1 Y723.35
; Layer Corte Pass 8 of 10
G1 Y755.65
G1 X151.36
G1 Y723.35
; Layer Corte Pass 9 of 10
G1 Y755.65
G1 X154.66
G1 Y723.35
; Layer Corte Pass 10 of 10
G1 Y755.65
G1 X151.36
G1 Y723.35
G0 X163Y723.35
; Layer Corte Pass 1 of 10
G1 Y726.65
; Layer Corte Pass 2 of 10
G1 Y723.35
; Layer Corte Pass 3 of 10
G1 Y726.65
; Layer Corte Pass 4 of 10
G1 Y723.35
; Layer Corte Pass 5 of 10
G1 Y726.65
; Layer Corte Pass 6 of 10
G1 Y723.35
; Layer Corte Pass 7 of 10
G1 Y726.65
; Layer Corte Pass 8 of 10
G1 Y723.35
; Layer Corte Pass 9 of 10
G1 Y726.65
; Layer Corte Pass 10 of 10
G1 Y723.35
G0 X163Y726.65
; Layer Corte Pass 1 of 10
G1 X183
; Layer Corte Pass 2 of 10
G1 X163
; Layer Corte Pass 3 of 10
G1 X183
; Layer Corte Pass 4 of 10
G1 X163
; Layer Corte Pass 5 of 10
G1 X183
; Layer Corte Pass 6 of 10
G1 X163
; Layer Corte Pass 7 of 10
G1 X183
; Layer Corte Pass 8 of 10
G1 X163
; Layer Corte Pass 9 of 10
G1 X183
; Layer Corte Pass 10 of 10
G1 X163
G0 X183Y726.65
; Layer Corte Pass 1 of 10
G1 Y723.35
; Layer Corte Pass 2 of 10
G1 Y726.65
; Layer Corte Pass 3 of 10
G1 Y723.35
; Layer Corte Pass 4 of 10
G1 Y726.65
; Layer Corte Pass 5 of 10
G1 Y723.35
; Layer Corte Pass 6 of 10
G1 Y726.65
; Layer Corte Pass 7 of 10
G1 Y723.35
; Layer Corte Pass 8 of 10
G1 Y726.65
; Layer Corte Pass 9 of 10
G1 Y723.35
; Layer Corte Pass 10 of 10
G1 Y726.65
G0 X183Y723.35
; Layer Corte Pass 1 of 10
G1 X203
; Layer Corte Pass 2 of 10
G1 X183
; Layer Corte Pass 3 of 10
G1 X203
; Layer Corte Pass 4 of 10
G1 X183
; Layer Corte Pass 5 of 10
G1 X203
; Layer Corte Pass 6 of 10
G1 X183
; Layer Corte Pass 7 of 10
G1 X203
; Layer Corte Pass 8 of 10
G1 X183
; Layer Corte Pass 9 of 10
G1 X203
; Layer Corte Pass 10 of 10
G1 X183
G0 X203Y723.35
; Layer Corte Pass 1 of 10
G1 Y726.65
; Layer Corte Pass 2 of 10
G1 Y723.35
; Layer Corte Pass 3 of 10
G1 Y726.65
; Layer Corte Pass 4 of 10
G1 Y723.35
; Layer Corte Pass 5 of 10
G1 Y726.65
; Layer Corte Pass 6 of 10
G1 Y723.35
; Layer Corte Pass 7 of 10
G1 Y726.65
; Layer Corte Pass 8 of 10
G1 Y723.35
; Layer Corte Pass 9 of 10
G1 Y726.65
; Layer Corte Pass 10 of 10
G1 Y723.35
G0 X203Y726.65
; Layer Corte Pass 1 of 10
G1 X223
; Layer Corte Pass 2 of 10
G1 X203
; Layer Corte Pass 3 of 10
G1 X223
; Layer Corte Pass 4 of 10
G1 X203
; Layer Corte Pass 5 of 10
G1 X223
; Layer Corte Pass 6 of 10
G1 X203
; Layer Corte Pass 7 of 10
G1 X223
; Layer Corte Pass 8 of 10
G1 X203
; Layer Corte Pass 9 of 10
G1 X223
; Layer Corte Pass 10 of 10
G1 X203
G0 X223Y726.65
; Layer Corte Pass 1 of 10
G1 Y723.35
; Layer Corte Pass 2 of 10
G1 Y726.65
; Layer Corte Pass 3 of 10
G1 Y723.35
; Layer Corte Pass 4 of 10
G1 Y726.65
; Layer Corte Pass 5 of 10
G1 Y723.35
; Layer Corte Pass 6 of 10
G1 Y726.65
; Layer Corte Pass 7 of 10
G1 Y723.35
; Layer Corte Pass 8 of 10
G1 Y726.65
; Layer Corte Pass 9 of 10
G1 Y723.35
; Layer Corte Pass 10 of 10
G1 Y726.65
G0 X223Y723.35
; Layer Corte Pass 1 of 10
G1 X243
; Layer Corte Pass 2 of 10
G1 X223
; Layer Corte Pass 3 of 10
G1 X243
; Layer Corte Pass 4 of 10
G1 X223
; Layer Corte Pass 5 of 10
G1 X243
; Layer Corte Pass 6 of 10
G1 X223
; Layer Corte Pass 7 of 10
G1 X243
; Layer Corte Pass 8 of 10
G1 X223
; Layer Corte Pass 9 of 10
G1 X243
; Layer Corte Pass 10 of 10
G1 X223
G0 X243Y723.35
; Layer Corte Pass 1 of 10
G1 Y726.65
; Layer Corte Pass 2 of 10
G1 Y723.35
; Layer Corte Pass 3 of 10
G1 Y726.65
; Layer Corte Pass 4 of 10
G1 Y723.35
; Layer Corte Pass 5 of 10
G1 Y726.65
; Layer Corte Pass 6 of 10
G1 Y723.35
; Layer Corte Pass 7 of 10
G1 Y726.65
; Layer Corte Pass 8 of 10
G1 Y723.35
; Layer Corte Pass 9 of 10
G1 Y726.65
; Layer Corte Pass 10 of 10
G1 Y723.35
G0 X243Y726.65
; Layer Corte Pass 1 of 10
G1 X263
; Layer Corte Pass 2 of 10
G1 X243
; Layer Corte Pass 3 of 10
G1 X263
; Layer Corte Pass 4 of 10
G1 X243
; Layer Corte Pass 5 of 10
G1 X263
; Layer Corte Pass 6 of 10
G1 X243
; Layer Corte Pass 7 of 10
G1 X263
; Layer Corte Pass 8 of 10
G1 X243
; Layer Corte Pass 9 of 10
G1 X263
; Layer Corte Pass 10 of 10
G1 X243
G0 X263Y726.65
; Layer Corte Pass 1 of 10
G1 Y723.35
; Layer Corte Pass 2 of 10
G1 Y726.65
; Layer Corte Pass 3 of 10
G1 Y723.35
; Layer Corte Pass 4 of 10
G1 Y726.65
; Layer Corte Pass 5 of 10
G1 Y723.35
; Layer Corte Pass 6 of 10
G1 Y726.65
; Layer Corte Pass 7 of 10
G1 Y723.35
; Layer Corte Pass 8 of 10
G1 Y726.65
; Layer Corte Pass 9 of 10
G1 Y723.35
; Layer Corte Pass 10 of 10
G1 Y726.65
G0 X263Y723.35
; Layer Corte Pass 1 of 10
G1 X283
; Layer Corte Pass 2 of 10
G1 X263
; Layer Corte Pass 3 of 10
G1 X283
; Layer Corte Pass 4 of 10
G1 X263
; Layer Corte Pass 5 of 10
G1 X283
; Layer Corte Pass 6 of 10
G1 X263
; Layer Corte Pass 7 of 10
G1 X283
; Layer Corte Pass 8 of 10
G1 X263
; Layer Corte Pass 9 of 10
G1 X283
; Layer Corte Pass 10 of 10
G1 X263
G0 X283Y723.35
; Layer Corte Pass 1 of 10
G1 Y784.65
G1 X23
G1 Y723.35
; Layer Corte Pass 2 of 10
G1 Y784.65
G1 X283
G1 Y723.35
; Layer Corte Pass 3 of 10
G1 Y784.65
G1 X23
G1 Y723.35
; Layer Corte Pass 4 of 10
G1 Y784.65
G1 X283
G1 Y723.35
; Layer Corte Pass 5 of 10
G1 Y784.65
G1 X23
G1 Y723.35
; Layer Corte Pass 6 of 10
G1 Y784.65
G1 X283
G1 Y723.35
; Layer Corte Pass 7 of 10
G1 Y784.65
G1 X23
G1 Y723.35
; Layer Corte Pass 8 of 10
G1 Y784.65
G1 X283
G1 Y723.35
; Layer Corte Pass 9 of 10
G1 Y784.65
G1 X23
G1 Y723.35
; Layer Corte Pass 10 of 10
G1 Y784.65
G1 X283
G1 Y723.35
G0 X297Y728.127
; Layer Corte Pass 1 of 10
G1 X300
; Layer Corte Pass 2 of 10
G1 X297
; Layer Corte Pass 3 of 10
G1 X300
; Layer Corte Pass 4 of 10
G1 X297
; Layer Corte Pass 5 of 10
G1 X300
; Layer Corte Pass 6 of 10
G1 X297
; Layer Corte Pass 7 of 10
G1 X300
; Layer Corte Pass 8 of 10
G1 X297
; Layer Corte Pass 9 of 10
G1 X300
; Layer Corte Pass 10 of 10
G1 X297
G0 X299.997Y728.127
; Layer Corte Pass 1 of 10
G1 Y766.752
; Layer Corte Pass 2 of 10
G1 Y728.127
; Layer Corte Pass 3 of 10
G1 Y766.752
; Layer Corte Pass 4 of 10
G1 Y728.127
; Layer Corte Pass 5 of 10
G1 Y766.752
; Layer Corte Pass 6 of 10
G1 Y728.127
; Layer Corte Pass 7 of 10
G1 Y766.752
; Layer Corte Pass 8 of 10
G1 Y728.127
; Layer Corte Pass 9 of 10
G1 Y766.752
; Layer Corte Pass 10 of 10
G1 Y728.127
G0 X299.995Y766.75
; Layer Corte Pass 1 of 10
G1 X492.492
; Layer Corte Pass 2 of 10
G1 X299.995
; Layer Corte Pass 3 of 10
G1 X492.492
; Layer Corte Pass 4 of 10
G1 X299.995
; Layer Corte Pass 5 of 10
G1 X492.492
; Layer Corte Pass 6 of 10
G1 X299.995
; Layer Corte Pass 7 of 10
G1 X492.492
; Layer Corte Pass 8 of 10
G1 X299.995
; Layer Corte Pass 9 of 10
G1 X492.492
; Layer Corte Pass 10 of 10
G1 X299.995
G0 X324.49Y703.751
; Layer Corte Pass 1 of 10
G1 X299.996
; Layer Corte Pass 2 of 10
G1 X324.49
; Layer Corte Pass 3 of 10
G1 X299.996
; Layer Corte Pass 4 of 10
G1 X324.49
; Layer Corte Pass 5 of 10
G1 X299.996
; Layer Corte Pass 6 of 10
G1 X324.49
; Layer Corte Pass 7 of 10
G1 X299.996
; Layer Corte Pass 8 of 10
G1 X324.49
; Layer Corte Pass 9 of 10
G1 X299.996
; Layer Corte Pass 10 of 10
G1 X324.49
G0 X300Y703.752
; Layer Corte Pass 1 of 10
G1 Y716.877
; Layer Corte Pass 2 of 10
G1 Y703.752
; Layer Corte Pass 3 of 10
G1 Y716.877
; Layer Corte Pass 4 of 10
G1 Y703.752
; Layer Corte Pass 5 of 10
G1 Y716.877
; Layer Corte Pass 6 of 10
G1 Y703.752
; Layer Corte Pass 7 of 10
G1 Y716.877
; Layer Corte Pass 8 of 10
G1 Y703.752
; Layer Corte Pass 9 of 10
G1 Y716.877
; Layer Corte Pass 10 of 10
G1 Y703.752
G0 X300Y716.877
; Layer Corte Pass 1 of 10
G1 X297
; Layer Corte Pass 2 of 10
G1 X300
; Layer Corte Pass 3 of 10
G1 X297
; Layer Corte Pass 4 of 10
G1 X300
; Layer Corte Pass 5 of 10
G1 X297
; Layer Corte Pass 6 of 10
G1 X300
; Layer Corte Pass 7 of 10
G1 X297
; Layer Corte Pass 8 of 10
G1 X300
; Layer Corte Pass 9 of 10
G1 X297
; Layer Corte Pass 10 of 10
G1 X300
G0 X297Y716.876
; Layer Corte Pass 1 of 10
G1 Y728.127
; Layer Corte Pass 2 of 10
G1 Y716.876
; Layer Corte Pass 3 of 10
G1 Y728.127
; Layer Corte Pass 4 of 10
G1 Y716.876
; Layer Corte Pass 5 of 10
G1 Y728.127
; Layer Corte Pass 6 of 10
G1 Y716.876
; Layer Corte Pass 7 of 10
G1 Y728.127
; Layer Corte Pass 8 of 10
G1 Y716.876
; Layer Corte Pass 9 of 10
G1 Y728.127
; Layer Corte Pass 10 of 10
G1 Y716.876
G0 X324.486Y706.75
; Layer Corte Pass 1 of 10
G1 Y703.752
; Layer Corte Pass 2 of 10
G1 Y706.75
; Layer Corte Pass 3 of 10
G1 Y703.752
; Layer Corte Pass 4 of 10
G1 Y706.75
; Layer Corte Pass 5 of 10
G1 Y703.752
; Layer Corte Pass 6 of 10
G1 Y706.75
; Layer Corte Pass 7 of 10
G1 Y703.752
; Layer Corte Pass 8 of 10
G1 Y706.75
; Layer Corte Pass 9 of 10
G1 Y703.752
; Layer Corte Pass 10 of 10
G1 Y706.75
G0 X324.486Y706.749
; Layer Corte Pass 1 of 10
G1 X335.738
; Layer Corte Pass 2 of 10
G1 X324.486
; Layer Corte Pass 3 of 10
G1 X335.738
; Layer Corte Pass 4 of 10
G1 X324.486
; Layer Corte Pass 5 of 10
G1 X335.738
; Layer Corte Pass 6 of 10
G1 X324.486
; Layer Corte Pass 7 of 10
G1 X335.738
; Layer Corte Pass 8 of 10
G1 X324.486
; Layer Corte Pass 9 of 10
G1 X335.738
; Layer Corte Pass 10 of 10
G1 X324.486
G0 X335.737Y706.75
; Layer Corte Pass 1 of 10
G1 Y703.751
; Layer Corte Pass 2 of 10
G1 Y706.75
; Layer Corte Pass 3 of 10
G1 Y703.751
; Layer Corte Pass 4 of 10
G1 Y706.75
; Layer Corte Pass 5 of 10
G1 Y703.751
; Layer Corte Pass 6 of 10
G1 Y706.75
; Layer Corte Pass 7 of 10
G1 Y703.751
; Layer Corte Pass 8 of 10
G1 Y706.75
; Layer Corte Pass 9 of 10
G1 Y703.751
; Layer Corte Pass 10 of 10
G1 Y706.75
G0 X335.741Y703.75
; Layer Corte Pass 1 of 10
G1 X346.616
; Layer Corte Pass 2 of 10
G1 X335.741
; Layer Corte Pass 3 of 10
G1 X346.616
; Layer Corte Pass 4 of 10
G1 X335.741
; Layer Corte Pass 5 of 10
G1 X346.616
; Layer Corte Pass 6 of 10
G1 X335.741
; Layer Corte Pass 7 of 10
G1 X346.616
; Layer Corte Pass 8 of 10
G1 X335.741
; Layer Corte Pass 9 of 10
G1 X346.616
; Layer Corte Pass 10 of 10
G1 X335.741
G0 X346.616Y703.752
; Layer Corte Pass 1 of 10
G1 Y706.75
; Layer Corte Pass 2 of 10
G1 Y703.752
; Layer Corte Pass 3 of 10
G1 Y706.75
; Layer Corte Pass 4 of 10
G1 Y703.752
; Layer Corte Pass 5 of 10
G1 Y706.75
; Layer Corte Pass 6 of 10
G1 Y703.752
; Layer Corte Pass 7 of 10
G1 Y706.75
; Layer Corte Pass 8 of 10
G1 Y703.752
; Layer Corte Pass 9 of 10
G1 Y706.75
; Layer Corte Pass 10 of 10
G1 Y703.752
G0 X346.616Y706.749
; Layer Corte Pass 1 of 10
G1 X357.868
; Layer Corte Pass 2 of 10
G1 X346.616
; Layer Corte Pass 3 of 10
G1 X357.868
; Layer Corte Pass 4 of 10
G1 X346.616
; Layer Corte Pass 5 of 10
G1 X357.868
; Layer Corte Pass 6 of 10
G1 X346.616
; Layer Corte Pass 7 of 10
G1 X357.868
; Layer Corte Pass 8 of 10
G1 X346.616
; Layer Corte Pass 9 of 10
G1 X357.868
; Layer Corte Pass 10 of 10
G1 X346.616
G0 X357.868Y706.75
; Layer Corte Pass 1 of 10
G1 Y703.751
; Layer Corte Pass 2 of 10
G1 Y706.75
; Layer Corte Pass 3 of 10
G1 Y703.751
; Layer Corte Pass 4 of 10
G1 Y706.75
; Layer Corte Pass 5 of 10
G1 Y703.751
; Layer Corte Pass 6 of 10
G1 Y706.75
; Layer Corte Pass 7 of 10
G1 Y703.751
; Layer Corte Pass 8 of 10
G1 Y706.75
; Layer Corte Pass 9 of 10
G1 Y703.751
; Layer Corte Pass 10 of 10
G1 Y706.75
G0 X357.871Y703.75
; Layer Corte Pass 1 of 10
G1 X368.746
; Layer Corte Pass 2 of 10
G1 X357.871
; Layer Corte Pass 3 of 10
G1 X368.746
; Layer Corte Pass 4 of 10
G1 X357.871
; Layer Corte Pass 5 of 10
G1 X368.746
; Layer Corte Pass 6 of 10
G1 X357.871
; Layer Corte Pass 7 of 10
G1 X368.746
; Layer Corte Pass 8 of 10
G1 X357.871
; Layer Corte Pass 9 of 10
G1 X368.746
; Layer Corte Pass 10 of 10
G1 X357.871
G0 X368.746Y703.751
; Layer Corte Pass 1 of 10
G1 Y706.75
; Layer Corte Pass 2 of 10
G1 Y703.751
; Layer Corte Pass 3 of 10
G1 Y706.75
; Layer Corte Pass 4 of 10
G1 Y703.751
; Layer Corte Pass 5 of 10
G1 Y706.75
; Layer Corte Pass 6 of 10
G1 Y703.751
; Layer Corte Pass 7 of 10
G1 Y706.75
; Layer Corte Pass 8 of 10
G1 Y703.751
; Layer Corte Pass 9 of 10
G1 Y706.75
; Layer Corte Pass 10 of 10
G1 Y703.751
G0 X368.746Y706.749
; Layer Corte Pass 1 of 10
G1 X379.998
; Layer Corte Pass 2 of 10
G1 X368.746
; Layer Corte Pass 3 of 10
G1 X379.998
; Layer Corte Pass 4 of 10
G1 X368.746
; Layer Corte Pass 5 of 10
G1 X379.998
; Layer Corte Pass 6 of 10
G1 X368.746
; Layer Corte Pass 7 of 10
G1 X379.998
; Layer Corte Pass 8 of 10
G1 X368.746
; Layer Corte Pass 9 of 10
G1 X379.998
; Layer Corte Pass 10 of 10
G1 X368.746
G0 X379.997Y706.75
; Layer Corte Pass 1 of 10
G1 Y703.751
; Layer Corte Pass 2 of 10
G1 Y706.75
; Layer Corte Pass 3 of 10
G1 Y703.751
; Layer Corte Pass 4 of 10
G1 Y706.75
; Layer Corte Pass 5 of 10
G1 Y703.751
; Layer Corte Pass 6 of 10
G1 Y706.75
; Layer Corte Pass 7 of 10
G1 Y703.751
; Layer Corte Pass 8 of 10
G1 Y706.75
; Layer Corte Pass 9 of 10
G1 Y703.751
; Layer Corte Pass 10 of 10
G1 Y706.75
G0 X380.001Y703.75
; Layer Corte Pass 1 of 10
G1 X390.876
; Layer Corte Pass 2 of 10
G1 X380.001
; Layer Corte Pass 3 of 10
G1 X390.876
; Layer Corte Pass 4 of 10
G1 X380.001
; Layer Corte Pass 5 of 10
G1 X390.876
; Layer Corte Pass 6 of 10
G1 X380.001
; Layer Corte Pass 7 of 10
G1 X390.876
; Layer Corte Pass 8 of 10
G1 X380.001
; Layer Corte Pass 9 of 10
G1 X390.876
; Layer Corte Pass 10 of 10
G1 X380.001
G0 X390.876Y703.751
; Layer Corte Pass 1 of 10
G1 Y706.75
; Layer Corte Pass 2 of 10
G1 Y703.751
; Layer Corte Pass 3 of 10
G1 Y706.75
; Layer Corte Pass 4 of 10
G1 Y703.751
; Layer Corte Pass 5 of 10
G1 Y706.75
; Layer Corte Pass 6 of 10
G1 Y703.751
; Layer Corte Pass 7 of 10
G1 Y706.75
; Layer Corte Pass 8 of 10
G1 Y703.751
; Layer Corte Pass 9 of 10
G1 Y706.75
; Layer Corte Pass 10 of 10
G1 Y703.751
G0 X390.876Y706.749
; Layer Corte Pass 1 of 10
G1 X402.128
; Layer Corte Pass 2 of 10
G1 X390.876
; Layer Corte Pass 3 of 10
G1 X402.128
; Layer Corte Pass 4 of 10
G1 X390.876
; Layer Corte Pass 5 of 10
G1 X402.128
; Layer Corte Pass 6 of 10
G1 X390.876
; Layer Corte Pass 7 of 10
G1 X402.128
; Layer Corte Pass 8 of 10
G1 X390.876
; Layer Corte Pass 9 of 10
G1 X402.128
; Layer Corte Pass 10 of 10
G1 X390.876
G0 X402.127Y706.75
; Layer Corte Pass 1 of 10
G1 Y703.751
; Layer Corte Pass 2 of 10
G1 Y706.75
; Layer Corte Pass 3 of 10
G1 Y703.751
; Layer Corte Pass 4 of 10
G1 Y706.75
; Layer Corte Pass 5 of 10
G1 Y703.751
; Layer Corte Pass 6 of 10
G1 Y706.75
; Layer Corte Pass 7 of 10
G1 Y703.751
; Layer Corte Pass 8 of 10
G1 Y706.75
; Layer Corte Pass 9 of 10
G1 Y703.751
; Layer Corte Pass 10 of 10
G1 Y706.75
G0 X402.121Y703.75
; Layer Corte Pass 1 of 10
G1 X412.996
; Layer Corte Pass 2 of 10
G1 X402.121
; Layer Corte Pass 3 of 10
G1 X412.996
; Layer Corte Pass 4 of 10
G1 X402.121
; Layer Corte Pass 5 of 10
G1 X412.996
; Layer Corte Pass 6 of 10
G1 X402.121
; Layer Corte Pass 7 of 10
G1 X412.996
; Layer Corte Pass 8 of 10
G1 X402.121
; Layer Corte Pass 9 of 10
G1 X412.996
; Layer Corte Pass 10 of 10
G1 X402.121
G0 X412.996Y703.751
; Layer Corte Pass 1 of 10
G1 Y706.75
; Layer Corte Pass 2 of 10
G1 Y703.751
; Layer Corte Pass 3 of 10
G1 Y706.75
; Layer Corte Pass 4 of 10
G1 Y703.751
; Layer Corte Pass 5 of 10
G1 Y706.75
; Layer Corte Pass 6 of 10
G1 Y703.751
; Layer Corte Pass 7 of 10
G1 Y706.75
; Layer Corte Pass 8 of 10
G1 Y703.751
; Layer Corte Pass 9 of 10
G1 Y706.75
; Layer Corte Pass 10 of 10
G1 Y703.751
G0 X412.996Y706.749
; Layer Corte Pass 1 of 10
G1 X424.248
; Layer Corte Pass 2 of 10
G1 X412.996
; Layer Corte Pass 3 of 10
G1 X424.248
; Layer Corte Pass 4 of 10
G1 X412.996
; Layer Corte Pass 5 of 10
G1 X424.248
; Layer Corte Pass 6 of 10
G1 X412.996
; Layer Corte Pass 7 of 10
G1 X424.248
; Layer Corte Pass 8 of 10
G1 X412.996
; Layer Corte Pass 9 of 10
G1 X424.248
; Layer Corte Pass 10 of 10
G1 X412.996
G0 X424.247Y706.75
; Layer Corte Pass 1 of 10
G1 Y703.751
; Layer Corte Pass 2 of 10
G1 Y706.75
; Layer Corte Pass 3 of 10
G1 Y703.751
; Layer Corte Pass 4 of 10
G1 Y706.75
; Layer Corte Pass 5 of 10
G1 Y703.751
; Layer Corte Pass 6 of 10
G1 Y706.75
; Layer Corte Pass 7 of 10
G1 Y703.751
; Layer Corte Pass 8 of 10
G1 Y706.75
; Layer Corte Pass 9 of 10
G1 Y703.751
; Layer Corte Pass 10 of 10
G1 Y706.75
G0 X424.251Y703.75
; Layer Corte Pass 1 of 10
G1 X435.126
; Layer Corte Pass 2 of 10
G1 X424.251
; Layer Corte Pass 3 of 10
G1 X435.126
; Layer Corte Pass 4 of 10
G1 X424.251
; Layer Corte Pass 5 of 10
G1 X435.126
; Layer Corte Pass 6 of 10
G1 X424.251
; Layer Corte Pass 7 of 10
G1 X435.126
; Layer Corte Pass 8 of 10
G1 X424.251
; Layer Corte Pass 9 of 10
G1 X435.126
; Layer Corte Pass 10 of 10
G1 X424.251
G0 X435.126Y703.751
; Layer Corte Pass 1 of 10
G1 Y706.75
; Layer Corte Pass 2 of 10
G1 Y703.751
; Layer Corte Pass 3 of 10
G1 Y706.75
; Layer Corte Pass 4 of 10
G1 Y703.751
; Layer Corte Pass 5 of 10
G1 Y706.75
; Layer Corte Pass 6 of 10
G1 Y703.751
; Layer Corte Pass 7 of 10
G1 Y706.75
; Layer Corte Pass 8 of 10
G1 Y703.751
; Layer Corte Pass 9 of 10
G1 Y706.75
; Layer Corte Pass 10 of 10
G1 Y703.751
G0 X435.126Y706.749
; Layer Corte Pass 1 of 10
G1 X446.378
; Layer Corte Pass 2 of 10
G1 X435.126
; Layer Corte Pass 3 of 10
G1 X446.378
; Layer Corte Pass 4 of 10
G1 X435.126
; Layer Corte Pass 5 of 10
G1 X446.378
; Layer Corte Pass 6 of 10
G1 X435.126
; Layer Corte Pass 7 of 10
G1 X446.378
; Layer Corte Pass 8 of 10
G1 X435.126
; Layer Corte Pass 9 of 10
G1 X446.378
; Layer Corte Pass 10 of 10
G1 X435.126
G0 X446.377Y706.75
; Layer Corte Pass 1 of 10
G1 Y703.751
; Layer Corte Pass 2 of 10
G1 Y706.75
; Layer Corte Pass 3 of 10
G1 Y703.751
; Layer Corte Pass 4 of 10
G1 Y706.75
; Layer Corte Pass 5 of 10
G1 Y703.751
; Layer Corte Pass 6 of 10
G1 Y706.75
; Layer Corte Pass 7 of 10
G1 Y703.751
; Layer Corte Pass 8 of 10
G1 Y706.75
; Layer Corte Pass 9 of 10
G1 Y703.751
; Layer Corte Pass 10 of 10
G1 Y706.75
G0 X446.371Y703.75
; Layer Corte Pass 1 of 10
G1 X457.246
; Layer Corte Pass 2 of 10
G1 X446.371
; Layer Corte Pass 3 of 10
G1 X457.246
; Layer Corte Pass 4 of 10
G1 X446.371
; Layer Corte Pass 5 of 10
G1 X457.246
; Layer Corte Pass 6 of 10
G1 X446.371
; Layer Corte Pass 7 of 10
G1 X457.246
; Layer Corte Pass 8 of 10
G1 X446.371
; Layer Corte Pass 9 of 10
G1 X457.246
; Layer Corte Pass 10 of 10
G1 X446.371
G0 X457.246Y703.751
; Layer Corte Pass 1 of 10
G1 Y706.75
; Layer Corte Pass 2 of 10
G1 Y703.751
; Layer Corte Pass 3 of 10
G1 Y706.75
; Layer Corte Pass 4 of 10
G1 Y703.751
; Layer Corte Pass 5 of 10
G1 Y706.75
; Layer Corte Pass 6 of 10
G1 Y703.751
; Layer Corte Pass 7 of 10
G1 Y706.75
; Layer Corte Pass 8 of 10
G1 Y703.751
; Layer Corte Pass 9 of 10
G1 Y706.75
; Layer Corte Pass 10 of 10
G1 Y703.751
G0 X457.246Y706.749
; Layer Corte Pass 1 of 10
G1 X468.498
; Layer Corte Pass 2 of 10
G1 X457.246
; Layer Corte Pass 3 of 10
G1 X468.498
; Layer Corte Pass 4 of 10
G1 X457.246
; Layer Corte Pass 5 of 10
G1 X468.498
; Layer Corte Pass 6 of 10
G1 X457.246
; Layer Corte Pass 7 of 10
G1 X468.498
; Layer Corte Pass 8 of 10
G1 X457.246
; Layer Corte Pass 9 of 10
G1 X468.498
; Layer Corte Pass 10 of 10
G1 X457.246
G0 X468.497Y706.75
; Layer Corte Pass 1 of 10
G1 Y703.751
; Layer Corte Pass 2 of 10
G1 Y706.75
; Layer Corte Pass 3 of 10
G1 Y703.751
; Layer Corte Pass 4 of 10
G1 Y706.75
; Layer Corte Pass 5 of 10
G1 Y703.751
; Layer Corte Pass 6 of 10
G1 Y706.75
; Layer Corte Pass 7 of 10
G1 Y703.751
; Layer Corte Pass 8 of 10
G1 Y706.75
; Layer Corte Pass 9 of 10
G1 Y703.751
; Layer Corte Pass 10 of 10
G1 Y706.75
G0 X468.501Y703.75
; Layer Corte Pass 1 of 10
G1 X479.376
; Layer Corte Pass 2 of 10
G1 X468.501
; Layer Corte Pass 3 of 10
G1 X479.376
; Layer Corte Pass 4 of 10
G1 X468.501
; Layer Corte Pass 5 of 10
G1 X479.376
; Layer Corte Pass 6 of 10
G1 X468.501
; Layer Corte Pass 7 of 10
G1 X479.376
; Layer Corte Pass 8 of 10
G1 X468.501
; Layer Corte Pass 9 of 10
G1 X479.376
; Layer Corte Pass 10 of 10
G1 X468.501
G0 X479.376Y703.751
; Layer Corte Pass 1 of 10
G1 Y706.75
; Layer Corte Pass 2 of 10
G1 Y703.751
; Layer Corte Pass 3 of 10
G1 Y706.75
; Layer Corte Pass 4 of 10
G1 Y703.751
; Layer Corte Pass 5 of 10
G1 Y706.75
; Layer Corte Pass 6 of 10
G1 Y703.751
; Layer Corte Pass 7 of 10
G1 Y706.75
; Layer Corte Pass 8 of 10
G1 Y703.751
; Layer Corte Pass 9 of 10
G1 Y706.75
; Layer Corte Pass 10 of 10
G1 Y703.751
G0 X479.376Y706.749
; Layer Corte Pass 1 of 10
G1 X490.628
; Layer Corte Pass 2 of 10
G1 X479.376
; Layer Corte Pass 3 of 10
G1 X490.628
; Layer Corte Pass 4 of 10
G1 X479.376
; Layer Corte Pass 5 of 10
G1 X490.628
; Layer Corte Pass 6 of 10
G1 X479.376
; Layer Corte Pass 7 of 10
G1 X490.628
; Layer Corte Pass 8 of 10
G1 X479.376
; Layer Corte Pass 9 of 10
G1 X490.628
; Layer Corte Pass 10 of 10
G1 X479.376
G0 X490.627Y706.75
; Layer Corte Pass 1 of 10
G1 Y703.751
; Layer Corte Pass 2 of 10
G1 Y706.75
; Layer Corte Pass 3 of 10
G1 Y703.751
; Layer Corte Pass 4 of 10
G1 Y706.75
; Layer Corte Pass 5 of 10
G1 Y703.751
; Layer Corte Pass 6 of 10
G1 Y706.75
; Layer Corte Pass 7 of 10
G1 Y703.751
; Layer Corte Pass 8 of 10
G1 Y706.75
; Layer Corte Pass 9 of 10
G1 Y703.751
; Layer Corte Pass 10 of 10
G1 Y706.75
G0 X490.627Y703.752
; Layer Corte Pass 1 of 10
G1 X509.369
; Layer Corte Pass 2 of 10
G1 X490.627
; Layer Corte Pass 3 of 10
G1 X509.369
; Layer Corte Pass 4 of 10
G1 X490.627
; Layer Corte Pass 5 of 10
G1 X509.369
; Layer Corte Pass 6 of 10
G1 X490.627
; Layer Corte Pass 7 of 10
G1 X509.369
; Layer Corte Pass 8 of 10
G1 X490.627
; Layer Corte Pass 9 of 10
G1 X509.369
; Layer Corte Pass 10 of 10
G1 X490.627
G0 X509.366Y703.751
; Layer Corte Pass 1 of 10
G1 Y706.75
; Layer Corte Pass 2 of 10
G1 Y703.751
; Layer Corte Pass 3 of 10
G1 Y706.75
; Layer Corte Pass 4 of 10
G1 Y703.751
; Layer Corte Pass 5 of 10
G1 Y706.75
; Layer Corte Pass 6 of 10
G1 Y703.751
; Layer Corte Pass 7 of 10
G1 Y706.75
; Layer Corte Pass 8 of 10
G1 Y703.751
; Layer Corte Pass 9 of 10
G1 Y706.75
; Layer Corte Pass 10 of 10
G1 Y703.751
G0 X509.356Y706.749
; Layer Corte Pass 1 of 10
G1 X520.606
; Layer Corte Pass 2 of 10
G1 X509.356
; Layer Corte Pass 3 of 10
G1 X520.606
; Layer Corte Pass 4 of 10
G1 X509.356
; Layer Corte Pass 5 of 10
G1 X520.606
; Layer Corte Pass 6 of 10
G1 X509.356
; Layer Corte Pass 7 of 10
G1 X520.606
; Layer Corte Pass 8 of 10
G1 X509.356
; Layer Corte Pass 9 of 10
G1 X520.606
; Layer Corte Pass 10 of 10
G1 X509.356
G0 X520.616Y706.75
; Layer Corte Pass 1 of 10
G1 Y703.751
; Layer Corte Pass 2 of 10
G1 Y706.75
; Layer Corte Pass 3 of 10
G1 Y703.751
; Layer Corte Pass 4 of 10
G1 Y706.75
; Layer Corte Pass 5 of 10
G1 Y703.751
; Layer Corte Pass 6 of 10
G1 Y706.75
; Layer Corte Pass 7 of 10
G1 Y703.751
; Layer Corte Pass 8 of 10
G1 Y706.75
; Layer Corte Pass 9 of 10
G1 Y703.751
; Layer Corte Pass 10 of 10
G1 Y706.75
G0 X520.606Y703.75
; Layer Corte Pass 1 of 10
G1 X531.482
; Layer Corte Pass 2 of 10
G1 X520.606
; Layer Corte Pass 3 of 10
G1 X531.482
; Layer Corte Pass 4 of 10
G1 X520.606
; Layer Corte Pass 5 of 10
G1 X531.482
; Layer Corte Pass 6 of 10
G1 X520.606
; Layer Corte Pass 7 of 10
G1 X531.482
; Layer Corte Pass 8 of 10
G1 X520.606
; Layer Corte Pass 9 of 10
G1 X531.482
; Layer Corte Pass 10 of 10
G1 X520.606
G0 X531.495Y703.751
; Layer Corte Pass 1 of 10
G1 Y706.75
; Layer Corte Pass 2 of 10
G1 Y703.751
; Layer Corte Pass 3 of 10
G1 Y706.75
; Layer Corte Pass 4 of 10
G1 Y703.751
; Layer Corte Pass 5 of 10
G1 Y706.75
; Layer Corte Pass 6 of 10
G1 Y703.751
; Layer Corte Pass 7 of 10
G1 Y706.75
; Layer Corte Pass 8 of 10
G1 Y703.751
; Layer Corte Pass 9 of 10
G1 Y706.75
; Layer Corte Pass 10 of 10
G1 Y703.751
G0 X531.486Y706.749
; Layer Corte Pass 1 of 10
G1 X542.736
; Layer Corte Pass 2 of 10
G1 X531.486
; Layer Corte Pass 3 of 10
G1 X542.736
; Layer Corte Pass 4 of 10
G1 X531.486
; Layer Corte Pass 5 of 10
G1 X542.736
; Layer Corte Pass 6 of 10
G1 X531.486
; Layer Corte Pass 7 of 10
G1 X542.736
; Layer Corte Pass 8 of 10
G1 X531.486
; Layer Corte Pass 9 of 10
G1 X542.736
; Layer Corte Pass 10 of 10
G1 X531.486
G0 X542.746Y706.75
; Layer Corte Pass 1 of 10
G1 Y703.751
; Layer Corte Pass 2 of 10
G1 Y706.75
; Layer Corte Pass 3 of 10
G1 Y703.751
; Layer Corte Pass 4 of 10
G1 Y706.75
; Layer Corte Pass 5 of 10
G1 Y703.751
; Layer Corte Pass 6 of 10
G1 Y706.75
; Layer Corte Pass 7 of 10
G1 Y703.751
; Layer Corte Pass 8 of 10
G1 Y706.75
; Layer Corte Pass 9 of 10
G1 Y703.751
; Layer Corte Pass 10 of 10
G1 Y706.75
G0 X542.736Y703.75
; Layer Corte Pass 1 of 10
G1 X553.612
; Layer Corte Pass 2 of 10
G1 X542.736
; Layer Corte Pass 3 of 10
G1 X553.612
; Layer Corte Pass 4 of 10
G1 X542.736
; Layer Corte Pass 5 of 10
G1 X553.612
; Layer Corte Pass 6 of 10
G1 X542.736
; Layer Corte Pass 7 of 10
G1 X553.612
; Layer Corte Pass 8 of 10
G1 X542.736
; Layer Corte Pass 9 of 10
G1 X553.612
; Layer Corte Pass 10 of 10
G1 X542.736
G0 X553.625Y703.751
; Layer Corte Pass 1 of 10
G1 Y706.75
; Layer Corte Pass 2 of 10
G1 Y703.751
; Layer Corte Pass 3 of 10
G1 Y706.75
; Layer Corte Pass 4 of 10
G1 Y703.751
; Layer Corte Pass 5 of 10
G1 Y706.75
; Layer Corte Pass 6 of 10
G1 Y703.751
; Layer Corte Pass 7 of 10
G1 Y706.75
; Layer Corte Pass 8 of 10
G1 Y703.751
; Layer Corte Pass 9 of 10
G1 Y706.75
; Layer Corte Pass 10 of 10
G1 Y703.751
G0 X553.616Y706.749
; Layer Corte Pass 1 of 10
G1 X564.866
; Layer Corte Pass 2 of 10
G1 X553.616
; Layer Corte Pass 3 of 10
G1 X564.866
; Layer Corte Pass 4 of 10
G1 X553.616
; Layer Corte Pass 5 of 10
G1 X564.866
; Layer Corte Pass 6 of 10
G1 X553.616
; Layer Corte Pass 7 of 10
G1 X564.866
; Layer Corte Pass 8 of 10
G1 X553.616
; Layer Corte Pass 9 of 10
G1 X564.866
; Layer Corte Pass 10 of 10
G1 X553.616
G0 X564.876Y706.75
; Layer Corte Pass 1 of 10
G1 Y703.751
; Layer Corte Pass 2 of 10
G1 Y706.75
; Layer Corte Pass 3 of 10
G1 Y703.751
; Layer Corte Pass 4 of 10
G1 Y706.75
; Layer Corte Pass 5 of 10
G1 Y703.751
; Layer Corte Pass 6 of 10
G1 Y706.75
; Layer Corte Pass 7 of 10
G1 Y703.751
; Layer Corte Pass 8 of 10
G1 Y706.75
; Layer Corte Pass 9 of 10
G1 Y703.751
; Layer Corte Pass 10 of 10
G1 Y706.75
G0 X564.866Y703.75
; Layer Corte Pass 1 of 10
G1 X575.742
; Layer Corte Pass 2 of 10
G1 X564.866
; Layer Corte Pass 3 of 10
G1 X575.742
; Layer Corte Pass 4 of 10
G1 X564.866
; Layer Corte Pass 5 of 10
G1 X575.742
; Layer Corte Pass 6 of 10
G1 X564.866
; Layer Corte Pass 7 of 10
G1 X575.742
; Layer Corte Pass 8 of 10
G1 X564.866
; Layer Corte Pass 9 of 10
G1 X575.742
; Layer Corte Pass 10 of 10
G1 X564.866
G0 X575.745Y703.751
; Layer Corte Pass 1 of 10
G1 Y706.75
; Layer Corte Pass 2 of 10
G1 Y703.751
; Layer Corte Pass 3 of 10
G1 Y706.75
; Layer Corte Pass 4 of 10
G1 Y703.751
; Layer Corte Pass 5 of 10
G1 Y706.75
; Layer Corte Pass 6 of 10
G1 Y703.751
; Layer Corte Pass 7 of 10
G1 Y706.75
; Layer Corte Pass 8 of 10
G1 Y703.751
; Layer Corte Pass 9 of 10
G1 Y706.75
; Layer Corte Pass 10 of 10
G1 Y703.751
G0 X575.746Y706.749
; Layer Corte Pass 1 of 10
G1 X586.996
; Layer Corte Pass 2 of 10
G1 X575.746
; Layer Corte Pass 3 of 10
G1 X586.996
; Layer Corte Pass 4 of 10
G1 X575.746
; Layer Corte Pass 5 of 10
G1 X586.996
; Layer Corte Pass 6 of 10
G1 X575.746
; Layer Corte Pass 7 of 10
G1 X586.996
; Layer Corte Pass 8 of 10
G1 X575.746
; Layer Corte Pass 9 of 10
G1 X586.996
; Layer Corte Pass 10 of 10
G1 X575.746
G0 X586.996Y706.75
; Layer Corte Pass 1 of 10
G1 Y703.751
; Layer Corte Pass 2 of 10
G1 Y706.75
; Layer Corte Pass 3 of 10
G1 Y703.751
; Layer Corte Pass 4 of 10
G1 Y706.75
; Layer Corte Pass 5 of 10
G1 Y703.751
; Layer Corte Pass 6 of 10
G1 Y706.75
; Layer Corte Pass 7 of 10
G1 Y703.751
; Layer Corte Pass 8 of 10
G1 Y706.75
; Layer Corte Pass 9 of 10
G1 Y703.751
; Layer Corte Pass 10 of 10
G1 Y706.75
G0 X586.996Y703.75
; Layer Corte Pass 1 of 10
G1 X597.872
; Layer Corte Pass 2 of 10
G1 X586.996
; Layer Corte Pass 3 of 10
G1 X597.872
; Layer Corte Pass 4 of 10
G1 X586.996
; Layer Corte Pass 5 of 10
G1 X597.872
; Layer Corte Pass 6 of 10
G1 X586.996
; Layer Corte Pass 7 of 10
G1 X597.872
; Layer Corte Pass 8 of 10
G1 X586.996
; Layer Corte Pass 9 of 10
G1 X597.872
; Layer Corte Pass 10 of 10
G1 X586.996
G0 X597.875Y703.751
; Layer Corte Pass 1 of 10
G1 Y706.75
; Layer Corte Pass 2 of 10
G1 Y703.751
; Layer Corte Pass 3 of 10
G1 Y706.75
; Layer Corte Pass 4 of 10
G1 Y703.751
; Layer Corte Pass 5 of 10
G1 Y706.75
; Layer Corte Pass 6 of 10
G1 Y703.751
; Layer Corte Pass 7 of 10
G1 Y706.75
; Layer Corte Pass 8 of 10
G1 Y703.751
; Layer Corte Pass 9 of 10
G1 Y706.75
; Layer Corte Pass 10 of 10
G1 Y703.751
G0 X597.876Y706.749
; Layer Corte Pass 1 of 10
G1 X609.126
; Layer Corte Pass 2 of 10
G1 X597.876
; Layer Corte Pass 3 of 10
G1 X609.126
; Layer Corte Pass 4 of 10
G1 X597.876
; Layer Corte Pass 5 of 10
G1 X609.126
; Layer Corte Pass 6 of 10
G1 X597.876
; Layer Corte Pass 7 of 10
G1 X609.126
; Layer Corte Pass 8 of 10
G1 X597.876
; Layer Corte Pass 9 of 10
G1 X609.126
; Layer Corte Pass 10 of 10
G1 X597.876
G0 X609.126Y706.75
; Layer Corte Pass 1 of 10
G1 Y703.751
; Layer Corte Pass 2 of 10
G1 Y706.75
; Layer Corte Pass 3 of 10
G1 Y703.751
; Layer Corte Pass 4 of 10
G1 Y706.75
; Layer Corte Pass 5 of 10
G1 Y703.751
; Layer Corte Pass 6 of 10
G1 Y706.75
; Layer Corte Pass 7 of 10
G1 Y703.751
; Layer Corte Pass 8 of 10
G1 Y706.75
; Layer Corte Pass 9 of 10
G1 Y703.751
; Layer Corte Pass 10 of 10
G1 Y706.75
G0 X609.126Y703.75
; Layer Corte Pass 1 of 10
G1 X620.002
; Layer Corte Pass 2 of 10
G1 X609.126
; Layer Corte Pass 3 of 10
G1 X620.002
; Layer Corte Pass 4 of 10
G1 X609.126
; Layer Corte Pass 5 of 10
G1 X620.002
; Layer Corte Pass 6 of 10
G1 X609.126
; Layer Corte Pass 7 of 10
G1 X620.002
; Layer Corte Pass 8 of 10
G1 X609.126
; Layer Corte Pass 9 of 10
G1 X620.002
; Layer Corte Pass 10 of 10
G1 X609.126
G0 X699.995Y766.749
; Layer Corte Pass 1 of 10
G1 X507.49
; Layer Corte Pass 2 of 10
G1 X699.995
; Layer Corte Pass 3 of 10
G1 X507.49
; Layer Corte Pass 4 of 10
G1 X699.995
; Layer Corte Pass 5 of 10
G1 X507.49
; Layer Corte Pass 6 of 10
G1 X699.995
; Layer Corte Pass 7 of 10
G1 X507.49
; Layer Corte Pass 8 of 10
G1 X699.995
; Layer Corte Pass 9 of 10
G1 X507.49
; Layer Corte Pass 10 of 10
G1 X699.995
G0 X507.496Y766.75
; Layer Corte Pass 1 of 10
G1 Y771.25
; Layer Corte Pass 2 of 10
G1 Y766.75
; Layer Corte Pass 3 of 10
G1 Y771.25
; Layer Corte Pass 4 of 10
G1 Y766.75
; Layer Corte Pass 5 of 10
G1 Y771.25
; Layer Corte Pass 6 of 10
G1 Y766.75
; Layer Corte Pass 7 of 10
G1 Y771.25
; Layer Corte Pass 8 of 10
G1 Y766.75
; Layer Corte Pass 9 of 10
G1 Y771.25
; Layer Corte Pass 10 of 10
G1 Y766.75
G0 X507.496Y771.25
; Layer Corte Pass 1 of 10
G1 Y771.543
; Layer Corte Pass 2 of 10
G1 Y771.25
; Layer Corte Pass 3 of 10
G1 Y771.543
; Layer Corte Pass 4 of 10
G1 Y771.25
; Layer Corte Pass 5 of 10
G1 Y771.543
; Layer Corte Pass 6 of 10
G1 Y771.25
; Layer Corte Pass 7 of 10
G1 Y771.543
; Layer Corte Pass 8 of 10
G1 Y771.25
; Layer Corte Pass 9 of 10
G1 Y771.543
; Layer Corte Pass 10 of 10
G1 Y771.25
G0 X507.496Y771.543
; Layer Corte Pass 1 of 10
G1 X507.26Y772.416
; Layer Corte Pass 2 of 10
G1 X507.496Y771.543
; Layer Corte Pass 3 of 10
G1 X507.26Y772.416
; Layer Corte Pass 4 of 10
G1 X507.496Y771.543
; Layer Corte Pass 5 of 10
G1 X507.26Y772.416
; Layer Corte Pass 6 of 10
G1 X507.496Y771.543
; Layer Corte Pass 7 of 10
G1 X507.26Y772.416
; Layer Corte Pass 8 of 10
G1 X507.496Y771.543
; Layer Corte Pass 9 of 10
G1 X507.26Y772.416
; Layer Corte Pass 10 of 10
G1 X507.496Y771.543
G0 X507.26Y772.416
; Layer Corte Pass 1 of 10
G1 X506.617Y773.371
; Layer Corte Pass 2 of 10
G1 X507.26Y772.416
; Layer Corte Pass 3 of 10
G1 X506.617Y773.371
; Layer Corte Pass 4 of 10
G1 X507.26Y772.416
; Layer Corte Pass 5 of 10
G1 X506.617Y773.371
; Layer Corte Pass 6 of 10
G1 X507.26Y772.416
; Layer Corte Pass 7 of 10
G1 X506.617Y773.371
; Layer Corte Pass 8 of 10
G1 X507.26Y772.416
; Layer Corte Pass 9 of 10
G1 X506.617Y773.371
; Layer Corte Pass 10 of 10
G1 X507.26Y772.416
G0 X506.617Y773.371
; Layer Corte Pass 1 of 10
G1 X505.662Y774.015
; Layer Corte Pass 2 of 10
G1 X506.617Y773.371
; Layer Corte Pass 3 of 10
G1 X505.662Y774.015
; Layer Corte Pass 4 of 10
G1 X506.617Y773.371
; Layer Corte Pass 5 of 10
G1 X505.662Y774.015
; Layer Corte Pass 6 of 10
G1 X506.617Y773.371
; Layer Corte Pass 7 of 10
G1 X505.662Y774.015
; Layer Corte Pass 8 of 10
G1 X506.617Y773.371
; Layer Corte Pass 9 of 10
G1 X505.662Y774.015
; Layer Corte Pass 10 of 10
G1 X506.617Y773.371
G0 X505.662Y774.015
; Layer Corte Pass 1 of 10
G1 X504.788Y774.25
; Layer Corte Pass 2 of 10
G1 X505.662Y774.015
; Layer Corte Pass 3 of 10
G1 X504.788Y774.25
; Layer Corte Pass 4 of 10
G1 X505.662Y774.015
; Layer Corte Pass 5 of 10
G1 X504.788Y774.25
; Layer Corte Pass 6 of 10
G1 X505.662Y774.015
; Layer Corte Pass 7 of 10
G1 X504.788Y774.25
; Layer Corte Pass 8 of 10
G1 X505.662Y774.015
; Layer Corte Pass 9 of 10
G1 X504.788Y774.25
; Layer Corte Pass 10 of 10
G1 X505.662Y774.015
G0 X504.788Y774.25
; Layer Corte Pass 1 of 10
G1 X504.496
; Layer Corte Pass 2 of 10
G1 X504.788
; Layer Corte Pass 3 of 10
G1 X504.496
; Layer Corte Pass 4 of 10
G1 X504.788
; Layer Corte Pass 5 of 10
G1 X504.496
; Layer Corte Pass 6 of 10
G1 X504.788
; Layer Corte Pass 7 of 10
G1 X504.496
; Layer Corte Pass 8 of 10
G1 X504.788
; Layer Corte Pass 9 of 10
G1 X504.496
; Layer Corte Pass 10 of 10
G1 X504.788
G0 X504.496Y774.25
; Layer Corte Pass 1 of 10
G1 X495.497
; Layer Corte Pass 2 of 10
G1 X504.496
; Layer Corte Pass 3 of 10
G1 X495.497
; Layer Corte Pass 4 of 10
G1 X504.496
; Layer Corte Pass 5 of 10
G1 X495.497
; Layer Corte Pass 6 of 10
G1 X504.496
; Layer Corte Pass 7 of 10
G1 X495.497
; Layer Corte Pass 8 of 10
G1 X504.496
; Layer Corte Pass 9 of 10
G1 X495.497
; Layer Corte Pass 10 of 10
G1 X504.496
G0 X495.497Y774.25
; Layer Corte Pass 1 of 10
G1 X495.206
; Layer Corte Pass 2 of 10
G1 X495.497
; Layer Corte Pass 3 of 10
G1 X495.206
; Layer Corte Pass 4 of 10
G1 X495.497
; Layer Corte Pass 5 of 10
G1 X495.206
; Layer Corte Pass 6 of 10
G1 X495.497
; Layer Corte Pass 7 of 10
G1 X495.206
; Layer Corte Pass 8 of 10
G1 X495.497
; Layer Corte Pass 9 of 10
G1 X495.206
; Layer Corte Pass 10 of 10
G1 X495.497
G0 X495.206Y774.25
; Layer Corte Pass 1 of 10
G1 X494.331Y774.015
; Layer Corte Pass 2 of 10
G1 X495.206Y774.25
; Layer Corte Pass 3 of 10
G1 X494.331Y774.015
; Layer Corte Pass 4 of 10
G1 X495.206Y774.25
; Layer Corte Pass 5 of 10
G1 X494.331Y774.015
; Layer Corte Pass 6 of 10
G1 X495.206Y774.25
; Layer Corte Pass 7 of 10
G1 X494.331Y774.015
; Layer Corte Pass 8 of 10
G1 X495.206Y774.25
; Layer Corte Pass 9 of 10
G1 X494.331Y774.015
; Layer Corte Pass 10 of 10
G1 X495.206Y774.25
G0 X494.331Y774.015
; Layer Corte Pass 1 of 10
G1 X493.378Y773.371
; Layer Corte Pass 2 of 10
G1 X494.331Y774.015
; Layer Corte Pass 3 of 10
G1 X493.378Y773.371
; Layer Corte Pass 4 of 10
G1 X494.331Y774.015
; Layer Corte Pass 5 of 10
G1 X493.378Y773.371
; Layer Corte Pass 6 of 10
G1 X494.331Y774.015
; Layer Corte Pass 7 of 10
G1 X493.378Y773.371
; Layer Corte Pass 8 of 10
G1 X494.331Y774.015
; Layer Corte Pass 9 of 10
G1 X493.378Y773.371
; Layer Corte Pass 10 of 10
G1 X494.331Y774.015
G0 X493.378Y773.371
; Layer Corte Pass 1 of 10
G1 X492.734Y772.416
; Layer Corte Pass 2 of 10
G1 X493.378Y773.371
; Layer Corte Pass 3 of 10
G1 X492.734Y772.416
; Layer Corte Pass 4 of 10
G1 X493.378Y773.371
; Layer Corte Pass 5 of 10
G1 X492.734Y772.416
; Layer Corte Pass 6 of 10
G1 X493.378Y773.371
; Layer Corte Pass 7 of 10
G1 X492.734Y772.416
; Layer Corte Pass 8 of 10
G1 X493.378Y773.371
; Layer Corte Pass 9 of 10
G1 X492.734Y772.416
; Layer Corte Pass 10 of 10
G1 X493.378Y773.371
G0 X492.734Y772.416
; Layer Corte Pass 1 of 10
G1 X492.497Y771.543
; Layer Corte Pass 2 of 10
G1 X492.734Y772.416
; Layer Corte Pass 3 of 10
G1 X492.497Y771.543
; Layer Corte Pass 4 of 10
G1 X492.734Y772.416
; Layer Corte Pass 5 of 10
G1 X492.497Y771.543
; Layer Corte Pass 6 of 10
G1 X492.734Y772.416
; Layer Corte Pass 7 of 10
G1 X492.497Y771.543
; Layer Corte Pass 8 of 10
G1 X492.734Y772.416
; Layer Corte Pass 9 of 10
G1 X492.497Y771.543
; Layer Corte Pass 10 of 10
G1 X492.734Y772.416
G0 X492.497Y771.543
; Layer Corte Pass 1 of 10
G1 Y771.25
; Layer Corte Pass 2 of 10
G1 Y771.543
; Layer Corte Pass 3 of 10
G1 Y771.25
; Layer Corte Pass 4 of 10
G1 Y771.543
; Layer Corte Pass 5 of 10
G1 Y771.25
; Layer Corte Pass 6 of 10
G1 Y771.543
; Layer Corte Pass 7 of 10
G1 Y771.25
; Layer Corte Pass 8 of 10
G1 Y771.543
; Layer Corte Pass 9 of 10
G1 Y771.25
; Layer Corte Pass 10 of 10
G1 Y771.543
G0 X492.497Y771.25
; Layer Corte Pass 1 of 10
G1 Y766.75
; Layer Corte Pass 2 of 10
G1 Y771.25
; Layer Corte Pass 3 of 10
G1 Y766.75
; Layer Corte Pass 4 of 10
G1 Y771.25
; Layer Corte Pass 5 of 10
G1 Y766.75
; Layer Corte Pass 6 of 10
G1 Y771.25
; Layer Corte Pass 7 of 10
G1 Y766.75
; Layer Corte Pass 8 of 10
G1 Y771.25
; Layer Corte Pass 9 of 10
G1 Y766.75
; Layer Corte Pass 10 of 10
G1 Y771.25
G0 X498.636Y768.761
; Layer Corte Pass 1 of 10
G1 Y771.484
; Layer Corte Pass 2 of 10
G1 Y768.761
; Layer Corte Pass 3 of 10
G1 Y771.484
; Layer Corte Pass 4 of 10
G1 Y768.761
; Layer Corte Pass 5 of 10
G1 Y771.484
; Layer Corte Pass 6 of 10
G1 Y768.761
; Layer Corte Pass 7 of 10
G1 Y771.484
; Layer Corte Pass 8 of 10
G1 Y768.761
; Layer Corte Pass 9 of 10
G1 Y771.484
; Layer Corte Pass 10 of 10
G1 Y768.761
G0 X498.636Y771.484
; Layer Corte Pass 1 of 10
G1 X501.36
; Layer Corte Pass 2 of 10
G1 X498.636
; Layer Corte Pass 3 of 10
G1 X501.36
; Layer Corte Pass 4 of 10
G1 X498.636
; Layer Corte Pass 5 of 10
G1 X501.36
; Layer Corte Pass 6 of 10
G1 X498.636
; Layer Corte Pass 7 of 10
G1 X501.36
; Layer Corte Pass 8 of 10
G1 X498.636
; Layer Corte Pass 9 of 10
G1 X501.36
; Layer Corte Pass 10 of 10
G1 X498.636
G0 X501.36Y771.484
; Layer Corte Pass 1 of 10
G1 Y768.761
; Layer Corte Pass 2 of 10
G1 Y771.484
; Layer Corte Pass 3 of 10
G1 Y768.761
; Layer Corte Pass 4 of 10
G1 Y771.484
; Layer Corte Pass 5 of 10
G1 Y768.761
; Layer Corte Pass 6 of 10
G1 Y771.484
; Layer Corte Pass 7 of 10
G1 Y768.761
; Layer Corte Pass 8 of 10
G1 Y771.484
; Layer Corte Pass 9 of 10
G1 Y768.761
; Layer Corte Pass 10 of 10
G1 Y771.484
G0 X501.36Y768.761
; Layer Corte Pass 1 of 10
G1 X498.636
; Layer Corte Pass 2 of 10
G1 X501.36
; Layer Corte Pass 3 of 10
G1 X498.636
; Layer Corte Pass 4 of 10
G1 X501.36
; Layer Corte Pass 5 of 10
G1 X498.636
; Layer Corte Pass 6 of 10
G1 X501.36
; Layer Corte Pass 7 of 10
G1 X498.636
; Layer Corte Pass 8 of 10
G1 X501.36
; Layer Corte Pass 9 of 10
G1 X498.636
; Layer Corte Pass 10 of 10
G1 X501.36
G0 X427.035Y652.484
; Layer Corte Pass 1 of 10
G1 X425.25Y652.942
G1 X423.462Y653.368
G1 X421.67Y653.764
G1 X419.876Y654.129
G1 X418.08Y654.463
G1 X416.281Y654.767
G1 X414.479Y655.039
G1 X412.246Y655.289
G1 X410.012Y655.503
G1 X407.777Y655.679
G1 X405.541Y655.819
G1 X403.304Y655.921
G1 X401.066Y655.986
G1 X398.828Y656.014
G1 X396.59
G1 X392.404Y655.977
G1 X388.219Y655.897
G1 X384.034Y655.765
G1 X379.85Y655.583
G1 X378Y655.345
G1 X376.153Y655.067
G1 X374.31Y654.748
G1 X372.47Y654.39
G1 X370.633Y653.991
G1 X368.801Y653.552
G1 X366.972Y653.074
G1 X365.149Y652.556
G1 X363.329Y651.998
G1 X361.515Y651.4
G1 X359.706Y650.763
G1 X357.903Y650.086
G1 X356.105Y649.37
G1 X354.313Y648.614
G1 X352.528Y647.82
G1 X350.749Y646.986
G1 X349.047Y646.144
G1 X347.356Y645.259
G1 X345.674Y644.329
G1 X344.004Y643.355
G1 X342.344Y642.337
G1 X340.696Y641.276
G1 X339.06Y640.172
G1 X337.435Y639.025
G1 X335.823Y637.835
G1 X334.223Y636.603
G1 X332.637Y635.328
G1 X331.064Y634.012
G1 X329.505Y632.654
G1 X327.96Y631.254
G1 X326.429Y629.813
G1 X324.913Y628.331
G1 X322.81Y626.171
G1 X320.749Y623.923
G1 X318.73Y621.589
G1 X316.755Y619.169
G1 X314.824Y616.667
G1 X312.938Y614.084
G1 X311.099Y611.42
G1 X309.307Y608.678
G1 X307.563Y605.859
G1 X305.869Y602.965
G1 X304.226Y599.997
G1 X302.634Y596.957
G1 X301.094Y593.847
G1 X299.608Y590.668
G1 X298.176Y587.422
G1 X296.8Y584.11
G1 X295.854Y581.627
G1 X294.933Y579.122
G1 X294.035Y576.595
G1 X293.163Y574.047
G1 X292.315Y571.479
G1 X291.492Y568.89
G1 X290.694Y566.281
G1 X289.921Y563.653
G1 X288.985Y560.397
G1 X288.071Y557.127
G1 X287.18Y553.842
G1 X286.312Y550.542
G1 X285.466Y547.228
G1 X284.643Y543.901
G1 X283.843Y540.559
G1 X283.066Y537.204
G1 X282.312Y533.837
G1 X281.581Y530.456
G1 X280.873Y527.063
G1 X280.188Y523.658
G1 X279.526Y520.241
G1 X278.888Y516.812
G1 X278.273Y513.372
G1 X277.682Y509.921
G1 X277.161Y506.726
G1 X276.685Y503.514
G1 X276.254Y500.287
G1 X275.867Y497.045
G1 X275.368Y491.855
G1 X274.951Y486.648
G1 X274.615Y481.426
G1 X274.36Y476.191
G1 X274.143Y470.824
G1 X274.023Y465.45
G1 X274.001Y460.074
G1 X274.076Y454.697
G1 X274.133Y452.943
G1 X274.236Y451.196
G1 X274.385Y449.456
G1 X274.58Y447.727
G1 X275.069Y444.413
G1 X507.38Y444.024
G1 X508.279Y444.011
G1 X515.308Y443.985
G1 X522.336Y443.998
G1 X523.156Y446.277
G1 X523.26Y446.638
G1 X523.438Y447.73
G1 X523.578Y448.836
G1 X523.678Y449.952
G1 X523.738Y451.076
G1 X523.904Y455.29
G1 X523.992Y459.509
G1 Y463.73
G1 X523.931Y467.951
G1 X523.867Y470.84
G1 X523.742Y473.724
G1 X523.555Y476.599
G1 X523.306Y479.463
G1 X523.214Y480.171
G1 X523.102Y480.872
G1 X521.492Y489.563
G1 X519.839Y498.234
G1 X518.144Y506.885
G1 X516.407Y515.515
G1 X514.629Y524.123
G1 X512.808Y532.709
G1 X510.945Y541.274
G1 X509.041Y549.815
G1 X507.976Y554.38
G1 X506.83Y558.893
G1 X505.604Y563.351
G1 X504.298Y567.75
G1 X503.615Y569.928
G1 X502.913Y572.09
G1 X502.192Y574.236
G1 X501.451Y576.366
G1 X500.691Y578.48
G1 X499.911Y580.577
G1 X499.113Y582.657
G1 X498.296Y584.719
G1 X497.22Y587.289
G1 X496.108Y589.817
G1 X494.962Y592.304
G1 X493.782Y594.747
G1 X492.568Y597.147
G1 X491.32Y599.503
G1 X490.04Y601.813
G1 X488.727Y604.077
G1 X487.383Y606.293
G1 X486.007Y608.462
G1 X484.6Y610.582
G1 X483.163Y612.653
G1 X481.697Y614.673
G1 X480.201Y616.641
G1 X478.676Y618.558
G1 X477.123Y620.421
G1 X475.195Y622.675
G1 X473.236Y624.856
G1 X471.247Y626.964
G1 X469.227Y628.999
G1 X467.177Y630.959
G1 X465.099Y632.844
G1 X462.994Y634.653
G1 X460.861Y636.385
G1 X458.694Y638.006
G1 X456.504Y639.544
G1 X454.291Y640.999
G1 X452.058Y642.369
G1 X449.804Y643.654
G1 X447.531Y644.854
G1 X445.24Y645.968
G1 X442.932Y646.995
G1 X441.182Y647.727
G1 X439.428Y648.428
G1 X437.67Y649.099
G1 X435.907Y649.739
G1 X434.14Y650.349
G1 X432.369Y650.929
G1 X430.595Y651.478
G1 X428.816Y651.997
G1 X427.035Y652.484
; Layer Corte Pass 2 of 10
G1 X425.25Y652.942
G1 X423.462Y653.368
G1 X421.67Y653.764
G1 X419.876Y654.129
G1 X418.08Y654.463
G1 X416.281Y654.767
G1 X414.479Y655.039
G1 X412.246Y655.289
G1 X410.012Y655.503
G1 X407.777Y655.679
G1 X405.541Y655.819
G1 X403.304Y655.921
G1 X401.066Y655.986
G1 X398.828Y656.014
G1 X396.59
G1 X392.404Y655.977
G1 X388.219Y655.897
G1 X384.034Y655.765
G1 X379.85Y655.583
G1 X378Y655.345
G1 X376.153Y655.067
G1 X374.31Y654.748
G1 X372.47Y654.39
G1 X370.633Y653.991
G1 X368.801Y653.552
G1 X366.972Y653.074
G1 X365.149Y652.556
G1 X363.329Y651.998
G1 X361.515Y651.4
G1 X359.706Y650.763
G1 X357.903Y650.086
G1 X356.105Y649.37
G1 X354.313Y648.614
G1 X352.528Y647.82
G1 X350.749Y646.986
G1 X349.047Y646.144
G1 X347.356Y645.259
G1 X345.674Y644.329
G1 X344.004Y643.355
G1 X342.344Y642.337
G1 X340.696Y641.276
G1 X339.06Y640.172
G1 X337.435Y639.025
G1 X335.823Y637.835
G1 X334.223Y636.603
G1 X332.637Y635.328
G1 X331.064Y634.012
G1 X329.505Y632.654
G1 X327.96Y631.254
G1 X326.429Y629.813
G1 X324.913Y628.331
G1 X322.81Y626.171
G1 X320.749Y623.923
G1 X318.73Y621.589
G1 X316.755Y619.169
G1 X314.824Y616.667
G1 X312.938Y614.084
G1 X311.099Y611.42
G1 X309.307Y608.678
G1 X307.563Y605.859
G1 X305.869Y602.965
G1 X304.226Y599.997
G1 X302.634Y596.957
G1 X301.094Y593.847
G1 X299.608Y590.668
G1 X298.176Y587.422
G1 X296.8Y584.11
G1 X295.854Y581.627
G1 X294.933Y579.122
G1 X294.035Y576.595
G1 X293.163Y574.047
G1 X292.315Y571.479
G1 X291.492Y568.89
G1 X290.694Y566.281
G1 X289.921Y563.653
G1 X288.985Y560.397
G1 X288.071Y557.127
G1 X287.18Y553.842
G1 X286.312Y550.542
G1 X285.466Y547.228
G1 X284.643Y543.901
G1 X283.843Y540.559
G1 X283.066Y537.204
G1 X282.312Y533.837
G1 X281.581Y530.456
G1 X280.873Y527.063
G1 X280.188Y523.658
G1 X279.526Y520.241
G1 X278.888Y516.812
G1 X278.273Y513.372
G1 X277.682Y509.921
G1 X277.161Y506.726
G1 X276.685Y503.514
G1 X276.254Y500.287
G1 X275.867Y497.045
G1 X275.368Y491.855
G1 X274.951Y486.648
G1 X274.615Y481.426
G1 X274.36Y476.191
G1 X274.143Y470.824
G1 X274.023Y465.45
G1 X274.001Y460.074
G1 X274.076Y454.697
G1 X274.133Y452.943
G1 X274.236Y451.196
G1 X274.385Y449.456
G1 X274.58Y447.727
G1 X275.069Y444.413
G1 X507.38Y444.024
G1 X508.279Y444.011
G1 X515.308Y443.985
G1 X522.336Y443.998
G1 X523.156Y446.277
G1 X523.26Y446.638
G1 X523.438Y447.73
G1 X523.578Y448.836
G1 X523.678Y449.952
G1 X523.738Y451.076
G1 X523.904Y455.29
G1 X523.992Y459.509
G1 Y463.73
G1 X523.931Y467.951
G1 X523.867Y470.84
G1 X523.742Y473.724
G1 X523.555Y476.599
G1 X523.306Y479.463
G1 X523.214Y480.171
G1 X523.102Y480.872
G1 X521.492Y489.563
G1 X519.839Y498.234
G1 X518.144Y506.885
G1 X516.407Y515.515
G1 X514.629Y524.123
G1 X512.808Y532.709
G1 X510.945Y541.274
G1 X509.041Y549.815
G1 X507.976Y554.38
G1 X506.83Y558.893
G1 X505.604Y563.351
G1 X504.298Y567.75
G1 X503.615Y569.928
G1 X502.913Y572.09
G1 X502.192Y574.236
G1 X501.451Y576.366
G1 X500.691Y578.48
G1 X499.911Y580.577
G1 X499.113Y582.657
G1 X498.296Y584.719
G1 X497.22Y587.289
G1 X496.108Y589.817
G1 X494.962Y592.304
G1 X493.782Y594.747
G1 X492.568Y597.147
G1 X491.32Y599.503
G1 X490.04Y601.813
G1 X488.727Y604.077
G1 X487.383Y606.293
G1 X486.007Y608.462
G1 X484.6Y610.582
G1 X483.163Y612.653
G1 X481.697Y614.673
G1 X480.201Y616.641
G1 X478.676Y618.558
G1 X477.123Y620.421
G1 X475.195Y622.675
G1 X473.236Y624.856
G1 X471.247Y626.964
G1 X469.227Y628.999
G1 X467.177Y630.959
G1 X465.099Y632.844
G1 X462.994Y634.653
G1 X460.861Y636.385
G1 X458.694Y638.006
G1 X456.504Y639.544
G1 X454.291Y640.999
G1 X452.058Y642.369
G1 X449.804Y643.654
G1 X447.531Y644.854
G1 X445.24Y645.968
G1 X442.932Y646.995
G1 X441.182Y647.727
G1 X439.428Y648.428
G1 X437.67Y649.099
G1 X435.907Y649.739
G1 X434.14Y650.349
G1 X432.369Y650.929
G1 X430.595Y651.478
G1 X428.816Y651.997
G1 X427.035Y652.484
; Layer Corte Pass 3 of 10
G1 X425.25Y652.942
G1 X423.462Y653.368
G1 X421.67Y653.764
G1 X419.876Y654.129
G1 X418.08Y654.463
G1 X416.281Y654.767
G1 X414.479Y655.039
G1 X412.246Y655.289
G1 X410.012Y655.503
G1 X407.777Y655.679
G1 X405.541Y655.819
G1 X403.304Y655.921
G1 X401.066Y655.986
G1 X398.828Y656.014
G1 X396.59
G1 X392.404Y655.977
G1 X388.219Y655.897
G1 X384.034Y655.765
G1 X379.85Y655.583
G1 X378Y655.345
G1 X376.153Y655.067
G1 X374.31Y654.748
G1 X372.47Y654.39
G1 X370.633Y653.991
G1 X368.801Y653.552
G1 X366.972Y653.074
G1 X365.149Y652.556
G1 X363.329Y651.998
G1 X361.515Y651.4
G1 X359.706Y650.763
G1 X357.903Y650.086
G1 X356.105Y649.37
G1 X354.313Y648.614
G1 X352.528Y647.82
G1 X350.749Y646.986
G1 X349.047Y646.144
G1 X347.356Y645.259
G1 X345.674Y644.329
G1 X344.004Y643.355
G1 X342.344Y642.337
G1 X340.696Y641.276
G1 X339.06Y640.172
G1 X337.435Y639.025
G1 X335.823Y637.835
G1 X334.223Y636.603
G1 X332.637Y635.328
G1 X331.064Y634.012
G1 X329.505Y632.654
G1 X327.96Y631.254
G1 X326.429Y629.813
G1 X324.913Y628.331
G1 X322.81Y626.171
G1 X320.749Y623.923
G1 X318.73Y621.589
G1 X316.755Y619.169
G1 X314.824Y616.667
G1 X312.938Y614.084
G1 X311.099Y611.42
G1 X309.307Y608.678
G1 X307.563Y605.859
G1 X305.869Y602.965
G1 X304.226Y599.997
G1 X302.634Y596.957
G1 X301.094Y593.847
G1 X299.608Y590.668
G1 X298.176Y587.422
G1 X296.8Y584.11
G1 X295.854Y581.627
G1 X294.933Y579.122
G1 X294.035Y576.595
G1 X293.163Y574.047
G1 X292.315Y571.479
G1 X291.492Y568.89
G1 X290.694Y566.281
G1 X289.921Y563.653
G1 X288.985Y560.397
G1 X288.071Y557.127
G1 X287.18Y553.842
G1 X286.312Y550.542
G1 X285.466Y547.228
G1 X284.643Y543.901
G1 X283.843Y540.559
G1 X283.066Y537.204
G1 X282.312Y533.837
G1 X281.581Y530.456
G1 X280.873Y527.063
G1 X280.188Y523.658
G1 X279.526Y520.241
G1 X278.888Y516.812
G1 X278.273Y513.372
G1 X277.682Y509.921
G1 X277.161Y506.726
G1 X276.685Y503.514
G1 X276.254Y500.287
G1 X275.867Y497.045
G1 X275.368Y491.855
G1 X274.951Y486.648
G1 X274.615Y481.426
G1 X274.36Y476.191
G1 X274.143Y470.824
G1 X274.023Y465.45
G1 X274.001Y460.074
G1 X274.076Y454.697
G1 X274.133Y452.943
G1 X274.236Y451.196
G1 X274.385Y449.456
G1 X274.58Y447.727
G1 X275.069Y444.413
G1 X507.38Y444.024
G1 X508.279Y444.011
G1 X515.308Y443.985
G1 X522.336Y443.998
G1 X523.156Y446.277
G1 X523.26Y446.638
G1 X523.438Y447.73
G1 X523.578Y448.836
G1 X523.678Y449.952
G1 X523.738Y451.076
G1 X523.904Y455.29
G1 X523.992Y459.509
G1 Y463.73
G1 X523.931Y467.951
G1 X523.867Y470.84
G1 X523.742Y473.724
G1 X523.555Y476.599
G1 X523.306Y479.463
G1 X523.214Y480.171
G1 X523.102Y480.872
G1 X521.492Y489.563
G1 X519.839Y498.234
G1 X518.144Y506.885
G1 X516.407Y515.515
G1 X514.629Y524.123
G1 X512.808Y532.709
G1 X510.945Y541.274
G1 X509.041Y549.815
G1 X507.976Y554.38
G1 X506.83Y558.893
G1 X505.604Y563.351
G1 X504.298Y567.75
G1 X503.615Y569.928
G1 X502.913Y572.09
G1 X502.192Y574.236
G1 X501.451Y576.366
G1 X500.691Y578.48
G1 X499.911Y580.577
G1 X499.113Y582.657
G1 X498.296Y584.719
G1 X497.22Y587.289
G1 X496.108Y589.817
G1 X494.962Y592.304
G1 X493.782Y594.747
G1 X492.568Y597.147
G1 X491.32Y599.503
G1 X490.04Y601.813
G1 X488.727Y604.077
G1 X487.383Y606.293
G1 X486.007Y608.462
G1 X484.6Y610.582
G1 X483.163Y612.653
G1 X481.697Y614.673
G1 X480.201Y616.641
G1 X478.676Y618.558
G1 X477.123Y620.421
G1 X475.195Y622.675
G1 X473.236Y624.856
G1 X471.247Y626.964
G1 X469.227Y628.999
G1 X467.177Y630.959
G1 X465.099Y632.844
G1 X462.994Y634.653
G1 X460.861Y636.385
G1 X458.694Y638.006
G1 X456.504Y639.544
G1 X454.291Y640.999
G1 X452.058Y642.369
G1 X449.804Y643.654
G1 X447.531Y644.854
G1 X445.24Y645.968
G1 X442.932Y646.995
G1 X441.182Y647.727
G1 X439.428Y648.428
G1 X437.67Y649.099
G1 X435.907Y649.739
G1 X434.14Y650.349
G1 X432.369Y650.929
G1 X430.595Y651.478
G1 X428.816Y651.997
G1 X427.035Y652.484
; Layer Corte Pass 4 of 10
G1 X425.25Y652.942
G1 X423.462Y653.368
G1 X421.67Y653.764
G1 X419.876Y654.129
G1 X418.08Y654.463
G1 X416.281Y654.767
G1 X414.479Y655.039
G1 X412.246Y655.289
G1 X410.012Y655.503
G1 X407.777Y655.679
G1 X405.541Y655.819
G1 X403.304Y655.921
G1 X401.066Y655.986
G1 X398.828Y656.014
G1 X396.59
G1 X392.404Y655.977
G1 X388.219Y655.897
G1 X384.034Y655.765
G1 X379.85Y655.583
G1 X378Y655.345
G1 X376.153Y655.067
G1 X374.31Y654.748
G1 X372.47Y654.39
G1 X370.633Y653.991
G1 X368.801Y653.552
G1 X366.972Y653.074
G1 X365.149Y652.556
G1 X363.329Y651.998
G1 X361.515Y651.4
G1 X359.706Y650.763
G1 X357.903Y650.086
G1 X356.105Y649.37
G1 X354.313Y648.614
G1 X352.528Y647.82
G1 X350.749Y646.986
G1 X349.047Y646.144
G1 X347.356Y645.259
G1 X345.674Y644.329
G1 X344.004Y643.355
G1 X342.344Y642.337
G1 X340.696Y641.276
G1 X339.06Y640.172
G1 X337.435Y639.025
G1 X335.823Y637.835
G1 X334.223Y636.603
G1 X332.637Y635.328
G1 X331.064Y634.012
G1 X329.505Y632.654
G1 X327.96Y631.254
G1 X326.429Y629.813
G1 X324.913Y628.331
G1 X322.81Y626.171
G1 X320.749Y623.923
G1 X318.73Y621.589
G1 X316.755Y619.169
G1 X314.824Y616.667
G1 X312.938Y614.084
G1 X311.099Y611.42
G1 X309.307Y608.678
G1 X307.563Y605.859
G1 X305.869Y602.965
G1 X304.226Y599.997
G1 X302.634Y596.957
G1 X301.094Y593.847
G1 X299.608Y590.668
G1 X298.176Y587.422
G1 X296.8Y584.11
G1 X295.854Y581.627
G1 X294.933Y579.122
G1 X294.035Y576.595
G1 X293.163Y574.047
G1 X292.315Y571.479
G1 X291.492Y568.89
G1 X290.694Y566.281
G1 X289.921Y563.653
G1 X288.985Y560.397
G1 X288.071Y557.127
G1 X287.18Y553.842
G1 X286.312Y550.542
G1 X285.466Y547.228
G1 X284.643Y543.901
G1 X283.843Y540.559
G1 X283.066Y537.204
G1 X282.312Y533.837
G1 X281.581Y530.456
G1 X280.873Y527.063
G1 X280.188Y523.658
G1 X279.526Y520.241
G1 X278.888Y516.812
G1 X278.273Y513.372
G1 X277.682Y509.921
G1 X277.161Y506.726
G1 X276.685Y503.514
G1 X276.254Y500.287
G1 X275.867Y497.045
G1 X275.368Y491.855
G1 X274.951Y486.648
G1 X274.615Y481.426
G1 X274.36Y476.191
G1 X274.143Y470.824
G1 X274.023Y465.45
G1 X274.001Y460.074
G1 X274.076Y454.697
G1 X274.133Y452.943
G1 X274.236Y451.196
G1 X274.385Y449.456
G1 X274.58Y447.727
G1 X275.069Y444.413
G1 X507.38Y444.024
G1 X508.279Y444.011
G1 X515.308Y443.985
G1 X522.336Y443.998
G1 X523.156Y446.277
G1 X523.26Y446.638
G1 X523.438Y447.73
G1 X523.578Y448.836
G1 X523.678Y449.952
G1 X523.738Y451.076
G1 X523.904Y455.29
G1 X523.992Y459.509
G1 Y463.73
G1 X523.931Y467.951
G1 X523.867Y470.84
G1 X523.742Y473.724
G1 X523.555Y476.599
G1 X523.306Y479.463
G1 X523.214Y480.171
G1 X523.102Y480.872
G1 X521.492Y489.563
G1 X519.839Y498.234
G1 X518.144Y506.885
G1 X516.407Y515.515
G1 X514.629Y524.123
G1 X512.808Y532.709
G1 X510.945Y541.274
G1 X509.041Y549.815
G1 X507.976Y554.38
G1 X506.83Y558.893
G1 X505.604Y563.351
G1 X504.298Y567.75
G1 X503.615Y569.928
G1 X502.913Y572.09
G1 X502.192Y574.236
G1 X501.451Y576.366
G1 X500.691Y578.48
G1 X499.911Y580.577
G1 X499.113Y582.657
G1 X498.296Y584.719
G1 X497.22Y587.289
G1 X496.108Y589.817
G1 X494.962Y592.304
G1 X493.782Y594.747
G1 X492.568Y597.147
G1 X491.32Y599.503
G1 X490.04Y601.813
G1 X488.727Y604.077
G1 X487.383Y606.293
G1 X486.007Y608.462
G1 X484.6Y610.582
G1 X483.163Y612.653
G1 X481.697Y614.673
G1 X480.201Y616.641
G1 X478.676Y618.558
G1 X477.123Y620.421
G1 X475.195Y622.675
G1 X473.236Y624.856
G1 X471.247Y626.964
G1 X469.227Y628.999
G1 X467.177Y630.959
G1 X465.099Y632.844
G1 X462.994Y634.653
G1 X460.861Y636.385
G1 X458.694Y638.006
G1 X456.504Y639.544
G1 X454.291Y640.999
G1 X452.058Y642.369
G1 X449.804Y643.654
G1 X447.531Y644.854
G1 X445.24Y645.968
G1 X442.932Y646.995
G1 X441.182Y647.727
G1 X439.428Y648.428
G1 X437.67Y649.099
G1 X435.907Y649.739
G1 X434.14Y650.349
G1 X432.369Y650.929
G1 X430.595Y651.478
G1 X428.816Y651.997
G1 X427.035Y652.484
; Layer Corte Pass 5 of 10
G1 X425.25Y652.942
G1 X423.462Y653.368
G1 X421.67Y653.764
G1 X419.876Y654.129
G1 X418.08Y654.463
G1 X416.281Y654.767
G1 X414.479Y655.039
G1 X412.246Y655.289
G1 X410.012Y655.503
G1 X407.777Y655.679
G1 X405.541Y655.819
G1 X403.304Y655.921
G1 X401.066Y655.986
G1 X398.828Y656.014
G1 X396.59
G1 X392.404Y655.977
G1 X388.219Y655.897
G1 X384.034Y655.765
G1 X379.85Y655.583
G1 X378Y655.345
G1 X376.153Y655.067
G1 X374.31Y654.748
G1 X372.47Y654.39
G1 X370.633Y653.991
G1 X368.801Y653.552
G1 X366.972Y653.074
G1 X365.149Y652.556
G1 X363.329Y651.998
G1 X361.515Y651.4
G1 X359.706Y650.763
G1 X357.903Y650.086
G1 X356.105Y649.37
G1 X354.313Y648.614
G1 X352.528Y647.82
G1 X350.749Y646.986
G1 X349.047Y646.144
G1 X347.356Y645.259
G1 X345.674Y644.329
G1 X344.004Y643.355
G1 X342.344Y642.337
G1 X340.696Y641.276
G1 X339.06Y640.172
G1 X337.435Y639.025
G1 X335.823Y637.835
G1 X334.223Y636.603
G1 X332.637Y635.328
G1 X331.064Y634.012
G1 X329.505Y632.654
G1 X327.96Y631.254
G1 X326.429Y629.813
G1 X324.913Y628.331
G1 X322.81Y626.171
G1 X320.749Y623.923
G1 X318.73Y621.589
G1 X316.755Y619.169
G1 X314.824Y616.667
G1 X312.938Y614.084
G1 X311.099Y611.42
G1 X309.307Y608.678
G1 X307.563Y605.859
G1 X305.869Y602.965
G1 X304.226Y599.997
G1 X302.634Y596.957
G1 X301.094Y593.847
G1 X299.608Y590.668
G1 X298.176Y587.422
G1 X296.8Y584.11
G1 X295.854Y581.627
G1 X294.933Y579.122
G1 X294.035Y576.595
G1 X293.163Y574.047
G1 X292.315Y571.479
G1 X291.492Y568.89
G1 X290.694Y566.281
G1 X289.921Y563.653
G1 X288.985Y560.397
G1 X288.071Y557.127
G1 X287.18Y553.842
G1 X286.312Y550.542
G1 X285.466Y547.228
G1 X284.643Y543.901
G1 X283.843Y540.559
G1 X283.066Y537.204
G1 X282.312Y533.837
G1 X281.581Y530.456
G1 X280.873Y527.063
G1 X280.188Y523.658
G1 X279.526Y520.241
G1 X278.888Y516.812
G1 X278.273Y513.372
G1 X277.682Y509.921
G1 X277.161Y506.726
G1 X276.685Y503.514
G1 X276.254Y500.287
G1 X275.867Y497.045
G1 X275.368Y491.855
G1 X274.951Y486.648
G1 X274.615Y481.426
G1 X274.36Y476.191
G1 X274.143Y470.824
G1 X274.023Y465.45
G1 X274.001Y460.074
G1 X274.076Y454.697
G1 X274.133Y452.943
G1 X274.236Y451.196
G1 X274.385Y449.456
G1 X274.58Y447.727
G1 X275.069Y444.413
G1 X507.38Y444.024
G1 X508.279Y444.011
G1 X515.308Y443.985
G1 X522.336Y443.998
G1 X523.156Y446.277
G1 X523.26Y446.638
G1 X523.438Y447.73
G1 X523.578Y448.836
G1 X523.678Y449.952
G1 X523.738Y451.076
G1 X523.904Y455.29
G1 X523.992Y459.509
G1 Y463.73
G1 X523.931Y467.951
G1 X523.867Y470.84
G1 X523.742Y473.724
G1 X523.555Y476.599
G1 X523.306Y479.463
G1 X523.214Y480.171
G1 X523.102Y480.872
G1 X521.492Y489.563
G1 X519.839Y498.234
G1 X518.144Y506.885
G1 X516.407Y515.515
G1 X514.629Y524.123
G1 X512.808Y532.709
G1 X510.945Y541.274
G1 X509.041Y549.815
G1 X507.976Y554.38
G1 X506.83Y558.893
G1 X505.604Y563.351
G1 X504.298Y567.75
G1 X503.615Y569.928
G1 X502.913Y572.09
G1 X502.192Y574.236
G1 X501.451Y576.366
G1 X500.691Y578.48
G1 X499.911Y580.577
G1 X499.113Y582.657
G1 X498.296Y584.719
G1 X497.22Y587.289
G1 X496.108Y589.817
G1 X494.962Y592.304
G1 X493.782Y594.747
G1 X492.568Y597.147
G1 X491.32Y599.503
G1 X490.04Y601.813
G1 X488.727Y604.077
G1 X487.383Y606.293
G1 X486.007Y608.462
G1 X484.6Y610.582
G1 X483.163Y612.653
G1 X481.697Y614.673
G1 X480.201Y616.641
G1 X478.676Y618.558
G1 X477.123Y620.421
G1 X475.195Y622.675
G1 X473.236Y624.856
G1 X471.247Y626.964
G1 X469.227Y628.999
G1 X467.177Y630.959
G1 X465.099Y632.844
G1 X462.994Y634.653
G1 X460.861Y636.385
G1 X458.694Y638.006
G1 X456.504Y639.544
G1 X454.291Y640.999
G1 X452.058Y642.369
G1 X449.804Y643.654
G1 X447.531Y644.854
G1 X445.24Y645.968
G1 X442.932Y646.995
G1 X441.182Y647.727
G1 X439.428Y648.428
G1 X437.67Y649.099
G1 X435.907Y649.739
G1 X434.14Y650.349
G1 X432.369Y650.929
G1 X430.595Y651.478
G1 X428.816Y651.997
G1 X427.035Y652.484
; Layer Corte Pass 6 of 10
G1 X425.25Y652.942
G1 X423.462Y653.368
G1 X421.67Y653.764
G1 X419.876Y654.129
G1 X418.08Y654.463
G1 X416.281Y654.767
G1 X414.479Y655.039
G1 X412.246Y655.289
G1 X410.012Y655.503
G1 X407.777Y655.679
G1 X405.541Y655.819
G1 X403.304Y655.921
G1 X401.066Y655.986
G1 X398.828Y656.014
G1 X396.59
G1 X392.404Y655.977
G1 X388.219Y655.897
G1 X384.034Y655.765
G1 X379.85Y655.583
G1 X378Y655.345
G1 X376.153Y655.067
G1 X374.31Y654.748
G1 X372.47Y654.39
G1 X370.633Y653.991
G1 X368.801Y653.552
G1 X366.972Y653.074
G1 X365.149Y652.556
G1 X363.329Y651.998
G1 X361.515Y651.4
G1 X359.706Y650.763
G1 X357.903Y650.086
G1 X356.105Y649.37
G1 X354.313Y648.614
G1 X352.528Y647.82
G1 X350.749Y646.986
G1 X349.047Y646.144
G1 X347.356Y645.259
G1 X345.674Y644.329
G1 X344.004Y643.355
G1 X342.344Y642.337
G1 X340.696Y641.276
G1 X339.06Y640.172
G1 X337.435Y639.025
G1 X335.823Y637.835
G1 X334.223Y636.603
G1 X332.637Y635.328
G1 X331.064Y634.012
G1 X329.505Y632.654
G1 X327.96Y631.254
G1 X326.429Y629.813
G1 X324.913Y628.331
G1 X322.81Y626.171
G1 X320.749Y623.923
G1 X318.73Y621.589
G1 X316.755Y619.169
G1 X314.824Y616.667
G1 X312.938Y614.084
G1 X311.099Y611.42
G1 X309.307Y608.678
