; LightBurn 1.3.01
; GRBL device profile, user origin
; Bounds: X0 Y0 to X377.25 Y299.25
G00 G17 G40 G21 G54
G90
G0 X0 Y0
G91
M4
; Cut @ 1500 mm/min, 100% power
M8
G0 X0Y0
; Layer Grabado_linea_1
G1 Y140S1000F1500
G1 X120
G1 Y-140
G1 X-120
G0 X39Y234.75
G1 X-1.608Y0.041
G1 X-1.587Y0.12
G1 X-1.564Y0.199
G1 X-1.539Y0.275
G1 X-1.512Y0.349
G1 X-1.483Y0.421
G1 X-1.452Y0.491
G1 X-1.419Y0.56
G1 X-1.384Y0.626
G1 X-1.348Y0.69
G1 X-1.308Y0.752
G1 X-1.268Y0.813
G1 X-1.225Y0.871
G1 X-1.181Y0.928
G1 X-1.134Y0.982
G1 X-1.085Y1.035
G1 X-1.035Y1.085
G1 X-0.982Y1.134
G1 X-0.928Y1.181
G1 X-0.871Y1.225
G1 X-0.813Y1.268
G1 X-0.752Y1.308
G1 X-0.69Y1.348
G1 X-0.626Y1.384
G1 X-0.56Y1.419
G1 X-0.491Y1.452
G1 X-0.421Y1.483
G1 X-0.349Y1.512
G1 X-0.275Y1.539
G1 X-0.199Y1.564
G1 X-0.12Y1.587
G1 X-0.041Y1.608
G1 X0.041Y1.608
G1 X0.12Y1.587
G1 X0.199Y1.564
G1 X0.275Y1.539
G1 X0.349Y1.512
G1 X0.421Y1.483
G1 X0.491Y1.452
G1 X0.56Y1.419
G1 X0.626Y1.384
G1 X0.69Y1.348
G1 X0.752Y1.308
G1 X0.813Y1.268
G1 X0.871Y1.225
G1 X0.928Y1.181
G1 X0.982Y1.134
G1 X1.035Y1.085
G1 X1.085Y1.035
G1 X1.134Y0.982
G1 X1.181Y0.928
G1 X1.225Y0.871
G1 X1.268Y0.813
G1 X1.308Y0.752
G1 X1.348Y0.69
G1 X1.384Y0.626
G1 X1.419Y0.56
G1 X1.452Y0.491
G1 X1.483Y0.421
G1 X1.512Y0.349
G1 X1.539Y0.275
G1 X1.564Y0.199
G1 X1.587Y0.12
G1 X1.608Y0.041
G1 X1.608Y-0.041
G1 X1.587Y-0.12
G1 X1.564Y-0.199
G1 X1.539Y-0.275
G1 X1.512Y-0.349
G1 X1.483Y-0.421
G1 X1.452Y-0.491
G1 X1.419Y-0.56
G1 X1.384Y-0.626
G1 X1.348Y-0.69
G1 X1.308Y-0.752
G1 X1.268Y-0.813
G1 X1.225Y-0.871
G1 X1.181Y-0.928
G1 X1.134Y-0.982
G1 X1.085Y-1.035
G1 X1.035Y-1.085
G1 X0.982Y-1.134
G1 X0.928Y-1.181
G1 X0.871Y-1.225
G1 X0.813Y-1.268
G1 X0.752Y-1.308
G1 X0.69Y-1.348
G1 X0.626Y-1.384
G1 X0.56Y-1.419
G1 X0.491Y-1.452
G1 X0.421Y-1.483
G1 X0.349Y-1.512
G1 X0.275Y-1.539
G1 X0.199Y-1.564
G1 X0.12Y-1.587
G1 X0.041Y-1.608
G1 X-0.041Y-1.608
G1 X-0.12Y-1.587
G1 X-0.199Y-1.564
G1 X-0.275Y-1.539
G1 X-0.349Y-1.512
G1 X-0.421Y-1.483
G1 X-0.491Y-1.452
G1 X-0.56Y-1.419
G1 X-0.626Y-1.384
G1 X-0.69Y-1.348
G1 X-0.752Y-1.308
G1 X-0.813Y-1.268
G1 X-0.871Y-1.225
G1 X-0.928Y-1.181
G1 X-0.982Y-1.134
G1 X-1.035Y-1.085
G1 X-1.085Y-1.035
G1 X-1.134Y-0.982
G1 X-1.181Y-0.928
G1 X-1.225Y-0.871
G1 X-1.268Y-0.813
G1 X-1.308Y-0.752
G1 X-1.348Y-0.69
G1 X-1.384Y-0.626
G1 X-1.419Y-0.56
G1 X-1.452Y-0.491
G1 X-1.483Y-0.421
G1 X-1.512Y-0.349
G1 X-1.539Y-0.275
G1 X-1.564Y-0.199
G1 X-1.587Y-0.12
G1 X-1.608Y-0.041
G0 X44.75Y31.25
G1 X0.041Y1.608
G1 X0.12Y1.587
G1 X0.199Y1.564
G1 X0.275Y1.539
G1 X0.349Y1.512
G1 X0.421Y1.483
G1 X0.491Y1.452
G1 X0.56Y1.419
G1 X0.626Y1.384
G1 X0.69Y1.348
G1 X0.752Y1.308
G1 X0.813Y1.268
G1 X0.871Y1.225
G1 X0.928Y1.181
G1 X0.982Y1.134
G1 X1.035Y1.085
G1 X1.085Y1.035
G1 X1.134Y0.982
G1 X1.181Y0.928
G1 X1.225Y0.871
G1 X1.268Y0.813
G1 X1.308Y0.752
G1 X1.348Y0.69
G1 X1.384Y0.626
G1 X1.419Y0.56
G1 X1.452Y0.491
G1 X1.483Y0.421
G1 X1.512Y0.349
G1 X1.539Y0.275
G1 X1.564Y0.199
G1 X1.587Y0.12
G1 X1.608Y0.041
G1 X1.608Y-0.041
G1 X1.587Y-0.12
G1 X1.564Y-0.199
G1 X1.539Y-0.275
G1 X1.512Y-0.349
G1 X1.483Y-0.421
G1 X1.452Y-0.491
G1 X1.419Y-0.56
G1 X1.384Y-0.626
G1 X1.348Y-0.69
G1 X1.308Y-0.752
G1 X1.268Y-0.813
G1 X1.225Y-0.871
G1 X1.181Y-0.928
G1 X1.134Y-0.982
G1 X1.085Y-1.035
G1 X1.035Y-1.085
G1 X0.982Y-1.134
G1 X0.928Y-1.181
G1 X0.871Y-1.225
G1 X0.813Y-1.268
G1 X0.752Y-1.308
G1 X0.69Y-1.348
G1 X0.626Y-1.384
G1 X0.56Y-1.419
G1 X0.491Y-1.452
G1 X0.421Y-1.483
G1 X0.349Y-1.512
G1 X0.275Y-1.539
G1 X0.199Y-1.564
G1 X0.12Y-1.587
G1 X0.041Y-1.608
G1 X-0.041Y-1.608
G1 X-0.12Y-1.587
G1 X-0.199Y-1.564
G1 X-0.275Y-1.539
G1 X-0.349Y-1.512
G1 X-0.421Y-1.483
G1 X-0.491Y-1.452
G1 X-0.56Y-1.419
G1 X-0.626Y-1.384
G1 X-0.69Y-1.348
G1 X-0.752Y-1.308
G1 X-0.813Y-1.268
G1 X-0.871Y-1.225
G1 X-0.928Y-1.181
G1 X-0.982Y-1.134
G1 X-1.035Y-1.085
G1 X-1.085Y-1.035
G1 X-1.134Y-0.982
G1 X-1.181Y-0.928
G1 X-1.225Y-0.871
G1 X-1.268Y-0.813
G1 X-1.308Y-0.752
G1 X-1.348Y-0.69
G1 X-1.384Y-0.626
G1 X-1.419Y-0.56
G1 X-1.452Y-0.491
G1 X-1.483Y-0.421
G1 X-1.512Y-0.349
G1 X-1.539Y-0.275
G1 X-1.564Y-0.199
G1 X-1.587Y-0.12
G1 X-1.608Y-0.041
G1 X-1.608Y0.041
G1 X-1.587Y0.12
G1 X-1.564Y0.199
G1 X-1.539Y0.275
G1 X-1.512Y0.349
G1 X-1.483Y0.421
G1 X-1.452Y0.491
G1 X-1.419Y0.56
G1 X-1.384Y0.626
G1 X-1.348Y0.69
G1 X-1.308Y0.752
G1 X-1.268Y0.813
G1 X-1.225Y0.871
G1 X-1.181Y0.928
G1 X-1.134Y0.982
G1 X-1.085Y1.035
G1 X-1.035Y1.085
G1 X-0.982Y1.134
G1 X-0.928Y1.181
G1 X-0.871Y1.225
G1 X-0.813Y1.268
G1 X-0.752Y1.308
G1 X-0.69Y1.348
G1 X-0.626Y1.384
G1 X-0.56Y1.419
G1 X-0.491Y1.452
G1 X-0.421Y1.483
G1 X-0.349Y1.512
G1 X-0.275Y1.539
G1 X-0.199Y1.564
G1 X-0.12Y1.587
G1 X-0.041Y1.608
G0 X77Y2
G1 X0.041Y1.608
G1 X0.12Y1.587
G1 X0.199Y1.564
G1 X0.275Y1.539
G1 X0.349Y1.512
G1 X0.421Y1.483
G1 X0.491Y1.452
G1 X0.56Y1.419
G1 X0.626Y1.384
G1 X0.69Y1.348
G1 X0.752Y1.308
G1 X0.813Y1.268
G1 X0.871Y1.225
G1 X0.928Y1.181
G1 X0.982Y1.134
G1 X1.035Y1.085
G1 X1.085Y1.035
G1 X1.134Y0.982
G1 X1.181Y0.928
G1 X1.225Y0.871
G1 X1.268Y0.813
G1 X1.308Y0.752
G1 X1.348Y0.69
G1 X1.384Y0.626
G1 X1.419Y0.56
G1 X1.452Y0.491
G1 X1.483Y0.421
G1 X1.512Y0.349
G1 X1.539Y0.275
G1 X1.564Y0.199
G1 X1.587Y0.12
G1 X1.608Y0.041
G1 X1.608Y-0.041
G1 X1.587Y-0.12
G1 X1.564Y-0.199
G1 X1.539Y-0.275
G1 X1.512Y-0.349
G1 X1.483Y-0.421
G1 X1.452Y-0.491
G1 X1.419Y-0.56
G1 X1.384Y-0.626
G1 X1.348Y-0.69
G1 X1.308Y-0.752
G1 X1.268Y-0.813
G1 X1.225Y-0.871
G1 X1.181Y-0.928
G1 X1.134Y-0.982
G1 X1.085Y-1.035
G1 X1.035Y-1.085
G1 X0.982Y-1.134
G1 X0.928Y-1.181
G1 X0.871Y-1.225
G1 X0.813Y-1.268
G1 X0.752Y-1.308
G1 X0.69Y-1.348
G1 X0.626Y-1.384
G1 X0.56Y-1.419
G1 X0.491Y-1.452
G1 X0.421Y-1.483
G1 X0.349Y-1.512
G1 X0.275Y-1.539
G1 X0.199Y-1.564
G1 X0.12Y-1.587
G1 X0.041Y-1.608
G1 X-0.041Y-1.608
G1 X-0.12Y-1.587
G1 X-0.199Y-1.564
G1 X-0.275Y-1.539
G1 X-0.349Y-1.512
G1 X-0.421Y-1.483
G1 X-0.491Y-1.452
G1 X-0.56Y-1.419
G1 X-0.626Y-1.384
G1 X-0.69Y-1.348
G1 X-0.752Y-1.308
G1 X-0.813Y-1.268
G1 X-0.871Y-1.225
G1 X-0.928Y-1.181
G1 X-0.982Y-1.134
G1 X-1.035Y-1.085
G1 X-1.085Y-1.035
G1 X-1.134Y-0.982
G1 X-1.181Y-0.928
G1 X-1.225Y-0.871
G1 X-1.268Y-0.813
G1 X-1.308Y-0.752
G1 X-1.348Y-0.69
G1 X-1.384Y-0.626
G1 X-1.419Y-0.56
G1 X-1.452Y-0.491
G1 X-1.483Y-0.421
G1 X-1.512Y-0.349
G1 X-1.539Y-0.275
G1 X-1.564Y-0.199
G1 X-1.587Y-0.12
G1 X-1.608Y-0.041
G1 X-1.608Y0.041
G1 X-1.587Y0.12
G1 X-1.564Y0.199
G1 X-1.539Y0.275
G1 X-1.512Y0.349
G1 X-1.483Y0.421
G1 X-1.452Y0.491
G1 X-1.419Y0.56
G1 X-1.384Y0.626
G1 X-1.348Y0.69
G1 X-1.308Y0.752
G1 X-1.268Y0.813
G1 X-1.225Y0.871
G1 X-1.181Y0.928
G1 X-1.134Y0.982
G1 X-1.085Y1.035
G1 X-1.035Y1.085
G1 X-0.982Y1.134
G1 X-0.928Y1.181
G1 X-0.871Y1.225
G1 X-0.813Y1.268
G1 X-0.752Y1.308
G1 X-0.69Y1.348
G1 X-0.626Y1.384
G1 X-0.56Y1.419
G1 X-0.491Y1.452
G1 X-0.421Y1.483
G1 X-0.349Y1.512
G1 X-0.275Y1.539
G1 X-0.199Y1.564
G1 X-0.12Y1.587
G1 X-0.041Y1.608
G0 X76Y0
G1 X0.041Y1.608
G1 X0.12Y1.587
G1 X0.199Y1.564
G1 X0.275Y1.539
G1 X0.349Y1.512
G1 X0.421Y1.483
G1 X0.491Y1.452
G1 X0.56Y1.419
G1 X0.626Y1.384
G1 X0.69Y1.348
G1 X0.752Y1.308
G1 X0.813Y1.268
G1 X0.871Y1.225
G1 X0.928Y1.181
G1 X0.982Y1.134
G1 X1.035Y1.085
G1 X1.085Y1.035
G1 X1.134Y0.982
G1 X1.181Y0.928
G1 X1.225Y0.871
G1 X1.268Y0.813
G1 X1.308Y0.752
G1 X1.348Y0.69
G1 X1.384Y0.626
G1 X1.419Y0.56
G1 X1.452Y0.491
G1 X1.483Y0.421
G1 X1.512Y0.349
G1 X1.539Y0.275
G1 X1.564Y0.199
G1 X1.587Y0.12
G1 X1.608Y0.041
G1 X1.608Y-0.041
G1 X1.587Y-0.12
G1 X1.564Y-0.199
G1 X1.539Y-0.275
G1 X1.512Y-0.349
G1 X1.483Y-0.421
G1 X1.452Y-0.491
G1 X1.419Y-0.56
G1 X1.384Y-0.626
G1 X1.348Y-0.69
G1 X1.308Y-0.752
G1 X1.268Y-0.813
G1 X1.225Y-0.871
G1 X1.181Y-0.928
G1 X1.134Y-0.982
G1 X1.085Y-1.035
G1 X1.035Y-1.085
G1 X0.982Y-1.134
G1 X0.928Y-1.181
G1 X0.871Y-1.225
G1 X0.813Y-1.268
G1 X0.752Y-1.308
G1 X0.69Y-1.348
G1 X0.626Y-1.384
G1 X0.56Y-1.419
G1 X0.491Y-1.452
G1 X0.421Y-1.483
G1 X0.349Y-1.512
G1 X0.275Y-1.539
G1 X0.199Y-1.564
G1 X0.12Y-1.587
G1 X0.041Y-1.608
G1 X-0.041Y-1.608
G1 X-0.12Y-1.587
G1 X-0.199Y-1.564
G1 X-0.275Y-1.539
G1 X-0.349Y-1.512
G1 X-0.421Y-1.483
G1 X-0.491Y-1.452
G1 X-0.56Y-1.419
G1 X-0.626Y-1.384
G1 X-0.69Y-1.348
G1 X-0.752Y-1.308
G1 X-0.813Y-1.268
G1 X-0.871Y-1.225
G1 X-0.928Y-1.181
G1 X-0.982Y-1.134
G1 X-1.035Y-1.085
G1 X-1.085Y-1.035
G1 X-1.134Y-0.982
G1 X-1.181Y-0.928
G1 X-1.225Y-0.871
G1 X-1.268Y-0.813
G1 X-1.308Y-0.752
G1 X-1.348Y-0.69
G1 X-1.384Y-0.626
G1 X-1.419Y-0.56
G1 X-1.452Y-0.491
G1 X-1.483Y-0.421
G1 X-1.512Y-0.349
G1 X-1.539Y-0.275
G1 X-1.564Y-0.199
G1 X-1.587Y-0.12
G1 X-1.608Y-0.041
G1 X-1.608Y0.041
G1 X-1.587Y0.12
G1 X-1.564Y0.199
G1 X-1.539Y0.275
G1 X-1.512Y0.349
G1 X-1.483Y0.421
G1 X-1.452Y0.491
G1 X-1.419Y0.56
G1 X-1.384Y0.626
G1 X-1.348Y0.69
G1 X-1.308Y0.752
G1 X-1.268Y0.813
G1 X-1.225Y0.871
G1 X-1.181Y0.928
G1 X-1.134Y0.982
G1 X-1.085Y1.035
G1 X-1.035Y1.085
G1 X-0.982Y1.134
G1 X-0.928Y1.181
G1 X-0.871Y1.225
G1 X-0.813Y1.268
G1 X-0.752Y1.308
G1 X-0.69Y1.348
G1 X-0.626Y1.384
G1 X-0.56Y1.419
G1 X-0.491Y1.452
G1 X-0.421Y1.483
G1 X-0.349Y1.512
G1 X-0.275Y1.539
G1 X-0.199Y1.564
G1 X-0.12Y1.587
G1 X-0.041Y1.608
G0 X78Y0
G1 X0.041Y1.608
G1 X0.12Y1.587
G1 X0.199Y1.564
G1 X0.275Y1.539
G1 X0.349Y1.512
G1 X0.421Y1.483
G1 X0.491Y1.452
G1 X0.56Y1.419
G1 X0.626Y1.384
G1 X0.69Y1.348
G1 X0.752Y1.308
G1 X0.813Y1.268
G1 X0.871Y1.225
G1 X0.928Y1.181
G1 X0.982Y1.134
G1 X1.035Y1.085
G1 X1.085Y1.035
G1 X1.134Y0.982
G1 X1.181Y0.928
G1 X1.225Y0.871
G1 X1.268Y0.813
G1 X1.308Y0.752
G1 X1.348Y0.69
G1 X1.384Y0.626
G1 X1.419Y0.56
G1 X1.452Y0.491
G1 X1.483Y0.421
G1 X1.512Y0.349
G1 X1.539Y0.275
G1 X1.564Y0.199
G1 X1.587Y0.12
G1 X1.608Y0.041
G1 X1.608Y-0.041
G1 X1.587Y-0.12
G1 X1.564Y-0.199
G1 X1.539Y-0.275
G1 X1.512Y-0.349
G1 X1.483Y-0.421
G1 X1.452Y-0.491
G1 X1.419Y-0.56
G1 X1.384Y-0.626
G1 X1.348Y-0.69
G1 X1.308Y-0.752
G1 X1.268Y-0.813
G1 X1.225Y-0.871
G1 X1.181Y-0.928
G1 X1.134Y-0.982
G1 X1.085Y-1.035
G1 X1.035Y-1.085
G1 X0.982Y-1.134
G1 X0.928Y-1.181
G1 X0.871Y-1.225
G1 X0.813Y-1.268
G1 X0.752Y-1.308
G1 X0.69Y-1.348
G1 X0.626Y-1.384
G1 X0.56Y-1.419
G1 X0.491Y-1.452
G1 X0.421Y-1.483
G1 X0.349Y-1.512
G1 X0.275Y-1.539
G1 X0.199Y-1.564
G1 X0.12Y-1.587
G1 X0.041Y-1.608
G1 X-0.041Y-1.608
G1 X-0.12Y-1.587
G1 X-0.199Y-1.564
G1 X-0.275Y-1.539
G1 X-0.349Y-1.512
G1 X-0.421Y-1.483
G1 X-0.491Y-1.452
G1 X-0.56Y-1.419
G1 X-0.626Y-1.384
G1 X-0.69Y-1.348
G1 X-0.752Y-1.308
G1 X-0.813Y-1.268
G1 X-0.871Y-1.225
G1 X-0.928Y-1.181
G1 X-0.982Y-1.134
G1 X-1.035Y-1.085
G1 X-1.085Y-1.035
G1 X-1.134Y-0.982
G1 X-1.181Y-0.928
G1 X-1.225Y-0.871
G1 X-1.268Y-0.813
G1 X-1.308Y-0.752
G1 X-1.348Y-0.69
G1 X-1.384Y-0.626
G1 X-1.419Y-0.56
G1 X-1.452Y-0.491
G1 X-1.483Y-0.421
G1 X-1.512Y-0.349
G1 X-1.539Y-0.275
G1 X-1.564Y-0.199
G1 X-1.587Y-0.12
G1 X-1.608Y-0.041
G1 X-1.608Y0.041
G1 X-1.587Y0.12
G1 X-1.564Y0.199
G1 X-1.539Y0.275
G1 X-1.512Y0.349
G1 X-1.483Y0.421
G1 X-1.452Y0.491
G1 X-1.419Y0.56
G1 X-1.384Y0.626
G1 X-1.348Y0.69
G1 X-1.308Y0.752
G1 X-1.268Y0.813
G1 X-1.225Y0.871
G1 X-1.181Y0.928
G1 X-1.134Y0.982
G1 X-1.085Y1.035
G1 X-1.035Y1.085
G1 X-0.982Y1.134
G1 X-0.928Y1.181
G1 X-0.871Y1.225
G1 X-0.813Y1.268
G1 X-0.752Y1.308
G1 X-0.69Y1.348
G1 X-0.626Y1.384
G1 X-0.56Y1.419
G1 X-0.491Y1.452
G1 X-0.421Y1.483
G1 X-0.349Y1.512
G1 X-0.275Y1.539
G1 X-0.199Y1.564
G1 X-0.12Y1.587
G1 X-0.041Y1.608
G0 X31.25Y-46.75
G1 X1.608Y-0.041
G1 X1.587Y-0.12
G1 X1.564Y-0.199
G1 X1.539Y-0.275
G1 X1.512Y-0.349
G1 X1.483Y-0.421
G1 X1.452Y-0.491
G1 X1.419Y-0.56
G1 X1.384Y-0.626
G1 X1.348Y-0.69
G1 X1.308Y-0.752
G1 X1.268Y-0.813
G1 X1.225Y-0.871
G1 X1.181Y-0.928
G1 X1.134Y-0.982
G1 X1.085Y-1.035
G1 X1.035Y-1.085
G1 X0.982Y-1.134
G1 X0.928Y-1.181
G1 X0.871Y-1.225
G1 X0.813Y-1.268
G1 X0.752Y-1.308
G1 X0.69Y-1.348
G1 X0.626Y-1.384
G1 X0.56Y-1.419
G1 X0.491Y-1.452
G1 X0.421Y-1.483
G1 X0.349Y-1.512
G1 X0.275Y-1.539
G1 X0.199Y-1.564
G1 X0.12Y-1.587
G1 X0.041Y-1.608
G1 X-0.041Y-1.608
G1 X-0.12Y-1.587
G1 X-0.199Y-1.564
G1 X-0.275Y-1.539
G1 X-0.349Y-1.512
G1 X-0.421Y-1.483
G1 X-0.491Y-1.452
G1 X-0.56Y-1.419
G1 X-0.626Y-1.384
G1 X-0.69Y-1.348
G1 X-0.752Y-1.308
G1 X-0.813Y-1.268
G1 X-0.871Y-1.225
G1 X-0.928Y-1.181
G1 X-0.982Y-1.134
G1 X-1.035Y-1.085
G1 X-1.085Y-1.035
G1 X-1.134Y-0.982
G1 X-1.181Y-0.928
G1 X-1.225Y-0.871
G1 X-1.268Y-0.813
G1 X-1.308Y-0.752
G1 X-1.348Y-0.69
G1 X-1.384Y-0.626
G1 X-1.419Y-0.56
G1 X-1.452Y-0.491
G1 X-1.483Y-0.421
G1 X-1.512Y-0.349
G1 X-1.539Y-0.275
G1 X-1.564Y-0.199
G1 X-1.587Y-0.12
G1 X-1.608Y-0.041
G1 X-1.608Y0.041
G1 X-1.587Y0.12
G1 X-1.564Y0.199
G1 X-1.539Y0.275
G1 X-1.512Y0.349
G1 X-1.483Y0.421
G1 X-1.452Y0.491
G1 X-1.419Y0.56
G1 X-1.384Y0.626
G1 X-1.348Y0.69
G1 X-1.308Y0.752
G1 X-1.268Y0.813
G1 X-1.225Y0.871
G1 X-1.181Y0.928
G1 X-1.134Y0.982
G1 X-1.085Y1.035
G1 X-1.035Y1.085
G1 X-0.982Y1.134
G1 X-0.928Y1.181
G1 X-0.871Y1.225
G1 X-0.813Y1.268
G1 X-0.752Y1.308
G1 X-0.69Y1.348
G1 X-0.626Y1.384
G1 X-0.56Y1.419
G1 X-0.491Y1.452
G1 X-0.421Y1.483
G1 X-0.349Y1.512
G1 X-0.275Y1.539
G1 X-0.199Y1.564
G1 X-0.12Y1.587
G1 X-0.041Y1.608
G1 X0.041Y1.608
G1 X0.12Y1.587
G1 X0.199Y1.564
G1 X0.275Y1.539
G1 X0.349Y1.512
G1 X0.421Y1.483
G1 X0.491Y1.452
G1 X0.56Y1.419
G1 X0.626Y1.384
G1 X0.69Y1.348
G1 X0.752Y1.308
G1 X0.813Y1.268
G1 X0.871Y1.225
G1 X0.928Y1.181
G1 X0.982Y1.134
G1 X1.035Y1.085
G1 X1.085Y1.035
G1 X1.134Y0.982
G1 X1.181Y0.928
G1 X1.225Y0.871
G1 X1.268Y0.813
G1 X1.308Y0.752
G1 X1.348Y0.69
G1 X1.384Y0.626
G1 X1.419Y0.56
G1 X1.452Y0.491
G1 X1.483Y0.421
G1 X1.512Y0.349
G1 X1.539Y0.275
G1 X1.564Y0.199
G1 X1.587Y0.12
G1 X1.608Y0.041
G0 X-46.75Y-31.25
G1 X-0.041Y-1.608
G1 X-0.12Y-1.587
G1 X-0.199Y-1.564
G1 X-0.275Y-1.539
G1 X-0.349Y-1.512
G1 X-0.421Y-1.483
G1 X-0.491Y-1.452
G1 X-0.56Y-1.419
G1 X-0.626Y-1.384
G1 X-0.69Y-1.348
G1 X-0.752Y-1.308
G1 X-0.813Y-1.268
G1 X-0.871Y-1.225
G1 X-0.928Y-1.181
G1 X-0.982Y-1.134
G1 X-1.035Y-1.085
G1 X-1.085Y-1.035
G1 X-1.134Y-0.982
G1 X-1.181Y-0.928
G1 X-1.225Y-0.871
G1 X-1.268Y-0.813
G1 X-1.308Y-0.752
G1 X-1.348Y-0.69
G1 X-1.384Y-0.626
G1 X-1.419Y-0.56
G1 X-1.452Y-0.491
G1 X-1.483Y-0.421
G1 X-1.512Y-0.349
G1 X-1.539Y-0.275
G1 X-1.564Y-0.199
G1 X-1.587Y-0.12
G1 X-1.608Y-0.041
G1 X-1.608Y0.041
G1 X-1.587Y0.12
G1 X-1.564Y0.199
G1 X-1.539Y0.275
G1 X-1.512Y0.349
G1 X-1.483Y0.421
G1 X-1.452Y0.491
G1 X-1.419Y0.56
G1 X-1.384Y0.626
G1 X-1.348Y0.69
G1 X-1.308Y0.752
G1 X-1.268Y0.813
G1 X-1.225Y0.871
G1 X-1.181Y0.928
G1 X-1.134Y0.982
G1 X-1.085Y1.035
G1 X-1.035Y1.085
G1 X-0.982Y1.134
G1 X-0.928Y1.181
G1 X-0.871Y1.225
G1 X-0.813Y1.268
G1 X-0.752Y1.308
G1 X-0.69Y1.348
G1 X-0.626Y1.384
G1 X-0.56Y1.419
G1 X-0.491Y1.452
G1 X-0.421Y1.483
G1 X-0.349Y1.512
G1 X-0.275Y1.539
G1 X-0.199Y1.564
G1 X-0.12Y1.587
G1 X-0.041Y1.608
G1 X0.041Y1.608
G1 X0.12Y1.587
G1 X0.199Y1.564
G1 X0.275Y1.539
G1 X0.349Y1.512
G1 X0.421Y1.483
G1 X0.491Y1.452
G1 X0.56Y1.419
G1 X0.626Y1.384
G1 X0.69Y1.348
G1 X0.752Y1.308
G1 X0.813Y1.268
G1 X0.871Y1.225
G1 X0.928Y1.181
G1 X0.982Y1.134
G1 X1.035Y1.085
G1 X1.085Y1.035
G1 X1.134Y0.982
G1 X1.181Y0.928
G1 X1.225Y0.871
G1 X1.268Y0.813
G1 X1.308Y0.752
G1 X1.348Y0.69
G1 X1.384Y0.626
G1 X1.419Y0.56
G1 X1.452Y0.491
G1 X1.483Y0.421
G1 X1.512Y0.349
G1 X1.539Y0.275
G1 X1.564Y0.199
G1 X1.587Y0.12
G1 X1.608Y0.041
G1 X1.608Y-0.041
G1 X1.587Y-0.12
G1 X1.564Y-0.199
G1 X1.539Y-0.275
G1 X1.512Y-0.349
G1 X1.483Y-0.421
G1 X1.452Y-0.491
G1 X1.419Y-0.56
G1 X1.384Y-0.626
G1 X1.348Y-0.69
G1 X1.308Y-0.752
G1 X1.268Y-0.813
G1 X1.225Y-0.871
G1 X1.181Y-0.928
G1 X1.134Y-0.982
G1 X1.085Y-1.035
G1 X1.035Y-1.085
G1 X0.982Y-1.134
G1 X0.928Y-1.181
G1 X0.871Y-1.225
G1 X0.813Y-1.268
G1 X0.752Y-1.308
G1 X0.69Y-1.348
G1 X0.626Y-1.384
G1 X0.56Y-1.419
G1 X0.491Y-1.452
G1 X0.421Y-1.483
G1 X0.349Y-1.512
G1 X0.275Y-1.539
G1 X0.199Y-1.564
G1 X0.12Y-1.587
G1 X0.041Y-1.608
G0 X-76Y0
G1 X-0.041Y-1.608
G1 X-0.12Y-1.587
G1 X-0.199Y-1.564
G1 X-0.275Y-1.539
G1 X-0.349Y-1.512
G1 X-0.421Y-1.483
G1 X-0.491Y-1.452
G1 X-0.56Y-1.419
G1 X-0.626Y-1.384
G1 X-0.69Y-1.348
G1 X-0.752Y-1.308
G1 X-0.813Y-1.268
G1 X-0.871Y-1.225
G1 X-0.928Y-1.181
G1 X-0.982Y-1.134
G1 X-1.035Y-1.085
G1 X-1.085Y-1.035
G1 X-1.134Y-0.982
G1 X-1.181Y-0.928
G1 X-1.225Y-0.871
G1 X-1.268Y-0.813
G1 X-1.308Y-0.752
G1 X-1.348Y-0.69
G1 X-1.384Y-0.626
G1 X-1.419Y-0.56
G1 X-1.452Y-0.491
G1 X-1.483Y-0.421
G1 X-1.512Y-0.349
G1 X-1.539Y-0.275
G1 X-1.564Y-0.199
G1 X-1.587Y-0.12
G1 X-1.608Y-0.041
G1 X-1.608Y0.041
G1 X-1.587Y0.12
G1 X-1.564Y0.199
G1 X-1.539Y0.275
G1 X-1.512Y0.349
G1 X-1.483Y0.421
G1 X-1.452Y0.491
G1 X-1.419Y0.56
G1 X-1.384Y0.626
G1 X-1.348Y0.69
G1 X-1.308Y0.752
G1 X-1.268Y0.813
G1 X-1.225Y0.871
G1 X-1.181Y0.928
G1 X-1.134Y0.982
G1 X-1.085Y1.035
G1 X-1.035Y1.085
G1 X-0.982Y1.134
G1 X-0.928Y1.181
G1 X-0.871Y1.225
G1 X-0.813Y1.268
G1 X-0.752Y1.308
G1 X-0.69Y1.348
G1 X-0.626Y1.384
G1 X-0.56Y1.419
G1 X-0.491Y1.452
G1 X-0.421Y1.483
G1 X-0.349Y1.512
G1 X-0.275Y1.539
G1 X-0.199Y1.564
G1 X-0.12Y1.587
G1 X-0.041Y1.608
G1 X0.041Y1.608
G1 X0.12Y1.587
G1 X0.199Y1.564
G1 X0.275Y1.539
G1 X0.349Y1.512
G1 X0.421Y1.483
G1 X0.491Y1.452
G1 X0.56Y1.419
G1 X0.626Y1.384
G1 X0.69Y1.348
G1 X0.752Y1.308
G1 X0.813Y1.268
G1 X0.871Y1.225
G1 X0.928Y1.181
G1 X0.982Y1.134
G1 X1.035Y1.085
G1 X1.085Y1.035
G1 X1.134Y0.982
G1 X1.181Y0.928
G1 X1.225Y0.871
G1 X1.268Y0.813
G1 X1.308Y0.752
G1 X1.348Y0.69
G1 X1.384Y0.626
G1 X1.419Y0.56
G1 X1.452Y0.491
G1 X1.483Y0.421
G1 X1.512Y0.349
G1 X1.539Y0.275
G1 X1.564Y0.199
G1 X1.587Y0.12
G1 X1.608Y0.041
G1 X1.608Y-0.041
G1 X1.587Y-0.12
G1 X1.564Y-0.199
G1 X1.539Y-0.275
G1 X1.512Y-0.349
G1 X1.483Y-0.421
G1 X1.452Y-0.491
G1 X1.419Y-0.56
G1 X1.384Y-0.626
G1 X1.348Y-0.69
G1 X1.308Y-0.752
G1 X1.268Y-0.813
G1 X1.225Y-0.871
G1 X1.181Y-0.928
G1 X1.134Y-0.982
G1 X1.085Y-1.035
G1 X1.035Y-1.085
G1 X0.982Y-1.134
G1 X0.928Y-1.181
G1 X0.871Y-1.225
G1 X0.813Y-1.268
G1 X0.752Y-1.308
G1 X0.69Y-1.348
G1 X0.626Y-1.384
G1 X0.56Y-1.419
G1 X0.491Y-1.452
G1 X0.421Y-1.483
G1 X0.349Y-1.512
G1 X0.275Y-1.539
G1 X0.199Y-1.564
G1 X0.12Y-1.587
G1 X0.041Y-1.608
G0 X-77Y-2
G1 X-0.041Y-1.608
G1 X-0.12Y-1.587
G1 X-0.199Y-1.564
G1 X-0.275Y-1.539
G1 X-0.349Y-1.512
G1 X-0.421Y-1.483
G1 X-0.491Y-1.452
G1 X-0.56Y-1.419
G1 X-0.626Y-1.384
G1 X-0.69Y-1.348
G1 X-0.752Y-1.308
G1 X-0.813Y-1.268
G1 X-0.871Y-1.225
G1 X-0.928Y-1.181
G1 X-0.982Y-1.134
G1 X-1.035Y-1.085
G1 X-1.085Y-1.035
G1 X-1.134Y-0.982
G1 X-1.181Y-0.928
G1 X-1.225Y-0.871
G1 X-1.268Y-0.813
G1 X-1.308Y-0.752
G1 X-1.348Y-0.69
G1 X-1.384Y-0.626
G1 X-1.419Y-0.56
G1 X-1.452Y-0.491
G1 X-1.483Y-0.421
G1 X-1.512Y-0.349
G1 X-1.539Y-0.275
G1 X-1.564Y-0.199
G1 X-1.587Y-0.12
G1 X-1.608Y-0.041
G1 X-1.608Y0.041
G1 X-1.587Y0.12
G1 X-1.564Y0.199
G1 X-1.539Y0.275
G1 X-1.512Y0.349
G1 X-1.483Y0.421
G1 X-1.452Y0.491
G1 X-1.419Y0.56
G1 X-1.384Y0.626
G1 X-1.348Y0.69
G1 X-1.308Y0.752
G1 X-1.268Y0.813
G1 X-1.225Y0.871
G1 X-1.181Y0.928
G1 X-1.134Y0.982
G1 X-1.085Y1.035
G1 X-1.035Y1.085
G1 X-0.982Y1.134
G1 X-0.928Y1.181
G1 X-0.871Y1.225
G1 X-0.813Y1.268
G1 X-0.752Y1.308
G1 X-0.69Y1.348
G1 X-0.626Y1.384
G1 X-0.56Y1.419
G1 X-0.491Y1.452
G1 X-0.421Y1.483
G1 X-0.349Y1.512
G1 X-0.275Y1.539
G1 X-0.199Y1.564
G1 X-0.12Y1.587
G1 X-0.041Y1.608
G1 X0.041Y1.608
G1 X0.12Y1.587
G1 X0.199Y1.564
G1 X0.275Y1.539
G1 X0.349Y1.512
G1 X0.421Y1.483
G1 X0.491Y1.452
G1 X0.56Y1.419
G1 X0.626Y1.384
G1 X0.69Y1.348
G1 X0.752Y1.308
G1 X0.813Y1.268
G1 X0.871Y1.225
G1 X0.928Y1.181
G1 X0.982Y1.134
G1 X1.035Y1.085
G1 X1.085Y1.035
G1 X1.134Y0.982
G1 X1.181Y0.928
G1 X1.225Y0.871
G1 X1.268Y0.813
G1 X1.308Y0.752
G1 X1.348Y0.69
G1 X1.384Y0.626
G1 X1.419Y0.56
G1 X1.452Y0.491
G1 X1.483Y0.421
G1 X1.512Y0.349
G1 X1.539Y0.275
G1 X1.564Y0.199
G1 X1.587Y0.12
G1 X1.608Y0.041
G1 X1.608Y-0.041
G1 X1.587Y-0.12
G1 X1.564Y-0.199
G1 X1.539Y-0.275
G1 X1.512Y-0.349
G1 X1.483Y-0.421
G1 X1.452Y-0.491
G1 X1.419Y-0.56
G1 X1.384Y-0.626
G1 X1.348Y-0.69
G1 X1.308Y-0.752
G1 X1.268Y-0.813
G1 X1.225Y-0.871
G1 X1.181Y-0.928
G1 X1.134Y-0.982
G1 X1.085Y-1.035
G1 X1.035Y-1.085
G1 X0.982Y-1.134
G1 X0.928Y-1.181
G1 X0.871Y-1.225
G1 X0.813Y-1.268
G1 X0.752Y-1.308
G1 X0.69Y-1.348
G1 X0.626Y-1.384
G1 X0.56Y-1.419
G1 X0.491Y-1.452
G1 X0.421Y-1.483
G1 X0.349Y-1.512
G1 X0.275Y-1.539
G1 X0.199Y-1.564
G1 X0.12Y-1.587
G1 X0.041Y-1.608
G0 X-76Y0
G1 X-0.041Y-1.608
G1 X-0.12Y-1.587
G1 X-0.199Y-1.564
G1 X-0.275Y-1.539
G1 X-0.349Y-1.512
G1 X-0.421Y-1.483
G1 X-0.491Y-1.452
G1 X-0.56Y-1.419
G1 X-0.626Y-1.384
G1 X-0.69Y-1.348
G1 X-0.752Y-1.308
G1 X-0.813Y-1.268
G1 X-0.871Y-1.225
G1 X-0.928Y-1.181
G1 X-0.982Y-1.134
G1 X-1.035Y-1.085
G1 X-1.085Y-1.035
G1 X-1.134Y-0.982
G1 X-1.181Y-0.928
G1 X-1.225Y-0.871
G1 X-1.268Y-0.813
G1 X-1.308Y-0.752
G1 X-1.348Y-0.69
G1 X-1.384Y-0.626
G1 X-1.419Y-0.56
G1 X-1.452Y-0.491
G1 X-1.483Y-0.421
G1 X-1.512Y-0.349
G1 X-1.539Y-0.275
G1 X-1.564Y-0.199
G1 X-1.587Y-0.12
G1 X-1.608Y-0.041
G1 X-1.608Y0.041
G1 X-1.587Y0.12
G1 X-1.564Y0.199
G1 X-1.539Y0.275
G1 X-1.512Y0.349
G1 X-1.483Y0.421
G1 X-1.452Y0.491
G1 X-1.419Y0.56
G1 X-1.384Y0.626
G1 X-1.348Y0.69
G1 X-1.308Y0.752
G1 X-1.268Y0.813
G1 X-1.225Y0.871
G1 X-1.181Y0.928
G1 X-1.134Y0.982
G1 X-1.085Y1.035
G1 X-1.035Y1.085
G1 X-0.982Y1.134
G1 X-0.928Y1.181
G1 X-0.871Y1.225
G1 X-0.813Y1.268
G1 X-0.752Y1.308
G1 X-0.69Y1.348
G1 X-0.626Y1.384
G1 X-0.56Y1.419
G1 X-0.491Y1.452
G1 X-0.421Y1.483
G1 X-0.349Y1.512
G1 X-0.275Y1.539
G1 X-0.199Y1.564
G1 X-0.12Y1.587
G1 X-0.041Y1.608
G1 X0.041Y1.608
G1 X0.12Y1.587
G1 X0.199Y1.564
G1 X0.275Y1.539
G1 X0.349Y1.512
G1 X0.421Y1.483
G1 X0.491Y1.452
G1 X0.56Y1.419
G1 X0.626Y1.384
G1 X0.69Y1.348
G1 X0.752Y1.308
G1 X0.813Y1.268
G1 X0.871Y1.225
G1 X0.928Y1.181
G1 X0.982Y1.134
G1 X1.035Y1.085
G1 X1.085Y1.035
G1 X1.134Y0.982
G1 X1.181Y0.928
G1 X1.225Y0.871
G1 X1.268Y0.813
G1 X1.308Y0.752
G1 X1.348Y0.69
G1 X1.384Y0.626
G1 X1.419Y0.56
G1 X1.452Y0.491
G1 X1.483Y0.421
G1 X1.512Y0.349
G1 X1.539Y0.275
G1 X1.564Y0.199
G1 X1.587Y0.12
G1 X1.608Y0.041
G1 X1.608Y-0.041
G1 X1.587Y-0.12
G1 X1.564Y-0.199
G1 X1.539Y-0.275
G1 X1.512Y-0.349
G1 X1.483Y-0.421
G1 X1.452Y-0.491
G1 X1.419Y-0.56
G1 X1.384Y-0.626
G1 X1.348Y-0.69
G1 X1.308Y-0.752
G1 X1.268Y-0.813
G1 X1.225Y-0.871
G1 X1.181Y-0.928
G1 X1.134Y-0.982
G1 X1.085Y-1.035
G1 X1.035Y-1.085
G1 X0.982Y-1.134
G1 X0.928Y-1.181
G1 X0.871Y-1.225
G1 X0.813Y-1.268
G1 X0.752Y-1.308
G1 X0.69Y-1.348
G1 X0.626Y-1.384
G1 X0.56Y-1.419
G1 X0.491Y-1.452
G1 X0.421Y-1.483
G1 X0.349Y-1.512
G1 X0.275Y-1.539
G1 X0.199Y-1.564
G1 X0.12Y-1.587
G1 X0.041Y-1.608
M9
G1 S0
M5
G90
M2
