; LightBurn 1.3.01
; GRBL device profile, absolute coords
; Bounds: X6 Y7.65 to X393.2 Y797
G00 G17 G40 G21 G54
G90
M4
; Cut @ 600 mm/min, 100% power
M8
G0 X304.625Y51.05
; Layer Trayectorias_de_corte_1 Pass 1 of 9
G1 Y71.05S1000F600
G1 X324.625
G1 Y51.05
G1 X304.625
; Layer Trayectorias_de_corte_1 Pass 2 of 9
G1 Y71.05
G1 X324.625
G1 Y51.05
G1 X304.625
; Layer Trayectorias_de_corte_1 Pass 3 of 9
G1 Y71.05
G1 X324.625
G1 Y51.05
G1 X304.625
; Layer Trayectorias_de_corte_1 Pass 4 of 9
G1 Y71.05
G1 X324.625
G1 Y51.05
G1 X304.625
; Layer Trayectorias_de_corte_1 Pass 5 of 9
G1 Y71.05
G1 X324.625
G1 Y51.05
G1 X304.625
; Layer Trayectorias_de_corte_1 Pass 6 of 9
G1 Y71.05
G1 X324.625
G1 Y51.05
G1 X304.625
; Layer Trayectorias_de_corte_1 Pass 7 of 9
G1 Y71.05
G1 X324.625
G1 Y51.05
G1 X304.625
; Layer Trayectorias_de_corte_1 Pass 8 of 9
G1 Y71.05
G1 X324.625
G1 Y51.05
G1 X304.625
; Layer Trayectorias_de_corte_1 Pass 9 of 9
G1 Y71.05
G1 X324.625
G1 Y51.05
G1 X304.625
G0 X292.975Y54.251
; Layer Trayectorias_de_corte_1 Pass 1 of 9
G1 Y47.65
G1 X289.675
G1 Y41.051
G1 X292.975
G1 Y34.45
G1 X289.675
G1 Y27.85
G1 X292.975
G1 Y21.25
G1 X289.675
G1 Y14.65
G1 X292.975
G1 Y7.65
G1 X336.375
G1 Y14.65
G1 X339.675
G1 Y21.25
G1 X336.375
G1 Y27.85
G1 X339.675
G1 Y34.45
G1 X336.375
G1 Y41.051
G1 X339.675
G1 Y47.65
G1 X336.375
G1 Y54.251
G1 X339.675
G1 Y60.85
G1 X336.375
G1 Y67.45
G1 X339.675
G1 Y74.05
G1 X336.375
G1 Y81.05
G1 X324.575
G1 Y84.35
G1 X317.974
G1 Y81.05
G1 X311.374
G1 Y84.35
G1 X304.775
G1 Y81.05
G1 X292.975
G1 Y74.05
G1 X289.675
G1 Y67.45
G1 X292.975
G1 Y60.85
G1 X289.675
G1 Y54.251
G1 X292.975
; Layer Trayectorias_de_corte_1 Pass 2 of 9
G1 Y47.65
G1 X289.675
G1 Y41.051
G1 X292.975
G1 Y34.45
G1 X289.675
G1 Y27.85
G1 X292.975
G1 Y21.25
G1 X289.675
G1 Y14.65
G1 X292.975
G1 Y7.65
G1 X336.375
G1 Y14.65
G1 X339.675
G1 Y21.25
G1 X336.375
G1 Y27.85
G1 X339.675
G1 Y34.45
G1 X336.375
G1 Y41.051
G1 X339.675
G1 Y47.65
G1 X336.375
G1 Y54.251
G1 X339.675
G1 Y60.85
G1 X336.375
G1 Y67.45
G1 X339.675
G1 Y74.05
G1 X336.375
G1 Y81.05
G1 X324.575
G1 Y84.35
G1 X317.974
G1 Y81.05
G1 X311.374
G1 Y84.35
G1 X304.775
G1 Y81.05
G1 X292.975
G1 Y74.05
G1 X289.675
G1 Y67.45
G1 X292.975
G1 Y60.85
G1 X289.675
G1 Y54.251
G1 X292.975
; Layer Trayectorias_de_corte_1 Pass 3 of 9
G1 Y47.65
G1 X289.675
G1 Y41.051
G1 X292.975
G1 Y34.45
G1 X289.675
G1 Y27.85
G1 X292.975
G1 Y21.25
G1 X289.675
G1 Y14.65
G1 X292.975
G1 Y7.65
G1 X336.375
G1 Y14.65
G1 X339.675
G1 Y21.25
G1 X336.375
G1 Y27.85
G1 X339.675
G1 Y34.45
G1 X336.375
G1 Y41.051
G1 X339.675
G1 Y47.65
G1 X336.375
G1 Y54.251
G1 X339.675
G1 Y60.85
G1 X336.375
G1 Y67.45
G1 X339.675
G1 Y74.05
G1 X336.375
G1 Y81.05
G1 X324.575
G1 Y84.35
G1 X317.974
G1 Y81.05
G1 X311.374
G1 Y84.35
G1 X304.775
G1 Y81.05
G1 X292.975
G1 Y74.05
G1 X289.675
G1 Y67.45
G1 X292.975
G1 Y60.85
G1 X289.675
G1 Y54.251
G1 X292.975
; Layer Trayectorias_de_corte_1 Pass 4 of 9
G1 Y47.65
G1 X289.675
G1 Y41.051
G1 X292.975
G1 Y34.45
G1 X289.675
G1 Y27.85
G1 X292.975
G1 Y21.25
G1 X289.675
G1 Y14.65
G1 X292.975
G1 Y7.65
G1 X336.375
G1 Y14.65
G1 X339.675
G1 Y21.25
G1 X336.375
G1 Y27.85
G1 X339.675
G1 Y34.45
G1 X336.375
G1 Y41.051
G1 X339.675
G1 Y47.65
G1 X336.375
G1 Y54.251
G1 X339.675
G1 Y60.85
G1 X336.375
G1 Y67.45
G1 X339.675
G1 Y74.05
G1 X336.375
G1 Y81.05
G1 X324.575
G1 Y84.35
G1 X317.974
G1 Y81.05
G1 X311.374
G1 Y84.35
G1 X304.775
G1 Y81.05
G1 X292.975
G1 Y74.05
G1 X289.675
G1 Y67.45
G1 X292.975
G1 Y60.85
G1 X289.675
G1 Y54.251
G1 X292.975
; Layer Trayectorias_de_corte_1 Pass 5 of 9
G1 Y47.65
G1 X289.675
G1 Y41.051
G1 X292.975
G1 Y34.45
G1 X289.675
G1 Y27.85
G1 X292.975
G1 Y21.25
G1 X289.675
G1 Y14.65
G1 X292.975
G1 Y7.65
G1 X336.375
G1 Y14.65
G1 X339.675
G1 Y21.25
G1 X336.375
G1 Y27.85
G1 X339.675
G1 Y34.45
G1 X336.375
G1 Y41.051
G1 X339.675
G1 Y47.65
G1 X336.375
G1 Y54.251
G1 X339.675
G1 Y60.85
G1 X336.375
G1 Y67.45
G1 X339.675
G1 Y74.05
G1 X336.375
G1 Y81.05
G1 X324.575
G1 Y84.35
G1 X317.974
G1 Y81.05
G1 X311.374
G1 Y84.35
G1 X304.775
G1 Y81.05
G1 X292.975
G1 Y74.05
G1 X289.675
G1 Y67.45
G1 X292.975
G1 Y60.85
G1 X289.675
G1 Y54.251
G1 X292.975
; Layer Trayectorias_de_corte_1 Pass 6 of 9
G1 Y47.65
G1 X289.675
G1 Y41.051
G1 X292.975
G1 Y34.45
G1 X289.675
G1 Y27.85
G1 X292.975
G1 Y21.25
G1 X289.675
G1 Y14.65
G1 X292.975
G1 Y7.65
G1 X336.375
G1 Y14.65
G1 X339.675
G1 Y21.25
G1 X336.375
G1 Y27.85
G1 X339.675
G1 Y34.45
G1 X336.375
G1 Y41.051
G1 X339.675
G1 Y47.65
G1 X336.375
G1 Y54.251
G1 X339.675
G1 Y60.85
G1 X336.375
G1 Y67.45
G1 X339.675
G1 Y74.05
G1 X336.375
G1 Y81.05
G1 X324.575
G1 Y84.35
G1 X317.974
G1 Y81.05
G1 X311.374
G1 Y84.35
G1 X304.775
G1 Y81.05
G1 X292.975
G1 Y74.05
G1 X289.675
G1 Y67.45
G1 X292.975
G1 Y60.85
G1 X289.675
G1 Y54.251
G1 X292.975
; Layer Trayectorias_de_corte_1 Pass 7 of 9
G1 Y47.65
G1 X289.675
G1 Y41.051
G1 X292.975
G1 Y34.45
G1 X289.675
G1 Y27.85
G1 X292.975
G1 Y21.25
G1 X289.675
G1 Y14.65
G1 X292.975
G1 Y7.65
G1 X336.375
G1 Y14.65
G1 X339.675
G1 Y21.25
G1 X336.375
G1 Y27.85
G1 X339.675
G1 Y34.45
G1 X336.375
G1 Y41.051
G1 X339.675
G1 Y47.65
G1 X336.375
G1 Y54.251
G1 X339.675
G1 Y60.85
G1 X336.375
G1 Y67.45
G1 X339.675
G1 Y74.05
G1 X336.375
G1 Y81.05
G1 X324.575
G1 Y84.35
G1 X317.974
G1 Y81.05
G1 X311.374
G1 Y84.35
G1 X304.775
G1 Y81.05
G1 X292.975
G1 Y74.05
G1 X289.675
G1 Y67.45
G1 X292.975
G1 Y60.85
G1 X289.675
G1 Y54.251
G1 X292.975
; Layer Trayectorias_de_corte_1 Pass 8 of 9
G1 Y47.65
G1 X289.675
G1 Y41.051
G1 X292.975
G1 Y34.45
G1 X289.675
G1 Y27.85
G1 X292.975
G1 Y21.25
G1 X289.675
G1 Y14.65
G1 X292.975
G1 Y7.65
G1 X336.375
G1 Y14.65
G1 X339.675
G1 Y21.25
G1 X336.375
G1 Y27.85
G1 X339.675
G1 Y34.45
G1 X336.375
G1 Y41.051
G1 X339.675
G1 Y47.65
G1 X336.375
G1 Y54.251
G1 X339.675
G1 Y60.85
G1 X336.375
G1 Y67.45
G1 X339.675
G1 Y74.05
G1 X336.375
G1 Y81.05
G1 X324.575
G1 Y84.35
G1 X317.974
G1 Y81.05
G1 X311.374
G1 Y84.35
G1 X304.775
G1 Y81.05
G1 X292.975
G1 Y74.05
G1 X289.675
G1 Y67.45
G1 X292.975
G1 Y60.85
G1 X289.675
G1 Y54.251
G1 X292.975
; Layer Trayectorias_de_corte_1 Pass 9 of 9
G1 Y47.65
G1 X289.675
G1 Y41.051
G1 X292.975
G1 Y34.45
G1 X289.675
G1 Y27.85
G1 X292.975
G1 Y21.25
G1 X289.675
G1 Y14.65
G1 X292.975
G1 Y7.65
G1 X336.375
G1 Y14.65
G1 X339.675
G1 Y21.25
G1 X336.375
G1 Y27.85
G1 X339.675
G1 Y34.45
G1 X336.375
G1 Y41.051
G1 X339.675
G1 Y47.65
G1 X336.375
G1 Y54.251
G1 X339.675
G1 Y60.85
G1 X336.375
G1 Y67.45
G1 X339.675
G1 Y74.05
G1 X336.375
G1 Y81.05
G1 X324.575
G1 Y84.35
G1 X317.974
G1 Y81.05
G1 X311.374
G1 Y84.35
G1 X304.775
G1 Y81.05
G1 X292.975
G1 Y74.05
G1 X289.675
G1 Y67.45
G1 X292.975
G1 Y60.85
G1 X289.675
G1 Y54.251
G1 X292.975
G0 X340.325Y54.251
; Layer Trayectorias_de_corte_1 Pass 1 of 9
G1 Y47.65
G1 X343.625
G1 Y41.051
G1 X340.325
G1 Y34.45
G1 X343.625
G1 Y27.85
G1 X340.325
G1 Y21.25
G1 X343.625
G1 Y14.65
G1 X340.325
G1 Y7.65
G1 X390.325
G1 Y14.65
G1 X387.025
G1 Y21.25
G1 X390.325
G1 Y27.85
G1 X387.025
G1 Y34.45
G1 X390.325
G1 Y41.051
G1 X387.025
G1 Y47.65
G1 X390.325
G1 Y54.251
G1 X387.025
G1 Y60.85
G1 X390.325
G1 Y67.45
G1 X387.025
G1 Y74.05
G1 X390.325
G1 Y81.05
G1 X387.025
G1 X375.225
G1 Y84.35
G1 X368.624
G1 Y81.05
G1 X362.025
G1 Y84.35
G1 X355.425
G1 Y81.05
G1 X340.325
G1 Y74.05
G1 X343.625
G1 Y67.45
G1 X340.325
G1 Y60.85
G1 X343.625
G1 Y54.251
G1 X340.325
; Layer Trayectorias_de_corte_1 Pass 2 of 9
G1 Y47.65
G1 X343.625
G1 Y41.051
G1 X340.325
G1 Y34.45
G1 X343.625
G1 Y27.85
G1 X340.325
G1 Y21.25
G1 X343.625
G1 Y14.65
G1 X340.325
G1 Y7.65
G1 X390.325
G1 Y14.65
G1 X387.025
G1 Y21.25
G1 X390.325
G1 Y27.85
G1 X387.025
G1 Y34.45
G1 X390.325
G1 Y41.051
G1 X387.025
G1 Y47.65
G1 X390.325
G1 Y54.251
G1 X387.025
G1 Y60.85
G1 X390.325
G1 Y67.45
G1 X387.025
G1 Y74.05
G1 X390.325
G1 Y81.05
G1 X387.025
G1 X375.225
G1 Y84.35
G1 X368.624
G1 Y81.05
G1 X362.025
G1 Y84.35
G1 X355.425
G1 Y81.05
G1 X340.325
G1 Y74.05
G1 X343.625
G1 Y67.45
G1 X340.325
G1 Y60.85
G1 X343.625
G1 Y54.251
G1 X340.325
; Layer Trayectorias_de_corte_1 Pass 3 of 9
G1 Y47.65
G1 X343.625
G1 Y41.051
G1 X340.325
G1 Y34.45
G1 X343.625
G1 Y27.85
G1 X340.325
G1 Y21.25
G1 X343.625
G1 Y14.65
G1 X340.325
G1 Y7.65
G1 X390.325
G1 Y14.65
G1 X387.025
G1 Y21.25
G1 X390.325
G1 Y27.85
G1 X387.025
G1 Y34.45
G1 X390.325
G1 Y41.051
G1 X387.025
G1 Y47.65
G1 X390.325
G1 Y54.251
G1 X387.025
G1 Y60.85
G1 X390.325
G1 Y67.45
G1 X387.025
G1 Y74.05
G1 X390.325
G1 Y81.05
G1 X387.025
G1 X375.225
G1 Y84.35
G1 X368.624
G1 Y81.05
G1 X362.025
G1 Y84.35
G1 X355.425
G1 Y81.05
G1 X340.325
G1 Y74.05
G1 X343.625
G1 Y67.45
G1 X340.325
G1 Y60.85
G1 X343.625
G1 Y54.251
G1 X340.325
; Layer Trayectorias_de_corte_1 Pass 4 of 9
G1 Y47.65
G1 X343.625
G1 Y41.051
G1 X340.325
G1 Y34.45
G1 X343.625
G1 Y27.85
G1 X340.325
G1 Y21.25
G1 X343.625
G1 Y14.65
G1 X340.325
G1 Y7.65
G1 X390.325
G1 Y14.65
G1 X387.025
G1 Y21.25
G1 X390.325
G1 Y27.85
G1 X387.025
G1 Y34.45
G1 X390.325
G1 Y41.051
G1 X387.025
G1 Y47.65
G1 X390.325
G1 Y54.251
G1 X387.025
G1 Y60.85
G1 X390.325
G1 Y67.45
G1 X387.025
G1 Y74.05
G1 X390.325
G1 Y81.05
G1 X387.025
G1 X375.225
G1 Y84.35
G1 X368.624
G1 Y81.05
G1 X362.025
G1 Y84.35
G1 X355.425
G1 Y81.05
G1 X340.325
G1 Y74.05
G1 X343.625
G1 Y67.45
G1 X340.325
G1 Y60.85
G1 X343.625
G1 Y54.251
G1 X340.325
; Layer Trayectorias_de_corte_1 Pass 5 of 9
G1 Y47.65
G1 X343.625
G1 Y41.051
G1 X340.325
G1 Y34.45
G1 X343.625
G1 Y27.85
G1 X340.325
G1 Y21.25
G1 X343.625
G1 Y14.65
G1 X340.325
G1 Y7.65
G1 X390.325
G1 Y14.65
G1 X387.025
G1 Y21.25
G1 X390.325
G1 Y27.85
G1 X387.025
G1 Y34.45
G1 X390.325
G1 Y41.051
G1 X387.025
G1 Y47.65
G1 X390.325
G1 Y54.251
G1 X387.025
G1 Y60.85
G1 X390.325
G1 Y67.45
G1 X387.025
G1 Y74.05
G1 X390.325
G1 Y81.05
G1 X387.025
G1 X375.225
G1 Y84.35
G1 X368.624
G1 Y81.05
G1 X362.025
G1 Y84.35
G1 X355.425
G1 Y81.05
G1 X340.325
G1 Y74.05
G1 X343.625
G1 Y67.45
G1 X340.325
G1 Y60.85
G1 X343.625
G1 Y54.251
G1 X340.325
; Layer Trayectorias_de_corte_1 Pass 6 of 9
G1 Y47.65
G1 X343.625
G1 Y41.051
G1 X340.325
G1 Y34.45
G1 X343.625
G1 Y27.85
G1 X340.325
G1 Y21.25
G1 X343.625
G1 Y14.65
G1 X340.325
G1 Y7.65
G1 X390.325
G1 Y14.65
G1 X387.025
G1 Y21.25
G1 X390.325
G1 Y27.85
G1 X387.025
G1 Y34.45
G1 X390.325
G1 Y41.051
G1 X387.025
G1 Y47.65
G1 X390.325
G1 Y54.251
G1 X387.025
G1 Y60.85
G1 X390.325
G1 Y67.45
G1 X387.025
G1 Y74.05
G1 X390.325
G1 Y81.05
G1 X387.025
G1 X375.225
G1 Y84.35
G1 X368.624
G1 Y81.05
G1 X362.025
G1 Y84.35
G1 X355.425
G1 Y81.05
G1 X340.325
G1 Y74.05
G1 X343.625
G1 Y67.45
G1 X340.325
G1 Y60.85
G1 X343.625
G1 Y54.251
G1 X340.325
; Layer Trayectorias_de_corte_1 Pass 7 of 9
G1 Y47.65
G1 X343.625
G1 Y41.051
G1 X340.325
G1 Y34.45
G1 X343.625
G1 Y27.85
G1 X340.325
G1 Y21.25
G1 X343.625
G1 Y14.65
G1 X340.325
G1 Y7.65
G1 X390.325
G1 Y14.65
G1 X387.025
G1 Y21.25
G1 X390.325
G1 Y27.85
G1 X387.025
G1 Y34.45
G1 X390.325
G1 Y41.051
G1 X387.025
G1 Y47.65
G1 X390.325
G1 Y54.251
G1 X387.025
G1 Y60.85
G1 X390.325
G1 Y67.45
G1 X387.025
G1 Y74.05
G1 X390.325
G1 Y81.05
G1 X387.025
G1 X375.225
G1 Y84.35
G1 X368.624
G1 Y81.05
G1 X362.025
G1 Y84.35
G1 X355.425
G1 Y81.05
G1 X340.325
G1 Y74.05
G1 X343.625
G1 Y67.45
G1 X340.325
G1 Y60.85
G1 X343.625
G1 Y54.251
G1 X340.325
; Layer Trayectorias_de_corte_1 Pass 8 of 9
G1 Y47.65
G1 X343.625
G1 Y41.051
G1 X340.325
G1 Y34.45
G1 X343.625
G1 Y27.85
G1 X340.325
G1 Y21.25
G1 X343.625
G1 Y14.65
G1 X340.325
G1 Y7.65
G1 X390.325
G1 Y14.65
G1 X387.025
G1 Y21.25
G1 X390.325
G1 Y27.85
G1 X387.025
G1 Y34.45
G1 X390.325
G1 Y41.051
G1 X387.025
G1 Y47.65
G1 X390.325
G1 Y54.251
G1 X387.025
G1 Y60.85
G1 X390.325
G1 Y67.45
G1 X387.025
G1 Y74.05
G1 X390.325
G1 Y81.05
G1 X387.025
G1 X375.225
G1 Y84.35
G1 X368.624
G1 Y81.05
G1 X362.025
G1 Y84.35
G1 X355.425
G1 Y81.05
G1 X340.325
G1 Y74.05
G1 X343.625
G1 Y67.45
G1 X340.325
G1 Y60.85
G1 X343.625
G1 Y54.251
G1 X340.325
; Layer Trayectorias_de_corte_1 Pass 9 of 9
G1 Y47.65
G1 X343.625
G1 Y41.051
G1 X340.325
G1 Y34.45
G1 X343.625
G1 Y27.85
G1 X340.325
G1 Y21.25
G1 X343.625
G1 Y14.65
G1 X340.325
G1 Y7.65
G1 X390.325
G1 Y14.65
G1 X387.025
G1 Y21.25
G1 X390.325
G1 Y27.85
G1 X387.025
G1 Y34.45
G1 X390.325
G1 Y41.051
G1 X387.025
G1 Y47.65
G1 X390.325
G1 Y54.251
G1 X387.025
G1 Y60.85
G1 X390.325
G1 Y67.45
G1 X387.025
G1 Y74.05
G1 X390.325
G1 Y81.05
G1 X387.025
G1 X375.225
G1 Y84.35
G1 X368.624
G1 Y81.05
G1 X362.025
G1 Y84.35
G1 X355.425
G1 Y81.05
G1 X340.325
G1 Y74.05
G1 X343.625
G1 Y67.45
G1 X340.325
G1 Y60.85
G1 X343.625
G1 Y54.251
G1 X340.325
G0 X340.825Y91.65
; Layer Trayectorias_de_corte_1 Pass 1 of 9
G1 X390.826
G1 Y98.65
G1 X387.526
G1 Y105.25
G1 X390.826
G1 Y111.85
G1 X387.526
G1 Y118.45
G1 X390.826
G1 Y125.051
G1 X387.526
G1 Y131.65
G1 X390.826
G1 Y138.251
G1 X387.526
G1 Y144.85
G1 X390.826
G1 Y151.45
G1 X387.526
G1 Y158.05
G1 X390.826
G1 Y165.05
G1 X387.526
G1 X375.726
G1 Y168.35
G1 X369.126
G1 Y165.05
G1 X362.526
G1 Y168.35
G1 X355.926
G1 Y165.05
G1 X340.825
G1 Y158.05
G1 X344.126
G1 Y151.45
G1 X340.825
G1 Y144.85
G1 X344.126
G1 Y138.251
G1 X340.825
G1 Y131.65
G1 X344.126
G1 Y125.051
G1 X340.825
G1 Y118.45
G1 X344.126
G1 Y111.85
G1 X340.825
G1 Y105.25
G1 X344.126
G1 Y98.65
G1 X340.825
G1 Y91.65
; Layer Trayectorias_de_corte_1 Pass 2 of 9
G1 X390.826
G1 Y98.65
G1 X387.526
G1 Y105.25
G1 X390.826
G1 Y111.85
G1 X387.526
G1 Y118.45
G1 X390.826
G1 Y125.051
G1 X387.526
G1 Y131.65
G1 X390.826
G1 Y138.251
G1 X387.526
G1 Y144.85
G1 X390.826
G1 Y151.45
G1 X387.526
G1 Y158.05
G1 X390.826
G1 Y165.05
G1 X387.526
G1 X375.726
G1 Y168.35
G1 X369.126
G1 Y165.05
G1 X362.526
G1 Y168.35
G1 X355.926
G1 Y165.05
G1 X340.825
G1 Y158.05
G1 X344.126
G1 Y151.45
G1 X340.825
G1 Y144.85
G1 X344.126
G1 Y138.251
G1 X340.825
G1 Y131.65
G1 X344.126
G1 Y125.051
G1 X340.825
G1 Y118.45
G1 X344.126
G1 Y111.85
G1 X340.825
G1 Y105.25
G1 X344.126
G1 Y98.65
G1 X340.825
G1 Y91.65
; Layer Trayectorias_de_corte_1 Pass 3 of 9
G1 X390.826
G1 Y98.65
G1 X387.526
G1 Y105.25
G1 X390.826
G1 Y111.85
G1 X387.526
G1 Y118.45
G1 X390.826
G1 Y125.051
G1 X387.526
G1 Y131.65
G1 X390.826
G1 Y138.251
G1 X387.526
G1 Y144.85
G1 X390.826
G1 Y151.45
G1 X387.526
G1 Y158.05
G1 X390.826
G1 Y165.05
G1 X387.526
G1 X375.726
G1 Y168.35
G1 X369.126
G1 Y165.05
G1 X362.526
G1 Y168.35
G1 X355.926
G1 Y165.05
G1 X340.825
G1 Y158.05
G1 X344.126
G1 Y151.45
G1 X340.825
G1 Y144.85
G1 X344.126
G1 Y138.251
G1 X340.825
G1 Y131.65
G1 X344.126
G1 Y125.051
G1 X340.825
G1 Y118.45
G1 X344.126
G1 Y111.85
G1 X340.825
G1 Y105.25
G1 X344.126
G1 Y98.65
G1 X340.825
G1 Y91.65
; Layer Trayectorias_de_corte_1 Pass 4 of 9
G1 X390.826
G1 Y98.65
G1 X387.526
G1 Y105.25
G1 X390.826
G1 Y111.85
G1 X387.526
G1 Y118.45
G1 X390.826
G1 Y125.051
G1 X387.526
G1 Y131.65
G1 X390.826
G1 Y138.251
G1 X387.526
G1 Y144.85
G1 X390.826
G1 Y151.45
G1 X387.526
G1 Y158.05
G1 X390.826
G1 Y165.05
G1 X387.526
G1 X375.726
G1 Y168.35
G1 X369.126
G1 Y165.05
G1 X362.526
G1 Y168.35
G1 X355.926
G1 Y165.05
G1 X340.825
G1 Y158.05
G1 X344.126
G1 Y151.45
G1 X340.825
G1 Y144.85
G1 X344.126
G1 Y138.251
G1 X340.825
G1 Y131.65
G1 X344.126
G1 Y125.051
G1 X340.825
G1 Y118.45
G1 X344.126
G1 Y111.85
G1 X340.825
G1 Y105.25
G1 X344.126
G1 Y98.65
G1 X340.825
G1 Y91.65
; Layer Trayectorias_de_corte_1 Pass 5 of 9
G1 X390.826
G1 Y98.65
G1 X387.526
G1 Y105.25
G1 X390.826
G1 Y111.85
G1 X387.526
G1 Y118.45
G1 X390.826
G1 Y125.051
G1 X387.526
G1 Y131.65
G1 X390.826
G1 Y138.251
G1 X387.526
G1 Y144.85
G1 X390.826
G1 Y151.45
G1 X387.526
G1 Y158.05
G1 X390.826
G1 Y165.05
G1 X387.526
G1 X375.726
G1 Y168.35
G1 X369.126
G1 Y165.05
G1 X362.526
G1 Y168.35
G1 X355.926
G1 Y165.05
G1 X340.825
G1 Y158.05
G1 X344.126
G1 Y151.45
G1 X340.825
G1 Y144.85
G1 X344.126
G1 Y138.251
G1 X340.825
G1 Y131.65
G1 X344.126
G1 Y125.051
G1 X340.825
G1 Y118.45
G1 X344.126
G1 Y111.85
G1 X340.825
G1 Y105.25
G1 X344.126
G1 Y98.65
G1 X340.825
G1 Y91.65
; Layer Trayectorias_de_corte_1 Pass 6 of 9
G1 X390.826
G1 Y98.65
G1 X387.526
G1 Y105.25
G1 X390.826
G1 Y111.85
G1 X387.526
G1 Y118.45
G1 X390.826
G1 Y125.051
G1 X387.526
G1 Y131.65
G1 X390.826
G1 Y138.251
G1 X387.526
G1 Y144.85
G1 X390.826
G1 Y151.45
G1 X387.526
G1 Y158.05
G1 X390.826
G1 Y165.05
G1 X387.526
G1 X375.726
G1 Y168.35
G1 X369.126
G1 Y165.05
G1 X362.526
G1 Y168.35
G1 X355.926
G1 Y165.05
G1 X340.825
G1 Y158.05
G1 X344.126
G1 Y151.45
G1 X340.825
G1 Y144.85
G1 X344.126
G1 Y138.251
G1 X340.825
G1 Y131.65
G1 X344.126
G1 Y125.051
G1 X340.825
G1 Y118.45
G1 X344.126
G1 Y111.85
G1 X340.825
G1 Y105.25
G1 X344.126
G1 Y98.65
G1 X340.825
G1 Y91.65
; Layer Trayectorias_de_corte_1 Pass 7 of 9
G1 X390.826
G1 Y98.65
G1 X387.526
G1 Y105.25
G1 X390.826
G1 Y111.85
G1 X387.526
G1 Y118.45
G1 X390.826
G1 Y125.051
G1 X387.526
G1 Y131.65
G1 X390.826
G1 Y138.251
G1 X387.526
G1 Y144.85
G1 X390.826
G1 Y151.45
G1 X387.526
G1 Y158.05
G1 X390.826
G1 Y165.05
G1 X387.526
G1 X375.726
G1 Y168.35
G1 X369.126
G1 Y165.05
G1 X362.526
G1 Y168.35
G1 X355.926
G1 Y165.05
G1 X340.825
G1 Y158.05
G1 X344.126
G1 Y151.45
G1 X340.825
G1 Y144.85
G1 X344.126
G1 Y138.251
G1 X340.825
G1 Y131.65
G1 X344.126
G1 Y125.051
G1 X340.825
G1 Y118.45
G1 X344.126
G1 Y111.85
G1 X340.825
G1 Y105.25
G1 X344.126
G1 Y98.65
G1 X340.825
G1 Y91.65
; Layer Trayectorias_de_corte_1 Pass 8 of 9
G1 X390.826
G1 Y98.65
G1 X387.526
G1 Y105.25
G1 X390.826
G1 Y111.85
G1 X387.526
G1 Y118.45
G1 X390.826
G1 Y125.051
G1 X387.526
G1 Y131.65
G1 X390.826
G1 Y138.251
G1 X387.526
G1 Y144.85
G1 X390.826
G1 Y151.45
G1 X387.526
G1 Y158.05
G1 X390.826
G1 Y165.05
G1 X387.526
G1 X375.726
G1 Y168.35
G1 X369.126
G1 Y165.05
G1 X362.526
G1 Y168.35
G1 X355.926
G1 Y165.05
G1 X340.825
G1 Y158.05
G1 X344.126
G1 Y151.45
G1 X340.825
G1 Y144.85
G1 X344.126
G1 Y138.251
G1 X340.825
G1 Y131.65
G1 X344.126
G1 Y125.051
G1 X340.825
G1 Y118.45
G1 X344.126
G1 Y111.85
G1 X340.825
G1 Y105.25
G1 X344.126
G1 Y98.65
G1 X340.825
G1 Y91.65
; Layer Trayectorias_de_corte_1 Pass 9 of 9
G1 X390.826
G1 Y98.65
G1 X387.526
G1 Y105.25
G1 X390.826
G1 Y111.85
G1 X387.526
G1 Y118.45
G1 X390.826
G1 Y125.051
G1 X387.526
G1 Y131.65
G1 X390.826
G1 Y138.251
G1 X387.526
G1 Y144.85
G1 X390.826
G1 Y151.45
G1 X387.526
G1 Y158.05
G1 X390.826
G1 Y165.05
G1 X387.526
G1 X375.726
G1 Y168.35
G1 X369.126
G1 Y165.05
G1 X362.526
G1 Y168.35
G1 X355.926
G1 Y165.05
G1 X340.825
G1 Y158.05
G1 X344.126
G1 Y151.45
G1 X340.825
G1 Y144.85
G1 X344.126
G1 Y138.251
G1 X340.825
G1 Y131.65
G1 X344.126
G1 Y125.051
G1 X340.825
G1 Y118.45
G1 X344.126
G1 Y111.85
G1 X340.825
G1 Y105.25
G1 X344.126
G1 Y98.65
G1 X340.825
G1 Y91.65
G0 X335.876Y91.65
; Layer Trayectorias_de_corte_1 Pass 1 of 9
G1 Y98.65
G1 X339.176
G1 Y105.25
G1 X335.876
G1 Y111.85
G1 X339.176
G1 Y118.45
G1 X335.876
G1 Y125.051
G1 X339.176
G1 Y131.65
G1 X335.876
G1 Y138.251
G1 X339.176
G1 Y144.85
G1 X335.876
G1 Y151.45
G1 X339.176
G1 Y158.05
G1 X335.876
G1 Y165.05
G1 X324.076
G1 Y168.35
G1 X317.476
G1 Y165.05
G1 X310.877
G1 Y168.35
G1 X304.276
G1 Y165.05
G1 X292.476
G1 Y158.05
G1 X289.174
G1 Y151.45
G1 X292.476
G1 Y144.85
G1 X289.174
G1 Y138.251
G1 X292.476
G1 Y131.65
G1 X289.174
G1 Y125.051
G1 X292.476
G1 Y118.45
G1 X289.174
G1 Y111.85
G1 X292.476
G1 Y105.25
G1 X289.174
G1 Y98.65
G1 X292.476
G1 Y91.65
G1 X335.876
; Layer Trayectorias_de_corte_1 Pass 2 of 9
G1 Y98.65
G1 X339.176
G1 Y105.25
G1 X335.876
G1 Y111.85
G1 X339.176
G1 Y118.45
G1 X335.876
G1 Y125.051
G1 X339.176
G1 Y131.65
G1 X335.876
G1 Y138.251
G1 X339.176
G1 Y144.85
G1 X335.876
G1 Y151.45
G1 X339.176
G1 Y158.05
G1 X335.876
G1 Y165.05
G1 X324.076
G1 Y168.35
G1 X317.476
G1 Y165.05
G1 X310.877
G1 Y168.35
G1 X304.276
G1 Y165.05
G1 X292.476
G1 Y158.05
G1 X289.174
G1 Y151.45
G1 X292.476
G1 Y144.85
G1 X289.174
G1 Y138.251
G1 X292.476
G1 Y131.65
G1 X289.174
G1 Y125.051
G1 X292.476
G1 Y118.45
G1 X289.174
G1 Y111.85
G1 X292.476
G1 Y105.25
G1 X289.174
G1 Y98.65
G1 X292.476
G1 Y91.65
G1 X335.876
; Layer Trayectorias_de_corte_1 Pass 3 of 9
G1 Y98.65
G1 X339.176
G1 Y105.25
G1 X335.876
G1 Y111.85
G1 X339.176
G1 Y118.45
G1 X335.876
G1 Y125.051
G1 X339.176
G1 Y131.65
G1 X335.876
G1 Y138.251
G1 X339.176
G1 Y144.85
G1 X335.876
G1 Y151.45
G1 X339.176
G1 Y158.05
G1 X335.876
G1 Y165.05
G1 X324.076
G1 Y168.35
G1 X317.476
G1 Y165.05
G1 X310.877
G1 Y168.35
G1 X304.276
G1 Y165.05
G1 X292.476
G1 Y158.05
G1 X289.174
G1 Y151.45
G1 X292.476
G1 Y144.85
G1 X289.174
G1 Y138.251
G1 X292.476
G1 Y131.65
G1 X289.174
G1 Y125.051
G1 X292.476
G1 Y118.45
G1 X289.174
G1 Y111.85
G1 X292.476
G1 Y105.25
G1 X289.174
G1 Y98.65
G1 X292.476
G1 Y91.65
G1 X335.876
; Layer Trayectorias_de_corte_1 Pass 4 of 9
G1 Y98.65
G1 X339.176
G1 Y105.25
G1 X335.876
G1 Y111.85
G1 X339.176
G1 Y118.45
G1 X335.876
G1 Y125.051
G1 X339.176
G1 Y131.65
G1 X335.876
G1 Y138.251
G1 X339.176
G1 Y144.85
G1 X335.876
G1 Y151.45
G1 X339.176
G1 Y158.05
G1 X335.876
G1 Y165.05
G1 X324.076
G1 Y168.35
G1 X317.476
G1 Y165.05
G1 X310.877
G1 Y168.35
G1 X304.276
G1 Y165.05
G1 X292.476
G1 Y158.05
G1 X289.174
G1 Y151.45
G1 X292.476
G1 Y144.85
G1 X289.174
G1 Y138.251
G1 X292.476
G1 Y131.65
G1 X289.174
G1 Y125.051
G1 X292.476
G1 Y118.45
G1 X289.174
G1 Y111.85
G1 X292.476
G1 Y105.25
G1 X289.174
G1 Y98.65
G1 X292.476
G1 Y91.65
G1 X335.876
; Layer Trayectorias_de_corte_1 Pass 5 of 9
G1 Y98.65
G1 X339.176
G1 Y105.25
G1 X335.876
G1 Y111.85
G1 X339.176
G1 Y118.45
G1 X335.876
G1 Y125.051
G1 X339.176
G1 Y131.65
G1 X335.876
G1 Y138.251
G1 X339.176
G1 Y144.85
G1 X335.876
G1 Y151.45
G1 X339.176
G1 Y158.05
G1 X335.876
G1 Y165.05
G1 X324.076
G1 Y168.35
G1 X317.476
G1 Y165.05
G1 X310.877
G1 Y168.35
G1 X304.276
G1 Y165.05
G1 X292.476
G1 Y158.05
G1 X289.174
G1 Y151.45
G1 X292.476
G1 Y144.85
G1 X289.174
G1 Y138.251
G1 X292.476
G1 Y131.65
G1 X289.174
G1 Y125.051
G1 X292.476
G1 Y118.45
G1 X289.174
G1 Y111.85
G1 X292.476
G1 Y105.25
G1 X289.174
G1 Y98.65
G1 X292.476
G1 Y91.65
G1 X335.876
; Layer Trayectorias_de_corte_1 Pass 6 of 9
G1 Y98.65
G1 X339.176
G1 Y105.25
G1 X335.876
G1 Y111.85
G1 X339.176
G1 Y118.45
G1 X335.876
G1 Y125.051
G1 X339.176
G1 Y131.65
G1 X335.876
G1 Y138.251
G1 X339.176
G1 Y144.85
G1 X335.876
G1 Y151.45
G1 X339.176
G1 Y158.05
G1 X335.876
G1 Y165.05
G1 X324.076
G1 Y168.35
G1 X317.476
G1 Y165.05
G1 X310.877
G1 Y168.35
G1 X304.276
G1 Y165.05
G1 X292.476
G1 Y158.05
G1 X289.174
G1 Y151.45
G1 X292.476
G1 Y144.85
G1 X289.174
G1 Y138.251
G1 X292.476
G1 Y131.65
G1 X289.174
G1 Y125.051
G1 X292.476
G1 Y118.45
G1 X289.174
G1 Y111.85
G1 X292.476
G1 Y105.25
G1 X289.174
G1 Y98.65
G1 X292.476
G1 Y91.65
G1 X335.876
; Layer Trayectorias_de_corte_1 Pass 7 of 9
G1 Y98.65
G1 X339.176
G1 Y105.25
G1 X335.876
G1 Y111.85
G1 X339.176
G1 Y118.45
G1 X335.876
G1 Y125.051
G1 X339.176
G1 Y131.65
G1 X335.876
G1 Y138.251
G1 X339.176
G1 Y144.85
G1 X335.876
G1 Y151.45
G1 X339.176
G1 Y158.05
G1 X335.876
G1 Y165.05
G1 X324.076
G1 Y168.35
G1 X317.476
G1 Y165.05
G1 X310.877
G1 Y168.35
G1 X304.276
G1 Y165.05
G1 X292.476
G1 Y158.05
G1 X289.174
G1 Y151.45
G1 X292.476
G1 Y144.85
G1 X289.174
G1 Y138.251
G1 X292.476
G1 Y131.65
G1 X289.174
G1 Y125.051
G1 X292.476
G1 Y118.45
G1 X289.174
G1 Y111.85
G1 X292.476
G1 Y105.25
G1 X289.174
G1 Y98.65
G1 X292.476
G1 Y91.65
G1 X335.876
; Layer Trayectorias_de_corte_1 Pass 8 of 9
G1 Y98.65
G1 X339.176
G1 Y105.25
G1 X335.876
G1 Y111.85
G1 X339.176
G1 Y118.45
G1 X335.876
G1 Y125.051
G1 X339.176
G1 Y131.65
G1 X335.876
G1 Y138.251
G1 X339.176
G1 Y144.85
G1 X335.876
G1 Y151.45
G1 X339.176
G1 Y158.05
G1 X335.876
G1 Y165.05
G1 X324.076
G1 Y168.35
G1 X317.476
G1 Y165.05
G1 X310.877
G1 Y168.35
G1 X304.276
G1 Y165.05
G1 X292.476
G1 Y158.05
G1 X289.174
G1 Y151.45
G1 X292.476
G1 Y144.85
G1 X289.174
G1 Y138.251
G1 X292.476
G1 Y131.65
G1 X289.174
G1 Y125.051
G1 X292.476
G1 Y118.45
G1 X289.174
G1 Y111.85
G1 X292.476
G1 Y105.25
G1 X289.174
G1 Y98.65
G1 X292.476
G1 Y91.65
G1 X335.876
; Layer Trayectorias_de_corte_1 Pass 9 of 9
G1 Y98.65
G1 X339.176
G1 Y105.25
G1 X335.876
G1 Y111.85
G1 X339.176
G1 Y118.45
G1 X335.876
G1 Y125.051
G1 X339.176
G1 Y131.65
G1 X335.876
G1 Y138.251
G1 X339.176
G1 Y144.85
G1 X335.876
G1 Y151.45
G1 X339.176
G1 Y158.05
G1 X335.876
G1 Y165.05
G1 X324.076
G1 Y168.35
G1 X317.476
G1 Y165.05
G1 X310.877
G1 Y168.35
G1 X304.276
G1 Y165.05
G1 X292.476
G1 Y158.05
G1 X289.174
G1 Y151.45
G1 X292.476
G1 Y144.85
G1 X289.174
G1 Y138.251
G1 X292.476
G1 Y131.65
G1 X289.174
G1 Y125.051
G1 X292.476
G1 Y118.45
G1 X289.174
G1 Y111.85
G1 X292.476
G1 Y105.25
G1 X289.174
G1 Y98.65
G1 X292.476
G1 Y91.65
G1 X335.876
G0 X335.875Y171.651
; Layer Trayectorias_de_corte_1 Pass 1 of 9
G1 Y178.65
G1 X339.173
G1 Y185.251
G1 X335.875
G1 Y191.85
G1 X339.174
G1 Y198.449
G1 X335.875
G1 Y205.05
G1 X339.174
G1 Y211.65
G1 X335.875
G1 Y218.251
G1 X339.174
G1 Y224.85
G1 X335.875
G1 Y231.449
G1 X339.174
G1 Y238.05
G1 X335.875
G1 Y245.05
G1 X327.87
G1 Y248.349
G1 X321.27
G1 Y245.05
G1 X314.669
G1 Y248.349
G1 X308.07
G1 Y245.05
G1 X300.064
G1 Y238.05
G1 X296.765
G1 Y231.449
G1 X300.064
G1 Y224.85
G1 X296.765
G1 Y218.251
G1 X300.064
G1 Y211.65
G1 X296.765
G1 Y205.05
G1 X300.064
G1 Y198.449
G1 X296.765
G1 Y191.85
G1 X300.064
G1 Y185.251
G1 X296.765
G1 Y178.65
G1 X300.063
G1 Y171.651
G1 X335.875
; Layer Trayectorias_de_corte_1 Pass 2 of 9
G1 Y178.65
G1 X339.173
G1 Y185.251
G1 X335.875
G1 Y191.85
G1 X339.174
G1 Y198.449
G1 X335.875
G1 Y205.05
G1 X339.174
G1 Y211.65
G1 X335.875
G1 Y218.251
G1 X339.174
G1 Y224.85
G1 X335.875
G1 Y231.449
G1 X339.174
G1 Y238.05
G1 X335.875
G1 Y245.05
G1 X327.87
G1 Y248.349
G1 X321.27
G1 Y245.05
G1 X314.669
G1 Y248.349
G1 X308.07
G1 Y245.05
G1 X300.064
G1 Y238.05
G1 X296.765
G1 Y231.449
G1 X300.064
G1 Y224.85
G1 X296.765
G1 Y218.251
G1 X300.064
G1 Y211.65
G1 X296.765
G1 Y205.05
G1 X300.064
G1 Y198.449
G1 X296.765
G1 Y191.85
G1 X300.064
G1 Y185.251
G1 X296.765
G1 Y178.65
G1 X300.063
G1 Y171.651
G1 X335.875
; Layer Trayectorias_de_corte_1 Pass 3 of 9
G1 Y178.65
G1 X339.173
G1 Y185.251
G1 X335.875
G1 Y191.85
G1 X339.174
G1 Y198.449
G1 X335.875
G1 Y205.05
G1 X339.174
G1 Y211.65
G1 X335.875
G1 Y218.251
G1 X339.174
G1 Y224.85
G1 X335.875
G1 Y231.449
G1 X339.174
G1 Y238.05
G1 X335.875
G1 Y245.05
G1 X327.87
G1 Y248.349
G1 X321.27
G1 Y245.05
G1 X314.669
G1 Y248.349
G1 X308.07
G1 Y245.05
G1 X300.064
G1 Y238.05
G1 X296.765
G1 Y231.449
G1 X300.064
G1 Y224.85
G1 X296.765
G1 Y218.251
G1 X300.064
G1 Y211.65
G1 X296.765
G1 Y205.05
G1 X300.064
G1 Y198.449
G1 X296.765
G1 Y191.85
G1 X300.064
G1 Y185.251
G1 X296.765
G1 Y178.65
G1 X300.063
G1 Y171.651
G1 X335.875
; Layer Trayectorias_de_corte_1 Pass 4 of 9
G1 Y178.65
G1 X339.173
G1 Y185.251
G1 X335.875
G1 Y191.85
G1 X339.174
G1 Y198.449
G1 X335.875
G1 Y205.05
G1 X339.174
G1 Y211.65
G1 X335.875
G1 Y218.251
G1 X339.174
G1 Y224.85
G1 X335.875
G1 Y231.449
G1 X339.174
G1 Y238.05
G1 X335.875
G1 Y245.05
G1 X327.87
G1 Y248.349
G1 X321.27
G1 Y245.05
G1 X314.669
G1 Y248.349
G1 X308.07
G1 Y245.05
G1 X300.064
G1 Y238.05
G1 X296.765
G1 Y231.449
G1 X300.064
G1 Y224.85
G1 X296.765
G1 Y218.251
G1 X300.064
G1 Y211.65
G1 X296.765
G1 Y205.05
G1 X300.064
G1 Y198.449
G1 X296.765
G1 Y191.85
G1 X300.064
G1 Y185.251
G1 X296.765
G1 Y178.65
G1 X300.063
G1 Y171.651
G1 X335.875
; Layer Trayectorias_de_corte_1 Pass 5 of 9
G1 Y178.65
G1 X339.173
G1 Y185.251
G1 X335.875
G1 Y191.85
G1 X339.174
G1 Y198.449
G1 X335.875
G1 Y205.05
G1 X339.174
G1 Y211.65
G1 X335.875
G1 Y218.251
G1 X339.174
G1 Y224.85
G1 X335.875
G1 Y231.449
G1 X339.174
G1 Y238.05
G1 X335.875
G1 Y245.05
G1 X327.87
G1 Y248.349
G1 X321.27
G1 Y245.05
G1 X314.669
G1 Y248.349
G1 X308.07
G1 Y245.05
G1 X300.064
G1 Y238.05
G1 X296.765
G1 Y231.449
G1 X300.064
G1 Y224.85
G1 X296.765
G1 Y218.251
G1 X300.064
G1 Y211.65
G1 X296.765
G1 Y205.05
G1 X300.064
G1 Y198.449
G1 X296.765
G1 Y191.85
G1 X300.064
G1 Y185.251
G1 X296.765
G1 Y178.65
G1 X300.063
G1 Y171.651
G1 X335.875
; Layer Trayectorias_de_corte_1 Pass 6 of 9
G1 Y178.65
G1 X339.173
G1 Y185.251
G1 X335.875
G1 Y191.85
G1 X339.174
G1 Y198.449
G1 X335.875
G1 Y205.05
G1 X339.174
G1 Y211.65
G1 X335.875
G1 Y218.251
G1 X339.174
G1 Y224.85
G1 X335.875
G1 Y231.449
G1 X339.174
G1 Y238.05
G1 X335.875
G1 Y245.05
G1 X327.87
G1 Y248.349
G1 X321.27
G1 Y245.05
G1 X314.669
G1 Y248.349
G1 X308.07
G1 Y245.05
G1 X300.064
G1 Y238.05
G1 X296.765
G1 Y231.449
G1 X300.064
G1 Y224.85
G1 X296.765
G1 Y218.251
G1 X300.064
G1 Y211.65
G1 X296.765
G1 Y205.05
G1 X300.064
G1 Y198.449
G1 X296.765
G1 Y191.85
G1 X300.064
G1 Y185.251
G1 X296.765
G1 Y178.65
G1 X300.063
G1 Y171.651
G1 X335.875
; Layer Trayectorias_de_corte_1 Pass 7 of 9
G1 Y178.65
G1 X339.173
G1 Y185.251
G1 X335.875
G1 Y191.85
G1 X339.174
G1 Y198.449
G1 X335.875
G1 Y205.05
G1 X339.174
G1 Y211.65
G1 X335.875
G1 Y218.251
G1 X339.174
G1 Y224.85
G1 X335.875
G1 Y231.449
G1 X339.174
G1 Y238.05
G1 X335.875
G1 Y245.05
G1 X327.87
G1 Y248.349
G1 X321.27
G1 Y245.05
G1 X314.669
G1 Y248.349
G1 X308.07
G1 Y245.05
G1 X300.064
G1 Y238.05
G1 X296.765
G1 Y231.449
G1 X300.064
G1 Y224.85
G1 X296.765
G1 Y218.251
G1 X300.064
G1 Y211.65
G1 X296.765
G1 Y205.05
G1 X300.064
G1 Y198.449
G1 X296.765
G1 Y191.85
G1 X300.064
G1 Y185.251
G1 X296.765
G1 Y178.65
G1 X300.063
G1 Y171.651
G1 X335.875
; Layer Trayectorias_de_corte_1 Pass 8 of 9
G1 Y178.65
G1 X339.173
G1 Y185.251
G1 X335.875
G1 Y191.85
G1 X339.174
G1 Y198.449
G1 X335.875
G1 Y205.05
G1 X339.174
G1 Y211.65
G1 X335.875
G1 Y218.251
G1 X339.174
G1 Y224.85
G1 X335.875
G1 Y231.449
G1 X339.174
G1 Y238.05
G1 X335.875
G1 Y245.05
G1 X327.87
G1 Y248.349
G1 X321.27
G1 Y245.05
G1 X314.669
G1 Y248.349
G1 X308.07
G1 Y245.05
G1 X300.064
G1 Y238.05
G1 X296.765
G1 Y231.449
G1 X300.064
G1 Y224.85
G1 X296.765
G1 Y218.251
G1 X300.064
G1 Y211.65
G1 X296.765
G1 Y205.05
G1 X300.064
G1 Y198.449
G1 X296.765
G1 Y191.85
G1 X300.064
G1 Y185.251
G1 X296.765
G1 Y178.65
G1 X300.063
G1 Y171.651
G1 X335.875
; Layer Trayectorias_de_corte_1 Pass 9 of 9
G1 Y178.65
G1 X339.173
G1 Y185.251
G1 X335.875
G1 Y191.85
G1 X339.174
G1 Y198.449
G1 X335.875
G1 Y205.05
G1 X339.174
G1 Y211.65
G1 X335.875
G1 Y218.251
G1 X339.174
G1 Y224.85
G1 X335.875
G1 Y231.449
G1 X339.174
G1 Y238.05
G1 X335.875
G1 Y245.05
G1 X327.87
G1 Y248.349
G1 X321.27
G1 Y245.05
G1 X314.669
G1 Y248.349
G1 X308.07
G1 Y245.05
G1 X300.064
G1 Y238.05
G1 X296.765
G1 Y231.449
G1 X300.064
G1 Y224.85
G1 X296.765
G1 Y218.251
G1 X300.064
G1 Y211.65
G1 X296.765
G1 Y205.05
G1 X300.064
G1 Y198.449
G1 X296.765
G1 Y191.85
G1 X300.064
G1 Y185.251
G1 X296.765
G1 Y178.65
G1 X300.063
G1 Y171.651
G1 X335.875
G0 X340.824Y171.651
; Layer Trayectorias_de_corte_1 Pass 1 of 9
G1 X383.236
G1 Y178.65
G1 X379.935
G1 Y185.251
G1 X383.236
G1 Y191.85
G1 X379.935
G1 Y198.449
G1 X383.236
G1 Y205.05
G1 X379.935
G1 Y211.65
G1 X383.236
G1 Y218.25
G1 X379.935
G1 Y224.85
G1 X383.236
G1 Y231.449
G1 X379.935
G1 Y238.05
G1 X383.236
G1 Y245.05
G1 X379.935
G1 X371.93
G1 Y248.349
G1 X365.33
G1 Y245.05
G1 X358.729
G1 Y248.349
G1 X352.129
G1 Y245.05
G1 X340.825
G1 Y238.05
G1 X344.125
G1 Y231.449
G1 X340.825
G1 Y224.85
G1 X344.125
G1 Y218.251
G1 X340.825
G1 Y211.65
G1 X344.125
G1 Y205.05
G1 X340.825
G1 Y198.449
G1 X344.125
G1 Y191.85
G1 X340.825
G1 Y185.251
G1 X344.125
G1 Y178.65
G1 X340.824
G1 Y171.651
; Layer Trayectorias_de_corte_1 Pass 2 of 9
G1 X383.236
G1 Y178.65
G1 X379.935
G1 Y185.251
G1 X383.236
G1 Y191.85
G1 X379.935
G1 Y198.449
G1 X383.236
G1 Y205.05
G1 X379.935
G1 Y211.65
G1 X383.236
G1 Y218.25
G1 X379.935
G1 Y224.85
G1 X383.236
G1 Y231.449
G1 X379.935
G1 Y238.05
G1 X383.236
G1 Y245.05
G1 X379.935
G1 X371.93
G1 Y248.349
G1 X365.33
G1 Y245.05
G1 X358.729
G1 Y248.349
G1 X352.129
G1 Y245.05
G1 X340.825
G1 Y238.05
G1 X344.125
G1 Y231.449
G1 X340.825
G1 Y224.85
G1 X344.125
G1 Y218.251
G1 X340.825
G1 Y211.65
G1 X344.125
G1 Y205.05
G1 X340.825
G1 Y198.449
G1 X344.125
G1 Y191.85
G1 X340.825
G1 Y185.251
G1 X344.125
G1 Y178.65
G1 X340.824
G1 Y171.651
; Layer Trayectorias_de_corte_1 Pass 3 of 9
G1 X383.236
G1 Y178.65
G1 X379.935
G1 Y185.251
G1 X383.236
G1 Y191.85
G1 X379.935
G1 Y198.449
G1 X383.236
G1 Y205.05
G1 X379.935
G1 Y211.65
G1 X383.236
G1 Y218.25
G1 X379.935
G1 Y224.85
G1 X383.236
G1 Y231.449
G1 X379.935
G1 Y238.05
G1 X383.236
G1 Y245.05
G1 X379.935
G1 X371.93
G1 Y248.349
G1 X365.33
G1 Y245.05
G1 X358.729
G1 Y248.349
G1 X352.129
G1 Y245.05
G1 X340.825
G1 Y238.05
G1 X344.125
G1 Y231.449
G1 X340.825
G1 Y224.85
G1 X344.125
G1 Y218.251
G1 X340.825
G1 Y211.65
G1 X344.125
G1 Y205.05
G1 X340.825
G1 Y198.449
G1 X344.125
G1 Y191.85
G1 X340.825
G1 Y185.251
G1 X344.125
G1 Y178.65
G1 X340.824
G1 Y171.651
; Layer Trayectorias_de_corte_1 Pass 4 of 9
G1 X383.236
G1 Y178.65
G1 X379.935
G1 Y185.251
G1 X383.236
G1 Y191.85
G1 X379.935
G1 Y198.449
G1 X383.236
G1 Y205.05
G1 X379.935
G1 Y211.65
G1 X383.236
G1 Y218.25
G1 X379.935
G1 Y224.85
G1 X383.236
G1 Y231.449
G1 X379.935
G1 Y238.05
G1 X383.236
G1 Y245.05
G1 X379.935
G1 X371.93
G1 Y248.349
G1 X365.33
G1 Y245.05
G1 X358.729
G1 Y248.349
G1 X352.129
G1 Y245.05
G1 X340.825
G1 Y238.05
G1 X344.125
G1 Y231.449
G1 X340.825
G1 Y224.85
G1 X344.125
G1 Y218.251
G1 X340.825
G1 Y211.65
G1 X344.125
G1 Y205.05
G1 X340.825
G1 Y198.449
G1 X344.125
G1 Y191.85
G1 X340.825
G1 Y185.251
G1 X344.125
G1 Y178.65
G1 X340.824
G1 Y171.651
; Layer Trayectorias_de_corte_1 Pass 5 of 9
G1 X383.236
G1 Y178.65
G1 X379.935
G1 Y185.251
G1 X383.236
G1 Y191.85
G1 X379.935
G1 Y198.449
G1 X383.236
G1 Y205.05
G1 X379.935
G1 Y211.65
G1 X383.236
G1 Y218.25
G1 X379.935
G1 Y224.85
G1 X383.236
G1 Y231.449
G1 X379.935
G1 Y238.05
G1 X383.236
G1 Y245.05
G1 X379.935
G1 X371.93
G1 Y248.349
G1 X365.33
G1 Y245.05
G1 X358.729
G1 Y248.349
G1 X352.129
G1 Y245.05
G1 X340.825
G1 Y238.05
G1 X344.125
G1 Y231.449
G1 X340.825
G1 Y224.85
G1 X344.125
G1 Y218.251
G1 X340.825
G1 Y211.65
G1 X344.125
G1 Y205.05
G1 X340.825
G1 Y198.449
G1 X344.125
G1 Y191.85
G1 X340.825
G1 Y185.251
G1 X344.125
G1 Y178.65
G1 X340.824
G1 Y171.651
; Layer Trayectorias_de_corte_1 Pass 6 of 9
G1 X383.236
G1 Y178.65
G1 X379.935
G1 Y185.251
G1 X383.236
G1 Y191.85
G1 X379.935
G1 Y198.449
G1 X383.236
G1 Y205.05
G1 X379.935
G1 Y211.65
G1 X383.236
G1 Y218.25
G1 X379.935
G1 Y224.85
G1 X383.236
G1 Y231.449
G1 X379.935
G1 Y238.05
G1 X383.236
G1 Y245.05
G1 X379.935
G1 X371.93
G1 Y248.349
G1 X365.33
G1 Y245.05
G1 X358.729
G1 Y248.349
G1 X352.129
G1 Y245.05
G1 X340.825
G1 Y238.05
G1 X344.125
G1 Y231.449
G1 X340.825
G1 Y224.85
G1 X344.125
G1 Y218.251
G1 X340.825
G1 Y211.65
G1 X344.125
G1 Y205.05
G1 X340.825
G1 Y198.449
G1 X344.125
G1 Y191.85
G1 X340.825
G1 Y185.251
G1 X344.125
G1 Y178.65
G1 X340.824
G1 Y171.651
; Layer Trayectorias_de_corte_1 Pass 7 of 9
G1 X383.236
G1 Y178.65
G1 X379.935
G1 Y185.251
G1 X383.236
G1 Y191.85
G1 X379.935
G1 Y198.449
G1 X383.236
G1 Y205.05
G1 X379.935
G1 Y211.65
G1 X383.236
G1 Y218.25
G1 X379.935
G1 Y224.85
G1 X383.236
G1 Y231.449
G1 X379.935
G1 Y238.05
G1 X383.236
G1 Y245.05
G1 X379.935
G1 X371.93
G1 Y248.349
G1 X365.33
G1 Y245.05
G1 X358.729
G1 Y248.349
G1 X352.129
G1 Y245.05
G1 X340.825
G1 Y238.05
G1 X344.125
G1 Y231.449
G1 X340.825
G1 Y224.85
G1 X344.125
G1 Y218.251
G1 X340.825
G1 Y211.65
G1 X344.125
G1 Y205.05
G1 X340.825
G1 Y198.449
G1 X344.125
G1 Y191.85
G1 X340.825
G1 Y185.251
G1 X344.125
G1 Y178.65
G1 X340.824
G1 Y171.651
; Layer Trayectorias_de_corte_1 Pass 8 of 9
G1 X383.236
G1 Y178.65
G1 X379.935
G1 Y185.251
G1 X383.236
G1 Y191.85
G1 X379.935
G1 Y198.449
G1 X383.236
G1 Y205.05
G1 X379.935
G1 Y211.65
G1 X383.236
G1 Y218.25
G1 X379.935
G1 Y224.85
G1 X383.236
G1 Y231.449
G1 X379.935
G1 Y238.05
G1 X383.236
G1 Y245.05
G1 X379.935
G1 X371.93
G1 Y248.349
G1 X365.33
G1 Y245.05
G1 X358.729
G1 Y248.349
G1 X352.129
G1 Y245.05
G1 X340.825
G1 Y238.05
G1 X344.125
G1 Y231.449
G1 X340.825
G1 Y224.85
G1 X344.125
G1 Y218.251
G1 X340.825
G1 Y211.65
G1 X344.125
G1 Y205.05
G1 X340.825
G1 Y198.449
G1 X344.125
G1 Y191.85
G1 X340.825
G1 Y185.251
G1 X344.125
G1 Y178.65
G1 X340.824
G1 Y171.651
; Layer Trayectorias_de_corte_1 Pass 9 of 9
G1 X383.236
G1 Y178.65
G1 X379.935
G1 Y185.251
G1 X383.236
G1 Y191.85
G1 X379.935
G1 Y198.449
G1 X383.236
G1 Y205.05
G1 X379.935
G1 Y211.65
G1 X383.236
G1 Y218.25
G1 X379.935
G1 Y224.85
G1 X383.236
G1 Y231.449
G1 X379.935
G1 Y238.05
G1 X383.236
G1 Y245.05
G1 X379.935
G1 X371.93
G1 Y248.349
G1 X365.33
G1 Y245.05
G1 X358.729
G1 Y248.349
G1 X352.129
G1 Y245.05
G1 X340.825
G1 Y238.05
G1 X344.125
G1 Y231.449
G1 X340.825
G1 Y224.85
G1 X344.125
G1 Y218.251
G1 X340.825
G1 Y211.65
G1 X344.125
G1 Y205.05
G1 X340.825
G1 Y198.449
G1 X344.125
G1 Y191.85
G1 X340.825
G1 Y185.251
G1 X344.125
G1 Y178.65
G1 X340.824
G1 Y171.651
G0 X341.825Y257.651
; Layer Trayectorias_de_corte_1 Pass 1 of 9
G1 X384.235
G1 Y264.65
G1 X380.935
G1 Y271.251
G1 X384.235
G1 Y277.85
G1 X380.935
G1 Y284.449
G1 X384.235
G1 Y291.05
G1 X380.935
G1 Y297.65
G1 X384.235
G1 Y304.25
G1 X380.935
G1 Y310.85
G1 X384.235
G1 Y317.449
G1 X380.935
G1 Y324.05
G1 X384.235
G1 Y331.05
G1 X380.935
G1 X372.93
G1 Y334.349
G1 X366.329
G1 Y331.05
G1 X359.73
G1 Y334.349
G1 X353.129
G1 Y331.05
G1 X341.825
G1 Y324.05
G1 X345.125
G1 Y317.449
G1 X341.825
G1 Y310.85
G1 X345.125
G1 Y304.25
G1 X341.825
G1 Y297.65
G1 X345.125
G1 Y291.05
G1 X341.825
G1 Y284.449
G1 X345.125
G1 Y277.85
G1 X341.825
G1 Y271.251
G1 X345.125
G1 Y264.65
G1 X341.825
G1 Y257.651
; Layer Trayectorias_de_corte_1 Pass 2 of 9
G1 X384.235
G1 Y264.65
G1 X380.935
G1 Y271.251
G1 X384.235
G1 Y277.85
G1 X380.935
G1 Y284.449
G1 X384.235
G1 Y291.05
G1 X380.935
G1 Y297.65
G1 X384.235
G1 Y304.25
G1 X380.935
G1 Y310.85
G1 X384.235
G1 Y317.449
G1 X380.935
G1 Y324.05
G1 X384.235
G1 Y331.05
G1 X380.935
G1 X372.93
G1 Y334.349
G1 X366.329
G1 Y331.05
G1 X359.73
G1 Y334.349
G1 X353.129
G1 Y331.05
G1 X341.825
G1 Y324.05
G1 X345.125
G1 Y317.449
G1 X341.825
G1 Y310.85
G1 X345.125
G1 Y304.25
G1 X341.825
G1 Y297.65
G1 X345.125
G1 Y291.05
G1 X341.825
G1 Y284.449
G1 X345.125
G1 Y277.85
G1 X341.825
G1 Y271.251
G1 X345.125
G1 Y264.65
G1 X341.825
G1 Y257.651
; Layer Trayectorias_de_corte_1 Pass 3 of 9
G1 X384.235
G1 Y264.65
G1 X380.935
G1 Y271.251
G1 X384.235
G1 Y277.85
G1 X380.935
G1 Y284.449
G1 X384.235
G1 Y291.05
G1 X380.935
G1 Y297.65
G1 X384.235
G1 Y304.25
G1 X380.935
G1 Y310.85
G1 X384.235
G1 Y317.449
G1 X380.935
G1 Y324.05
G1 X384.235
G1 Y331.05
G1 X380.935
G1 X372.93
G1 Y334.349
G1 X366.329
G1 Y331.05
G1 X359.73
G1 Y334.349
G1 X353.129
G1 Y331.05
G1 X341.825
G1 Y324.05
G1 X345.125
G1 Y317.449
G1 X341.825
G1 Y310.85
G1 X345.125
G1 Y304.25
G1 X341.825
G1 Y297.65
G1 X345.125
G1 Y291.05
G1 X341.825
G1 Y284.449
G1 X345.125
G1 Y277.85
G1 X341.825
G1 Y271.251
G1 X345.125
G1 Y264.65
G1 X341.825
G1 Y257.651
; Layer Trayectorias_de_corte_1 Pass 4 of 9
G1 X384.235
G1 Y264.65
G1 X380.935
G1 Y271.251
G1 X384.235
G1 Y277.85
G1 X380.935
G1 Y284.449
G1 X384.235
G1 Y291.05
G1 X380.935
G1 Y297.65
G1 X384.235
G1 Y304.25
G1 X380.935
G1 Y310.85
G1 X384.235
G1 Y317.449
G1 X380.935
G1 Y324.05
G1 X384.235
G1 Y331.05
G1 X380.935
G1 X372.93
G1 Y334.349
G1 X366.329
G1 Y331.05
G1 X359.73
G1 Y334.349
G1 X353.129
G1 Y331.05
G1 X341.825
G1 Y324.05
G1 X345.125
G1 Y317.449
G1 X341.825
G1 Y310.85
G1 X345.125
G1 Y304.25
G1 X341.825
G1 Y297.65
G1 X345.125
G1 Y291.05
G1 X341.825
G1 Y284.449
G1 X345.125
G1 Y277.85
G1 X341.825
G1 Y271.251
G1 X345.125
G1 Y264.65
G1 X341.825
G1 Y257.651
; Layer Trayectorias_de_corte_1 Pass 5 of 9
G1 X384.235
G1 Y264.65
G1 X380.935
G1 Y271.251
G1 X384.235
G1 Y277.85
G1 X380.935
G1 Y284.449
G1 X384.235
G1 Y291.05
G1 X380.935
G1 Y297.65
G1 X384.235
G1 Y304.25
G1 X380.935
G1 Y310.85
G1 X384.235
G1 Y317.449
G1 X380.935
G1 Y324.05
G1 X384.235
G1 Y331.05
G1 X380.935
G1 X372.93
G1 Y334.349
G1 X366.329
G1 Y331.05
G1 X359.73
G1 Y334.349
G1 X353.129
G1 Y331.05
G1 X341.825
G1 Y324.05
G1 X345.125
G1 Y317.449
G1 X341.825
G1 Y310.85
G1 X345.125
G1 Y304.25
G1 X341.825
G1 Y297.65
G1 X345.125
G1 Y291.05
G1 X341.825
G1 Y284.449
G1 X345.125
G1 Y277.85
G1 X341.825
G1 Y271.251
G1 X345.125
G1 Y264.65
G1 X341.825
G1 Y257.651
; Layer Trayectorias_de_corte_1 Pass 6 of 9
G1 X384.235
G1 Y264.65
G1 X380.935
G1 Y271.251
G1 X384.235
G1 Y277.85
G1 X380.935
G1 Y284.449
G1 X384.235
G1 Y291.05
G1 X380.935
G1 Y297.65
G1 X384.235
G1 Y304.25
G1 X380.935
G1 Y310.85
G1 X384.235
G1 Y317.449
G1 X380.935
G1 Y324.05
G1 X384.235
G1 Y331.05
G1 X380.935
G1 X372.93
G1 Y334.349
G1 X366.329
G1 Y331.05
G1 X359.73
G1 Y334.349
G1 X353.129
G1 Y331.05
G1 X341.825
G1 Y324.05
G1 X345.125
G1 Y317.449
G1 X341.825
G1 Y310.85
G1 X345.125
G1 Y304.25
G1 X341.825
G1 Y297.65
G1 X345.125
G1 Y291.05
G1 X341.825
G1 Y284.449
G1 X345.125
G1 Y277.85
G1 X341.825
G1 Y271.251
G1 X345.125
G1 Y264.65
G1 X341.825
G1 Y257.651
; Layer Trayectorias_de_corte_1 Pass 7 of 9
G1 X384.235
G1 Y264.65
G1 X380.935
G1 Y271.251
G1 X384.235
G1 Y277.85
G1 X380.935
G1 Y284.449
G1 X384.235
G1 Y291.05
G1 X380.935
G1 Y297.65
G1 X384.235
G1 Y304.25
G1 X380.935
G1 Y310.85
G1 X384.235
G1 Y317.449
G1 X380.935
G1 Y324.05
G1 X384.235
G1 Y331.05
G1 X380.935
G1 X372.93
G1 Y334.349
G1 X366.329
G1 Y331.05
G1 X359.73
G1 Y334.349
G1 X353.129
G1 Y331.05
G1 X341.825
G1 Y324.05
G1 X345.125
G1 Y317.449
G1 X341.825
G1 Y310.85
G1 X345.125
G1 Y304.25
G1 X341.825
G1 Y297.65
G1 X345.125
G1 Y291.05
G1 X341.825
G1 Y284.449
G1 X345.125
G1 Y277.85
G1 X341.825
G1 Y271.251
G1 X345.125
G1 Y264.65
G1 X341.825
G1 Y257.651
; Layer Trayectorias_de_corte_1 Pass 8 of 9
G1 X384.235
G1 Y264.65
G1 X380.935
G1 Y271.251
G1 X384.235
G1 Y277.85
G1 X380.935
G1 Y284.449
G1 X384.235
G1 Y291.05
G1 X380.935
G1 Y297.65
G1 X384.235
G1 Y304.25
G1 X380.935
G1 Y310.85
G1 X384.235
G1 Y317.449
G1 X380.935
G1 Y324.05
G1 X384.235
G1 Y331.05
G1 X380.935
G1 X372.93
G1 Y334.349
G1 X366.329
G1 Y331.05
G1 X359.73
G1 Y334.349
G1 X353.129
G1 Y331.05
G1 X341.825
G1 Y324.05
G1 X345.125
G1 Y317.449
G1 X341.825
G1 Y310.85
G1 X345.125
G1 Y304.25
G1 X341.825
G1 Y297.65
G1 X345.125
G1 Y291.05
G1 X341.825
G1 Y284.449
G1 X345.125
G1 Y277.85
G1 X341.825
G1 Y271.251
G1 X345.125
G1 Y264.65
G1 X341.825
G1 Y257.651
; Layer Trayectorias_de_corte_1 Pass 9 of 9
G1 X384.235
G1 Y264.65
G1 X380.935
G1 Y271.251
G1 X384.235
G1 Y277.85
G1 X380.935
G1 Y284.449
G1 X384.235
G1 Y291.05
G1 X380.935
G1 Y297.65
G1 X384.235
G1 Y304.25
G1 X380.935
G1 Y310.85
G1 X384.235
G1 Y317.449
G1 X380.935
G1 Y324.05
G1 X384.235
G1 Y331.05
G1 X380.935
G1 X372.93
G1 Y334.349
G1 X366.329
G1 Y331.05
G1 X359.73
G1 Y334.349
G1 X353.129
G1 Y331.05
G1 X341.825
G1 Y324.05
G1 X345.125
G1 Y317.449
G1 X341.825
G1 Y310.85
G1 X345.125
G1 Y304.25
G1 X341.825
G1 Y297.65
G1 X345.125
G1 Y291.05
G1 X341.825
G1 Y284.449
G1 X345.125
G1 Y277.85
G1 X341.825
G1 Y271.251
G1 X345.125
G1 Y264.65
G1 X341.825
G1 Y257.651
G0 X315.194Y364.5
; Layer Trayectorias_de_corte_1 Pass 1 of 9
G1 X314.294Y364.523
G1 X313.405Y364.591
G1 X312.529Y364.702
G1 X311.667Y364.856
G1 X310.821Y365.051
G1 X309.99Y365.287
G1 X309.177Y365.562
G1 X308.383Y365.876
G1 X307.607Y366.226
G1 X306.853Y366.613
G1 X306.12Y367.034
G1 X305.41Y367.489
G1 X304.724Y367.977
G1 X304.063Y368.497
G1 X303.428Y369.047
G1 X302.82Y369.626
G1 X302.24Y370.234
G1 X301.69Y370.869
G1 X301.171Y371.53
G1 X300.683Y372.216
G1 X300.228Y372.926
G1 X299.806Y373.659
G1 X299.42Y374.413
G1 X299.07Y375.189
G1 X298.756Y375.983
G1 X298.481Y376.796
G1 X298.245Y377.627
G1 X298.05Y378.474
G1 X297.896Y379.335
G1 X297.785Y380.211
G1 X297.717Y381.1
G1 X297.694Y382
G1 X297.717Y382.901
G1 X297.785Y383.79
G1 X297.896Y384.666
G1 X298.05Y385.527
G1 X298.245Y386.374
G1 X298.481Y387.204
G1 X298.756Y388.018
G1 X299.07Y388.812
G1 X299.42Y389.587
G1 X299.806Y390.342
G1 X300.228Y391.075
G1 X300.683Y391.785
G1 X301.171Y392.471
G1 X301.69Y393.132
G1 X302.24Y393.767
G1 X302.82Y394.375
G1 X303.428Y394.954
G1 X304.063Y395.504
G1 X304.724Y396.024
G1 X305.41Y396.512
G1 X306.12Y396.967
G1 X306.853Y397.388
G1 X307.607Y397.775
G1 X308.383Y398.125
G1 X309.177Y398.439
G1 X309.99Y398.714
G1 X310.821Y398.949
G1 X311.667Y399.145
G1 X312.529Y399.299
G1 X313.405Y399.41
G1 X314.294Y399.478
G1 X315.194Y399.5
G1 X316.095Y399.478
G1 X316.984Y399.41
G1 X317.859Y399.299
G1 X318.721Y399.145
G1 X319.568Y398.949
G1 X320.398Y398.714
G1 X321.211Y398.439
G1 X322.006Y398.125
G1 X322.781Y397.775
G1 X323.536Y397.388
G1 X324.269Y396.967
G1 X324.979Y396.512
G1 X325.665Y396.024
G1 X326.326Y395.504
G1 X326.961Y394.954
G1 X327.569Y394.375
G1 X328.148Y393.767
G1 X328.698Y393.132
G1 X329.218Y392.471
G1 X329.706Y391.785
G1 X330.161Y391.075
G1 X330.582Y390.342
G1 X330.969Y389.587
G1 X331.319Y388.812
G1 X331.632Y388.018
G1 X331.908Y387.204
G1 X332.143Y386.374
G1 X332.339Y385.527
G1 X332.493Y384.666
G1 X332.604Y383.79
G1 X332.672Y382.901
G1 X332.694Y382
G1 X332.672Y381.1
G1 X332.604Y380.211
G1 X332.493Y379.335
G1 X332.339Y378.474
G1 X332.143Y377.627
G1 X331.908Y376.796
G1 X331.632Y375.983
G1 X331.319Y375.189
G1 X330.969Y374.413
G1 X330.582Y373.659
G1 X330.161Y372.926
G1 X329.706Y372.216
G1 X329.218Y371.53
G1 X328.698Y370.869
G1 X328.148Y370.234
G1 X327.569Y369.626
G1 X326.961Y369.047
G1 X326.326Y368.497
G1 X325.665Y367.977
G1 X324.979Y367.489
G1 X324.269Y367.034
G1 X323.536Y366.613
G1 X322.781Y366.226
G1 X322.006Y365.876
G1 X321.211Y365.562
G1 X320.398Y365.287
G1 X319.568Y365.051
G1 X318.721Y364.856
G1 X317.859Y364.702
G1 X316.984Y364.591
G1 X316.095Y364.523
G1 X315.194Y364.5
; Layer Trayectorias_de_corte_1 Pass 2 of 9
G1 X314.294Y364.523
G1 X313.405Y364.591
G1 X312.529Y364.702
G1 X311.667Y364.856
G1 X310.821Y365.051
G1 X309.99Y365.287
G1 X309.177Y365.562
G1 X308.383Y365.876
G1 X307.607Y366.226
G1 X306.853Y366.613
G1 X306.12Y367.034
G1 X305.41Y367.489
G1 X304.724Y367.977
G1 X304.063Y368.497
G1 X303.428Y369.047
G1 X302.82Y369.626
G1 X302.24Y370.234
G1 X301.69Y370.869
G1 X301.171Y371.53
G1 X300.683Y372.216
G1 X300.228Y372.926
G1 X299.806Y373.659
G1 X299.42Y374.413
G1 X299.07Y375.189
G1 X298.756Y375.983
G1 X298.481Y376.796
G1 X298.245Y377.627
G1 X298.05Y378.474
G1 X297.896Y379.335
G1 X297.785Y380.211
G1 X297.717Y381.1
G1 X297.694Y382
G1 X297.717Y382.901
G1 X297.785Y383.79
G1 X297.896Y384.666
G1 X298.05Y385.527
G1 X298.245Y386.374
G1 X298.481Y387.204
G1 X298.756Y388.018
G1 X299.07Y388.812
G1 X299.42Y389.587
G1 X299.806Y390.342
G1 X300.228Y391.075
G1 X300.683Y391.785
G1 X301.171Y392.471
G1 X301.69Y393.132
G1 X302.24Y393.767
G1 X302.82Y394.375
G1 X303.428Y394.954
G1 X304.063Y395.504
G1 X304.724Y396.024
G1 X305.41Y396.512
G1 X306.12Y396.967
G1 X306.853Y397.388
G1 X307.607Y397.775
G1 X308.383Y398.125
G1 X309.177Y398.439
G1 X309.99Y398.714
G1 X310.821Y398.949
G1 X311.667Y399.145
G1 X312.529Y399.299
G1 X313.405Y399.41
G1 X314.294Y399.478
G1 X315.194Y399.5
G1 X316.095Y399.478
G1 X316.984Y399.41
G1 X317.859Y399.299
G1 X318.721Y399.145
G1 X319.568Y398.949
G1 X320.398Y398.714
G1 X321.211Y398.439
G1 X322.006Y398.125
G1 X322.781Y397.775
G1 X323.536Y397.388
G1 X324.269Y396.967
G1 X324.979Y396.512
G1 X325.665Y396.024
G1 X326.326Y395.504
G1 X326.961Y394.954
G1 X327.569Y394.375
G1 X328.148Y393.767
G1 X328.698Y393.132
G1 X329.218Y392.471
G1 X329.706Y391.785
G1 X330.161Y391.075
G1 X330.582Y390.342
G1 X330.969Y389.587
G1 X331.319Y388.812
G1 X331.632Y388.018
G1 X331.908Y387.204
G1 X332.143Y386.374
G1 X332.339Y385.527
G1 X332.493Y384.666
G1 X332.604Y383.79
G1 X332.672Y382.901
G1 X332.694Y382
G1 X332.672Y381.1
G1 X332.604Y380.211
G1 X332.493Y379.335
G1 X332.339Y378.474
G1 X332.143Y377.627
G1 X331.908Y376.796
G1 X331.632Y375.983
G1 X331.319Y375.189
G1 X330.969Y374.413
G1 X330.582Y373.659
G1 X330.161Y372.926
G1 X329.706Y372.216
G1 X329.218Y371.53
G1 X328.698Y370.869
G1 X328.148Y370.234
G1 X327.569Y369.626
G1 X326.961Y369.047
G1 X326.326Y368.497
G1 X325.665Y367.977
G1 X324.979Y367.489
G1 X324.269Y367.034
G1 X323.536Y366.613
G1 X322.781Y366.226
G1 X322.006Y365.876
G1 X321.211Y365.562
G1 X320.398Y365.287
G1 X319.568Y365.051
G1 X318.721Y364.856
G1 X317.859Y364.702
G1 X316.984Y364.591
G1 X316.095Y364.523
G1 X315.194Y364.5
; Layer Trayectorias_de_corte_1 Pass 3 of 9
G1 X314.294Y364.523
G1 X313.405Y364.591
G1 X312.529Y364.702
G1 X311.667Y364.856
G1 X310.821Y365.051
G1 X309.99Y365.287
G1 X309.177Y365.562
G1 X308.383Y365.876
G1 X307.607Y366.226
G1 X306.853Y366.613
G1 X306.12Y367.034
G1 X305.41Y367.489
G1 X304.724Y367.977
G1 X304.063Y368.497
G1 X303.428Y369.047
G1 X302.82Y369.626
G1 X302.24Y370.234
G1 X301.69Y370.869
G1 X301.171Y371.53
G1 X300.683Y372.216
G1 X300.228Y372.926
G1 X299.806Y373.659
G1 X299.42Y374.413
G1 X299.07Y375.189
G1 X298.756Y375.983
G1 X298.481Y376.796
G1 X298.245Y377.627
G1 X298.05Y378.474
G1 X297.896Y379.335
G1 X297.785Y380.211
G1 X297.717Y381.1
G1 X297.694Y382
G1 X297.717Y382.901
G1 X297.785Y383.79
G1 X297.896Y384.666
G1 X298.05Y385.527
G1 X298.245Y386.374
G1 X298.481Y387.204
G1 X298.756Y388.018
G1 X299.07Y388.812
G1 X299.42Y389.587
G1 X299.806Y390.342
G1 X300.228Y391.075
G1 X300.683Y391.785
G1 X301.171Y392.471
G1 X301.69Y393.132
G1 X302.24Y393.767
G1 X302.82Y394.375
G1 X303.428Y394.954
G1 X304.063Y395.504
G1 X304.724Y396.024
G1 X305.41Y396.512
G1 X306.12Y396.967
G1 X306.853Y397.388
G1 X307.607Y397.775
G1 X308.383Y398.125
G1 X309.177Y398.439
G1 X309.99Y398.714
G1 X310.821Y398.949
G1 X311.667Y399.145
G1 X312.529Y399.299
G1 X313.405Y399.41
G1 X314.294Y399.478
G1 X315.194Y399.5
G1 X316.095Y399.478
G1 X316.984Y399.41
G1 X317.859Y399.299
G1 X318.721Y399.145
G1 X319.568Y398.949
G1 X320.398Y398.714
G1 X321.211Y398.439
G1 X322.006Y398.125
G1 X322.781Y397.775
G1 X323.536Y397.388
G1 X324.269Y396.967
G1 X324.979Y396.512
G1 X325.665Y396.024
G1 X326.326Y395.504
G1 X326.961Y394.954
G1 X327.569Y394.375
G1 X328.148Y393.767
G1 X328.698Y393.132
G1 X329.218Y392.471
G1 X329.706Y391.785
G1 X330.161Y391.075
G1 X330.582Y390.342
G1 X330.969Y389.587
G1 X331.319Y388.812
G1 X331.632Y388.018
G1 X331.908Y387.204
G1 X332.143Y386.374
G1 X332.339Y385.527
G1 X332.493Y384.666
G1 X332.604Y383.79
G1 X332.672Y382.901
G1 X332.694Y382
G1 X332.672Y381.1
G1 X332.604Y380.211
G1 X332.493Y379.335
G1 X332.339Y378.474
G1 X332.143Y377.627
G1 X331.908Y376.796
G1 X331.632Y375.983
G1 X331.319Y375.189
G1 X330.969Y374.413
G1 X330.582Y373.659
G1 X330.161Y372.926
G1 X329.706Y372.216
G1 X329.218Y371.53
G1 X328.698Y370.869
G1 X328.148Y370.234
G1 X327.569Y369.626
G1 X326.961Y369.047
G1 X326.326Y368.497
G1 X325.665Y367.977
G1 X324.979Y367.489
G1 X324.269Y367.034
G1 X323.536Y366.613
G1 X322.781Y366.226
G1 X322.006Y365.876
G1 X321.211Y365.562
G1 X320.398Y365.287
G1 X319.568Y365.051
G1 X318.721Y364.856
G1 X317.859Y364.702
G1 X316.984Y364.591
G1 X316.095Y364.523
G1 X315.194Y364.5
; Layer Trayectorias_de_corte_1 Pass 4 of 9
G1 X314.294Y364.523
G1 X313.405Y364.591
G1 X312.529Y364.702
G1 X311.667Y364.856
G1 X310.821Y365.051
G1 X309.99Y365.287
G1 X309.177Y365.562
G1 X308.383Y365.876
G1 X307.607Y366.226
G1 X306.853Y366.613
G1 X306.12Y367.034
G1 X305.41Y367.489
G1 X304.724Y367.977
G1 X304.063Y368.497
G1 X303.428Y369.047
G1 X302.82Y369.626
G1 X302.24Y370.234
G1 X301.69Y370.869
G1 X301.171Y371.53
G1 X300.683Y372.216
G1 X300.228Y372.926
G1 X299.806Y373.659
G1 X299.42Y374.413
G1 X299.07Y375.189
G1 X298.756Y375.983
G1 X298.481Y376.796
G1 X298.245Y377.627
G1 X298.05Y378.474
G1 X297.896Y379.335
G1 X297.785Y380.211
G1 X297.717Y381.1
G1 X297.694Y382
G1 X297.717Y382.901
G1 X297.785Y383.79
G1 X297.896Y384.666
G1 X298.05Y385.527
G1 X298.245Y386.374
G1 X298.481Y387.204
G1 X298.756Y388.018
G1 X299.07Y388.812
G1 X299.42Y389.587
G1 X299.806Y390.342
G1 X300.228Y391.075
G1 X300.683Y391.785
G1 X301.171Y392.471
G1 X301.69Y393.132
G1 X302.24Y393.767
G1 X302.82Y394.375
G1 X303.428Y394.954
G1 X304.063Y395.504
G1 X304.724Y396.024
G1 X305.41Y396.512
G1 X306.12Y396.967
G1 X306.853Y397.388
G1 X307.607Y397.775
G1 X308.383Y398.125
G1 X309.177Y398.439
G1 X309.99Y398.714
G1 X310.821Y398.949
G1 X311.667Y399.145
G1 X312.529Y399.299
G1 X313.405Y399.41
G1 X314.294Y399.478
G1 X315.194Y399.5
G1 X316.095Y399.478
G1 X316.984Y399.41
G1 X317.859Y399.299
G1 X318.721Y399.145
G1 X319.568Y398.949
G1 X320.398Y398.714
G1 X321.211Y398.439
G1 X322.006Y398.125
G1 X322.781Y397.775
G1 X323.536Y397.388
G1 X324.269Y396.967
G1 X324.979Y396.512
G1 X325.665Y396.024
G1 X326.326Y395.504
G1 X326.961Y394.954
G1 X327.569Y394.375
G1 X328.148Y393.767
G1 X328.698Y393.132
G1 X329.218Y392.471
G1 X329.706Y391.785
G1 X330.161Y391.075
G1 X330.582Y390.342
G1 X330.969Y389.587
G1 X331.319Y388.812
G1 X331.632Y388.018
G1 X331.908Y387.204
G1 X332.143Y386.374
G1 X332.339Y385.527
G1 X332.493Y384.666
G1 X332.604Y383.79
G1 X332.672Y382.901
G1 X332.694Y382
G1 X332.672Y381.1
G1 X332.604Y380.211
G1 X332.493Y379.335
G1 X332.339Y378.474
G1 X332.143Y377.627
G1 X331.908Y376.796
G1 X331.632Y375.983
G1 X331.319Y375.189
G1 X330.969Y374.413
G1 X330.582Y373.659
G1 X330.161Y372.926
G1 X329.706Y372.216
G1 X329.218Y371.53
G1 X328.698Y370.869
G1 X328.148Y370.234
G1 X327.569Y369.626
G1 X326.961Y369.047
G1 X326.326Y368.497
G1 X325.665Y367.977
G1 X324.979Y367.489
G1 X324.269Y367.034
G1 X323.536Y366.613
G1 X322.781Y366.226
G1 X322.006Y365.876
G1 X321.211Y365.562
G1 X320.398Y365.287
G1 X319.568Y365.051
G1 X318.721Y364.856
G1 X317.859Y364.702
G1 X316.984Y364.591
G1 X316.095Y364.523
G1 X315.194Y364.5
; Layer Trayectorias_de_corte_1 Pass 5 of 9
G1 X314.294Y364.523
G1 X313.405Y364.591
G1 X312.529Y364.702
G1 X311.667Y364.856
G1 X310.821Y365.051
G1 X309.99Y365.287
G1 X309.177Y365.562
G1 X308.383Y365.876
G1 X307.607Y366.226
G1 X306.853Y366.613
G1 X306.12Y367.034
G1 X305.41Y367.489
G1 X304.724Y367.977
G1 X304.063Y368.497
G1 X303.428Y369.047
G1 X302.82Y369.626
G1 X302.24Y370.234
G1 X301.69Y370.869
G1 X301.171Y371.53
G1 X300.683Y372.216
G1 X300.228Y372.926
G1 X299.806Y373.659
G1 X299.42Y374.413
G1 X299.07Y375.189
G1 X298.756Y375.983
G1 X298.481Y376.796
G1 X298.245Y377.627
G1 X298.05Y378.474
G1 X297.896Y379.335
G1 X297.785Y380.211
G1 X297.717Y381.1
G1 X297.694Y382
G1 X297.717Y382.901
G1 X297.785Y383.79
G1 X297.896Y384.666
G1 X298.05Y385.527
G1 X298.245Y386.374
G1 X298.481Y387.204
G1 X298.756Y388.018
G1 X299.07Y388.812
G1 X299.42Y389.587
G1 X299.806Y390.342
G1 X300.228Y391.075
G1 X300.683Y391.785
G1 X301.171Y392.471
G1 X301.69Y393.132
G1 X302.24Y393.767
G1 X302.82Y394.375
G1 X303.428Y394.954
G1 X304.063Y395.504
G1 X304.724Y396.024
G1 X305.41Y396.512
G1 X306.12Y396.967
G1 X306.853Y397.388
G1 X307.607Y397.775
G1 X308.383Y398.125
G1 X309.177Y398.439
G1 X309.99Y398.714
G1 X310.821Y398.949
G1 X311.667Y399.145
G1 X312.529Y399.299
G1 X313.405Y399.41
G1 X314.294Y399.478
G1 X315.194Y399.5
G1 X316.095Y399.478
G1 X316.984Y399.41
G1 X317.859Y399.299
G1 X318.721Y399.145
G1 X319.568Y398.949
G1 X320.398Y398.714
G1 X321.211Y398.439
G1 X322.006Y398.125
G1 X322.781Y397.775
G1 X323.536Y397.388
G1 X324.269Y396.967
G1 X324.979Y396.512
G1 X325.665Y396.024
G1 X326.326Y395.504
G1 X326.961Y394.954
G1 X327.569Y394.375
G1 X328.148Y393.767
G1 X328.698Y393.132
G1 X329.218Y392.471
G1 X329.706Y391.785
G1 X330.161Y391.075
G1 X330.582Y390.342
G1 X330.969Y389.587
G1 X331.319Y388.812
G1 X331.632Y388.018
G1 X331.908Y387.204
G1 X332.143Y386.374
G1 X332.339Y385.527
G1 X332.493Y384.666
G1 X332.604Y383.79
G1 X332.672Y382.901
G1 X332.694Y382
G1 X332.672Y381.1
G1 X332.604Y380.211
G1 X332.493Y379.335
G1 X332.339Y378.474
G1 X332.143Y377.627
G1 X331.908Y376.796
G1 X331.632Y375.983
G1 X331.319Y375.189
G1 X330.969Y374.413
G1 X330.582Y373.659
G1 X330.161Y372.926
G1 X329.706Y372.216
G1 X329.218Y371.53
G1 X328.698Y370.869
G1 X328.148Y370.234
G1 X327.569Y369.626
G1 X326.961Y369.047
G1 X326.326Y368.497
G1 X325.665Y367.977
G1 X324.979Y367.489
G1 X324.269Y367.034
G1 X323.536Y366.613
G1 X322.781Y366.226
G1 X322.006Y365.876
G1 X321.211Y365.562
G1 X320.398Y365.287
G1 X319.568Y365.051
G1 X318.721Y364.856
G1 X317.859Y364.702
G1 X316.984Y364.591
G1 X316.095Y364.523
G1 X315.194Y364.5
; Layer Trayectorias_de_corte_1 Pass 6 of 9
G1 X314.294Y364.523
G1 X313.405Y364.591
G1 X312.529Y364.702
G1 X311.667Y364.856
G1 X310.821Y365.051
G1 X309.99Y365.287
G1 X309.177Y365.562
G1 X308.383Y365.876
G1 X307.607Y366.226
G1 X306.853Y366.613
G1 X306.12Y367.034
G1 X305.41Y367.489
G1 X304.724Y367.977
G1 X304.063Y368.497
G1 X303.428Y369.047
G1 X302.82Y369.626
G1 X302.24Y370.234
G1 X301.69Y370.869
G1 X301.171Y371.53
G1 X300.683Y372.216
G1 X300.228Y372.926
G1 X299.806Y373.659
G1 X299.42Y374.413
G1 X299.07Y375.189
G1 X298.756Y375.983
G1 X298.481Y376.796
G1 X298.245Y377.627
G1 X298.05Y378.474
G1 X297.896Y379.335
G1 X297.785Y380.211
G1 X297.717Y381.1
G1 X297.694Y382
G1 X297.717Y382.901
G1 X297.785Y383.79
G1 X297.896Y384.666
G1 X298.05Y385.527
G1 X298.245Y386.374
G1 X298.481Y387.204
G1 X298.756Y388.018
G1 X299.07Y388.812
G1 X299.42Y389.587
G1 X299.806Y390.342
G1 X300.228Y391.075
G1 X300.683Y391.785
G1 X301.171Y392.471
G1 X301.69Y393.132
G1 X302.24Y393.767
G1 X302.82Y394.375
G1 X303.428Y394.954
G1 X304.063Y395.504
G1 X304.724Y396.024
G1 X305.41Y396.512
G1 X306.12Y396.967
G1 X306.853Y397.388
G1 X307.607Y397.775
G1 X308.383Y398.125
G1 X309.177Y398.439
G1 X309.99Y398.714
G1 X310.821Y398.949
G1 X311.667Y399.145
G1 X312.529Y399.299
G1 X313.405Y399.41
G1 X314.294Y399.478
G1 X315.194Y399.5
G1 X316.095Y399.478
G1 X316.984Y399.41
G1 X317.859Y399.299
G1 X318.721Y399.145
G1 X319.568Y398.949
G1 X320.398Y398.714
G1 X321.211Y398.439
G1 X322.006Y398.125
G1 X322.781Y397.775
G1 X323.536Y397.388
G1 X324.269Y396.967
G1 X324.979Y396.512
G1 X325.665Y396.024
G1 X326.326Y395.504
G1 X326.961Y394.954
G1 X327.569Y394.375
G1 X328.148Y393.767
G1 X328.698Y393.132
G1 X329.218Y392.471
G1 X329.706Y391.785
G1 X330.161Y391.075
G1 X330.582Y390.342
G1 X330.969Y389.587
G1 X331.319Y388.812
G1 X331.632Y388.018
G1 X331.908Y387.204
G1 X332.143Y386.374
G1 X332.339Y385.527
G1 X332.493Y384.666
G1 X332.604Y383.79
G1 X332.672Y382.901
G1 X332.694Y382
G1 X332.672Y381.1
G1 X332.604Y380.211
G1 X332.493Y379.335
G1 X332.339Y378.474
G1 X332.143Y377.627
G1 X331.908Y376.796
G1 X331.632Y375.983
G1 X331.319Y375.189
G1 X330.969Y374.413
G1 X330.582Y373.659
G1 X330.161Y372.926
G1 X329.706Y372.216
G1 X329.218Y371.53
G1 X328.698Y370.869
G1 X328.148Y370.234
G1 X327.569Y369.626
G1 X326.961Y369.047
G1 X326.326Y368.497
G1 X325.665Y367.977
G1 X324.979Y367.489
G1 X324.269Y367.034
G1 X323.536Y366.613
G1 X322.781Y366.226
G1 X322.006Y365.876
G1 X321.211Y365.562
G1 X320.398Y365.287
G1 X319.568Y365.051
G1 X318.721Y364.856
G1 X317.859Y364.702
G1 X316.984Y364.591
G1 X316.095Y364.523
G1 X315.194Y364.5
; Layer Trayectorias_de_corte_1 Pass 7 of 9
G1 X314.294Y364.523
G1 X313.405Y364.591
G1 X312.529Y364.702
G1 X311.667Y364.856
G1 X310.821Y365.051
G1 X309.99Y365.287
G1 X309.177Y365.562
G1 X308.383Y365.876
G1 X307.607Y366.226
G1 X306.853Y366.613
G1 X306.12Y367.034
G1 X305.41Y367.489
G1 X304.724Y367.977
G1 X304.063Y368.497
G1 X303.428Y369.047
G1 X302.82Y369.626
G1 X302.24Y370.234
G1 X301.69Y370.869
G1 X301.171Y371.53
G1 X300.683Y372.216
G1 X300.228Y372.926
G1 X299.806Y373.659
G1 X299.42Y374.413
G1 X299.07Y375.189
G1 X298.756Y375.983
G1 X298.481Y376.796
G1 X298.245Y377.627
G1 X298.05Y378.474
G1 X297.896Y379.335
G1 X297.785Y380.211
G1 X297.717Y381.1
G1 X297.694Y382
G1 X297.717Y382.901
G1 X297.785Y383.79
G1 X297.896Y384.666
G1 X298.05Y385.527
G1 X298.245Y386.374
G1 X298.481Y387.204
G1 X298.756Y388.018
G1 X299.07Y388.812
G1 X299.42Y389.587
G1 X299.806Y390.342
G1 X300.228Y391.075
G1 X300.683Y391.785
G1 X301.171Y392.471
G1 X301.69Y393.132
G1 X302.24Y393.767
G1 X302.82Y394.375
G1 X303.428Y394.954
G1 X304.063Y395.504
G1 X304.724Y396.024
G1 X305.41Y396.512
G1 X306.12Y396.967
G1 X306.853Y397.388
G1 X307.607Y397.775
G1 X308.383Y398.125
G1 X309.177Y398.439
G1 X309.99Y398.714
G1 X310.821Y398.949
G1 X311.667Y399.145
G1 X312.529Y399.299
G1 X313.405Y399.41
G1 X314.294Y399.478
G1 X315.194Y399.5
G1 X316.095Y399.478
G1 X316.984Y399.41
G1 X317.859Y399.299
G1 X318.721Y399.145
G1 X319.568Y398.949
G1 X320.398Y398.714
G1 X321.211Y398.439
G1 X322.006Y398.125
G1 X322.781Y397.775
G1 X323.536Y397.388
G1 X324.269Y396.967
G1 X324.979Y396.512
G1 X325.665Y396.024
G1 X326.326Y395.504
G1 X326.961Y394.954
G1 X327.569Y394.375
G1 X328.148Y393.767
G1 X328.698Y393.132
G1 X329.218Y392.471
G1 X329.706Y391.785
G1 X330.161Y391.075
G1 X330.582Y390.342
G1 X330.969Y389.587
G1 X331.319Y388.812
G1 X331.632Y388.018
G1 X331.908Y387.204
G1 X332.143Y386.374
G1 X332.339Y385.527
G1 X332.493Y384.666
G1 X332.604Y383.79
G1 X332.672Y382.901
G1 X332.694Y382
G1 X332.672Y381.1
G1 X332.604Y380.211
G1 X332.493Y379.335
G1 X332.339Y378.474
G1 X332.143Y377.627
G1 X331.908Y376.796
G1 X331.632Y375.983
G1 X331.319Y375.189
G1 X330.969Y374.413
G1 X330.582Y373.659
G1 X330.161Y372.926
G1 X329.706Y372.216
G1 X329.218Y371.53
G1 X328.698Y370.869
G1 X328.148Y370.234
G1 X327.569Y369.626
G1 X326.961Y369.047
G1 X326.326Y368.497
G1 X325.665Y367.977
G1 X324.979Y367.489
G1 X324.269Y367.034
G1 X323.536Y366.613
G1 X322.781Y366.226
G1 X322.006Y365.876
G1 X321.211Y365.562
G1 X320.398Y365.287
G1 X319.568Y365.051
G1 X318.721Y364.856
G1 X317.859Y364.702
G1 X316.984Y364.591
G1 X316.095Y364.523
G1 X315.194Y364.5
; Layer Trayectorias_de_corte_1 Pass 8 of 9
G1 X314.294Y364.523
G1 X313.405Y364.591
G1 X312.529Y364.702
G1 X311.667Y364.856
G1 X310.821Y365.051
G1 X309.99Y365.287
G1 X309.177Y365.562
G1 X308.383Y365.876
G1 X307.607Y366.226
G1 X306.853Y366.613
G1 X306.12Y367.034
G1 X305.41Y367.489
G1 X304.724Y367.977
G1 X304.063Y368.497
G1 X303.428Y369.047
G1 X302.82Y369.626
G1 X302.24Y370.234
G1 X301.69Y370.869
G1 X301.171Y371.53
G1 X300.683Y372.216
G1 X300.228Y372.926
G1 X299.806Y373.659
G1 X299.42Y374.413
G1 X299.07Y375.189
G1 X298.756Y375.983
G1 X298.481Y376.796
G1 X298.245Y377.627
G1 X298.05Y378.474
G1 X297.896Y379.335
G1 X297.785Y380.211
G1 X297.717Y381.1
G1 X297.694Y382
G1 X297.717Y382.901
G1 X297.785Y383.79
G1 X297.896Y384.666
G1 X298.05Y385.527
G1 X298.245Y386.374
G1 X298.481Y387.204
G1 X298.756Y388.018
G1 X299.07Y388.812
G1 X299.42Y389.587
G1 X299.806Y390.342
G1 X300.228Y391.075
G1 X300.683Y391.785
G1 X301.171Y392.471
G1 X301.69Y393.132
G1 X302.24Y393.767
G1 X302.82Y394.375
G1 X303.428Y394.954
G1 X304.063Y395.504
G1 X304.724Y396.024
G1 X305.41Y396.512
G1 X306.12Y396.967
G1 X306.853Y397.388
G1 X307.607Y397.775
G1 X308.383Y398.125
G1 X309.177Y398.439
G1 X309.99Y398.714
G1 X310.821Y398.949
G1 X311.667Y399.145
G1 X312.529Y399.299
G1 X313.405Y399.41
G1 X314.294Y399.478
G1 X315.194Y399.5
G1 X316.095Y399.478
G1 X316.984Y399.41
G1 X317.859Y399.299
G1 X318.721Y399.145
G1 X319.568Y398.949
G1 X320.398Y398.714
G1 X321.211Y398.439
G1 X322.006Y398.125
G1 X322.781Y397.775
G1 X323.536Y397.388
G1 X324.269Y396.967
G1 X324.979Y396.512
G1 X325.665Y396.024
G1 X326.326Y395.504
G1 X326.961Y394.954
G1 X327.569Y394.375
G1 X328.148Y393.767
G1 X328.698Y393.132
G1 X329.218Y392.471
G1 X329.706Y391.785
G1 X330.161Y391.075
G1 X330.582Y390.342
G1 X330.969Y389.587
G1 X331.319Y388.812
G1 X331.632Y388.018
G1 X331.908Y387.204
G1 X332.143Y386.374
G1 X332.339Y385.527
G1 X332.493Y384.666
G1 X332.604Y383.79
G1 X332.672Y382.901
G1 X332.694Y382
G1 X332.672Y381.1
G1 X332.604Y380.211
G1 X332.493Y379.335
G1 X332.339Y378.474
G1 X332.143Y377.627
G1 X331.908Y376.796
G1 X331.632Y375.983
G1 X331.319Y375.189
G1 X330.969Y374.413
G1 X330.582Y373.659
G1 X330.161Y372.926
G1 X329.706Y372.216
G1 X329.218Y371.53
G1 X328.698Y370.869
G1 X328.148Y370.234
G1 X327.569Y369.626
G1 X326.961Y369.047
G1 X326.326Y368.497
G1 X325.665Y367.977
G1 X324.979Y367.489
G1 X324.269Y367.034
G1 X323.536Y366.613
G1 X322.781Y366.226
G1 X322.006Y365.876
G1 X321.211Y365.562
G1 X320.398Y365.287
G1 X319.568Y365.051
G1 X318.721Y364.856
G1 X317.859Y364.702
G1 X316.984Y364.591
G1 X316.095Y364.523
G1 X315.194Y364.5
; Layer Trayectorias_de_corte_1 Pass 9 of 9
G1 X314.294Y364.523
G1 X313.405Y364.591
G1 X312.529Y364.702
G1 X311.667Y364.856
G1 X310.821Y365.051
G1 X309.99Y365.287
G1 X309.177Y365.562
G1 X308.383Y365.876
G1 X307.607Y366.226
G1 X306.853Y366.613
G1 X306.12Y367.034
G1 X305.41Y367.489
G1 X304.724Y367.977
G1 X304.063Y368.497
G1 X303.428Y369.047
G1 X302.82Y369.626
G1 X302.24Y370.234
G1 X301.69Y370.869
G1 X301.171Y371.53
G1 X300.683Y372.216
G1 X300.228Y372.926
G1 X299.806Y373.659
G1 X299.42Y374.413
G1 X299.07Y375.189
G1 X298.756Y375.983
G1 X298.481Y376.796
G1 X298.245Y377.627
G1 X298.05Y378.474
G1 X297.896Y379.335
G1 X297.785Y380.211
G1 X297.717Y381.1
G1 X297.694Y382
G1 X297.717Y382.901
G1 X297.785Y383.79
G1 X297.896Y384.666
G1 X298.05Y385.527
G1 X298.245Y386.374
G1 X298.481Y387.204
G1 X298.756Y388.018
G1 X299.07Y388.812
G1 X299.42Y389.587
G1 X299.806Y390.342
G1 X300.228Y391.075
G1 X300.683Y391.785
G1 X301.171Y392.471
G1 X301.69Y393.132
G1 X302.24Y393.767
G1 X302.82Y394.375
G1 X303.428Y394.954
G1 X304.063Y395.504
G1 X304.724Y396.024
G1 X305.41Y396.512
G1 X306.12Y396.967
G1 X306.853Y397.388
G1 X307.607Y397.775
G1 X308.383Y398.125
G1 X309.177Y398.439
G1 X309.99Y398.714
G1 X310.821Y398.949
G1 X311.667Y399.145
G1 X312.529Y399.299
G1 X313.405Y399.41
G1 X314.294Y399.478
G1 X315.194Y399.5
G1 X316.095Y399.478
G1 X316.984Y399.41
G1 X317.859Y399.299
G1 X318.721Y399.145
G1 X319.568Y398.949
G1 X320.398Y398.714
G1 X321.211Y398.439
G1 X322.006Y398.125
G1 X322.781Y397.775
G1 X323.536Y397.388
G1 X324.269Y396.967
G1 X324.979Y396.512
G1 X325.665Y396.024
G1 X326.326Y395.504
G1 X326.961Y394.954
G1 X327.569Y394.375
G1 X328.148Y393.767
G1 X328.698Y393.132
G1 X329.218Y392.471
G1 X329.706Y391.785
G1 X330.161Y391.075
G1 X330.582Y390.342
G1 X330.969Y389.587
G1 X331.319Y388.812
G1 X331.632Y388.018
G1 X331.908Y387.204
G1 X332.143Y386.374
G1 X332.339Y385.527
G1 X332.493Y384.666
G1 X332.604Y383.79
G1 X332.672Y382.901
G1 X332.694Y382
G1 X332.672Y381.1
G1 X332.604Y380.211
G1 X332.493Y379.335
G1 X332.339Y378.474
G1 X332.143Y377.627
G1 X331.908Y376.796
G1 X331.632Y375.983
G1 X331.319Y375.189
G1 X330.969Y374.413
G1 X330.582Y373.659
G1 X330.161Y372.926
G1 X329.706Y372.216
G1 X329.218Y371.53
G1 X328.698Y370.869
G1 X328.148Y370.234
G1 X327.569Y369.626
G1 X326.961Y369.047
G1 X326.326Y368.497
G1 X325.665Y367.977
G1 X324.979Y367.489
G1 X324.269Y367.034
G1 X323.536Y366.613
G1 X322.781Y366.226
G1 X322.006Y365.876
G1 X321.211Y365.562
G1 X320.398Y365.287
G1 X319.568Y365.051
G1 X318.721Y364.856
G1 X317.859Y364.702
G1 X316.984Y364.591
G1 X316.095Y364.523
G1 X315.194Y364.5
G0 X318.444Y360.299
; Layer Trayectorias_de_corte_1 Pass 1 of 9
G1 X325.045
G1 Y357
G1 X340.145
G1 Y372.099
G1 X336.845
G1 Y378.698
G1 X340.145
G1 Y385.299
G1 X336.845
G1 Y391.899
G1 X340.145
G1 Y406.999
G1 X336.845
G1 X325.045
G1 Y403.699
G1 X318.444
G1 Y407
G1 X311.844
G1 Y403.7
G1 X305.245
G1 Y407
G1 X290.145
G1 Y391.9
G1 X293.445
G1 Y385.299
G1 X290.145
G1 Y378.698
G1 X293.445
G1 Y372.099
G1 X290.145
G1 Y357
G1 X305.245
G1 Y360.299
G1 X311.844
G1 Y357
G1 X318.444
G1 Y360.299
; Layer Trayectorias_de_corte_1 Pass 2 of 9
G1 X325.045
G1 Y357
G1 X340.145
G1 Y372.099
G1 X336.845
G1 Y378.698
G1 X340.145
G1 Y385.299
G1 X336.845
G1 Y391.899
G1 X340.145
G1 Y406.999
G1 X336.845
G1 X325.045
G1 Y403.699
G1 X318.444
G1 Y407
G1 X311.844
G1 Y403.7
G1 X305.245
G1 Y407
G1 X290.145
G1 Y391.9
G1 X293.445
G1 Y385.299
G1 X290.145
G1 Y378.698
G1 X293.445
G1 Y372.099
G1 X290.145
G1 Y357
G1 X305.245
G1 Y360.299
G1 X311.844
G1 Y357
G1 X318.444
G1 Y360.299
; Layer Trayectorias_de_corte_1 Pass 3 of 9
G1 X325.045
G1 Y357
G1 X340.145
G1 Y372.099
G1 X336.845
G1 Y378.698
G1 X340.145
G1 Y385.299
G1 X336.845
G1 Y391.899
G1 X340.145
G1 Y406.999
G1 X336.845
G1 X325.045
G1 Y403.699
G1 X318.444
G1 Y407
G1 X311.844
G1 Y403.7
G1 X305.245
G1 Y407
G1 X290.145
G1 Y391.9
G1 X293.445
G1 Y385.299
G1 X290.145
G1 Y378.698
G1 X293.445
G1 Y372.099
G1 X290.145
G1 Y357
G1 X305.245
G1 Y360.299
G1 X311.844
G1 Y357
G1 X318.444
G1 Y360.299
; Layer Trayectorias_de_corte_1 Pass 4 of 9
G1 X325.045
G1 Y357
G1 X340.145
G1 Y372.099
G1 X336.845
G1 Y378.698
G1 X340.145
G1 Y385.299
G1 X336.845
G1 Y391.899
G1 X340.145
G1 Y406.999
G1 X336.845
G1 X325.045
G1 Y403.699
G1 X318.444
G1 Y407
G1 X311.844
G1 Y403.7
G1 X305.245
G1 Y407
G1 X290.145
G1 Y391.9
G1 X293.445
G1 Y385.299
G1 X290.145
G1 Y378.698
G1 X293.445
G1 Y372.099
G1 X290.145
G1 Y357
G1 X305.245
G1 Y360.299
G1 X311.844
G1 Y357
G1 X318.444
G1 Y360.299
; Layer Trayectorias_de_corte_1 Pass 5 of 9
G1 X325.045
G1 Y357
G1 X340.145
G1 Y372.099
G1 X336.845
G1 Y378.698
G1 X340.145
G1 Y385.299
G1 X336.845
G1 Y391.899
G1 X340.145
G1 Y406.999
G1 X336.845
G1 X325.045
G1 Y403.699
G1 X318.444
G1 Y407
G1 X311.844
G1 Y403.7
G1 X305.245
G1 Y407
G1 X290.145
G1 Y391.9
G1 X293.445
G1 Y385.299
G1 X290.145
G1 Y378.698
G1 X293.445
G1 Y372.099
G1 X290.145
G1 Y357
G1 X305.245
G1 Y360.299
G1 X311.844
G1 Y357
G1 X318.444
G1 Y360.299
; Layer Trayectorias_de_corte_1 Pass 6 of 9
G1 X325.045
G1 Y357
G1 X340.145
G1 Y372.099
G1 X336.845
G1 Y378.698
G1 X340.145
G1 Y385.299
G1 X336.845
G1 Y391.899
G1 X340.145
G1 Y406.999
G1 X336.845
G1 X325.045
G1 Y403.699
G1 X318.444
G1 Y407
G1 X311.844
G1 Y403.7
G1 X305.245
G1 Y407
G1 X290.145
G1 Y391.9
G1 X293.445
G1 Y385.299
G1 X290.145
G1 Y378.698
G1 X293.445
G1 Y372.099
G1 X290.145
G1 Y357
G1 X305.245
G1 Y360.299
G1 X311.844
G1 Y357
G1 X318.444
G1 Y360.299
; Layer Trayectorias_de_corte_1 Pass 7 of 9
G1 X325.045
G1 Y357
G1 X340.145
G1 Y372.099
G1 X336.845
G1 Y378.698
G1 X340.145
G1 Y385.299
G1 X336.845
G1 Y391.899
G1 X340.145
G1 Y406.999
G1 X336.845
G1 X325.045
G1 Y403.699
G1 X318.444
G1 Y407
G1 X311.844
G1 Y403.7
G1 X305.245
G1 Y407
G1 X290.145
G1 Y391.9
G1 X293.445
G1 Y385.299
G1 X290.145
G1 Y378.698
G1 X293.445
G1 Y372.099
G1 X290.145
G1 Y357
G1 X305.245
G1 Y360.299
G1 X311.844
G1 Y357
G1 X318.444
G1 Y360.299
; Layer Trayectorias_de_corte_1 Pass 8 of 9
G1 X325.045
G1 Y357
G1 X340.145
G1 Y372.099
G1 X336.845
G1 Y378.698
G1 X340.145
G1 Y385.299
G1 X336.845
G1 Y391.899
G1 X340.145
G1 Y406.999
G1 X336.845
G1 X325.045
G1 Y403.699
G1 X318.444
G1 Y407
G1 X311.844
G1 Y403.7
G1 X305.245
G1 Y407
G1 X290.145
G1 Y391.9
G1 X293.445
G1 Y385.299
G1 X290.145
G1 Y378.698
G1 X293.445
G1 Y372.099
G1 X290.145
G1 Y357
G1 X305.245
G1 Y360.299
G1 X311.844
G1 Y357
G1 X318.444
G1 Y360.299
; Layer Trayectorias_de_corte_1 Pass 9 of 9
G1 X325.045
G1 Y357
G1 X340.145
G1 Y372.099
G1 X336.845
G1 Y378.698
G1 X340.145
G1 Y385.299
G1 X336.845
G1 Y391.899
G1 X340.145
G1 Y406.999
G1 X336.845
G1 X325.045
G1 Y403.699
G1 X318.444
G1 Y407
G1 X311.844
G1 Y403.7
G1 X305.245
G1 Y407
G1 X290.145
G1 Y391.9
G1 X293.445
G1 Y385.299
G1 X290.145
G1 Y378.698
G1 X293.445
G1 Y372.099
G1 X290.145
G1 Y357
G1 X305.245
G1 Y360.299
G1 X311.844
G1 Y357
G1 X318.444
G1 Y360.299
G0 X341.855Y357.001
; Layer Trayectorias_de_corte_1 Pass 1 of 9
G1 X391.855
G1 Y407
G1 X384.76
G1 X341.855
G1 Y357.001
; Layer Trayectorias_de_corte_1 Pass 2 of 9
G1 X391.855
G1 Y407
G1 X384.76
G1 X341.855
G1 Y357.001
; Layer Trayectorias_de_corte_1 Pass 3 of 9
G1 X391.855
G1 Y407
G1 X384.76
G1 X341.855
G1 Y357.001
; Layer Trayectorias_de_corte_1 Pass 4 of 9
G1 X391.855
G1 Y407
G1 X384.76
G1 X341.855
G1 Y357.001
; Layer Trayectorias_de_corte_1 Pass 5 of 9
G1 X391.855
G1 Y407
G1 X384.76
G1 X341.855
G1 Y357.001
; Layer Trayectorias_de_corte_1 Pass 6 of 9
G1 X391.855
G1 Y407
G1 X384.76
G1 X341.855
G1 Y357.001
; Layer Trayectorias_de_corte_1 Pass 7 of 9
G1 X391.855
G1 Y407
G1 X384.76
G1 X341.855
G1 Y357.001
; Layer Trayectorias_de_corte_1 Pass 8 of 9
G1 X391.855
G1 Y407
G1 X384.76
G1 X341.855
G1 Y357.001
; Layer Trayectorias_de_corte_1 Pass 9 of 9
G1 X391.855
G1 Y407
G1 X384.76
G1 X341.855
G1 Y357.001
G0 X328.934Y321.05
; Layer Trayectorias_de_corte_1 Pass 1 of 9
G1 Y301.05
G1 X308.934
G1 Y321.05
G1 X328.934
; Layer Trayectorias_de_corte_1 Pass 2 of 9
G1 Y301.05
G1 X308.934
G1 Y321.05
G1 X328.934
; Layer Trayectorias_de_corte_1 Pass 3 of 9
G1 Y301.05
G1 X308.934
G1 Y321.05
G1 X328.934
; Layer Trayectorias_de_corte_1 Pass 4 of 9
G1 Y301.05
G1 X308.934
G1 Y321.05
G1 X328.934
; Layer Trayectorias_de_corte_1 Pass 5 of 9
G1 Y301.05
G1 X308.934
G1 Y321.05
G1 X328.934
; Layer Trayectorias_de_corte_1 Pass 6 of 9
G1 Y301.05
G1 X308.934
G1 Y321.05
G1 X328.934
; Layer Trayectorias_de_corte_1 Pass 7 of 9
G1 Y301.05
G1 X308.934
G1 Y321.05
G1 X328.934
; Layer Trayectorias_de_corte_1 Pass 8 of 9
G1 Y301.05
G1 X308.934
G1 Y321.05
G1 X328.934
; Layer Trayectorias_de_corte_1 Pass 9 of 9
G1 Y301.05
G1 X308.934
G1 Y321.05
G1 X328.934
G0 X336.875Y324.05
; Layer Trayectorias_de_corte_1 Pass 1 of 9
G1 Y331.05
G1 X328.87
G1 Y334.349
G1 X322.269
G1 Y331.05
G1 X315.67
G1 Y334.349
G1 X309.07
G1 Y331.05
G1 X301.064
G1 Y324.05
G1 X297.765
G1 Y317.449
G1 X301.064
G1 Y310.85
G1 X297.765
G1 Y304.251
G1 X301.064
G1 Y297.65
G1 X297.765
G1 Y291.05
G1 X301.064
G1 Y284.449
G1 X297.765
G1 Y277.85
G1 X301.064
G1 Y271.251
G1 X297.765
G1 Y264.65
G1 X301.064
G1 Y257.651
G1 X336.875
G1 Y264.65
G1 X340.174
G1 Y271.251
G1 X336.875
G1 Y277.85
G1 X340.174
G1 Y284.449
G1 X336.875
G1 Y291.05
G1 X340.174
G1 Y297.65
G1 X336.875
G1 Y304.251
G1 X340.174
G1 Y310.85
G1 X336.875
G1 Y317.449
G1 X340.174
G1 Y324.05
G1 X336.875
; Layer Trayectorias_de_corte_1 Pass 2 of 9
G1 Y331.05
G1 X328.87
G1 Y334.349
G1 X322.269
G1 Y331.05
G1 X315.67
G1 Y334.349
G1 X309.07
G1 Y331.05
G1 X301.064
G1 Y324.05
G1 X297.765
G1 Y317.449
G1 X301.064
G1 Y310.85
G1 X297.765
G1 Y304.251
G1 X301.064
G1 Y297.65
G1 X297.765
G1 Y291.05
G1 X301.064
G1 Y284.449
G1 X297.765
G1 Y277.85
G1 X301.064
G1 Y271.251
G1 X297.765
G1 Y264.65
G1 X301.064
G1 Y257.651
G1 X336.875
G1 Y264.65
G1 X340.174
G1 Y271.251
G1 X336.875
G1 Y277.85
G1 X340.174
G1 Y284.449
G1 X336.875
G1 Y291.05
G1 X340.174
G1 Y297.65
G1 X336.875
G1 Y304.251
G1 X340.174
G1 Y310.85
G1 X336.875
G1 Y317.449
G1 X340.174
G1 Y324.05
G1 X336.875
; Layer Trayectorias_de_corte_1 Pass 3 of 9
G1 Y331.05
G1 X328.87
G1 Y334.349
G1 X322.269
G1 Y331.05
G1 X315.67
G1 Y334.349
G1 X309.07
G1 Y331.05
G1 X301.064
G1 Y324.05
G1 X297.765
G1 Y317.449
G1 X301.064
G1 Y310.85
G1 X297.765
G1 Y304.251
G1 X301.064
G1 Y297.65
G1 X297.765
G1 Y291.05
G1 X301.064
G1 Y284.449
G1 X297.765
G1 Y277.85
G1 X301.064
G1 Y271.251
G1 X297.765
G1 Y264.65
G1 X301.064
G1 Y257.651
G1 X336.875
G1 Y264.65
G1 X340.174
G1 Y271.251
G1 X336.875
G1 Y277.85
G1 X340.174
G1 Y284.449
G1 X336.875
G1 Y291.05
G1 X340.174
G1 Y297.65
G1 X336.875
G1 Y304.251
G1 X340.174
G1 Y310.85
G1 X336.875
G1 Y317.449
G1 X340.174
G1 Y324.05
G1 X336.875
; Layer Trayectorias_de_corte_1 Pass 4 of 9
G1 Y331.05
G1 X328.87
G1 Y334.349
G1 X322.269
G1 Y331.05
G1 X315.67
G1 Y334.349
G1 X309.07
G1 Y331.05
G1 X301.064
G1 Y324.05
G1 X297.765
G1 Y317.449
G1 X301.064
G1 Y310.85
G1 X297.765
G1 Y304.251
G1 X301.064
G1 Y297.65
G1 X297.765
G1 Y291.05
G1 X301.064
G1 Y284.449
G1 X297.765
G1 Y277.85
G1 X301.064
G1 Y271.251
G1 X297.765
G1 Y264.65
G1 X301.064
G1 Y257.651
G1 X336.875
G1 Y264.65
G1 X340.174
G1 Y271.251
G1 X336.875
G1 Y277.85
G1 X340.174
G1 Y284.449
G1 X336.875
G1 Y291.05
G1 X340.174
G1 Y297.65
G1 X336.875
G1 Y304.251
G1 X340.174
G1 Y310.85
G1 X336.875
G1 Y317.449
G1 X340.174
G1 Y324.05
G1 X336.875
; Layer Trayectorias_de_corte_1 Pass 5 of 9
G1 Y331.05
G1 X328.87
G1 Y334.349
G1 X322.269
G1 Y331.05
G1 X315.67
G1 Y334.349
G1 X309.07
G1 Y331.05
G1 X301.064
G1 Y324.05
G1 X297.765
G1 Y317.449
G1 X301.064
G1 Y310.85
G1 X297.765
G1 Y304.251
G1 X301.064
G1 Y297.65
G1 X297.765
G1 Y291.05
G1 X301.064
G1 Y284.449
G1 X297.765
G1 Y277.85
G1 X301.064
G1 Y271.251
G1 X297.765
G1 Y264.65
G1 X301.064
G1 Y257.651
G1 X336.875
G1 Y264.65
G1 X340.174
G1 Y271.251
G1 X336.875
G1 Y277.85
G1 X340.174
G1 Y284.449
G1 X336.875
G1 Y291.05
G1 X340.174
G1 Y297.65
G1 X336.875
G1 Y304.251
G1 X340.174
G1 Y310.85
G1 X336.875
G1 Y317.449
G1 X340.174
G1 Y324.05
G1 X336.875
; Layer Trayectorias_de_corte_1 Pass 6 of 9
G1 Y331.05
G1 X328.87
G1 Y334.349
G1 X322.269
G1 Y331.05
G1 X315.67
G1 Y334.349
G1 X309.07
G1 Y331.05
G1 X301.064
G1 Y324.05
G1 X297.765
G1 Y317.449
G1 X301.064
G1 Y310.85
G1 X297.765
G1 Y304.251
G1 X301.064
G1 Y297.65
G1 X297.765
G1 Y291.05
G1 X301.064
G1 Y284.449
G1 X297.765
G1 Y277.85
G1 X301.064
G1 Y271.251
G1 X297.765
G1 Y264.65
G1 X301.064
G1 Y257.651
G1 X336.875
G1 Y264.65
G1 X340.174
G1 Y271.251
G1 X336.875
G1 Y277.85
G1 X340.174
G1 Y284.449
G1 X336.875
G1 Y291.05
G1 X340.174
G1 Y297.65
G1 X336.875
G1 Y304.251
G1 X340.174
G1 Y310.85
G1 X336.875
G1 Y317.449
G1 X340.174
G1 Y324.05
G1 X336.875
; Layer Trayectorias_de_corte_1 Pass 7 of 9
G1 Y331.05
G1 X328.87
G1 Y334.349
G1 X322.269
G1 Y331.05
G1 X315.67
G1 Y334.349
G1 X309.07
G1 Y331.05
G1 X301.064
G1 Y324.05
G1 X297.765
G1 Y317.449
G1 X301.064
G1 Y310.85
G1 X297.765
G1 Y304.251
G1 X301.064
G1 Y297.65
G1 X297.765
G1 Y291.05
G1 X301.064
G1 Y284.449
G1 X297.765
G1 Y277.85
G1 X301.064
G1 Y271.251
G1 X297.765
G1 Y264.65
G1 X301.064
G1 Y257.651
G1 X336.875
G1 Y264.65
G1 X340.174
G1 Y271.251
G1 X336.875
G1 Y277.85
G1 X340.174
G1 Y284.449
G1 X336.875
G1 Y291.05
G1 X340.174
G1 Y297.65
G1 X336.875
G1 Y304.251
G1 X340.174
G1 Y310.85
G1 X336.875
G1 Y317.449
G1 X340.174
G1 Y324.05
G1 X336.875
; Layer Trayectorias_de_corte_1 Pass 8 of 9
G1 Y331.05
G1 X328.87
G1 Y334.349
G1 X322.269
G1 Y331.05
G1 X315.67
G1 Y334.349
G1 X309.07
G1 Y331.05
G1 X301.064
G1 Y324.05
G1 X297.765
G1 Y317.449
G1 X301.064
G1 Y310.85
G1 X297.765
G1 Y304.251
G1 X301.064
G1 Y297.65
G1 X297.765
G1 Y291.05
G1 X301.064
G1 Y284.449
G1 X297.765
G1 Y277.85
G1 X301.064
G1 Y271.251
G1 X297.765
G1 Y264.65
G1 X301.064
G1 Y257.651
G1 X336.875
G1 Y264.65
G1 X340.174
G1 Y271.251
G1 X336.875
G1 Y277.85
G1 X340.174
G1 Y284.449
G1 X336.875
G1 Y291.05
G1 X340.174
G1 Y297.65
G1 X336.875
G1 Y304.251
G1 X340.174
G1 Y310.85
G1 X336.875
G1 Y317.449
G1 X340.174
G1 Y324.05
G1 X336.875
; Layer Trayectorias_de_corte_1 Pass 9 of 9
G1 Y331.05
G1 X328.87
G1 Y334.349
G1 X322.269
G1 Y331.05
G1 X315.67
G1 Y334.349
G1 X309.07
G1 Y331.05
G1 X301.064
G1 Y324.05
G1 X297.765
G1 Y317.449
G1 X301.064
G1 Y310.85
G1 X297.765
G1 Y304.251
G1 X301.064
G1 Y297.65
G1 X297.765
G1 Y291.05
G1 X301.064
G1 Y284.449
G1 X297.765
G1 Y277.85
G1 X301.064
G1 Y271.251
G1 X297.765
G1 Y264.65
G1 X301.064
G1 Y257.651
G1 X336.875
G1 Y264.65
G1 X340.174
G1 Y271.251
G1 X336.875
G1 Y277.85
G1 X340.174
G1 Y284.449
G1 X336.875
G1 Y291.05
G1 X340.174
G1 Y297.65
G1 X336.875
G1 Y304.251
G1 X340.174
G1 Y310.85
G1 X336.875
G1 Y317.449
G1 X340.174
G1 Y324.05
G1 X336.875
G0 X333.701Y425.65
; Layer Trayectorias_de_corte_1 Pass 1 of 9
G1 X340.298
G1 Y428.949
G1 X346.9
G1 Y425.65
G1 X353.499
G1 Y428.949
G1 X360.1
G1 Y425.65
G1 X366.701
G1 Y428.949
G1 X373.302
G1 Y425.65
G1 X379.901
G1 Y428.949
G1 X389.906
G1 Y439.349
G1 X393.204
G1 Y445.95
G1 X389.906
G1 Y452.549
G1 X393.204
G1 Y459.15
G1 X389.906
G1 Y465.75
G1 X393.204
G1 Y472.349
G1 X389.906
G1 Y478.95
G1 X393.204
G1 Y485.549
G1 X389.906
G1 Y492.15
G1 X393.204
G1 Y498.75
G1 X389.906
G1 Y505.349
G1 X393.204
G1 Y511.95
G1 X389.906
G1 Y522.35
G1 X284.094
G1 Y511.95
G1 X280.796
G1 Y505.349
G1 X284.094
G1 Y498.75
G1 X280.796
G1 Y492.15
G1 X284.094
G1 Y485.549
G1 X280.796
G1 Y478.95
G1 X284.094
G1 Y472.349
G1 X280.796
G1 Y465.75
G1 X284.094
G1 Y459.15
G1 X280.796
G1 Y452.549
G1 X284.094
G1 Y445.95
G1 X280.796
G1 Y439.349
G1 X284.094
G1 Y428.949
G1 X294.099
G1 Y425.65
G1 X300.699
G1 Y428.949
G1 X307.299
G1 Y425.65
G1 X313.9
G1 Y428.949
G1 X320.5
G1 Y425.65
G1 X327.102
G1 Y428.949
G1 X333.701
G1 Y425.65
; Layer Trayectorias_de_corte_1 Pass 2 of 9
G1 X340.298
G1 Y428.949
G1 X346.9
G1 Y425.65
G1 X353.499
G1 Y428.949
G1 X360.1
G1 Y425.65
G1 X366.701
G1 Y428.949
G1 X373.302
G1 Y425.65
G1 X379.901
G1 Y428.949
G1 X389.906
G1 Y439.349
G1 X393.204
G1 Y445.95
G1 X389.906
G1 Y452.549
G1 X393.204
G1 Y459.15
G1 X389.906
G1 Y465.75
G1 X393.204
G1 Y472.349
G1 X389.906
G1 Y478.95
G1 X393.204
G1 Y485.549
G1 X389.906
G1 Y492.15
G1 X393.204
G1 Y498.75
G1 X389.906
G1 Y505.349
G1 X393.204
G1 Y511.95
G1 X389.906
G1 Y522.35
G1 X284.094
G1 Y511.95
G1 X280.796
G1 Y505.349
G1 X284.094
G1 Y498.75
G1 X280.796
G1 Y492.15
G1 X284.094
G1 Y485.549
G1 X280.796
G1 Y478.95
G1 X284.094
G1 Y472.349
G1 X280.796
G1 Y465.75
G1 X284.094
G1 Y459.15
G1 X280.796
G1 Y452.549
G1 X284.094
G1 Y445.95
G1 X280.796
G1 Y439.349
G1 X284.094
G1 Y428.949
G1 X294.099
G1 Y425.65
G1 X300.699
G1 Y428.949
G1 X307.299
G1 Y425.65
G1 X313.9
G1 Y428.949
G1 X320.5
G1 Y425.65
G1 X327.102
G1 Y428.949
G1 X333.701
G1 Y425.65
; Layer Trayectorias_de_corte_1 Pass 3 of 9
G1 X340.298
G1 Y428.949
G1 X346.9
G1 Y425.65
G1 X353.499
G1 Y428.949
G1 X360.1
G1 Y425.65
G1 X366.701
G1 Y428.949
G1 X373.302
G1 Y425.65
G1 X379.901
G1 Y428.949
G1 X389.906
G1 Y439.349
G1 X393.204
G1 Y445.95
G1 X389.906
G1 Y452.549
G1 X393.204
G1 Y459.15
G1 X389.906
G1 Y465.75
G1 X393.204
G1 Y472.349
G1 X389.906
G1 Y478.95
G1 X393.204
G1 Y485.549
G1 X389.906
G1 Y492.15
G1 X393.204
G1 Y498.75
G1 X389.906
G1 Y505.349
G1 X393.204
G1 Y511.95
G1 X389.906
G1 Y522.35
G1 X284.094
G1 Y511.95
G1 X280.796
G1 Y505.349
G1 X284.094
G1 Y498.75
G1 X280.796
G1 Y492.15
G1 X284.094
G1 Y485.549
G1 X280.796
G1 Y478.95
G1 X284.094
G1 Y472.349
G1 X280.796
G1 Y465.75
G1 X284.094
G1 Y459.15
G1 X280.796
G1 Y452.549
G1 X284.094
G1 Y445.95
G1 X280.796
G1 Y439.349
G1 X284.094
G1 Y428.949
G1 X294.099
G1 Y425.65
G1 X300.699
G1 Y428.949
G1 X307.299
G1 Y425.65
G1 X313.9
G1 Y428.949
G1 X320.5
G1 Y425.65
G1 X327.102
G1 Y428.949
G1 X333.701
G1 Y425.65
; Layer Trayectorias_de_corte_1 Pass 4 of 9
G1 X340.298
G1 Y428.949
G1 X346.9
G1 Y425.65
G1 X353.499
G1 Y428.949
G1 X360.1
G1 Y425.65
G1 X366.701
G1 Y428.949
G1 X373.302
G1 Y425.65
G1 X379.901
G1 Y428.949
G1 X389.906
G1 Y439.349
G1 X393.204
G1 Y445.95
G1 X389.906
G1 Y452.549
G1 X393.204
G1 Y459.15
G1 X389.906
G1 Y465.75
G1 X393.204
G1 Y472.349
G1 X389.906
G1 Y478.95
G1 X393.204
G1 Y485.549
G1 X389.906
G1 Y492.15
G1 X393.204
G1 Y498.75
G1 X389.906
G1 Y505.349
G1 X393.204
G1 Y511.95
G1 X389.906
G1 Y522.35
G1 X284.094
G1 Y511.95
G1 X280.796
G1 Y505.349
G1 X284.094
G1 Y498.75
G1 X280.796
G1 Y492.15
G1 X284.094
G1 Y485.549
G1 X280.796
G1 Y478.95
G1 X284.094
G1 Y472.349
G1 X280.796
G1 Y465.75
G1 X284.094
G1 Y459.15
G1 X280.796
G1 Y452.549
G1 X284.094
G1 Y445.95
G1 X280.796
G1 Y439.349
G1 X284.094
G1 Y428.949
G1 X294.099
G1 Y425.65
G1 X300.699
G1 Y428.949
G1 X307.299
G1 Y425.65
G1 X313.9
G1 Y428.949
G1 X320.5
G1 Y425.65
G1 X327.102
G1 Y428.949
G1 X333.701
G1 Y425.65
; Layer Trayectorias_de_corte_1 Pass 5 of 9
G1 X340.298
G1 Y428.949
G1 X346.9
G1 Y425.65
G1 X353.499
G1 Y428.949
G1 X360.1
G1 Y425.65
G1 X366.701
G1 Y428.949
G1 X373.302
G1 Y425.65
G1 X379.901
G1 Y428.949
G1 X389.906
G1 Y439.349
G1 X393.204
G1 Y445.95
G1 X389.906
G1 Y452.549
G1 X393.204
G1 Y459.15
G1 X389.906
G1 Y465.75
G1 X393.204
G1 Y472.349
G1 X389.906
G1 Y478.95
G1 X393.204
G1 Y485.549
G1 X389.906
G1 Y492.15
G1 X393.204
G1 Y498.75
G1 X389.906
G1 Y505.349
G1 X393.204
G1 Y511.95
G1 X389.906
G1 Y522.35
G1 X284.094
G1 Y511.95
G1 X280.796
G1 Y505.349
G1 X284.094
G1 Y498.75
G1 X280.796
G1 Y492.15
G1 X284.094
G1 Y485.549
G1 X280.796
G1 Y478.95
G1 X284.094
G1 Y472.349
G1 X280.796
G1 Y465.75
G1 X284.094
G1 Y459.15
G1 X280.796
G1 Y452.549
G1 X284.094
G1 Y445.95
G1 X280.796
G1 Y439.349
G1 X284.094
G1 Y428.949
G1 X294.099
G1 Y425.65
G1 X300.699
G1 Y428.949
G1 X307.299
G1 Y425.65
G1 X313.9
G1 Y428.949
G1 X320.5
G1 Y425.65
G1 X327.102
G1 Y428.949
G1 X333.701
G1 Y425.65
; Layer Trayectorias_de_corte_1 Pass 6 of 9
G1 X340.298
G1 Y428.949
G1 X346.9
G1 Y425.65
G1 X353.499
G1 Y428.949
G1 X360.1
G1 Y425.65
G1 X366.701
G1 Y428.949
G1 X373.302
G1 Y425.65
G1 X379.901
G1 Y428.949
G1 X389.906
G1 Y439.349
G1 X393.204
G1 Y445.95
G1 X389.906
G1 Y452.549
G1 X393.204
G1 Y459.15
G1 X389.906
G1 Y465.75
G1 X393.204
G1 Y472.349
G1 X389.906
G1 Y478.95
G1 X393.204
G1 Y485.549
G1 X389.906
G1 Y492.15
G1 X393.204
G1 Y498.75
G1 X389.906
G1 Y505.349
G1 X393.204
G1 Y511.95
G1 X389.906
G1 Y522.35
G1 X284.094
G1 Y511.95
G1 X280.796
G1 Y505.349
G1 X284.094
G1 Y498.75
G1 X280.796
G1 Y492.15
G1 X284.094
G1 Y485.549
G1 X280.796
G1 Y478.95
G1 X284.094
G1 Y472.349
G1 X280.796
G1 Y465.75
G1 X284.094
G1 Y459.15
G1 X280.796
G1 Y452.549
G1 X284.094
G1 Y445.95
G1 X280.796
G1 Y439.349
G1 X284.094
G1 Y428.949
G1 X294.099
G1 Y425.65
G1 X300.699
G1 Y428.949
G1 X307.299
G1 Y425.65
G1 X313.9
G1 Y428.949
G1 X320.5
G1 Y425.65
G1 X327.102
G1 Y428.949
G1 X333.701
G1 Y425.65
; Layer Trayectorias_de_corte_1 Pass 7 of 9
G1 X340.298
G1 Y428.949
G1 X346.9
G1 Y425.65
G1 X353.499
G1 Y428.949
G1 X360.1
G1 Y425.65
G1 X366.701
G1 Y428.949
G1 X373.302
G1 Y425.65
G1 X379.901
G1 Y428.949
G1 X389.906
G1 Y439.349
G1 X393.204
G1 Y445.95
G1 X389.906
G1 Y452.549
G1 X393.204
G1 Y459.15
G1 X389.906
G1 Y465.75
G1 X393.204
G1 Y472.349
G1 X389.906
G1 Y478.95
G1 X393.204
G1 Y485.549
G1 X389.906
G1 Y492.15
G1 X393.204
G1 Y498.75
G1 X389.906
G1 Y505.349
G1 X393.204
G1 Y511.95
G1 X389.906
G1 Y522.35
G1 X284.094
G1 Y511.95
G1 X280.796
G1 Y505.349
G1 X284.094
G1 Y498.75
G1 X280.796
G1 Y492.15
G1 X284.094
G1 Y485.549
G1 X280.796
G1 Y478.95
G1 X284.094
G1 Y472.349
G1 X280.796
G1 Y465.75
G1 X284.094
G1 Y459.15
G1 X280.796
G1 Y452.549
G1 X284.094
G1 Y445.95
G1 X280.796
G1 Y439.349
G1 X284.094
G1 Y428.949
G1 X294.099
G1 Y425.65
G1 X300.699
G1 Y428.949
G1 X307.299
G1 Y425.65
G1 X313.9
G1 Y428.949
G1 X320.5
G1 Y425.65
G1 X327.102
G1 Y428.949
G1 X333.701
G1 Y425.65
; Layer Trayectorias_de_corte_1 Pass 8 of 9
G1 X340.298
G1 Y428.949
G1 X346.9
G1 Y425.65
G1 X353.499
G1 Y428.949
G1 X360.1
G1 Y425.65
G1 X366.701
G1 Y428.949
G1 X373.302
G1 Y425.65
G1 X379.901
G1 Y428.949
G1 X389.906
G1 Y439.349
G1 X393.204
G1 Y445.95
G1 X389.906
G1 Y452.549
G1 X393.204
G1 Y459.15
G1 X389.906
G1 Y465.75
G1 X393.204
G1 Y472.349
G1 X389.906
G1 Y478.95
G1 X393.204
G1 Y485.549
G1 X389.906
G1 Y492.15
G1 X393.204
G1 Y498.75
G1 X389.906
G1 Y505.349
G1 X393.204
G1 Y511.95
G1 X389.906
G1 Y522.35
G1 X284.094
G1 Y511.95
G1 X280.796
G1 Y505.349
G1 X284.094
G1 Y498.75
G1 X280.796
G1 Y492.15
G1 X284.094
G1 Y485.549
G1 X280.796
G1 Y478.95
G1 X284.094
G1 Y472.349
G1 X280.796
G1 Y465.75
G1 X284.094
G1 Y459.15
G1 X280.796
G1 Y452.549
G1 X284.094
G1 Y445.95
G1 X280.796
G1 Y439.349
G1 X284.094
G1 Y428.949
G1 X294.099
G1 Y425.65
G1 X300.699
G1 Y428.949
G1 X307.299
G1 Y425.65
G1 X313.9
G1 Y428.949
G1 X320.5
G1 Y425.65
G1 X327.102
G1 Y428.949
G1 X333.701
G1 Y425.65
; Layer Trayectorias_de_corte_1 Pass 9 of 9
G1 X340.298
G1 Y428.949
G1 X346.9
G1 Y425.65
G1 X353.499
G1 Y428.949
G1 X360.1
G1 Y425.65
G1 X366.701
G1 Y428.949
G1 X373.302
G1 Y425.65
G1 X379.901
G1 Y428.949
G1 X389.906
G1 Y439.349
G1 X393.204
G1 Y445.95
G1 X389.906
G1 Y452.549
G1 X393.204
G1 Y459.15
G1 X389.906
G1 Y465.75
G1 X393.204
G1 Y472.349
G1 X389.906
G1 Y478.95
G1 X393.204
G1 Y485.549
G1 X389.906
G1 Y492.15
G1 X393.204
G1 Y498.75
G1 X389.906
G1 Y505.349
G1 X393.204
G1 Y511.95
G1 X389.906
G1 Y522.35
G1 X284.094
G1 Y511.95
G1 X280.796
G1 Y505.349
G1 X284.094
G1 Y498.75
G1 X280.796
G1 Y492.15
G1 X284.094
G1 Y485.549
G1 X280.796
G1 Y478.95
G1 X284.094
G1 Y472.349
G1 X280.796
G1 Y465.75
G1 X284.094
G1 Y459.15
G1 X280.796
G1 Y452.549
G1 X284.094
G1 Y445.95
G1 X280.796
G1 Y439.349
G1 X284.094
G1 Y428.949
G1 X294.099
G1 Y425.65
G1 X300.699
G1 Y428.949
G1 X307.299
G1 Y425.65
G1 X313.9
G1 Y428.949
G1 X320.5
G1 Y425.65
G1 X327.102
G1 Y428.949
G1 X333.701
G1 Y425.65
G0 X233.817Y443.778
; Layer Trayectorias_de_corte_1 Pass 1 of 9
G1 X183.817
G1 Y473.778
G1 X233.817
G1 Y443.778
; Layer Trayectorias_de_corte_1 Pass 2 of 9
G1 X183.817
G1 Y473.778
G1 X233.817
G1 Y443.778
; Layer Trayectorias_de_corte_1 Pass 3 of 9
G1 X183.817
G1 Y473.778
G1 X233.817
G1 Y443.778
; Layer Trayectorias_de_corte_1 Pass 4 of 9
G1 X183.817
G1 Y473.778
G1 X233.817
G1 Y443.778
; Layer Trayectorias_de_corte_1 Pass 5 of 9
G1 X183.817
G1 Y473.778
G1 X233.817
G1 Y443.778
; Layer Trayectorias_de_corte_1 Pass 6 of 9
G1 X183.817
G1 Y473.778
G1 X233.817
G1 Y443.778
; Layer Trayectorias_de_corte_1 Pass 7 of 9
G1 X183.817
G1 Y473.778
G1 X233.817
G1 Y443.778
; Layer Trayectorias_de_corte_1 Pass 8 of 9
G1 X183.817
G1 Y473.778
G1 X233.817
G1 Y443.778
; Layer Trayectorias_de_corte_1 Pass 9 of 9
G1 X183.817
G1 Y473.778
G1 X233.817
G1 Y443.778
G0 X261.688Y440.778
; Layer Trayectorias_de_corte_1 Pass 1 of 9
G1 Y447.377
G1 X264.988
G1 Y453.978
G1 X261.688
G1 Y460.578
G1 X264.988
G1 Y467.177
G1 X261.688
G1 Y473.778
G1 X264.988
G1 Y480.377
G1 X261.688
G1 Y486.978
G1 X264.988
G1 Y493.578
G1 X261.688
G1 Y500.177
G1 X264.988
G1 Y506.778
G1 X261.688
G1 Y517.178
G1 X155.878
G1 Y506.778
G1 X152.577
G1 Y500.177
G1 X155.878
G1 Y493.578
G1 X152.577
G1 Y486.978
G1 X155.878
G1 Y480.377
G1 X152.577
G1 Y473.778
G1 X155.878
G1 Y467.177
G1 X152.577
G1 Y460.578
G1 X155.878
G1 Y453.978
G1 X152.577
G1 Y447.377
G1 X155.878
G1 Y440.778
G1 X152.577
G1 Y434.177
G1 X155.878
G1 Y423.777
G1 X165.882
G1 Y420.478
G1 X172.483
G1 Y423.777
G1 X179.082
G1 Y420.478
G1 X185.683
G1 Y423.777
G1 X192.283
G1 Y420.478
G1 X198.883
G1 Y423.777
G1 X205.483
G1 Y420.478
G1 X212.082
G1 Y423.777
G1 X218.683
G1 Y420.478
G1 X225.283
G1 Y423.777
G1 X231.883
G1 Y420.478
G1 X238.483
G1 Y423.777
G1 X245.082
G1 Y420.478
G1 X251.683
G1 Y423.777
G1 X261.688
G1 Y434.177
G1 X264.988
G1 Y440.778
G1 X261.688
; Layer Trayectorias_de_corte_1 Pass 2 of 9
G1 Y447.377
G1 X264.988
G1 Y453.978
G1 X261.688
G1 Y460.578
G1 X264.988
G1 Y467.177
G1 X261.688
G1 Y473.778
G1 X264.988
G1 Y480.377
G1 X261.688
G1 Y486.978
G1 X264.988
G1 Y493.578
G1 X261.688
G1 Y500.177
G1 X264.988
G1 Y506.778
G1 X261.688
G1 Y517.178
G1 X155.878
G1 Y506.778
G1 X152.577
G1 Y500.177
G1 X155.878
G1 Y493.578
G1 X152.577
G1 Y486.978
G1 X155.878
G1 Y480.377
G1 X152.577
G1 Y473.778
G1 X155.878
G1 Y467.177
G1 X152.577
G1 Y460.578
G1 X155.878
G1 Y453.978
G1 X152.577
G1 Y447.377
G1 X155.878
G1 Y440.778
G1 X152.577
G1 Y434.177
G1 X155.878
G1 Y423.777
G1 X165.882
G1 Y420.478
G1 X172.483
G1 Y423.777
G1 X179.082
G1 Y420.478
G1 X185.683
G1 Y423.777
G1 X192.283
G1 Y420.478
G1 X198.883
G1 Y423.777
G1 X205.483
G1 Y420.478
G1 X212.082
G1 Y423.777
G1 X218.683
G1 Y420.478
G1 X225.283
G1 Y423.777
G1 X231.883
G1 Y420.478
G1 X238.483
G1 Y423.777
G1 X245.082
G1 Y420.478
G1 X251.683
G1 Y423.777
G1 X261.688
G1 Y434.177
G1 X264.988
G1 Y440.778
G1 X261.688
; Layer Trayectorias_de_corte_1 Pass 3 of 9
G1 Y447.377
G1 X264.988
G1 Y453.978
G1 X261.688
G1 Y460.578
G1 X264.988
G1 Y467.177
G1 X261.688
G1 Y473.778
G1 X264.988
G1 Y480.377
G1 X261.688
G1 Y486.978
G1 X264.988
G1 Y493.578
G1 X261.688
G1 Y500.177
G1 X264.988
G1 Y506.778
G1 X261.688
G1 Y517.178
G1 X155.878
G1 Y506.778
G1 X152.577
G1 Y500.177
G1 X155.878
G1 Y493.578
G1 X152.577
G1 Y486.978
G1 X155.878
G1 Y480.377
G1 X152.577
G1 Y473.778
G1 X155.878
G1 Y467.177
G1 X152.577
G1 Y460.578
G1 X155.878
G1 Y453.978
G1 X152.577
G1 Y447.377
G1 X155.878
G1 Y440.778
G1 X152.577
G1 Y434.177
G1 X155.878
G1 Y423.777
G1 X165.882
G1 Y420.478
G1 X172.483
G1 Y423.777
G1 X179.082
G1 Y420.478
G1 X185.683
G1 Y423.777
G1 X192.283
G1 Y420.478
G1 X198.883
G1 Y423.777
G1 X205.483
G1 Y420.478
G1 X212.082
G1 Y423.777
G1 X218.683
G1 Y420.478
G1 X225.283
G1 Y423.777
G1 X231.883
G1 Y420.478
G1 X238.483
G1 Y423.777
G1 X245.082
G1 Y420.478
G1 X251.683
G1 Y423.777
G1 X261.688
G1 Y434.177
G1 X264.988
G1 Y440.778
G1 X261.688
; Layer Trayectorias_de_corte_1 Pass 4 of 9
G1 Y447.377
G1 X264.988
G1 Y453.978
G1 X261.688
G1 Y460.578
G1 X264.988
G1 Y467.177
G1 X261.688
G1 Y473.778
G1 X264.988
G1 Y480.377
G1 X261.688
G1 Y486.978
G1 X264.988
G1 Y493.578
G1 X261.688
G1 Y500.177
G1 X264.988
G1 Y506.778
G1 X261.688
G1 Y517.178
G1 X155.878
G1 Y506.778
G1 X152.577
G1 Y500.177
G1 X155.878
G1 Y493.578
G1 X152.577
G1 Y486.978
G1 X155.878
G1 Y480.377
G1 X152.577
G1 Y473.778
G1 X155.878
G1 Y467.177
G1 X152.577
G1 Y460.578
G1 X155.878
G1 Y453.978
G1 X152.577
G1 Y447.377
G1 X155.878
G1 Y440.778
G1 X152.577
G1 Y434.177
G1 X155.878
G1 Y423.777
G1 X165.882
G1 Y420.478
G1 X172.483
G1 Y423.777
G1 X179.082
G1 Y420.478
G1 X185.683
G1 Y423.777
G1 X192.283
G1 Y420.478
G1 X198.883
G1 Y423.777
G1 X205.483
G1 Y420.478
G1 X212.082
G1 Y423.777
G1 X218.683
G1 Y420.478
G1 X225.283
G1 Y423.777
G1 X231.883
G1 Y420.478
G1 X238.483
G1 Y423.777
G1 X245.082
G1 Y420.478
G1 X251.683
G1 Y423.777
G1 X261.688
G1 Y434.177
G1 X264.988
G1 Y440.778
G1 X261.688
; Layer Trayectorias_de_corte_1 Pass 5 of 9
G1 Y447.377
G1 X264.988
G1 Y453.978
G1 X261.688
G1 Y460.578
G1 X264.988
G1 Y467.177
G1 X261.688
G1 Y473.778
G1 X264.988
G1 Y480.377
G1 X261.688
G1 Y486.978
G1 X264.988
G1 Y493.578
G1 X261.688
G1 Y500.177
G1 X264.988
G1 Y506.778
G1 X261.688
G1 Y517.178
G1 X155.878
G1 Y506.778
G1 X152.577
G1 Y500.177
G1 X155.878
G1 Y493.578
G1 X152.577
G1 Y486.978
G1 X155.878
G1 Y480.377
G1 X152.577
G1 Y473.778
G1 X155.878
G1 Y467.177
G1 X152.577
G1 Y460.578
G1 X155.878
G1 Y453.978
G1 X152.577
G1 Y447.377
G1 X155.878
G1 Y440.778
G1 X152.577
G1 Y434.177
G1 X155.878
G1 Y423.777
G1 X165.882
G1 Y420.478
G1 X172.483
G1 Y423.777
G1 X179.082
G1 Y420.478
G1 X185.683
G1 Y423.777
G1 X192.283
G1 Y420.478
G1 X198.883
G1 Y423.777
G1 X205.483
G1 Y420.478
G1 X212.082
G1 Y423.777
G1 X218.683
G1 Y420.478
G1 X225.283
G1 Y423.777
G1 X231.883
G1 Y420.478
G1 X238.483
G1 Y423.777
G1 X245.082
G1 Y420.478
G1 X251.683
G1 Y423.777
G1 X261.688
G1 Y434.177
G1 X264.988
G1 Y440.778
G1 X261.688
; Layer Trayectorias_de_corte_1 Pass 6 of 9
G1 Y447.377
G1 X264.988
G1 Y453.978
G1 X261.688
G1 Y460.578
G1 X264.988
G1 Y467.177
G1 X261.688
G1 Y473.778
G1 X264.988
G1 Y480.377
G1 X261.688
G1 Y486.978
G1 X264.988
G1 Y493.578
G1 X261.688
G1 Y500.177
G1 X264.988
G1 Y506.778
G1 X261.688
G1 Y517.178
G1 X155.878
G1 Y506.778
G1 X152.577
G1 Y500.177
G1 X155.878
G1 Y493.578
G1 X152.577
G1 Y486.978
G1 X155.878
G1 Y480.377
G1 X152.577
G1 Y473.778
G1 X155.878
G1 Y467.177
G1 X152.577
G1 Y460.578
G1 X155.878
G1 Y453.978
G1 X152.577
G1 Y447.377
G1 X155.878
G1 Y440.778
G1 X152.577
G1 Y434.177
G1 X155.878
G1 Y423.777
G1 X165.882
G1 Y420.478
G1 X172.483
G1 Y423.777
G1 X179.082
G1 Y420.478
G1 X185.683
G1 Y423.777
G1 X192.283
G1 Y420.478
G1 X198.883
G1 Y423.777
G1 X205.483
G1 Y420.478
G1 X212.082
G1 Y423.777
G1 X218.683
G1 Y420.478
G1 X225.283
G1 Y423.777
G1 X231.883
G1 Y420.478
G1 X238.483
G1 Y423.777
G1 X245.082
G1 Y420.478
G1 X251.683
G1 Y423.777
G1 X261.688
G1 Y434.177
G1 X264.988
G1 Y440.778
G1 X261.688
; Layer Trayectorias_de_corte_1 Pass 7 of 9
G1 Y447.377
G1 X264.988
G1 Y453.978
G1 X261.688
G1 Y460.578
G1 X264.988
G1 Y467.177
G1 X261.688
G1 Y473.778
G1 X264.988
G1 Y480.377
G1 X261.688
G1 Y486.978
G1 X264.988
G1 Y493.578
G1 X261.688
G1 Y500.177
G1 X264.988
G1 Y506.778
G1 X261.688
G1 Y517.178
G1 X155.878
G1 Y506.778
G1 X152.577
G1 Y500.177
G1 X155.878
G1 Y493.578
G1 X152.577
G1 Y486.978
G1 X155.878
G1 Y480.377
G1 X152.577
G1 Y473.778
G1 X155.878
G1 Y467.177
G1 X152.577
G1 Y460.578
G1 X155.878
G1 Y453.978
G1 X152.577
G1 Y447.377
G1 X155.878
G1 Y440.778
G1 X152.577
G1 Y434.177
G1 X155.878
G1 Y423.777
G1 X165.882
G1 Y420.478
G1 X172.483
G1 Y423.777
G1 X179.082
G1 Y420.478
G1 X185.683
G1 Y423.777
G1 X192.283
G1 Y420.478
G1 X198.883
G1 Y423.777
G1 X205.483
G1 Y420.478
G1 X212.082
G1 Y423.777
G1 X218.683
G1 Y420.478
G1 X225.283
G1 Y423.777
G1 X231.883
G1 Y420.478
G1 X238.483
G1 Y423.777
G1 X245.082
G1 Y420.478
G1 X251.683
G1 Y423.777
G1 X261.688
G1 Y434.177
G1 X264.988
G1 Y440.778
G1 X261.688
; Layer Trayectorias_de_corte_1 Pass 8 of 9
G1 Y447.377
G1 X264.988
G1 Y453.978
G1 X261.688
G1 Y460.578
G1 X264.988
G1 Y467.177
G1 X261.688
G1 Y473.778
G1 X264.988
G1 Y480.377
G1 X261.688
G1 Y486.978
G1 X264.988
G1 Y493.578
G1 X261.688
G1 Y500.177
G1 X264.988
G1 Y506.778
G1 X261.688
G1 Y517.178
G1 X155.878
G1 Y506.778
G1 X152.577
G1 Y500.177
G1 X155.878
G1 Y493.578
G1 X152.577
G1 Y486.978
G1 X155.878
G1 Y480.377
G1 X152.577
G1 Y473.778
G1 X155.878
G1 Y467.177
G1 X152.577
G1 Y460.578
G1 X155.878
G1 Y453.978
G1 X152.577
G1 Y447.377
G1 X155.878
G1 Y440.778
G1 X152.577
G1 Y434.177
G1 X155.878
G1 Y423.777
G1 X165.882
G1 Y420.478
G1 X172.483
G1 Y423.777
G1 X179.082
G1 Y420.478
G1 X185.683
G1 Y423.777
G1 X192.283
G1 Y420.478
G1 X198.883
G1 Y423.777
G1 X205.483
G1 Y420.478
G1 X212.082
G1 Y423.777
G1 X218.683
G1 Y420.478
G1 X225.283
G1 Y423.777
G1 X231.883
G1 Y420.478
G1 X238.483
G1 Y423.777
G1 X245.082
G1 Y420.478
G1 X251.683
G1 Y423.777
G1 X261.688
G1 Y434.177
G1 X264.988
G1 Y440.778
G1 X261.688
; Layer Trayectorias_de_corte_1 Pass 9 of 9
G1 Y447.377
G1 X264.988
G1 Y453.978
G1 X261.688
G1 Y460.578
G1 X264.988
G1 Y467.177
G1 X261.688
G1 Y473.778
G1 X264.988
G1 Y480.377
G1 X261.688
G1 Y486.978
G1 X264.988
G1 Y493.578
G1 X261.688
G1 Y500.177
G1 X264.988
G1 Y506.778
G1 X261.688
G1 Y517.178
G1 X155.878
G1 Y506.778
G1 X152.577
G1 Y500.177
G1 X155.878
G1 Y493.578
G1 X152.577
G1 Y486.978
G1 X155.878
G1 Y480.377
G1 X152.577
G1 Y473.778
G1 X155.878
G1 Y467.177
G1 X152.577
G1 Y460.578
G1 X155.878
G1 Y453.978
G1 X152.577
G1 Y447.377
G1 X155.878
G1 Y440.778
G1 X152.577
G1 Y434.177
G1 X155.878
G1 Y423.777
G1 X165.882
G1 Y420.478
G1 X172.483
G1 Y423.777
G1 X179.082
G1 Y420.478
G1 X185.683
G1 Y423.777
G1 X192.283
G1 Y420.478
G1 X198.883
G1 Y423.777
G1 X205.483
G1 Y420.478
G1 X212.082
G1 Y423.777
G1 X218.683
G1 Y420.478
G1 X225.283
G1 Y423.777
G1 X231.883
G1 Y420.478
G1 X238.483
G1 Y423.777
G1 X245.082
G1 Y420.478
G1 X251.683
G1 Y423.777
G1 X261.688
G1 Y434.177
G1 X264.988
G1 Y440.778
G1 X261.688
G0 X150.936Y440.771
; Layer Trayectorias_de_corte_1 Pass 1 of 9
G1 Y447.37
G1 X147.635
G1 Y453.971
G1 X150.936
G1 Y460.571
G1 X147.635
G1 Y467.17
G1 X150.936
G1 Y473.771
G1 X147.635
G1 Y480.37
G1 X150.936
G1 Y486.971
G1 X147.635
G1 Y493.571
G1 X150.936
G1 Y500.17
G1 X147.635
G1 Y506.771
G1 X150.936
G1 Y517.171
G1 X8.525
G1 Y506.771
G1 X11.825
G1 Y500.17
G1 X8.525
G1 Y493.571
G1 X11.825
G1 Y486.971
G1 X8.525
G1 Y480.37
G1 X11.825
G1 Y473.771
G1 X8.525
G1 Y467.17
G1 X11.825
G1 Y460.571
G1 X8.525
G1 Y453.971
G1 X11.825
G1 Y447.37
G1 X8.525
G1 Y440.771
G1 X11.825
G1 Y434.17
G1 X8.525
G1 Y423.77
G1 X11.825
G1 X23.631
G1 Y420.471
G1 X30.23
G1 Y423.77
G1 X36.831
G1 Y420.471
G1 X43.431
G1 Y423.77
G1 X50.03
G1 Y420.471
G1 X56.631
G1 Y423.77
G1 X63.23
G1 Y420.471
G1 X69.831
G1 Y423.77
G1 X76.431
G1 Y420.471
G1 X83.031
G1 Y423.77
G1 X89.631
G1 Y420.471
G1 X96.23
G1 Y423.77
G1 X102.831
G1 Y420.471
G1 X109.431
G1 Y423.77
G1 X116.031
G1 Y420.471
G1 X122.631
G1 Y423.77
G1 X129.23
G1 Y420.471
G1 X135.831
G1 Y423.77
G1 X150.936
G1 Y434.17
G1 X147.635
G1 Y440.771
G1 X150.936
; Layer Trayectorias_de_corte_1 Pass 2 of 9
G1 Y447.37
G1 X147.635
G1 Y453.971
G1 X150.936
G1 Y460.571
G1 X147.635
G1 Y467.17
G1 X150.936
G1 Y473.771
G1 X147.635
G1 Y480.37
G1 X150.936
G1 Y486.971
G1 X147.635
G1 Y493.571
G1 X150.936
G1 Y500.17
G1 X147.635
G1 Y506.771
G1 X150.936
G1 Y517.171
G1 X8.525
G1 Y506.771
G1 X11.825
G1 Y500.17
G1 X8.525
G1 Y493.571
G1 X11.825
G1 Y486.971
G1 X8.525
G1 Y480.37
G1 X11.825
G1 Y473.771
G1 X8.525
G1 Y467.17
G1 X11.825
G1 Y460.571
G1 X8.525
G1 Y453.971
G1 X11.825
G1 Y447.37
G1 X8.525
G1 Y440.771
G1 X11.825
G1 Y434.17
G1 X8.525
G1 Y423.77
G1 X11.825
G1 X23.631
G1 Y420.471
G1 X30.23
G1 Y423.77
G1 X36.831
G1 Y420.471
G1 X43.431
G1 Y423.77
G1 X50.03
G1 Y420.471
G1 X56.631
G1 Y423.77
G1 X63.23
G1 Y420.471
G1 X69.831
G1 Y423.77
G1 X76.431
G1 Y420.471
G1 X83.031
G1 Y423.77
G1 X89.631
G1 Y420.471
G1 X96.23
G1 Y423.77
G1 X102.831
G1 Y420.471
G1 X109.431
G1 Y423.77
G1 X116.031
G1 Y420.471
G1 X122.631
G1 Y423.77
G1 X129.23
G1 Y420.471
G1 X135.831
G1 Y423.77
G1 X150.936
G1 Y434.17
G1 X147.635
G1 Y440.771
G1 X150.936
; Layer Trayectorias_de_corte_1 Pass 3 of 9
G1 Y447.37
G1 X147.635
G1 Y453.971
G1 X150.936
G1 Y460.571
G1 X147.635
G1 Y467.17
G1 X150.936
G1 Y473.771
G1 X147.635
G1 Y480.37
G1 X150.936
G1 Y486.971
G1 X147.635
G1 Y493.571
G1 X150.936
G1 Y500.17
G1 X147.635
G1 Y506.771
G1 X150.936
G1 Y517.171
G1 X8.525
G1 Y506.771
G1 X11.825
G1 Y500.17
G1 X8.525
G1 Y493.571
G1 X11.825
G1 Y486.971
G1 X8.525
G1 Y480.37
G1 X11.825
G1 Y473.771
G1 X8.525
G1 Y467.17
G1 X11.825
G1 Y460.571
G1 X8.525
G1 Y453.971
G1 X11.825
G1 Y447.37
G1 X8.525
G1 Y440.771
G1 X11.825
G1 Y434.17
G1 X8.525
G1 Y423.77
G1 X11.825
G1 X23.631
G1 Y420.471
G1 X30.23
G1 Y423.77
G1 X36.831
G1 Y420.471
G1 X43.431
G1 Y423.77
G1 X50.03
G1 Y420.471
G1 X56.631
G1 Y423.77
G1 X63.23
G1 Y420.471
G1 X69.831
G1 Y423.77
G1 X76.431
G1 Y420.471
G1 X83.031
G1 Y423.77
G1 X89.631
G1 Y420.471
G1 X96.23
G1 Y423.77
G1 X102.831
G1 Y420.471
G1 X109.431
G1 Y423.77
G1 X116.031
G1 Y420.471
G1 X122.631
G1 Y423.77
G1 X129.23
G1 Y420.471
G1 X135.831
G1 Y423.77
G1 X150.936
G1 Y434.17
G1 X147.635
G1 Y440.771
G1 X150.936
; Layer Trayectorias_de_corte_1 Pass 4 of 9
G1 Y447.37
G1 X147.635
G1 Y453.971
G1 X150.936
G1 Y460.571
G1 X147.635
G1 Y467.17
G1 X150.936
G1 Y473.771
G1 X147.635
G1 Y480.37
G1 X150.936
G1 Y486.971
G1 X147.635
G1 Y493.571
G1 X150.936
G1 Y500.17
G1 X147.635
G1 Y506.771
G1 X150.936
G1 Y517.171
G1 X8.525
G1 Y506.771
G1 X11.825
G1 Y500.17
G1 X8.525
G1 Y493.571
G1 X11.825
G1 Y486.971
G1 X8.525
G1 Y480.37
G1 X11.825
G1 Y473.771
G1 X8.525
G1 Y467.17
G1 X11.825
G1 Y460.571
G1 X8.525
G1 Y453.971
G1 X11.825
G1 Y447.37
G1 X8.525
G1 Y440.771
G1 X11.825
G1 Y434.17
G1 X8.525
G1 Y423.77
G1 X11.825
G1 X23.631
G1 Y420.471
G1 X30.23
G1 Y423.77
G1 X36.831
G1 Y420.471
G1 X43.431
G1 Y423.77
G1 X50.03
G1 Y420.471
G1 X56.631
G1 Y423.77
G1 X63.23
G1 Y420.471
G1 X69.831
G1 Y423.77
G1 X76.431
G1 Y420.471
G1 X83.031
G1 Y423.77
G1 X89.631
G1 Y420.471
G1 X96.23
G1 Y423.77
G1 X102.831
G1 Y420.471
G1 X109.431
G1 Y423.77
G1 X116.031
G1 Y420.471
G1 X122.631
G1 Y423.77
G1 X129.23
G1 Y420.471
G1 X135.831
G1 Y423.77
G1 X150.936
G1 Y434.17
G1 X147.635
G1 Y440.771
G1 X150.936
; Layer Trayectorias_de_corte_1 Pass 5 of 9
G1 Y447.37
G1 X147.635
G1 Y453.971
G1 X150.936
G1 Y460.571
G1 X147.635
G1 Y467.17
G1 X150.936
G1 Y473.771
G1 X147.635
G1 Y480.37
G1 X150.936
G1 Y486.971
G1 X147.635
G1 Y493.571
G1 X150.936
G1 Y500.17
G1 X147.635
G1 Y506.771
G1 X150.936
G1 Y517.171
G1 X8.525
G1 Y506.771
G1 X11.825
G1 Y500.17
G1 X8.525
G1 Y493.571
G1 X11.825
G1 Y486.971
