; LightBurn 1.3.01
; GRBL device profile, absolute coords
; Bounds: X5.75 Y10 to X390.75 Y373.25
G00 G17 G40 G21 G54
G90
M4
; Scan @ 2500.002 mm/min, 100% power
M8
G0 X44.35Y12.75
; Layer Grabado_fill_1
G91
G0 X1.041
G1 X0.184F2500S1000
G0 X1.041
G0 X0.071Y0.1
G0 X-1.041
G1 X-0.329
G0 X-1.042
G0 X-0.074Y0.1
G0 X1.042
G1 X0.474
G0 X1.041
G0 X0.066Y0.1
G0 X-1.042
G1 X-0.615
G0 X-1.041
G0 X-0.076Y0.1
G0 X1.042
G1 X0.75
G0 X1.042
G0 X0.059Y0.1
G0 X-1.042
G1 X-0.877
G0 X-1.041
G0 X-0.017Y0.1
G0 X1.041
G1 X0.945
G0 X1.041
G0 X-0.016Y0.1
G0 X-1.042
G1 X-0.885
G0 X-1.042
G0 X0.073Y0.1
G0 X1.042
G1 X0.722
G0 X1.042
G0 X-0.089Y0.1
G0 X-1.042
G1 X-0.559
G0 X-1.041
G0 X0.064Y0.1
G0 X1.042
G1 X0.431
G0 X1.041
G0 X-0.059Y0.1
G0 X-1.042
G1 X-0.322
G0 X-1.041
G0 X0.049Y0.1
G0 X1.042
G1 X0.216
G0 X1.041
G0 X-0.06Y0.1
G0 X-1.042
G1 X-0.104
G0 X-1.042
G0 X-0.538Y2.1
G0 X1.042
G1 X1.247
G0 X1.042
G0 X0.29Y0.1
G0 X-1.041
G1 X-1.846
G0 X-1.042
G0 X-0.219Y0.1
G0 X1.041
G1 X2.262
G0 X1.042
G0 X0.179Y0.1
G0 X-1.042
G1 X-2.621
G0 X-1.042
G0 X-0.18Y0.1
G0 X1.041
G1 X2.968
G0 X1.042
G0 X5.965Y0.1
G0 X-1.041
G1 X-0.848
G1 X-4.995F5000S0
G1 X-3.217F2500S1000
G1 X-4.861F5000S0
G1 X-1.144F2500S1000
G0 X-1.041
G0 X-0.389Y0.1
G0 X1.042
G1 X1.879
G1 X4.391F5000S0
G1 X3.463F2500S1000
G1 X4.443F5000S0
G1 X1.782F2500S1000
G0 X1.042
G0 X0.353Y0.1
G0 X-1.041
G1 X-2.495
G1 X-3.961F5000S0
G1 X-3.709F2500S1000
G1 X-4.014F5000S0
G1 X-2.48F2500S1000
G0 X-1.041
G0 X-0.296Y0.1
G0 X1.041
G1 X2.972
G1 X3.713F5000S0
G1 X3.905F2500S1000
G1 X3.659F5000S0
G1 X2.969F2500S1000
G0 X1.041
G0 X0.245Y0.1
G0 X-1.042
G1 X-3.363
G1 X-3.421F5000S0
G1 X-4.086F2500S1000
G1 X-3.453F5000S0
G1 X-3.329F2500S1000
G0 X-1.042
G0 X-0.124Y0.1
G0 X1.042
G1 X3.602
G1 X3.222F5000S0
G1 X4.255F2500S1000
G1 X3.2F5000S0
G1 X3.625F2500S1000
G0 X1.042
G0 X0.029Y0.1
G0 X-1.042
G1 X-3.76
G1 X-3.006F5000S0
G1 X-4.421F2500S1000
G1 X-3.02F5000S0
G1 X-3.784F2500S1000
G0 X-1.041
G0 X0.012Y0.1
G0 X1.041
G1 X3.887
G1 X2.838F5000S0
G1 X4.551F2500S1000
G1 X2.838F5000S0
G1 X3.84F2500S1000
G0 X1.041
G0 X-0.069Y0.1
G0 X-1.042
G1 X-3.863
G1 X-2.685F5000S0
G1 X-4.674F2500S1000
G1 X-2.676F5000S0
G1 X-3.912F2500S1000
G0 X-1.042
G0 X0.115Y0.1
G0 X1.042
G1 X3.892
G1 X2.525F5000S0
G1 X4.791F2500S1000
G1 X2.54F5000S0
G1 X3.853F2500S1000
G0 X1.042
G0 X-0.164Y0.1
G0 X-1.042
G1 X-3.774
G1 X-2.394F5000S0
G1 X-4.901F2500S1000
G1 X-2.396F5000S0
G1 X-3.827F2500S1000
G0 X-1.042
G0 X0.19Y0.1
G0 X1.042
G1 X3.717
G1 X2.27F5000S0
G1 X4.998F2500S1000
G1 X2.273F5000S0
G1 X3.581F2500S1000
G0 X1.041
G0 X-0.153Y0.1
G0 X-1.042
G1 X-3.495
G1 X-2.162F5000S0
G1 X-5.078F2500S1000
G1 X-2.169F5000S0
G1 X-3.577F2500S1000
G0 X-1.042
G0 X-5.083Y0.1
G0 X1.042
G1 X1.285
G1 X3.941F5000S0
G1 X3.495F2500S1000
G1 X2.072F5000S0
G1 X5.154F2500S1000
G1 X2.054F5000S0
G1 X3.464F2500S1000
G1 X3.884F5000S0
G1 X1.218F2500S1000
G0 X1.042
G0 X0.418Y0.1
G0 X-1.042
G1 X-1.975
G1 X-3.643F5000S0
G1 X-3.419F2500S1000
G1 X-1.969F5000S0
G1 X-5.211F2500S1000
G1 X-1.986F5000S0
G1 X-3.425F2500S1000
G1 X-3.672F5000S0
G1 X-2.047F2500S1000
G0 X-1.041
G0 X-0.327Y0.1
G0 X1.041
G1 X2.654
G1 X3.496F5000S0
G1 X3.382F2500S1000
G1 X1.901F5000S0
G1 X5.266F2500S1000
G1 X1.886F5000S0
G1 X3.372F2500S1000
G1 X3.513F5000S0
G1 X2.504F2500S1000
G0 X1.042
G0 X0.245Y0.1
G0 X-1.042
G1 X-2.929
G1 X-3.413F5000S0
G1 X-3.344F2500S1000
G1 X-1.813F5000S0
G1 X-5.305F2500S1000
G1 X-1.836F5000S0
G1 X-3.334F2500S1000
G1 X-3.363F5000S0
G1 X-3.067F2500S1000
G0 X-1.042
G0 X-0.062Y0.1
G0 X1.042
G1 X3.278
G1 X3.292F5000S0
G1 X3.297F2500S1000
G1 X1.783F5000S0
G1 X5.336F2500S1000
G1 X1.756F5000S0
G1 X3.311F2500S1000
G1 X3.304F5000S0
G1 X3.298F2500S1000
G0 X1.041
G0 X0.042Y0.1
G0 X-1.042
G1 X-3.463
G1 X-3.251F5000S0
G1 X-3.274F2500S1000
G1 X-1.709F5000S0
G1 X-5.36F2500S1000
G1 X-1.732F5000S0
G1 X-3.262F2500S1000
G1 X-3.219F5000S0
G1 X-3.438F2500S1000
G0 X-1.042
G0 X0.058Y0.1
G0 X1.042
G1 X3.486
G1 X3.17F5000S0
G1 X3.246F2500S1000
G1 X1.692F5000S0
G1 X5.366F2500S1000
G1 X1.668F5000S0
G1 X3.238F2500S1000
G1 X3.198F5000S0
G1 X3.508F2500S1000
G0 X1.042
G0 X-0.448Y0.1
G0 X-1.042
G1 X-3.182
G1 X-3.133F5000S0
G1 X-3.202F2500S1000
G1 X-1.641F5000S0
G1 X-5.371F2500S1000
G1 X-1.663F5000S0
G1 X-3.219F2500S1000
G1 X-3.12F5000S0
G1 X-3.236F2500S1000
G0 X-1.041
G0 X0.328Y0.1
G0 X1.042
G1 X3.005
G1 X3.068F5000S0
G1 X3.195F2500S1000
G1 X1.641F5000S0
G1 X5.366F2500S1000
G1 X1.633F5000S0
G1 X3.164F2500S1000
G1 X3.081F5000S0
G1 X2.972F2500S1000
G0 X1.041
G0 X-0.253Y0.1
G0 X-1.041
G1 X-2.814
G1 X-3.03F5000S0
G1 X-3.133F2500S1000
G1 X-1.625F5000S0
G1 X-5.363F2500S1000
G1 X-1.618F5000S0
G1 X-3.176F2500S1000
G1 X-3.022F5000S0
G1 X-2.799F2500S1000
G0 X-1.042
G0 X0.219Y0.1
G0 X1.042
G1 X2.666
G1 X2.976F5000S0
G1 X3.158F2500S1000
G1 X1.593F5000S0
G1 X5.359F2500S1000
G1 X1.625F5000S0
G1 X3.101F2500S1000
G1 X2.99F5000S0
G1 X2.682F2500S1000
G0 X1.042
G0 X-0.166Y0.1
G0 X-1.041
G1 X-2.594
G1 X-2.947F5000S0
G1 X-3.068F2500S1000
G1 X-1.64F5000S0
G1 X-5.337F2500S1000
G1 X-1.585F5000S0
G1 X-3.146F2500S1000
G1 X-2.924F5000S0
G1 X-2.577F2500S1000
G0 X-1.041
G0 X0.138Y0.1
G0 X1.042
G1 X2.504
G1 X2.883F5000S0
G1 X3.125F2500S1000
G1 X1.592F5000S0
G1 X5.311F2500S1000
G1 X1.653F5000S0
G1 X3.043F2500S1000
G1 X2.911F5000S0
G1 X2.503F2500S1000
G0 X1.041
G0 X-0.123Y0.1
G0 X-1.041
G1 X-2.441
G1 X-2.877F5000S0
G1 X-3.017F2500S1000
G1 X-1.673F5000S0
G1 X-5.279F2500S1000
G1 X-1.6F5000S0
G1 X-3.105F2500S1000
G1 X-2.846F5000S0
G1 X-2.441F2500S1000
G0 X-1.042
G0 X0.098Y0.1
G0 X1.042
G1 X2.389
G1 X2.812F5000S0
G1 X3.097F2500S1000
G1 X1.619F5000S0
G1 X5.23F2500S1000
G1 X1.699F5000S0
G1 X3F2500S1000
G1 X2.845F5000S0
G1 X2.378F2500S1000
G0 X1.042
G0 X-0.105Y0.1
G0 X-1.041
G1 X-2.322
G1 X-2.813F5000S0
G1 X-2.983F2500S1000
G1 X-1.727F5000S0
G1 X-5.18F2500S1000
G1 X-1.645F5000S0
G1 X-3.082F2500S1000
G1 X-2.779F5000S0
G1 X-2.34F2500S1000
G0 X-1.042
G0 X0.079Y0.1
G0 X1.041
G1 X2.296
G1 X2.755F5000S0
G1 X3.058F2500S1000
G1 X1.687F5000S0
G1 X5.117F2500S1000
G1 X1.763F5000S0
G1 X2.971F2500S1000
G1 X2.786F5000S0
G1 X2.28F2500S1000
G0 X1.042
G0 X-0.08Y0.1
G0 X-1.041
G1 X-2.235
G1 X-2.76F5000S0
G1 X-2.952F2500S1000
G1 X-1.812F5000S0
G1 X-5.043F2500S1000
G1 X-1.737F5000S0
G1 X-3.043F2500S1000
G1 X-2.724F5000S0
G1 X-2.249F2500S1000
G0 X-1.042
G0 X-5.111Y0.1
G0 X1.042
G1 X0.213
G1 X4.965F5000S0
G1 X2.211F2500S1000
G1 X2.696F5000S0
G1 X3.028F2500S1000
G1 X1.788F5000S0
G1 X4.967F2500S1000
G1 X1.863F5000S0
G1 X2.933F2500S1000
G1 X2.737F5000S0
G1 X2.191F2500S1000
G1 X4.791F5000S0
G1 X1.19F2500S1000
G0 X1.041
G0 X0.324Y0.1
G0 X-1.041
G1 X-1.889
G1 X-4.471F5000S0
G1 X-2.159F2500S1000
G1 X-2.712F5000S0
G1 X-2.923F2500S1000
G1 X-1.93F5000S0
G1 X-4.866F2500S1000
G1 X-1.853F5000S0
G1 X-3.01F2500S1000
G1 X-2.672F5000S0
G1 X-2.172F2500S1000
G1 X-4.436F5000S0
G1 X-1.602F2500S1000
G0 X-1.042
G0 X-0.351Y0.1
G0 X1.042
G1 X2.226
G1 X4.224F5000S0
G1 X2.134F2500S1000
G1 X2.639F5000S0
G1 X2.988F2500S1000
G1 X1.934F5000S0
G1 X4.761F2500S1000
G1 X2.014F5000S0
G1 X2.897F2500S1000
G1 X2.688F5000S0
G1 X2.127F2500S1000
G1 X4.256F5000S0
G1 X2.387F2500S1000
G0 X1.042
G0 X0.187Y0.1
G0 X-1.042
G1 X-2.794
G1 X-4.091F5000S0
G1 X-2.084F2500S1000
G1 X-2.669F5000S0
G1 X-2.871F2500S1000
G1 X-2.103F5000S0
G1 X-4.651F2500S1000
G1 X-2.02F5000S0
G1 X-2.966F2500S1000
G1 X-2.614F5000S0
G1 X-2.101F2500S1000
G1 X-4.068F5000S0
G1 X-2.686F2500S1000
G0 X-1.041
G0 X-0.226Y0.1
G0 X1.041
G1 X3.08
G1 X3.946F5000S0
G1 X2.066F2500S1000
G1 X2.591F5000S0
G1 X2.946F2500S1000
G1 X2.115F5000S0
G1 X4.533F2500S1000
G1 X2.19F5000S0
G1 X2.855F2500S1000
G1 X2.64F5000S0
G1 X2.056F2500S1000
G1 X3.945F5000S0
G1 X3.136F2500S1000
G0 X1.041
G0 X-0.008Y0.1
G0 X-1.042
G1 X-3.279
G1 X-3.827F5000S0
G1 X-2.029F2500S1000
G1 X-2.617F5000S0
G1 X-2.825F2500S1000
G1 X-2.299F5000S0
G1 X-4.407F2500S1000
G1 X-2.216F5000S0
G1 X-2.929F2500S1000
G1 X-2.559F5000S0
G1 X-2.031F2500S1000
G1 X-3.858F5000S0
G1 X-3.23F2500S1000
G0 X-1.041
G0 X1.529Y0.1
G0 X1.042
G1 X1.821
G1 X3.769F5000S0
G1 X1.997F2500S1000
G1 X2.54F5000S0
G1 X2.901F2500S1000
G1 X2.342F5000S0
G1 X4.248F2500S1000
G1 X2.431F5000S0
G1 X2.805F2500S1000
G1 X2.585F5000S0
G1 X1.996F2500S1000
G1 X3.74F5000S0
G1 X1.978F2500S1000
G0 X1.041
G0 X-0.313Y0.1
G0 X-1.042
G1 X-1.768
G1 X-3.671F5000S0
G1 X-1.963F2500S1000
G1 X-2.547F5000S0
G1 X-2.791F2500S1000
G1 X-2.564F5000S0
G1 X-4.087F2500S1000
G1 X-2.47F5000S0
G1 X-2.877F2500S1000
G1 X-2.517F5000S0
G1 X-1.964F2500S1000
G1 X-3.692F5000S0
G1 X-1.661F2500S1000
G0 X-1.042
G0 X0.224Y0.1
G0 X1.042
G1 X1.529
G1 X3.63F5000S0
G1 X1.928F2500S1000
G1 X2.49F5000S0
G1 X2.86F2500S1000
G1 X2.611F5000S0
G1 X3.914F2500S1000
G1 X2.698F5000S0
G1 X2.78F2500S1000
G1 X2.509F5000S0
G1 X1.936F2500S1000
G1 X3.608F5000S0
G1 X1.62F2500S1000
G0 X1.042
G0 X-0.134Y0.1
G0 X-1.042
G1 X-1.561
G1 X-3.548F5000S0
G1 X-1.915F2500S1000
G1 X-2.459F5000S0
G1 X-2.774F2500S1000
G1 X-2.845F5000S0
G1 X-3.736F2500S1000
G1 X-2.764F5000S0
G1 X-2.833F2500S1000
G1 X-2.466F5000S0
G1 X-1.9F2500S1000
G1 X-3.562F5000S0
G1 X-1.453F2500S1000
G0 X-1.041
G0 X0.134Y0.1
G0 X1.041
G1 X1.393
G1 X3.501F5000S0
G1 X1.877F2500S1000
G1 X2.434F5000S0
G1 X2.807F2500S1000
G1 X2.949F5000S0
G1 X3.501F2500S1000
G1 X3.024F5000S0
G1 X2.77F2500S1000
G1 X2.408F5000S0
G1 X1.894F2500S1000
G1 X3.494F5000S0
G1 X1.524F2500S1000
G0 X1.042
G0 X-0.113Y0.1
G0 X-1.041
G1 X-1.463
G1 X-3.458F5000S0
G1 X-1.874F2500S1000
G1 X-2.357F5000S0
G1 X-2.765F2500S1000
G1 X-3.202F5000S0
G1 X-3.261F2500S1000
G1 X-3.141F5000S0
G1 X-2.784F2500S1000
G1 X-2.397F5000S0
G1 X-1.854F2500S1000
G1 X-3.445F5000S0
G1 X-1.344F2500S1000
G0 X-1.042
G0 X0.104Y0.1
G0 X1.042
G1 X1.3
G1 X3.393F5000S0
G1 X1.836F2500S1000
G1 X2.36F5000S0
G1 X2.763F2500S1000
G1 X3.331F5000S0
G1 X3.022F2500S1000
G1 X3.398F5000S0
G1 X2.742F2500S1000
G1 X2.315F5000S0
G1 X1.856F2500S1000
G1 X3.412F5000S0
G1 X1.379F2500S1000
G0 X1.042
G0 X-0.138Y0.1
G0 X-1.042
G1 X-1.291
G1 X-3.357F5000S0
G1 X-1.841F2500S1000
G1 X-2.279F5000S0
G1 X-2.716F2500S1000
G1 X-3.629F5000S0
G1 X-2.73F2500S1000
G1 X-3.56F5000S0
G1 X-2.736F2500S1000
G1 X-2.316F5000S0
G1 X-1.825F2500S1000
G1 X-3.333F5000S0
G1 X-1.268F2500S1000
G0 X-1.042
G0 X0.088Y0.1
G0 X1.042
G1 X1.229
G1 X3.28F5000S0
G1 X1.809F2500S1000
G1 X2.277F5000S0
G1 X2.708F2500S1000
G1 X3.828F5000S0
G1 X2.378F2500S1000
G1 X3.881F5000S0
G1 X2.695F2500S1000
G1 X2.24F5000S0
G1 X1.825F2500S1000
G1 X3.302F5000S0
G1 X1.239F2500S1000
G0 X1.042
G0 X-0.094Y0.1
G0 X-1.042
G1 X-1.176
G1 X-3.266F5000S0
G1 X-1.81F2500S1000
G1 X-2.196F5000S0
G1 X-2.65F2500S1000
G1 X-4.161F5000S0
G1 X-2.027F2500S1000
G1 X-4.102F5000S0
G1 X-2.682F2500S1000
G1 X-2.229F5000S0
G1 X-1.793F2500S1000
G1 X-3.233F5000S0
G1 X-1.206F2500S1000
G0 X-1.042
G0 X0.065Y0.1
G0 X1.042
G1 X1.182
G1 X3.172F5000S0
G1 X1.794F2500S1000
G1 X2.175F5000S0
G1 X2.645F2500S1000
G1 X4.452F5000S0
G1 X1.547F2500S1000
G1 X4.515F5000S0
G1 X2.6F2500S1000
G1 X2.163F5000S0
G1 X1.794F2500S1000
G1 X3.22F5000S0
G1 X1.133F2500S1000
G0 X1.042
G0 X-0.066Y0.1
G0 X-1.042
G1 X-1.098
G1 X-3.167F5000S0
G1 X-1.779F2500S1000
G1 X-2.136F5000S0
G1 X-2.545F2500S1000
G1 X-5.011F5000S0
G1 X-0.8F2500S1000
G1 X-4.932F5000S0
G1 X-2.611F2500S1000
G1 X-2.127F5000S0
G1 X-1.789F2500S1000
G1 X-3.118F5000S0
G1 X-1.151F2500S1000
G0 X-1.042
G0 X0.046Y0.1
G0 X1.041
G1 X1.138
G1 X3.063F5000S0
G1 X1.768F2500S1000
G1 X2.084F5000S0
G1 X2.558F2500S1000
G1 X11.034F5000S0
G1 X2.458F2500S1000
G1 X2.109F5000S0
G1 X1.763F2500S1000
G1 X3.116F5000S0
G1 X1.075F2500S1000
G0 X1.041
G0 X-0.047Y0.1
G0 X-1.042
G1 X-1.047
G1 X-3.074F5000S0
G1 X-1.747F2500S1000
G1 X-2.083F5000S0
G1 X-2.356F2500S1000
G1 X-11.343F5000S0
G1 X-2.502F2500S1000
G1 X-2.042F5000S0
G1 X-1.753F2500S1000
G1 X-3.011F5000S0
G1 X-1.114F2500S1000
G0 X-1.042
G0 X0.045Y0.1
G0 X1.041
G1 X1.091
G1 X2.95F5000S0
G1 X1.749F2500S1000
G1 X2.028F5000S0
G1 X2.378F2500S1000
G1 X11.712F5000S0
G1 X2.215F2500S1000
G1 X2.093F5000S0
G1 X1.722F2500S1000
G1 X3.028F5000S0
G1 X1.025F2500S1000
G0 X1.042
G0 X-0.035Y0.1
G0 X-1.041
G1 X-1.007
G1 X-2.978F5000S0
G1 X-1.7F2500S1000
G1 X-2.136F5000S0
G1 X-1.998F2500S1000
G1 X-12.159F5000S0
G1 X-2.139F2500S1000
G1 X-2.106F5000S0
G1 X-1.732F2500S1000
G1 X-2.895F5000S0
G1 X-1.079F2500S1000
G0 X-1.041
G0 X0.027Y0.1
G0 X1.042
G1 X1.061
G1 X2.845F5000S0
G1 X1.704F2500S1000
G1 X2.267F5000S0
G1 X1.761F2500S1000
G1 X12.753F5000S0
G1 X1.633F2500S1000
G1 X2.248F5000S0
G1 X1.679F2500S1000
G1 X2.928F5000S0
G1 X0.998F2500S1000
G0 X1.042
G0 X-0.024Y0.1
G0 X-1.042
G1 X-0.985
G1 X-2.883F5000S0
G1 X-1.641F2500S1000
G1 X-2.686F5000S0
G1 X-0.737F2500S1000
G1 X-13.808F5000S0
G1 X-1.042F2500S1000
G1 X-2.529F5000S0
G1 X-1.685F2500S1000
G1 X-2.786F5000S0
G1 X-1.043F2500S1000
G0 X-1.042
G0 X0.015Y0.1
G0 X1.041
G1 X1.028
G1 X2.734F5000S0
G1 X1.67F2500S1000
G1 X20.948F5000S0
G1 X1.613F2500S1000
G1 X2.831F5000S0
G1 X0.975F2500S1000
G0 X1.041
G0 X-0.012Y0.1
G0 X-1.042
G1 X-0.963
G1 X-2.781F5000S0
G1 X-1.584F2500S1000
G1 X-21.113F5000S0
G1 X-1.636F2500S1000
G1 X-2.682F5000S0
G1 X-1.016F2500S1000
G0 X-1.042
G0 X0.011Y0.1
G0 X1.042
G1 X0.999
G1 X2.632F5000S0
G1 X1.604F2500S1000
G1 X21.297F5000S0
G1 X1.542F2500S1000
G1 X2.725F5000S0
G1 X0.96F2500S1000
G0 X1.041
G0 Y0.1
G0 X-1.044
G1 X-0.958
G1 X-2.655F5000S0
G1 X-1.508F2500S1000
G1 X-21.487F5000S0
G1 X-1.583F2500S1000
G1 X-2.578F5000S0
G1 X-0.983F2500S1000
G0 X-1.041
G0 X-0.007Y0.1
G0 X1.042
G1 X0.977
G1 X2.524F5000S0
G1 X1.54F2500S1000
G1 X21.698F5000S0
G1 X1.476F2500S1000
G1 X2.598F5000S0
G1 X0.947F2500S1000
G0 X1.041
G0 X0.009Y0.1
G0 X-1.042
G1 X-0.942
G1 X-2.532F5000S0
G1 X-1.423F2500S1000
G1 X-21.947F5000S0
G1 X-1.488F2500S1000
G1 X-2.485F5000S0
G1 X-0.958F2500S1000
G0 X-1.041
G0 X-0.007Y0.1
G0 X1.042
G1 X0.937
G1 X2.436F5000S0
G1 X1.448F2500S1000
G1 X22.195F5000S0
G1 X1.377F2500S1000
G1 X2.46F5000S0
G1 X0.936F2500S1000
G0 X1.042
G0 X0.009Y0.1
G0 X-1.042
G1 X-0.932
G1 X-2.385F5000S0
G1 X-1.314F2500S1000
G1 X-22.496F5000S0
G1 X-1.375F2500S1000
G1 X-2.385F5000S0
G1 X-0.93F2500S1000
G0 X-1.042
G0 X-0.021Y0.1
G0 X1.042
G1 X0.925
G1 X2.334F5000S0
G1 X1.28F2500S1000
G1 X22.835F5000S0
G1 X1.244F2500S1000
G1 X2.317F5000S0
G1 X0.914F2500S1000
G0 X1.041
G0 X0.024Y0.1
G0 X-1.042
G1 X-0.905
G1 X-2.252F5000S0
G1 X-1.168F2500S1000
G1 X-23.198F5000S0
G1 X-1.181F2500S1000
G1 X-2.278F5000S0
G1 X-0.911F2500S1000
G0 X-1.042
G0 X-0.02Y0.1
G0 X1.041
G1 X0.895
G1 X2.228F5000S0
G1 X1.02F2500S1000
G1 X23.639F5000S0
G1 X1.045F2500S1000
G1 X2.214F5000S0
G1 X0.897F2500S1000
G0 X1.041
G0 X0.024Y0.1
G0 X-1.042
G1 X-0.883
G1 X-2.242F5000S0
G1 X-0.838F2500S1000
G1 X-24.148F5000S0
G1 X-0.766F2500S1000
G1 X-2.226F5000S0
G1 X-0.879F2500S1000
G0 X-1.041
G0 X-0.035Y0.1
G0 X1.041
G1 X0.877
G1 X2.294F5000S0
G1 X0.397F2500S1000
G1 X24.775F5000S0
G1 X0.458F2500S1000
G1 X2.39F5000S0
G1 X0.851F2500S1000
G0 X1.041
G0 X0.045Y0.1
G0 X-1.042
G1 X-0.839
G1 X-30.414F5000S0
G1 X-0.868F2500S1000
G0 X-1.042
G0 X-0.036Y0.1
G0 X1.042
G1 X0.857
G1 X30.517F5000S0
G1 X0.827F2500S1000
G0 X1.042
G0 X0.044Y0.1
G0 X-1.042
G1 X-0.808
G1 X-30.627F5000S0
G1 X-0.846F2500S1000
G0 X-1.042
G0 X-0.041Y0.1
G0 X1.041
G1 X0.825
G1 X30.771F5000S0
G1 X0.776F2500S1000
G0 X1.041
G0 X0.075Y0.1
G0 X-1.042
G1 X-0.77
G1 X-30.917F5000S0
G1 X-0.811F2500S1000
G0 X-1.042
G0 X-0.055Y0.1
G0 X1.042
G1 X0.793
G1 X31.07F5000S0
G1 X0.765F2500S1000
G0 X1.042
G0 X0.074Y0.1
G0 X-1.041
G1 X-0.746
G1 X-31.251F5000S0
G1 X-0.772F2500S1000
G0 X-1.042
G0 X-0.069Y0.1
G0 X1.042
G1 X0.751
G1 X31.436F5000S0
G1 X0.742F2500S1000
G0 X1.042
G0 X0.104Y0.1
G0 X-1.042
G1 X-0.752
G1 X-31.641F5000S0
G1 X-0.724F2500S1000
G0 X-1.042
G0 X-0.089Y0.1
G0 X1.042
G1 X0.692
G1 X31.857F5000S0
G1 X0.792F2500S1000
G0 X1.042
G0 X0.137Y0.1
G0 X-1.042
G1 X-0.834
G1 X-32.104F5000S0
G1 X-0.645F2500S1000
G0 X-1.042
G0 X-0.099Y0.1
G0 X1.042
G1 X0.591
G1 X32.352F5000S0
G1 X0.824F2500S1000
G0 X1.042
G0 X0.034Y0.1
G0 X-1.042
G1 X-0.748
G1 X-32.617F5000S0
G1 X-0.529F2500S1000
G0 X-1.042
G0 X-0.083Y0.1
G0 X1.042
G1 X0.398
G1 X32.998F5000S0
G1 X0.582F2500S1000
G0 X1.042
G0 X-0.035Y0.1
G0 X-1.042
G1 X-0.314
G1 X-33.446F5000S0
G1 X-0.263F2500S1000
G0 X-1.041
G0 X15.24Y0.1
G0 X1.042
G1 X2.829
G0 X1.042
G0 X1.351Y0.1
G0 X-1.041
G1 X-5.494
G0 X-1.042
G0 X-1.278Y0.1
G0 X1.042
G1 X8.338
G0 X1.041
G0 X1.434Y0.1
G0 X-1.042
G1 X-11.031
G0 X-1.041
G0 X-1.589Y0.1
G0 X1.042
G1 X13.99
G0 X1.042
G0 X1.48Y0.1
G0 X-1.042
G1 X-6.399
G1 X-1.096F5000S0
G1 X-2.088F2500S1000
G1 X-1.459F5000S0
G1 X-5.949F2500S1000
G0 X-1.042
G0 X-1.521Y0.1
G0 X1.042
G1 X6.054
G1 X2.766F5000S0
G1 X2.324F2500S1000
G1 X2.516F5000S0
G1 X6.488F2500S1000
G0 X1.042
G0 X1.594Y0.1
G0 X-1.042
G1 X-6.34
G1 X-4.132F5000S0
G1 X-2.558F2500S1000
G1 X-4.044F5000S0
G1 X-6.154F2500S1000
G0 X-1.042
G0 X-1.203Y0.1
G0 X1.041
G1 X5.976
G1 X5.317F5000S0
G1 X2.794F2500S1000
G1 X5.426F5000S0
G1 X6.393F2500S1000
G0 X1.041
G0 X1.171Y0.1
G0 X-1.041
G1 X-6.001
G1 X-6.862F5000S0
G1 X-0.726F2500S1000
G1 X-0.143S0
G1 X-1.398S1000
G1 X-0.123S0
G1 X-0.64S1000
G1 X-6.59F5000S0
G1 X-4.79F2500S1000
G0 X-1.042
G0 X-0.104Y0.1
G0 X1.042
G1 X3.507
G1 X7.868F5000S0
G1 X0.639F2500S1000
G1 X0.212S0
G1 X1.444S1000
G1 X0.25S0
G1 X0.72S1000
G1 X8.261F5000S0
G1 X4.686F2500S1000
G0 X1.042
G0 X0.116Y0.1
G0 X-1.042
G1 X-3.331
G1 X-9.605F5000S0
G1 X-0.722F2500S1000
G1 X-0.349S0
G1 X-1.49S1000
G1 X-0.303S0
G1 X-0.636S1000
G1 X-9.201F5000S0
G1 X-2.146F2500S1000
G0 X-1.042
G0 X-0.066Y0.1
G0 X1.042
G1 X0.819
G1 X10.485F5000S0
G1 X0.635F2500S1000
G1 X0.393S0
G1 X0.463S1000
G1 X0.069S0
G1 X1.003S1000
G1 X0.452S0
G1 X0.721S1000
G1 X11.041F5000S0
G1 X1.86F2500S1000
G0 X1.041
G0 X0.079Y0.1
G0 X-1.042
G1 X-0.861
G1 X-11.991F5000S0
G1 X-0.721F2500S1000
G1 X-0.554S0
G1 X-1.02S1000
G1 X-0.114S0
G1 X-0.447S1000
G1 X-0.482S0
G1 X-0.634S1000
G1 X-10.482F5000S0
G1 X-0.779F2500S1000
G0 X-1.041
G0 X-0.066Y0.1
G0 X1.041
G1 X0.828
G1 X10.39F5000S0
G1 X0.632F2500S1000
G1 X0.573S0
G1 X0.446S1000
G1 X0.138S0
G1 X0.466S1000
G1 X0.047S0
G1 X0.53S1000
G1 X0.656S0
G1 X0.72S1000
G1 X11.939F5000S0
G1 X0.865F2500S1000
G0 X1.041
G0 X0.079Y0.1
G0 X-1.042
G1 X-0.941
G1 X-11.814F5000S0
G1 X-0.72F2500S1000
G1 X-0.758S0
G1 X-0.498S1000
G1 X-0.129S0
G1 X-0.439S1000
G1 X-0.159S0
G1 X-0.447S1000
G1 X-0.663S0
G1 X-0.63S1000
G1 X-10.269F5000S0
G1 X-0.906F2500S1000
G0 X-1.042
G0 X-0.066Y0.1
G0 X1.042
G1 X0.989
G1 X10.143F5000S0
G1 X0.629F2500S1000
G1 X0.752S0
G1 X0.447S1000
G1 X0.182S0
G1 X0.426S1000
G1 X0.166S0
G1 X0.497S1000
G1 X0.861S0
G1 X0.719S1000
G1 X11.673F5000S0
G1 X1.034F2500S1000
G0 X1.041
G0 X0.079Y0.1
G0 X-1.042
G1 X-0.59
G1 X-0.042S0
G1 X-0.499S1000
G1 X-11.527F5000S0
G1 X-0.719F2500S1000
G1 X-0.962S0
G1 X-0.499S1000
G1 X-0.194S0
G1 X-0.42S1000
G1 X-0.205S0
G1 X-0.446S1000
G1 X-0.841S0
G1 X-0.629S1000
G1 X-10.013F5000S0
G1 X-0.457F2500S1000
G1 X-0.094S0
G1 X-0.525S1000
G0 X-1.041
G0 X-0.066Y0.1
G0 X1.042
G1 X0.496
G1 X0.219S0
G1 X0.448S1000
G1 X9.882F5000S0
G1 X0.628F2500S1000
G1 X0.931S0
G1 X0.446S1000
G1 X0.227S0
G1 X0.418S1000
G1 X0.221S0
G1 X0.498S1000
G1 X1.064F5000S0
G1 X0.718F2500S1000
G1 X11.379F5000S0
G1 X0.499F2500S1000
G1 X0.152S0
G1 X0.579S1000
G0 X1.042
G0 X0.079Y0.1
G0 X-1.042
G1 X-0.578
G1 X-0.252S0
G1 X-0.5S1000
G1 X-11.23F5000S0
G1 X-0.719F2500S1000
G1 X-1.165F5000S0
G1 X-0.498F2500S1000
G1 X-0.244S0
G1 X-0.42S1000
G1 X-0.249S0
G1 X-0.445S1000
G1 X-1.021F5000S0
G1 X-0.626F2500S1000
G1 X-9.753F5000S0
G1 X-0.453F2500S1000
G1 X-0.305S0
G1 X-0.492S1000
G0 X-1.042
G0 X-0.066Y0.1
G0 X1.042
G1 X0.493
G1 X0.391S0
G1 X0.453S1000
G1 X9.623F5000S0
G1 X0.625F2500S1000
G1 X1.11F5000S0
G1 X0.446F2500S1000
G1 X0.271S0
G1 X0.42S1000
G1 X0.269S0
G1 X0.497S1000
G1 X1.267F5000S0
G1 X0.719F2500S1000
G1 X11.081F5000S0
G1 X0.5F2500S1000
G1 X0.352S0
G1 X0.577S1000
G0 X1.042
G0 X0.078Y0.1
G0 X-1.041
G1 X-0.577
G1 X-0.452S0
G1 X-0.5S1000
G1 X-10.933F5000S0
G1 X-0.718F2500S1000
G1 X-1.369F5000S0
G1 X-0.497F2500S1000
G1 X-0.294S0
G1 X-0.419S1000
G1 X-0.294S0
G1 X-0.445S1000
G1 X-1.199F5000S0
G1 X-0.625F2500S1000
G1 X-9.493F5000S0
G1 X-0.453F2500S1000
G1 X-0.478S0
G1 X-0.493S1000
G0 X-1.041
G0 X-0.066Y0.1
G0 X1.042
G1 X0.492
G1 X0.565S0
G1 X0.453S1000
G1 X9.363F5000S0
G1 X0.625F2500S1000
G1 X1.288F5000S0
G1 X0.445F2500S1000
G1 X0.316S0
G1 X0.418S1000
G1 X0.32S0
G1 X0.495S1000
G1 X1.471F5000S0
G1 X0.719F2500S1000
G1 X10.785F5000S0
G1 X0.499F2500S1000
G1 X0.553S0
G1 X0.575S1000
G0 X1.042
G0 X0.078Y0.1
G0 X-1.041
G1 X-0.575
G1 X-0.652S0
G1 X-0.5S1000
G1 X-10.636F5000S0
G1 X-0.719F2500S1000
G1 X-1.573F5000S0
G1 X-0.495F2500S1000
G1 X-0.345S0
G1 X-0.417S1000
G1 X-0.339S0
G1 X-0.445S1000
G1 X-1.376F5000S0
G1 X-0.624F2500S1000
G1 X-9.233F5000S0
G1 X-0.454F2500S1000
G1 X-0.652S0
G1 X-0.492S1000
G0 X-1.042
G0 X-0.065Y0.1
G0 X1.041
G1 X0.492
G1 X0.739S0
G1 X0.454S1000
G1 X9.103F5000S0
G1 X0.624F2500S1000
G1 X1.465F5000S0
G1 X0.445F2500S1000
G1 X0.361S0
G1 X0.416S1000
G1 X0.37S0
G1 X0.495S1000
G1 X1.674F5000S0
G1 X0.72F2500S1000
G1 X10.487F5000S0
G1 X0.5F2500S1000
G1 X0.752S0
G1 X0.574S1000
G0 X1.042
G0 X0.078Y0.1
G0 X-1.041
G1 X-0.573
G1 X-0.853S0
G1 X-0.5S1000
G1 X-10.339F5000S0
G1 X-0.719F2500S1000
G1 X-1.775F5000S0
G1 X-0.495F2500S1000
G1 X-0.396S0
G1 X-0.415S1000
G1 X-0.384S0
G1 X-0.444S1000
G1 X-1.553F5000S0
G1 X-0.625F2500S1000
G1 X-8.973F5000S0
G1 X-0.454F2500S1000
G1 X-0.826S0
G1 X-0.491S1000
G0 X-1.042
G0 X-0.066Y0.1
G0 X1.042
G1 X0.491
G1 X0.913S0
G1 X0.454S1000
G1 X8.843F5000S0
G1 X0.625F2500S1000
G1 X1.642F5000S0
G1 X0.443F2500S1000
G1 X0.407S0
G1 X0.414S1000
G1 X0.421S0
G1 X0.496S1000
G1 X1.875F5000S0
G1 X0.72F2500S1000
G1 X10.19F5000S0
G1 X0.5F2500S1000
G1 X0.953S0
G1 X0.572S1000
G0 X1.042
G0 X0.078Y0.1
G0 X-1.042
G1 X-0.571
G1 X-1.052F5000S0
G1 X-0.501F2500S1000
G1 X-10.041F5000S0
G1 X-0.72F2500S1000
G1 X-1.977F5000S0
G1 X-0.495F2500S1000
G1 X-0.447S0
G1 X-0.413S1000
G1 X-0.429S0
G1 X-0.444S1000
G1 X-1.73F5000S0
G1 X-0.624F2500S1000
G1 X-8.714F5000S0
G1 X-0.454F2500S1000
G1 X-1S0
G1 X-0.491S1000
G0 X-1.042
G0 X-0.065Y0.1
G0 X1.041
G1 X0.491
G1 X1.088F5000S0
G1 X0.453F2500S1000
G1 X8.584F5000S0
G1 X0.624F2500S1000
G1 X1.819F5000S0
G1 X0.443F2500S1000
G1 X0.451S0
G1 X0.414S1000
G1 X0.471S0
G1 X0.496S1000
G1 X2.077F5000S0
G1 X0.721F2500S1000
G1 X9.892F5000S0
G1 X0.501F2500S1000
G1 X1.153F5000S0
G1 X0.57F2500S1000
G0 X1.042
G0 X0.078Y0.1
G0 X-1.042
G1 X-0.569
G1 X-1.253F5000S0
G1 X-0.501F2500S1000
G1 X-9.744F5000S0
G1 X-0.72F2500S1000
G1 X-2.178F5000S0
G1 X-0.496F2500S1000
G1 X-0.497S0
G1 X-0.413S1000
G1 X-0.473S0
G1 X-0.443S1000
G1 X-1.908F5000S0
G1 X-0.624F2500S1000
G1 X-8.453F5000S0
G1 X-0.454F2500S1000
G1 X-1.175F5000S0
G1 X-0.49F2500S1000
G0 X-1.042
G0 X-0.066Y0.1
G0 X1.042
G1 X0.49
G1 X1.262F5000S0
G1 X0.454F2500S1000
G1 X8.324F5000S0
G1 X0.624F2500S1000
G1 X1.995F5000S0
G1 X0.443F2500S1000
G1 X0.496S0
G1 X0.412S1000
G1 X0.522S0
G1 X0.496S1000
G1 X2.279F5000S0
G1 X0.721F2500S1000
G1 X9.596F5000S0
G1 X0.5F2500S1000
G1 X1.353F5000S0
G1 X0.569F2500S1000
G0 X1.041
G0 X0.079Y0.1
G0 X-1.042
G1 X-0.568
G1 X-1.452F5000S0
G1 X-0.501F2500S1000
G1 X-9.447F5000S0
G1 X-0.721F2500S1000
G1 X-2.38F5000S0
G1 X-0.496F2500S1000
G1 X-0.548S0
G1 X-0.411S1000
G1 X-0.518S0
G1 X-0.443S1000
G1 X-2.084F5000S0
G1 X-0.624F2500S1000
G1 X-8.194F5000S0
G1 X-0.454F2500S1000
G1 X-1.349F5000S0
G1 X-0.49F2500S1000
G0 X-1.042
G0 X-0.065Y0.1
G0 X1.041
G1 X0.49
G1 X1.436F5000S0
G1 X0.454F2500S1000
G1 X8.064F5000S0
G1 X0.624F2500S1000
G1 X2.173F5000S0
G1 X0.442F2500S1000
G1 X0.541S0
G1 X0.41S1000
G1 X0.573S0
G1 X0.496S1000
G1 X2.481F5000S0
G1 X0.722F2500S1000
G1 X9.298F5000S0
G1 X0.501F2500S1000
G1 X1.553F5000S0
G1 X0.567F2500S1000
G0 X1.041
G0 X0.079Y0.1
G0 X-1.042
G1 X-0.566
G1 X-1.653F5000S0
G1 X-0.501F2500S1000
G1 X-9.15F5000S0
G1 X-0.721F2500S1000
G1 X-2.582F5000S0
G1 X-0.496F2500S1000
G1 X-0.599S0
G1 X-0.409S1000
G1 X-0.563S0
G1 X-0.442S1000
G1 X-2.262F5000S0
G1 X-0.624F2500S1000
G1 X-7.934F5000S0
G1 X-0.454F2500S1000
G1 X-1.523F5000S0
G1 X-0.489F2500S1000
G0 X-1.042
G0 X-0.066Y0.1
G0 X1.042
G1 X0.489
G1 X1.61F5000S0
G1 X0.455F2500S1000
G1 X7.804F5000S0
G1 X0.624F2500S1000
G1 X2.349F5000S0
G1 X0.442F2500S1000
G1 X0.586S0
G1 X0.408S1000
G1 X0.624S0
G1 X0.497S1000
G1 X2.682F5000S0
G1 X0.722F2500S1000
G1 X9.001F5000S0
G1 X0.501F2500S1000
G1 X1.753F5000S0
G1 X0.566F2500S1000
G0 X1.041
G0 X0.079Y0.1
G0 X-1.042
G1 X-0.564
G1 X-1.853F5000S0
G1 X-0.502F2500S1000
G1 X-8.852F5000S0
G1 X-0.722F2500S1000
G1 X-2.784F5000S0
G1 X-0.496F2500S1000
G1 X-0.65S0
G1 X-0.407S1000
G1 X-0.609S0
G1 X-0.441S1000
G1 X-2.438F5000S0
G1 X-0.624F2500S1000
G1 X-7.674F5000S0
G1 X-0.455F2500S1000
G1 X-1.697F5000S0
G1 X-0.489F2500S1000
G0 X-1.041
G0 X-0.066Y0.1
G0 X1.042
G1 X0.488
G1 X1.784F5000S0
G1 X0.455F2500S1000
G1 X7.544F5000S0
G1 X0.624F2500S1000
G1 X2.527F5000S0
G1 X0.441F2500S1000
G1 X0.631S0
G1 X0.407S1000
G1 X0.674S0
G1 X0.497S1000
G1 X2.884F5000S0
G1 X0.723F2500S1000
G1 X8.703F5000S0
G1 X0.502F2500S1000
G1 X1.953F5000S0
G1 X0.563F2500S1000
G0 X1.042
G0 X0.079Y0.1
G0 X-1.042
G1 X-0.563
G1 X-2.053F5000S0
G1 X-0.501F2500S1000
G1 X-8.556F5000S0
G1 X-0.722F2500S1000
G1 X-2.986F5000S0
G1 X-0.496F2500S1000
G1 X-0.7S0
G1 X-0.407S1000
G1 X-0.653S0
G1 X-0.441S1000
G1 X-2.615F5000S0
G1 X-0.624F2500S1000
G1 X-7.414F5000S0
G1 X-0.455F2500S1000
G1 X-1.871F5000S0
G1 X-0.488F2500S1000
G1 X-7.325F5000S0
G1 X-0.171F2500S1000
G0 X-1.042
G0 X-0.062Y0.1
G0 X1.042
G1 X0.429
G1 X7.063F5000S0
G1 X0.488F2500S1000
G1 X1.958F5000S0
G1 X0.455F2500S1000
G1 X7.285F5000S0
G1 X0.624F2500S1000
G1 X2.703F5000S0
G1 X0.441F2500S1000
G1 X0.675S0
G1 X0.406S1000
G1 X0.725S0
G1 X0.497S1000
G1 X3.086F5000S0
G1 X0.723F2500S1000
G1 X8.407F5000S0
G1 X0.501F2500S1000
G1 X2.153F5000S0
G1 X0.562F2500S1000
G1 X8.152F5000S0
G1 X0.207F2500S1000
G0 X1.042
G0 X0.053Y0.1
G0 X-1.042
G1 X-0.309
G1 X-8.024F5000S0
G1 X-0.562F2500S1000
G1 X-2.252F5000S0
G1 X-0.502F2500S1000
G1 X-8.258F5000S0
G1 X-0.723F2500S1000
G1 X-3.187F5000S0
G1 X-0.497F2500S1000
G1 X-0.751S0
G1 X-0.405S1000
G1 X-0.698S0
G1 X-0.44S1000
G1 X-2.792F5000S0
G1 X-0.624F2500S1000
G1 X-7.154F5000S0
G1 X-0.456F2500S1000
G1 X-2.045F5000S0
G1 X-0.488F2500S1000
G1 X-6.804F5000S0
G1 X-0.611F2500S1000
G0 X-1.042
G0 X0.145Y0.1
G0 X1.041
G1 X0.661
G1 X6.545F5000S0
G1 X0.487F2500S1000
G1 X2.132F5000S0
G1 X0.456F2500S1000
G1 X7.024F5000S0
G1 X0.624F2500S1000
G1 X2.88F5000S0
G1 X0.441F2500S1000
G1 X0.72S0
G1 X0.404S1000
G1 X0.776S0
G1 X0.497S1000
G1 X3.288F5000S0
G1 X0.724F2500S1000
G1 X8.109F5000S0
G1 X0.502F2500S1000
G1 X2.352F5000S0
G1 X0.561F2500S1000
G1 X7.98F5000S0
G1 X0.324F2500S1000
G0 X1.042
G0 X0.052Y0.1
G0 X-1.042
G1 X-0.322
G1 X-7.955F5000S0
G1 X-0.561F2500S1000
G1 X-2.452F5000S0
G1 X-0.502F2500S1000
G1 X-7.961F5000S0
G1 X-0.723F2500S1000
G1 X-3.389F5000S0
G1 X-0.497F2500S1000
G1 X-0.802S0
G1 X-0.403S1000
G1 X-0.743S0
G1 X-0.44S1000
G1 X-2.969F5000S0
G1 X-0.624F2500S1000
G1 X-6.894F5000S0
G1 X-0.456F2500S1000
G1 X-2.219F5000S0
G1 X-0.487F2500S1000
G1 X-6.286F5000S0
G1 X-0.662F2500S1000
G0 X-1.042
G0 X0.191Y0.1
G0 X1.042
G1 X0.665
G1 X6.026F5000S0
G1 X0.487F2500S1000
G1 X2.306F5000S0
G1 X0.456F2500S1000
G1 X6.765F5000S0
G1 X0.623F2500S1000
G1 X3.058F5000S0
G1 X0.439F2500S1000
G1 X0.766S0
G1 X0.402S1000
G1 X0.827S0
G1 X0.497S1000
G1 X3.491F5000S0
G1 X0.723F2500S1000
G1 X7.812F5000S0
G1 X0.502F2500S1000
G1 X2.552F5000S0
G1 X0.56F2500S1000
G1 X7.928F5000S0
G1 X0.323F2500S1000
G0 X1.042
G0 X0.052Y0.1
G0 X-1.041
G1 X-0.325
G1 X-7.9F5000S0
G1 X-0.56F2500S1000
G1 X-2.651F5000S0
G1 X-0.503F2500S1000
G1 X-7.663F5000S0
G1 X-0.722F2500S1000
G1 X-3.593F5000S0
G1 X-0.497F2500S1000
G1 X-0.852S0
G1 X-0.402S1000
G1 X-0.788S0
G1 X-0.439S1000
G1 X-3.146F5000S0
G1 X-0.624F2500S1000
G1 X-6.635F5000S0
G1 X-0.456F2500S1000
G1 X-2.393F5000S0
G1 X-0.487F2500S1000
G1 X-5.767F5000S0
G1 X-0.667F2500S1000
G0 X-1.042
G0 X0.192Y0.1
G0 X1.042
G1 X0.669
G1 X5.507F5000S0
G1 X0.487F2500S1000
G1 X2.48F5000S0
G1 X0.456F2500S1000
G1 X6.505F5000S0
G1 X0.624F2500S1000
G1 X3.234F5000S0
G1 X0.439F2500S1000
G1 X0.811S0
G1 X0.402S1000
G1 X0.876S0
G1 X0.498S1000
G1 X3.694F5000S0
G1 X0.722F2500S1000
G1 X7.514F5000S0
G1 X0.503F2500S1000
G1 X2.751F5000S0
G1 X0.559F2500S1000
G1 X7.873F5000S0
G1 X0.326F2500S1000
G0 X1.041
G0 X0.052Y0.1
G0 X-1.041
G1 X-0.327
G1 X-7.846F5000S0
G1 X-0.558F2500S1000
G1 X-2.851F5000S0
G1 X-0.503F2500S1000
G1 X-7.365F5000S0
G1 X-0.721F2500S1000
G1 X-3.797F5000S0
G1 X-0.497F2500S1000
G1 X-0.901S0
G1 X-0.403S1000
G1 X-0.832S0
G1 X-0.439S1000
G1 X-3.323F5000S0
G1 X-0.624F2500S1000
G1 X-6.375F5000S0
G1 X-0.456F2500S1000
G1 X-2.567F5000S0
G1 X-0.487F2500S1000
G1 X-5.248F5000S0
G1 X-0.663F2500S1000
G0 X-1.041
G0 X0.199Y0.1
G0 X1.042
G1 X0.657
G1 X4.987F5000S0
G1 X0.488F2500S1000
G1 X2.654F5000S0
G1 X0.456F2500S1000
G1 X6.246F5000S0
G1 X0.623F2500S1000
G1 X3.412F5000S0
G1 X0.438F2500S1000
G1 X0.855S0
G1 X0.403S1000
G1 X0.925S0
G1 X0.498S1000
G1 X3.898F5000S0
G1 X0.72F2500S1000
G1 X7.217F5000S0
G1 X0.503F2500S1000
G1 X2.951F5000S0
G1 X0.558F2500S1000
G1 X7.818F5000S0
G1 X0.328F2500S1000
G0 X1.041
G0 X0.052Y0.1
G0 X-1.041
G1 X-0.329
G1 X-7.79F5000S0
G1 X-0.558F2500S1000
G1 X-3.051F5000S0
G1 X-0.503F2500S1000
G1 X-7.068F5000S0
G1 X-0.719F2500S1000
G1 X-4F5000S0
G1 X-0.498F2500S1000
G1 X-0.95S0
G1 X-0.404S1000
G1 X-0.876S0
G1 X-0.439S1000
G1 X-3.499F5000S0
G1 X-0.624F2500S1000
G1 X-6.116F5000S0
G1 X-0.456F2500S1000
G1 X-2.741F5000S0
G1 X-0.488F2500S1000
G1 X-4.728F5000S0
G1 X-0.651F2500S1000
G0 X-1.041
G0 X0.191Y0.1
G0 X1.042
G1 X0.652
G1 X4.469F5000S0
G1 X0.488F2500S1000
G1 X2.829F5000S0
G1 X0.455F2500S1000
G1 X5.986F5000S0
G1 X0.624F2500S1000
G1 X3.588F5000S0
G1 X0.438F2500S1000
G1 X0.899S0
G1 X0.404S1000
G1 X0.974S0
G1 X0.498S1000
G1 X4.102F5000S0
G1 X0.719F2500S1000
G1 X6.919F5000S0
G1 X0.503F2500S1000
G1 X3.152F5000S0
G1 X0.556F2500S1000
G1 X7.763F5000S0
G1 X0.33F2500S1000
G0 X1.041
G0 X0.052Y0.1
G0 X-1.041
G1 X-0.331
G1 X-7.735F5000S0
G1 X-0.556F2500S1000
G1 X-3.251F5000S0
G1 X-0.504F2500S1000
G1 X-6.77F5000S0
G1 X-0.718F2500S1000
G1 X-4.204F5000S0
G1 X-0.498F2500S1000
G1 X-0.999S0
G1 X-0.405S1000
G1 X-0.92S0
G1 X-0.438S1000
G1 X-3.677F5000S0
G1 X-0.624F2500S1000
G1 X-5.856F5000S0
G1 X-0.455F2500S1000
G1 X-2.916F5000S0
G1 X-0.488F2500S1000
G1 X-4.209F5000S0
G1 X-0.714F2500S1000
G0 X-1.042
G0 X0.044Y0.1
G0 X1.042
G1 X0.863
G1 X3.95F5000S0
G1 X0.487F2500S1000
G1 X3.004F5000S0
G1 X0.455F2500S1000
G1 X5.727F5000S0
G1 X0.623F2500S1000
G1 X3.766F5000S0
G1 X0.437F2500S1000
G1 X0.943S0
G1 X0.405S1000
G1 X1.023F5000S0
G1 X0.498F2500S1000
G1 X4.306F5000S0
G1 X0.717F2500S1000
G1 X6.622F5000S0
G1 X0.504F2500S1000
G1 X3.351F5000S0
G1 X0.556F2500S1000
G1 X7.707F5000S0
G1 X0.332F2500S1000
G0 X1.041
G0 X0.053Y0.1
G0 X-1.042
G1 X-0.331
G1 X-2.239F5000S0
G1 X-0.235F2500S1000
G1 X-5.207F5000S0
G1 X-0.556F2500S1000
G1 X-3.451F5000S0
G1 X-0.504F2500S1000
G1 X-6.473F5000S0
G1 X-0.716F2500S1000
G1 X-4.408F5000S0
G1 X-0.498F2500S1000
G1 X-1.048F5000S0
G1 X-0.406F2500S1000
G1 X-0.964S0
G1 X-0.438S1000
G1 X-3.853F5000S0
G1 X-0.624F2500S1000
G1 X-5.598F5000S0
G1 X-0.454F2500S1000
G1 X-3.091F5000S0
G1 X-0.487F2500S1000
G1 X-3.69F5000S0
G1 X-1.066F2500S1000
G0 X-1.041
G0 X-0.044Y0.1
G0 X1.042
G1 X0.335
G1 X0.308S0
G1 X0.659S1000
G1 X3.431F5000S0
G1 X0.487F2500S1000
G1 X3.178F5000S0
G1 X0.454F2500S1000
G1 X5.468F5000S0
G1 X0.624F2500S1000
G1 X3.942F5000S0
G1 X0.438F2500S1000
G1 X0.986S0
G1 X0.406S1000
G1 X1.073F5000S0
G1 X0.498F2500S1000
G1 X4.51F5000S0
G1 X0.715F2500S1000
G1 X6.324F5000S0
G1 X0.504F2500S1000
G1 X3.55F5000S0
G1 X0.557F2500S1000
G1 X5.09F5000S0
G1 X0.328F2500S1000
G1 X2.237F5000S0
G1 X0.33F2500S1000
G0 X1.042
G0 X0.052Y0.1
G0 X-1.041
G1 X-0.33
G1 X-2.239F5000S0
G1 X-0.338F2500S1000
G1 X-5.052F5000S0
G1 X-0.558F2500S1000
G1 X-3.649F5000S0
G1 X-0.504F2500S1000
G1 X-6.175F5000S0
G1 X-0.715F2500S1000
G1 X-4.612F5000S0
G1 X-0.498F2500S1000
G1 X-1.097F5000S0
G1 X-0.407F2500S1000
G1 X-1.008F5000S0
G1 X-0.437F2500S1000
G1 X-4.031F5000S0
G1 X-0.624F2500S1000
G1 X-5.338F5000S0
G1 X-0.454F2500S1000
G1 X-3.265F5000S0
G1 X-0.487F2500S1000
G1 X-3.171F5000S0
G1 X-0.661F2500S1000
G1 X-0.562S0
G1 X-0.322S1000
G0 X-1.042
G0 X-0.053Y0.1
G0 X1.042
G1 X0.325
G1 X0.804S0
G1 X0.662S1000
G1 X2.912F5000S0
G1 X0.487F2500S1000
G1 X3.352F5000S0
G1 X0.454F2500S1000
G1 X5.209F5000S0
G1 X0.633F2500S1000
G1 X4.109F5000S0
G1 X0.438F2500S1000
G1 X1.03F5000S0
G1 X0.407F2500S1000
G1 X1.122F5000S0
G1 X0.498F2500S1000
G1 X4.709F5000S0
G1 X0.718F2500S1000
G1 X6.027F5000S0
G1 X0.504F2500S1000
G1 X3.749F5000S0
G1 X0.557F2500S1000
G1 X5.029F5000S0
G1 X0.335F2500S1000
G1 X2.24F5000S0
G1 X0.329F2500S1000
G0 X1.042
G0 X0.052Y0.1
G0 X-1.041
G1 X-0.329
G1 X-2.24F5000S0
G1 X-0.336F2500S1000
G1 X-5.002F5000S0
G1 X-0.558F2500S1000
G1 X-3.847F5000S0
G1 X-0.505F2500S1000
G1 X-5.878F5000S0
G1 X-0.754F2500S1000
G1 X-4.775F5000S0
G1 X-0.497F2500S1000
G1 X-1.147F5000S0
G1 X-0.408F2500S1000
G1 X-1.052F5000S0
G1 X-0.437F2500S1000
G1 X-4.145F5000S0
G1 X-0.686F2500S1000
G1 X-5.079F5000S0
G1 X-0.454F2500S1000
G1 X-3.439F5000S0
G1 X-0.487F2500S1000
G1 X-2.652F5000S0
G1 X-0.665F2500S1000
G1 X-1.046F5000S0
G1 X-0.327F2500S1000
G0 X-1.041
G0 X-0.053Y0.1
G0 X1.041
G1 X0.33
G1 X1.288F5000S0
G1 X0.666F2500S1000
G1 X2.393F5000S0
G1 X0.487F2500S1000
G1 X3.526F5000S0
G1 X0.454F2500S1000
G1 X4.949F5000S0
G1 X0.808F2500S1000
G1 X4.112F5000S0
G1 X0.437F2500S1000
G1 X1.074F5000S0
G1 X0.408F2500S1000
G1 X1.171F5000S0
G1 X0.498F2500S1000
G1 X4.768F5000S0
G1 X0.862F2500S1000
G1 X5.729F5000S0
G1 X0.505F2500S1000
G1 X3.946F5000S0
G1 X0.559F2500S1000
G1 X4.974F5000S0
G1 X0.337F2500S1000
G1 X2.241F5000S0
G1 X0.328F2500S1000
G0 X1.042
G0 X0.052Y0.1
G0 X-1.042
G1 X-0.327
G1 X-2.241F5000S0
G1 X-0.338F2500S1000
G1 X-4.947F5000S0
G1 X-0.559F2500S1000
G1 X-4.046F5000S0
G1 X-0.505F2500S1000
G1 X-5.58F5000S0
G1 X-1.042F2500S1000
G1 X-4.689F5000S0
G1 X-0.498F2500S1000
G1 X-1.196F5000S0
G1 X-0.409F2500S1000
G1 X-1.096F5000S0
G1 X-0.436F2500S1000
G1 X-4.027F5000S0
G1 X-0.982F2500S1000
G1 X-4.819F5000S0
G1 X-0.454F2500S1000
G1 X-3.613F5000S0
G1 X-0.487F2500S1000
G1 X-2.133F5000S0
G1 X-0.663F2500S1000
G1 X-1.536F5000S0
G1 X-0.331F2500S1000
G0 X-1.042
G0 X-0.053Y0.1
G0 X1.042
G1 X0.334
G1 X1.783F5000S0
G1 X0.668F2500S1000
G1 X1.865F5000S0
G1 X0.487F2500S1000
G1 X3.701F5000S0
G1 X0.452F2500S1000
G1 X4.691F5000S0
G1 X1.172F2500S1000
G1 X3.924F5000S0
G1 X0.437F2500S1000
G1 X1.118F5000S0
G1 X0.409F2500S1000
G1 X1.221F5000S0
G1 X0.497F2500S1000
G1 X4.57F5000S0
G1 X1.262F2500S1000
G1 X5.432F5000S0
G1 X0.505F2500S1000
G1 X4.145F5000S0
G1 X0.56F2500S1000
G1 X2.511F5000S0
G1 X0.083F2500S1000
G1 X2.325F5000S0
G1 X0.339F2500S1000
G1 X2.242F5000S0
G1 X0.327F2500S1000
G0 X1.042
G0 X0.052Y0.1
G0 X-1.042
G1 X-0.327
G1 X-2.241F5000S0
G1 X-0.34F2500S1000
G1 X-2.278F5000S0
G1 X-0.29F2500S1000
G1 X-2.324F5000S0
G1 X-0.56F2500S1000
G1 X-4.245F5000S0
G1 X-0.505F2500S1000
G1 X-5.283F5000S0
G1 X-1.49F2500S1000
G1 X-4.443F5000S0
G1 X-0.498F2500S1000
G1 X-1.245F5000S0
G1 X-0.41F2500S1000
G1 X-1.14F5000S0
G1 X-0.436F2500S1000
G1 X-3.818F5000S0
G1 X-0.621F2500S1000
G1 X-0.077S0
G1 X-0.669S1000
G1 X-4.561F5000S0
G1 X-0.452F2500S1000
G1 X-3.788F5000S0
G1 X-0.487F2500S1000
G1 X-1.742F5000S0
G1 X-0.529F2500S1000
G1 X-2.03F5000S0
G1 X-0.336F2500S1000
G0 X-1.042
G0 X-0.053Y0.1
G0 X1.042
G1 X0.339
G1 X2.277F5000S0
G1 X0.296F2500S1000
G1 X1.712F5000S0
G1 X0.487F2500S1000
G1 X3.875F5000S0
G1 X0.452F2500S1000
G1 X4.431F5000S0
G1 X0.63F2500S1000
G1 X0.359S0
G1 X0.573S1000
G1 X3.712F5000S0
G1 X0.436F2500S1000
G1 X1.162F5000S0
G1 X0.41F2500S1000
G1 X1.27F5000S0
G1 X0.498F2500S1000
G1 X4.316F5000S0
G1 X0.659F2500S1000
G1 X0.338S0
G1 X0.721S1000
G1 X5.134F5000S0
G1 X0.505F2500S1000
G1 X4.344F5000S0
G1 X0.56F2500S1000
G1 X2.262F5000S0
G1 X0.322F2500S1000
G1 X2.281F5000S0
G1 X0.341F2500S1000
G1 X2.235F5000S0
G1 X0.334F2500S1000
G0 X1.041
G0 X0.053Y0.1
G0 X-1.042
G1 X-0.356
G1 X-2.213F5000S0
G1 X-0.341F2500S1000
G1 X-2.282F5000S0
G1 X-0.328F2500S1000
G1 X-2.228F5000S0
G1 X-0.561F2500S1000
G1 X-4.442F5000S0
G1 X-0.506F2500S1000
G1 X-4.985F5000S0
G1 X-0.712F2500S1000
G1 X-0.592S0
G1 X-0.637S1000
G1 X-4.195F5000S0
G1 X-0.497F2500S1000
G1 X-1.295F5000S0
G1 X-0.411F2500S1000
G1 X-1.183F5000S0
G1 X-0.437F2500S1000
G1 X-3.606F5000S0
G1 X-0.571F2500S1000
G1 X-0.555S0
G1 X-0.629S1000
G1 X-4.302F5000S0
G1 X-0.452F2500S1000
G1 X-3.962F5000S0
G1 X-0.487F2500S1000
G1 X-4.27F5000S0
G1 X-0.341F2500S1000
G0 X-1.042
G0 X-0.052Y0.1
G0 X1.041
G1 X0.344
G1 X4.254F5000S0
G1 X0.487F2500S1000
G1 X4.049F5000S0
G1 X0.452F2500S1000
G1 X4.172F5000S0
G1 X0.63F2500S1000
G1 X0.749S0
G1 X0.571S1000
G1 X3.5F5000S0
G1 X0.436F2500S1000
G1 X1.206F5000S0
G1 X0.411F2500S1000
G1 X1.319F5000S0
G1 X0.498F2500S1000
G1 X4.074F5000S0
G1 X0.635F2500S1000
G1 X0.811S0
G1 X0.716S1000
G1 X4.837F5000S0
G1 X0.506F2500S1000
G1 X4.542F5000S0
G1 X0.561F2500S1000
G1 X2.201F5000S0
G1 X0.329F2500S1000
G1 X2.281F5000S0
G1 X0.34F2500S1000
G1 X2.157F5000S0
G1 X0.401F2500S1000
G0 X1.042
G0 X0.011Y0.1
G0 X-1.042
G1 X-0.491
G1 X-2.027F5000S0
G1 X-0.337F2500S1000
G1 X-2.282F5000S0
G1 X-0.331F2500S1000
G1 X-2.173F5000S0
G1 X-0.562F2500S1000
G1 X-4.641F5000S0
G1 X-0.506F2500S1000
G1 X-4.688F5000S0
G1 X-0.72F2500S1000
G1 X-1.03F5000S0
G1 X-0.635F2500S1000
G1 X-3.953F5000S0
G1 X-0.497F2500S1000
G1 X-1.344F5000S0
G1 X-0.412F2500S1000
G1 X-1.227F5000S0
G1 X-0.436F2500S1000
G1 X-3.394F5000S0
G1 X-0.571F2500S1000
G1 X-0.944S0
G1 X-0.63S1000
G1 X-4.042F5000S0
G1 X-0.451F2500S1000
G1 X-4.137F5000S0
G1 X-0.487F2500S1000
G1 X-4.239F5000S0
G1 X-0.345F2500S1000
G0 X-1.041
G0 X-0.05Y0.1
G0 X1.041
G1 X0.344
G1 X4.224F5000S0
G1 X0.487F2500S1000
G1 X4.224F5000S0
G1 X0.451F2500S1000
G1 X3.912F5000S0
G1 X0.631F2500S1000
G1 X1.138F5000S0
G1 X0.571F2500S1000
G1 X3.288F5000S0
G1 X0.435F2500S1000
G1 X1.25F5000S0
G1 X0.412F2500S1000
G1 X1.369F5000S0
G1 X0.497F2500S1000
G1 X3.83F5000S0
G1 X0.635F2500S1000
G1 X1.25F5000S0
G1 X0.724F2500S1000
G1 X4.539F5000S0
G1 X0.506F2500S1000
G1 X4.74F5000S0
G1 X0.563F2500S1000
G1 X2.146F5000S0
G1 X0.331F2500S1000
G1 X2.283F5000S0
G1 X0.335F2500S1000
G1 X1.798F5000S0
G1 X0.619F2500S1000
G0 X1.042
G0 X-0.148Y0.1
G0 X-1.041
G1 X-0.679
G1 X-1.54F5000S0
G1 X-0.333F2500S1000
G1 X-2.283F5000S0
G1 X-0.332F2500S1000
G1 X-2.12F5000S0
G1 X-0.562F2500S1000
G1 X-4.84F5000S0
G1 X-0.506F2500S1000
G1 X-4.39F5000S0
G1 X-0.728F2500S1000
G1 X-1.47F5000S0
G1 X-0.636F2500S1000
G1 X-3.706F5000S0
G1 X-0.498F2500S1000
G1 X-1.393F5000S0
G1 X-0.412F2500S1000
G1 X-1.272F5000S0
G1 X-0.436F2500S1000
G1 X-3.181F5000S0
G1 X-0.571F2500S1000
G1 X-1.333F5000S0
G1 X-0.63F2500S1000
G1 X-3.784F5000S0
G1 X-0.45F2500S1000
G1 X-4.311F5000S0
G1 X-0.487F2500S1000
G1 X-4.21F5000S0
G1 X-0.342F2500S1000
G0 X-1.041
G0 X-2.578Y0.1
G0 X1.041
G1 X0.17
G1 X2.359F5000S0
G1 X0.339F2500S1000
G1 X4.196F5000S0
G1 X0.487F2500S1000
G1 X4.398F5000S0
G1 X0.45F2500S1000
G1 X3.654F5000S0
G1 X0.631F2500S1000
G1 X1.527F5000S0
G1 X0.571F2500S1000
G1 X3.075F5000S0
G1 X0.435F2500S1000
G1 X1.294F5000S0
G1 X0.413F2500S1000
G1 X1.418F5000S0
G1 X0.497F2500S1000
G1 X3.583F5000S0
G1 X0.637F2500S1000
G1 X1.694F5000S0
G1 X0.727F2500S1000
G1 X4.243F5000S0
G1 X0.505F2500S1000
G1 X4.939F5000S0
G1 X0.563F2500S1000
G1 X2.093F5000S0
G1 X0.332F2500S1000
G1 X2.285F5000S0
G1 X0.33F2500S1000
G1 X1.282F5000S0
G1 X0.691F2500S1000
G0 X1.042
G0 X-0.194Y0.1
G0 X-1.042
G1 X-0.698
G1 X-1.03F5000S0
G1 X-0.328F2500S1000
G1 X-2.285F5000S0
G1 X-0.333F2500S1000
G1 X-2.066F5000S0
G1 X-0.563F2500S1000
G1 X-5.038F5000S0
G1 X-0.506F2500S1000
G1 X-4.094F5000S0
G1 X-0.727F2500S1000
G1 X-1.918F5000S0
G1 X-0.637F2500S1000
G1 X-3.46F5000S0
G1 X-0.497F2500S1000
G1 X-1.444F5000S0
G1 X-0.412F2500S1000
G1 X-1.316F5000S0
G1 X-0.435F2500S1000
G1 X-2.969F5000S0
G1 X-0.572F2500S1000
G1 X-1.721F5000S0
G1 X-0.631F2500S1000
G1 X-3.524F5000S0
G1 X-0.45F2500S1000
G1 X-4.485F5000S0
G1 X-0.487F2500S1000
G1 X-4.182F5000S0
G1 X-0.337F2500S1000
G1 X-2.127F5000S0
G1 X-0.416F2500S1000
G0 X-1.042
G0 Y0.1
G0 X1.044
G1 X0.609
G1 X1.882F5000S0
G1 X0.335F2500S1000
G1 X4.168F5000S0
G1 X0.487F2500S1000
G1 X4.573F5000S0
G1 X0.449F2500S1000
G1 X3.394F5000S0
G1 X0.632F2500S1000
G1 X1.915F5000S0
G1 X0.572F2500S1000
G1 X2.862F5000S0
G1 X0.435F2500S1000
G1 X1.338F5000S0
G1 X0.412F2500S1000
G1 X1.469F5000S0
G1 X0.497F2500S1000
G1 X3.337F5000S0
G1 X0.638F2500S1000
G1 X2.142F5000S0
G1 X0.727F2500S1000
G1 X3.945F5000S0
G1 X0.506F2500S1000
G1 X5.137F5000S0
G1 X0.564F2500S1000
G1 X2.039F5000S0
G1 X0.333F2500S1000
G1 X2.286F5000S0
G1 X0.326F2500S1000
G1 X0.797S0
G1 X0.686S1000
G0 X1.042
G0 X-0.194Y0.1
G0 X-1.042
G1 X-0.673
G1 X-0.564S0
G1 X-0.324S1000
G1 X-2.287F5000S0
G1 X-0.334F2500S1000
G1 X-2.012F5000S0
G1 X-0.564F2500S1000
G1 X-5.237F5000S0
G1 X-0.505F2500S1000
G1 X-3.797F5000S0
G1 X-0.727F2500S1000
G1 X-2.366F5000S0
G1 X-0.639F2500S1000
G1 X-3.213F5000S0
G1 X-0.497F2500S1000
G1 X-1.494F5000S0
G1 X-0.412F2500S1000
G1 X-1.36F5000S0
G1 X-0.435F2500S1000
G1 X-2.756F5000S0
G1 X-0.572F2500S1000
G1 X-2.109F5000S0
G1 X-0.632F2500S1000
G1 X-3.265F5000S0
G1 X-0.449F2500S1000
G1 X-4.66F5000S0
G1 X-0.487F2500S1000
G1 X-4.154F5000S0
G1 X-0.333F2500S1000
G1 X-1.636F5000S0
G1 X-0.665F2500S1000
G0 X-1.041
G0 X0.198Y0.1
G0 X1.041
G1 X0.662
G1 X1.391F5000S0
G1 X0.331F2500S1000
G1 X4.139F5000S0
G1 X0.488F2500S1000
G1 X4.747F5000S0
G1 X0.449F2500S1000
G1 X3.135F5000S0
G1 X0.632F2500S1000
G1 X2.304F5000S0
G1 X0.572F2500S1000
G1 X2.65F5000S0
G1 X0.435F2500S1000
G1 X1.381F5000S0
G1 X0.412F2500S1000
G1 X1.52F5000S0
G1 X0.497F2500S1000
G1 X3.09F5000S0
G1 X0.639F2500S1000
G1 X2.59F5000S0
G1 X0.726F2500S1000
G1 X3.649F5000S0
G1 X0.505F2500S1000
G1 X5.336F5000S0
G1 X0.565F2500S1000
G1 X1.984F5000S0
G1 X0.335F2500S1000
G1 X2.283F5000S0
G1 X0.339F2500S1000
G1 X0.319S0
G1 X0.661S1000
G0 X1.042
G0 X-0.195Y0.1
G0 X-1.041
G1 X-1.083
G1 X-2.274F5000S0
G1 X-0.334F2500S1000
G1 X-1.958F5000S0
G1 X-0.564F2500S1000
G1 X-5.436F5000S0
G1 X-0.505F2500S1000
G1 X-3.5F5000S0
G1 X-0.726F2500S1000
G1 X-2.814F5000S0
G1 X-0.64F2500S1000
G1 X-2.967F5000S0
G1 X-0.497F2500S1000
G1 X-1.545F5000S0
G1 X-0.411F2500S1000
G1 X-1.404F5000S0
G1 X-0.435F2500S1000
G1 X-2.543F5000S0
G1 X-0.572F2500S1000
G1 X-2.498F5000S0
G1 X-0.633F2500S1000
G1 X-3.005F5000S0
G1 X-0.449F2500S1000
G1 X-4.834F5000S0
G1 X-0.488F2500S1000
G1 X-4.125F5000S0
G1 X-0.329F2500S1000
G1 X-1.148F5000S0
G1 X-0.661F2500S1000
G0 X-1.042
G0 X0.193Y0.1
G0 X1.042
G1 X0.658
G1 X0.908S0
G1 X0.326S1000
G1 X4.112F5000S0
G1 X0.488F2500S1000
G1 X4.921F5000S0
G1 X0.448F2500S1000
G1 X2.876F5000S0
G1 X0.633F2500S1000
G1 X2.693F5000S0
G1 X0.571F2500S1000
G1 X2.438F5000S0
G1 X0.435F2500S1000
G1 X1.425F5000S0
G1 X0.412F2500S1000
G1 X1.57F5000S0
G1 X0.497F2500S1000
G1 X2.843F5000S0
G1 X0.641F2500S1000
G1 X3.038F5000S0
G1 X0.726F2500S1000
G1 X3.352F5000S0
G1 X0.504F2500S1000
G1 X5.536F5000S0
G1 X0.564F2500S1000
G1 X1.931F5000S0
G1 X0.334F2500S1000
G1 X2.229F5000S0
G1 X0.882F2500S1000
G0 X1.041
G0 X-0.194Y0.1
G0 X-1.041
G1 X-0.727
G1 X-2.139F5000S0
G1 X-0.333F2500S1000
G1 X-1.904F5000S0
G1 X-0.565F2500S1000
G1 X-5.634F5000S0
G1 X-0.505F2500S1000
G1 X-3.203F5000S0
G1 X-0.726F2500S1000
G1 X-3.262F5000S0
G1 X-0.641F2500S1000
G1 X-2.721F5000S0
G1 X-0.496F2500S1000
G1 X-1.596F5000S0
G1 X-0.411F2500S1000
G1 X-1.448F5000S0
G1 X-0.434F2500S1000
G1 X-2.332F5000S0
G1 X-0.571F2500S1000
G1 X-2.887F5000S0
G1 X-0.633F2500S1000
G1 X-2.747F5000S0
G1 X-0.447F2500S1000
G1 X-5.009F5000S0
G1 X-0.488F2500S1000
G1 X-4.098F5000S0
G1 X-0.324F2500S1000
G1 X-0.667S0
G1 X-0.656S1000
G0 X-1.042
G0 X0.193Y0.1
G0 X1.042
G1 X0.653
G1 X0.414S0
G1 X0.335S1000
G1 X4.084F5000S0
G1 X0.488F2500S1000
G1 X5.096F5000S0
G1 X0.447F2500S1000
G1 X2.617F5000S0
G1 X0.634F2500S1000
G1 X3.081F5000S0
G1 X0.571F2500S1000
G1 X2.226F5000S0
G1 X0.434F2500S1000
G1 X1.469F5000S0
G1 X0.411F2500S1000
G1 X1.621F5000S0
G1 X0.497F2500S1000
G1 X2.597F5000S0
G1 X0.643F2500S1000
G1 X3.485F5000S0
G1 X0.726F2500S1000
G1 X3.054F5000S0
G1 X0.505F2500S1000
G1 X5.734F5000S0
G1 X0.565F2500S1000
G1 X1.877F5000S0
G1 X0.332F2500S1000
G1 X1.971F5000S0
G1 X0.649F2500S1000
G0 X1.042
G0 X-0.194Y0.1
G0 X-1.041
G1 X-0.642
G1 X-1.734F5000S0
G1 X-0.331F2500S1000
G1 X-1.85F5000S0
G1 X-0.566F2500S1000
G1 X-5.833F5000S0
G1 X-0.504F2500S1000
G1 X-2.907F5000S0
G1 X-0.724F2500S1000
G1 X-3.71F5000S0
G1 X-0.644F2500S1000
G1 X-2.473F5000S0
G1 X-0.497F2500S1000
G1 X-1.646F5000S0
G1 X-0.411F2500S1000
G1 X-1.492F5000S0
G1 X-0.434F2500S1000
G1 X-2.119F5000S0
G1 X-0.571F2500S1000
G1 X-3.276F5000S0
G1 X-0.634F2500S1000
G1 X-2.488F5000S0
G1 X-0.446F2500S1000
G1 X-5.183F5000S0
G1 X-0.488F2500S1000
G1 X-4.065F5000S0
G1 X-1.162F2500S1000
G0 X-1.042
G0 X0.194Y0.1
G0 X1.041
G1 X0.935
G1 X4.031F5000S0
G1 X0.49F2500S1000
G1 X5.27F5000S0
G1 X0.446F2500S1000
G1 X2.358F5000S0
G1 X0.635F2500S1000
G1 X3.47F5000S0
G1 X0.571F2500S1000
G1 X2.013F5000S0
G1 X0.434F2500S1000
G1 X1.513F5000S0
G1 X0.411F2500S1000
G1 X1.671F5000S0
G1 X0.497F2500S1000
G1 X2.351F5000S0
G1 X0.644F2500S1000
G1 X3.934F5000S0
G1 X0.724F2500S1000
G1 X2.758F5000S0
G1 X0.504F2500S1000
G1 X5.933F5000S0
G1 X0.566F2500S1000
G1 X1.823F5000S0
G1 X0.331F2500S1000
G1 X1.481F5000S0
G1 X0.651F2500S1000
G0 X1.042
G0 X-0.191Y0.1
G0 X-1.042
G1 X-0.662
G1 X-1.228F5000S0
G1 X-0.331F2500S1000
G1 X-1.796F5000S0
G1 X-0.566F2500S1000
G1 X-6.032F5000S0
G1 X-0.504F2500S1000
G1 X-2.609F5000S0
G1 X-0.724F2500S1000
G1 X-4.158F5000S0
G1 X-0.645F2500S1000
G1 X-2.227F5000S0
G1 X-0.497F2500S1000
G1 X-1.697F5000S0
G1 X-0.411F2500S1000
G1 X-1.534F5000S0
G1 X-0.434F2500S1000
G1 X-1.907F5000S0
G1 X-0.571F2500S1000
G1 X-3.665F5000S0
G1 X-0.634F2500S1000
G1 X-2.229F5000S0
G1 X-0.445F2500S1000
G1 X-5.358F5000S0
G1 X-0.492F2500S1000
G1 X-3.95F5000S0
G1 X-0.755F2500S1000
G0 X-1.041
G0 X0.193Y0.1
G0 X1.041
G1 X0.664
G1 X3.78F5000S0
G1 X0.494F2500S1000
G1 X5.445F5000S0
G1 X0.444F2500S1000
G1 X2.1F5000S0
G1 X0.635F2500S1000
G1 X3.859F5000S0
G1 X0.571F2500S1000
G1 X1.8F5000S0
G1 X0.435F2500S1000
G1 X1.555F5000S0
G1 X0.412F2500S1000
G1 X1.721F5000S0
G1 X0.498F2500S1000
G1 X2.103F5000S0
G1 X0.646F2500S1000
G1 X4.382F5000S0
G1 X0.724F2500S1000
G1 X2.461F5000S0
G1 X0.503F2500S1000
G1 X6.132F5000S0
G1 X0.566F2500S1000
G1 X1.769F5000S0
G1 X0.33F2500S1000
G1 X0.983S0
G1 X0.665S1000
G0 X1.041
G0 X-0.191Y0.1
G0 X-1.042
G1 X-0.663
G1 X-0.742S0
G1 X-0.329S1000
G1 X-1.742F5000S0
G1 X-0.566F2500S1000
G1 X-6.231F5000S0
G1 X-0.504F2500S1000
G1 X-2.313F5000S0
G1 X-0.723F2500S1000
G1 X-4.606F5000S0
G1 X-0.646F2500S1000
G1 X-1.98F5000S0
G1 X-0.498F2500S1000
G1 X-1.747F5000S0
G1 X-0.412F2500S1000
G1 X-1.575F5000S0
G1 X-0.436F2500S1000
G1 X-1.694F5000S0
G1 X-0.571F2500S1000
G1 X-4.054F5000S0
G1 X-0.635F2500S1000
G1 X-1.97F5000S0
G1 X-0.444F2500S1000
G1 X-5.53F5000S0
G1 X-0.498F2500S1000
G1 X-3.527F5000S0
G1 X-0.655F2500S1000
G0 X-1.042
G0 X0.194Y0.1
G0 X1.042
G1 X0.661
G1 X3.26F5000S0
G1 X0.516F2500S1000
G1 X5.601F5000S0
G1 X0.443F2500S1000
G1 X1.84F5000S0
G1 X0.636F2500S1000
G1 X4.248F5000S0
G1 X0.571F2500S1000
G1 X1.588F5000S0
G1 X0.436F2500S1000
G1 X1.596F5000S0
G1 X0.412F2500S1000
G1 X1.772F5000S0
G1 X0.499F2500S1000
G1 X1.856F5000S0
G1 X0.646F2500S1000
G1 X4.831F5000S0
G1 X0.723F2500S1000
G1 X2.165F5000S0
G1 X0.503F2500S1000
G1 X6.321F5000S0
G1 X0.576F2500S1000
G1 X1.714F5000S0
G1 X0.337F2500S1000
G1 X0.493S0
G1 X0.662S1000
G0 X1.041
G0 X-0.191Y0.1
G0 X-1.042
G1 X-0.677
G1 X-0.187S0
G1 X-0.384S1000
G1 X-1.694F5000S0
G1 X-0.617F2500S1000
G1 X-6.373F5000S0
G1 X-0.503F2500S1000
G1 X-2.016F5000S0
G1 X-0.723F2500S1000
G1 X-5.056F5000S0
G1 X-0.646F2500S1000
G1 X-1.733F5000S0
G1 X-0.498F2500S1000
G1 X-1.797F5000S0
G1 X-0.412F2500S1000
G1 X-1.618F5000S0
G1 X-0.436F2500S1000
G1 X-1.482F5000S0
G1 X-0.57F2500S1000
G1 X-4.444F5000S0
G1 X-0.635F2500S1000
G1 X-1.712F5000S0
G1 X-0.442F2500S1000
G1 X-5.562F5000S0
G1 X-0.627F2500S1000
G1 X-3.009F5000S0
G1 X-0.667F2500S1000
G0 X-1.041
G0 X0.194Y0.1
G0 X1.042
G1 X0.671
G1 X2.788F5000S0
G1 X0.957F2500S1000
G1 X5.275F5000S0
G1 X0.442F2500S1000
G1 X1.582F5000S0
G1 X0.635F2500S1000
G1 X4.639F5000S0
G1 X0.57F2500S1000
G1 X1.375F5000S0
G1 X0.438F2500S1000
G1 X1.638F5000S0
G1 X0.412F2500S1000
G1 X1.822F5000S0
G1 X0.499F2500S1000
G1 X1.61F5000S0
G1 X0.645F2500S1000
G1 X5.281F5000S0
G1 X0.723F2500S1000
G1 X1.867F5000S0
G1 X0.503F2500S1000
G1 X6.247F5000S0
G1 X0.813F2500S1000
G1 X1.697F5000S0
G1 X1.005F2500S1000
G0 X1.042
G0 X-0.192Y0.1
G0 X-1.041
G1 X-0.763
G1 X-1.732F5000S0
G1 X-1.224F2500S1000
G1 X-5.873F5000S0
G1 X-0.502F2500S1000
G1 X-1.72F5000S0
G1 X-0.722F2500S1000
G1 X-5.506F5000S0
G1 X-0.645F2500S1000
G1 X-1.486F5000S0
G1 X-0.499F2500S1000
G1 X-1.848F5000S0
G1 X-0.412F2500S1000
G1 X-1.659F5000S0
G1 X-0.438F2500S1000
G1 X-1.27F5000S0
G1 X-0.569F2500S1000
G1 X-4.834F5000S0
G1 X-0.635F2500S1000
G1 X-1.453F5000S0
G1 X-0.44F2500S1000
G1 X-4.953F5000S0
G1 X-1.294F2500S1000
G1 X-2.6F5000S0
G1 X-0.672F2500S1000
G0 X-1.042
G0 X0.195Y0.1
G0 X1.041
G1 X0.671
G1 X2.435F5000S0
G1 X1.611F2500S1000
G1 X4.629F5000S0
G1 X0.44F2500S1000
G1 X1.323F5000S0
G1 X0.636F2500S1000
G1 X5.028F5000S0
G1 X0.569F2500S1000
G1 X1.164F5000S0
G1 X0.438F2500S1000
G1 X1.68F5000S0
G1 X0.413F2500S1000
G1 X1.872F5000S0
G1 X0.5F2500S1000
G1 X1.362F5000S0
G1 X0.645F2500S1000
G1 X5.731F5000S0
G1 X0.722F2500S1000
G1 X1.571F5000S0
G1 X0.502F2500S1000
G1 X5.503F5000S0
G1 X1.601F2500S1000
G1 X1.803F5000S0
G1 X0.514F2500S1000
G0 X1.042
G0 X-0.205Y0.1
G0 X-1.041
G1 X-0.221
G1 X-1.925F5000S0
G1 X-1.959F2500S1000
G1 X-5.132F5000S0
G1 X-0.503F2500S1000
G1 X-1.422F5000S0
G1 X-0.722F2500S1000
G1 X-5.956F5000S0
G1 X-0.644F2500S1000
G1 X-1.239F5000S0
G1 X-0.501F2500S1000
G1 X-1.897F5000S0
G1 X-0.413F2500S1000
G1 X-1.7F5000S0
G1 X-0.44F2500S1000
G1 X-1.057F5000S0
G1 X-0.569F2500S1000
G1 X-5.223F5000S0
G1 X-0.635F2500S1000
G1 X-1.195F5000S0
G1 X-0.438F2500S1000
G1 X-4.307F5000S0
G1 X-1.917F2500S1000
G1 X-2.28F5000S0
G1 X-0.67F2500S1000
G0 X-1.041
G0 X0.194Y0.1
G0 X1.042
G1 X0.668
G1 X2.125F5000S0
G1 X0.552F2500S1000
G1 X0.096S0
G1 X1.575S1000
G1 X3.984F5000S0
G1 X0.437F2500S1000
G1 X1.066F5000S0
G1 X0.635F2500S1000
G1 X5.419F5000S0
G1 X0.568F2500S1000
G1 X0.951S0
G1 X0.44S1000
G1 X1.721F5000S0
G1 X0.413F2500S1000
G1 X1.923F5000S0
G1 X0.501F2500S1000
G1 X1.115F5000S0
G1 X0.644F2500S1000
G1 X6.181F5000S0
G1 X0.722F2500S1000
G1 X1.274F5000S0
G1 X0.502F2500S1000
G1 X4.763F5000S0
G1 X2.309F2500S1000
G0 X1.041
G0 X-0.04Y0.1
G0 X-1.042
G1 X-0.547
G1 X-0.293S0
G1 X-1.821S1000
G1 X-4.391F5000S0
G1 X-0.502F2500S1000
G1 X-1.126F5000S0
G1 X-0.721F2500S1000
G1 X-6.406F5000S0
G1 X-0.644F2500S1000
G1 X-0.991S0
G1 X-0.502S1000
G1 X-1.947F5000S0
G1 X-0.414F2500S1000
G1 X-1.741F5000S0
G1 X-0.441F2500S1000
G1 X-0.845S0
G1 X-0.568S1000
G1 X-5.614F5000S0
G1 X-0.635F2500S1000
G1 X-0.936S0
G1 X-0.437S1000
G1 X-3.66F5000S0
G1 X-1.591F2500S1000
G1 X-0.485S0
G1 X-0.455S1000
G1 X-1.974F5000S0
G1 X-0.662F2500S1000
G0 X-1.042
G0 X0.195Y0.1
G0 X1.041
G1 X0.536
G1 X1.944F5000S0
G1 X0.452F2500S1000
G1 X0.793S0
G1 X1.592S1000
G1 X3.338F5000S0
G1 X0.435F2500S1000
G1 X0.807S0
G1 X0.636S1000
G1 X5.808F5000S0
G1 X0.568F2500S1000
G1 X0.739S0
G1 X0.443S1000
G1 X1.76F5000S0
G1 X0.414F2500S1000
G1 X1.973F5000S0
G1 X0.502F2500S1000
G1 X0.868S0
G1 X0.644S1000
G1 X6.63F5000S0
G1 X0.721F2500S1000
G1 X0.977S0
G1 X0.502S1000
G1 X4.018F5000S0
G1 X1.819F2500S1000
G1 X0.703S0
G1 X0.493S1000
G0 X1.042
G0 X-0.041Y0.1
G0 X-1.042
G1 X-0.5
G1 X-1.052F5000S0
G1 X-1.816F2500S1000
G1 X-3.645F5000S0
G1 X-0.501F2500S1000
G1 X-0.829S0
G1 X-0.721S1000
G1 X-6.855F5000S0
G1 X-0.644F2500S1000
G1 X-0.745S0
G1 X-0.502S1000
G1 X-1.998F5000S0
G1 X-0.413F2500S1000
G1 X-1.781F5000S0
G1 X-0.445F2500S1000
G1 X-0.632S0
G1 X-0.568S1000
G1 X-6.003F5000S0
G1 X-0.635F2500S1000
G1 X-0.679S0
G1 X-0.434S1000
G1 X-3.015F5000S0
G1 X-1.593F2500S1000
G1 X-1.096F5000S0
G1 X-0.454F2500S1000
G1 X-2.016F5000S0
G1 X-0.31F2500S1000
G0 X-1.041
G0 X2.363Y0.1
G0 X1.041
G1 X0.455
G1 X1.402F5000S0
G1 X1.593F2500S1000
G1 X2.692F5000S0
G1 X0.434F2500S1000
G1 X0.549S0
G1 X0.635S1000
G1 X6.198F5000S0
G1 X0.568F2500S1000
G1 X0.526S0
G1 X0.446S1000
G1 X1.801F5000S0
G1 X0.414F2500S1000
G1 X2.023F5000S0
G1 X0.502F2500S1000
G1 X0.621S0
G1 X0.644S1000
G1 X7.08F5000S0
G1 X0.721F2500S1000
G1 X0.68S0
G1 X0.501S1000
G1 X3.272F5000S0
G1 X1.814F2500S1000
G1 X1.407F5000S0
G1 X0.501F2500S1000
G0 X1.042
G0 X-0.041Y0.1
G0 X-1.041
G1 X-0.5
G1 X-1.765F5000S0
G1 X-1.817F2500S1000
G1 X-2.895F5000S0
G1 X-0.499F2500S1000
G1 X-0.532S0
G1 X-0.72S1000
G1 X-7.305F5000S0
G1 X-0.643F2500S1000
G1 X-0.498S0
G1 X-0.503S1000
G1 X-2.048F5000S0
G1 X-0.414F2500S1000
G1 X-1.82F5000S0
G1 X-0.448F2500S1000
G1 X-0.42S0
G1 X-0.567S1000
G1 X-6.394F5000S0
G1 X-0.635F2500S1000
G1 X-0.42S0
G1 X-0.432S1000
G1 X-2.371F5000S0
G1 X-1.593F2500S1000
G1 X-1.708F5000S0
G1 X-0.454F2500S1000
G0 X-1.042
G0 X0.038Y0.1
G0 X1.042
G1 X0.453
G1 X2.015F5000S0
G1 X1.592F2500S1000
G1 X2.049F5000S0
G1 X0.428F2500S1000
G1 X0.295S0
G1 X0.635S1000
G1 X6.588F5000S0
G1 X0.567F2500S1000
G1 X0.313S0
G1 X0.45S1000
G1 X1.84F5000S0
G1 X0.414F2500S1000
G1 X2.074F5000S0
G1 X0.503F2500S1000
G1 X0.374S0
G1 X0.643S1000
G1 X7.531F5000S0
G1 X0.719F2500S1000
G1 X0.381S0
G1 X0.499S1000
G1 X2.517F5000S0
G1 X1.822F2500S1000
G1 X2.121F5000S0
G1 X0.499F2500S1000
G0 X1.042
G0 X-0.041Y0.1
G0 X-1.041
G1 X-0.499
G1 X-2.478F5000S0
G1 X-1.825F2500S1000
G1 X-2.14F5000S0
G1 X-0.506F2500S1000
G1 X-0.223S0
G1 X-0.719S1000
G1 X-7.756F5000S0
G1 X-0.643F2500S1000
G1 X-0.241S0
G1 X-0.513S1000
G1 X-2.099F5000S0
G1 X-0.414F2500S1000
G1 X-1.859F5000S0
G1 X-0.452F2500S1000
G1 X-0.207S0
G1 X-0.567S1000
G1 X-6.783F5000S0
G1 X-0.624F2500S1000
G1 X-0.175S0
G1 X-0.429S1000
G1 X-1.728F5000S0
G1 X-1.591F2500S1000
G1 X-2.32F5000S0
G1 X-0.453F2500S1000
G0 X-1.042
G0 X0.038Y0.1
G0 X1.041
G1 X0.453
G1 X2.627F5000S0
G1 X1.59F2500S1000
G1 X1.407F5000S0
G1 X1.097F2500S1000
G1 X6.978F5000S0
G1 X0.566F2500S1000
G1 X0.102S0
G1 X0.453S1000
G1 X1.879F5000S0
G1 X0.414F2500S1000
G1 X2.125F5000S0
G1 X1.273F2500S1000
G1 X7.981F5000S0
G1 X1.297F2500S1000
G1 X1.762F5000S0
G1 X1.83F2500S1000
G1 X2.835F5000S0
G1 X0.498F2500S1000
G0 X1.041
G0 X-0.039Y0.1
G0 X-1.042
G1 X-0.498
G1 X-3.192F5000S0
G1 X-1.833F2500S1000
G1 X-1.386F5000S0
G1 X-1.145F2500S1000
G1 X-8.206F5000S0
G1 X-1.15F2500S1000
G1 X-2.15F5000S0
G1 X-0.414F2500S1000
G1 X-1.898F5000S0
G1 X-1.017F2500S1000
G1 X-7.173F5000S0
G1 X-0.967F2500S1000
G1 X-1.085F5000S0
G1 X-1.588F2500S1000
G1 X-2.935F5000S0
G1 X-0.452F2500S1000
G0 X-1.042
G0 X0.038Y0.1
G0 X1.042
G1 X0.452
G1 X3.243F5000S0
G1 X1.584F2500S1000
G1 X0.76S0
G1 X0.842S1000
G1 X7.368F5000S0
G1 X0.911F2500S1000
G1 X1.918F5000S0
G1 X0.414F2500S1000
G1 X2.176F5000S0
G1 X1.026F2500S1000
G1 X8.431F5000S0
G1 X1.003F2500S1000
G1 X0.999S0
G1 X1.836S1000
G1 X3.55F5000S0
G1 X0.498F2500S1000
G0 X1.042
G0 X-0.04Y0.1
G0 X-1.042
G1 X-0.497
G1 X-3.909F5000S0
G1 X-1.839F2500S1000
G1 X-0.605S0
G1 X-0.868S1000
G1 X-8.646F5000S0
G1 X-0.911F2500S1000
G1 X-2.203F5000S0
G1 X-0.413F2500S1000
G1 X-1.944F5000S0
G1 X-0.807F2500S1000
G1 X-7.557F5000S0
G1 X-0.729F2500S1000
G1 X-0.421S0
G1 X-1.581S1000
G1 X-3.552F5000S0
G1 X-0.452F2500S1000
G0 X-1.041
G0 X0.038Y0.1
G0 X1.041
G1 X0.451
G1 X3.861F5000S0
G1 X2.276F2500S1000
G1 X7.714F5000S0
G1 X0.731F2500S1000
G1 X1.973F5000S0
G1 X0.413F2500S1000
G1 X2.237F5000S0
G1 X0.827F2500S1000
G1 X8.824F5000S0
G1 X0.851F2500S1000
G1 X0.058S0
G1 X1.877S1000
G1 X4.266F5000S0
G1 X0.498F2500S1000
G0 X1.041
G0 X-0.04Y0.1
G0 X-1.041
G1 X-0.498
G1 X-4.624F5000S0
G1 X-2.279F2500S1000
G1 X-8.88F5000S0
G1 X-0.826F2500S1000
G1 X-2.29F5000S0
G1 X-0.413F2500S1000
G1 X-2.026F5000S0
G1 X-0.727F2500S1000
G1 X-7.756F5000S0
G1 X-1.84F2500S1000
G1 X-4.169F5000S0
G1 X-0.451F2500S1000
G0 X-1.042
G0 X0.038Y0.1
G0 X1.042
G1 X0.45
G1 X4.478F5000S0
G1 X1.494F2500S1000
G1 X7.6F5000S0
G1 X0.807F2500S1000
G1 X2.103F5000S0
G1 X0.413F2500S1000
G1 X2.372F5000S0
G1 X0.923F2500S1000
G1 X8.75F5000S0
G1 X1.831F2500S1000
G1 X4.982F5000S0
G1 X0.498F2500S1000
G0 X1.042
G0 X-0.04Y0.1
G0 X-1.042
G1 X-0.498
G1 X-5.34F5000S0
G1 X-1.526F2500S1000
G1 X-8.452F5000S0
G1 X-0.993F2500S1000
G1 X-2.506F5000S0
G1 X-0.413F2500S1000
G1 X-2.223F5000S0
G1 X-0.864F2500S1000
G1 X-7.311F5000S0
G1 X-1.261F2500S1000
G1 X-4.787F5000S0
G1 X-0.45F2500S1000
G0 X-1.041
G0 X0.037Y0.1
G0 X1.042
G1 X0.45
G1 X5.094F5000S0
G1 X1.079F2500S1000
G1 X6.972F5000S0
G1 X0.878F2500S1000
G1 X2.386F5000S0
G1 X0.413F2500S1000
G1 X2.699F5000S0
G1 X1.005F2500S1000
G1 X8.06F5000S0
G1 X1.315F2500S1000
G1 X5.697F5000S0
G1 X0.498F2500S1000
G0 X1.042
G0 X-0.04Y0.1
G0 X-1.041
G1 X-0.499
G1 X-5.983F5000S0
G1 X-1.172F2500S1000
G1 X-7.671F5000S0
G1 X-1.005F2500S1000
G1 X-2.904F5000S0
G1 X-0.413F2500S1000
G1 X-2.564F5000S0
G1 X-0.878F2500S1000
G1 X-6.633F5000S0
G1 X-1.054F2500S1000
G1 X-5.244F5000S0
G1 X-0.449F2500S1000
G0 X-1.042
G0 X0.038Y0.1
G0 X1.042
G1 X0.448
G1 X5.251F5000S0
G1 X1.172F2500S1000
G1 X6.295F5000S0
G1 X0.878F2500S1000
G1 X2.741F5000S0
G1 X0.413F2500S1000
G1 X3.109F5000S0
G1 X1.005F2500S1000
G1 X7.282F5000S0
G1 X1.286F2500S1000
G1 X6.012F5000S0
G1 X0.499F2500S1000
G0 X1.042
G0 X-0.04Y0.1
G0 X-1.042
G1 X-0.499
G1 X-5.976F5000S0
G1 X-1.465F2500S1000
G1 X-6.893F5000S0
G1 X-1.004F2500S1000
G1 X-3.315F5000S0
G1 X-0.412F2500S1000
G1 X-2.919F5000S0
G1 X-0.878F2500S1000
G1 X-5.957F5000S0
G1 X-1.331F2500S1000
G1 X-5.216F5000S0
G1 X-0.449F2500S1000
G0 X-1.041
G0 X0.037Y0.1
G0 X1.042
G1 X0.448
G1 X5.173F5000S0
G1 X0.456F2500S1000
G1 X0.213S0
G1 X0.83S1000
G1 X5.619F5000S0
G1 X0.878F2500S1000
G1 X3.096F5000S0
G1 X0.412F2500S1000
G1 X3.52F5000S0
G1 X1.003F2500S1000
G1 X6.505F5000S0
G1 X0.951F2500S1000
G1 X0.189S0
G1 X0.518S1000
G1 X5.926F5000S0
G1 X0.499F2500S1000
G0 X1.042
G0 X-0.04Y0.1
G0 X-1.041
G1 X-0.5
G1 X-5.874F5000S0
G1 X-0.497F2500S1000
G1 X-0.408S0
G1 X-0.947S1000
G1 X-6.117F5000S0
G1 X-1.003F2500S1000
G1 X-3.725F5000S0
G1 X-0.412F2500S1000
G1 X-3.274F5000S0
G1 X-0.878F2500S1000
G1 X-5.28F5000S0
G1 X-0.828F2500S1000
G1 X-0.398S0
G1 X-0.442S1000
G1 X-5.128F5000S0
G1 X-0.448F2500S1000
G0 X-1.042
G0 X-4.146Y0.1
G0 X1.042
G1 X0.698
G1 X3.485F5000S0
G1 X0.448F2500S1000
G1 X5.083F5000S0
G1 X0.441F2500S1000
G1 X0.568S0
G1 X0.83S1000
G1 X4.941F5000S0
G1 X0.876F2500S1000
G1 X3.453F5000S0
G1 X0.412F2500S1000
G1 X3.93F5000S0
G1 X1.003F2500S1000
G1 X5.728F5000S0
G1 X0.947F2500S1000
G1 X0.606S0
G1 X0.494S1000
G1 X5.822F5000S0
G1 X0.5F2500S1000
G0 X1.042
G0 X-0.04Y0.1
G0 X-1.042
G1 X-0.5
G1 X-5.77F5000S0
G1 X-0.494F2500S1000
G1 X-0.801S0
G1 X-0.947S1000
G1 X-5.339F5000S0
G1 X-1.003F2500S1000
G1 X-4.135F5000S0
G1 X-0.412F2500S1000
G1 X-3.632F5000S0
G1 X-0.874F2500S1000
G1 X-4.603F5000S0
G1 X-0.831F2500S1000
G1 X-0.737S0
G1 X-0.441S1000
G1 X-5.037F5000S0
G1 X-0.448F2500S1000
G1 X-3.528F5000S0
G1 X-1.34F2500S1000
G0 X-1.041
G0 X-0.647Y0.1
G0 X1.041
G1 X1.877
G1 X3.676F5000S0
G1 X0.447F2500S1000
G1 X4.993F5000S0
G1 X0.441F2500S1000
G1 X0.906S0
G1 X0.831S1000
G1 X4.265F5000S0
G1 X0.872F2500S1000
G1 X3.811F5000S0
G1 X0.412F2500S1000
G1 X4.34F5000S0
G1 X1.003F2500S1000
G1 X4.95F5000S0
G1 X0.946F2500S1000
G1 X0.996S0
G1 X0.495S1000
G1 X5.718F5000S0
G1 X0.5F2500S1000
G0 X1.042
G0 X-0.04Y0.1
G0 X-1.041
G1 X-0.501
G1 X-5.666F5000S0
G1 X-0.496F2500S1000
G1 X-1.19F5000S0
G1 X-0.946F2500S1000
G1 X-4.562F5000S0
G1 X-1.002F2500S1000
G1 X-4.545F5000S0
G1 X-0.412F2500S1000
G1 X-3.991F5000S0
G1 X-0.869F2500S1000
G1 X-3.927F5000S0
G1 X-0.832F2500S1000
G1 X-1.074F5000S0
G1 X-0.442F2500S1000
G1 X-4.947F5000S0
G1 X-0.448F2500S1000
G1 X-4.291F5000S0
G1 X-1.954F2500S1000
G0 X-1.041
G0 X-0.664Y0.1
G0 X1.042
G1 X1.968
G1 X4.978F5000S0
G1 X0.447F2500S1000
G1 X4.902F5000S0
G1 X0.443F2500S1000
G1 X1.243F5000S0
G1 X0.831F2500S1000
G1 X3.591F5000S0
G1 X0.866F2500S1000
G1 X4.17F5000S0
G1 X0.412F2500S1000
G1 X4.75F5000S0
G1 X1F2500S1000
G1 X4.176F5000S0
G1 X0.945F2500S1000
G1 X1.384F5000S0
G1 X0.497F2500S1000
G1 X5.614F5000S0
G1 X0.501F2500S1000
G0 X1.041
G0 X-0.039Y0.1
G0 X-1.042
G1 X-0.501
G1 X-5.561F5000S0
G1 X-0.499F2500S1000
G1 X-1.578F5000S0
G1 X-0.944F2500S1000
G1 X-3.791F5000S0
G1 X-1.001F2500S1000
G1 X-4.951F5000S0
G1 X-0.412F2500S1000
G1 X-4.327F5000S0
G1 X-0.884F2500S1000
G1 X-3.256F5000S0
G1 X-0.831F2500S1000
G1 X-1.412F5000S0
G1 X-0.442F2500S1000
G1 X-4.857F5000S0
G1 X-0.448F2500S1000
G1 X-5.449F5000S0
G1 X-2.197F2500S1000
G0 X-1.042
G0 X-0.663Y0.1
G0 X1.041
G1 X1.945
G1 X0.509S0
G1 X0.328S1000
G1 X5.566F5000S0
G1 X0.447F2500S1000
G1 X4.812F5000S0
G1 X0.443F2500S1000
G1 X1.58F5000S0
G1 X0.83F2500S1000
G1 X2.921F5000S0
G1 X0.954F2500S1000
G1 X4.434F5000S0
G1 X0.411F2500S1000
G1 X5.093F5000S0
G1 X1.062F2500S1000
G1 X3.405F5000S0
G1 X0.943F2500S1000
G1 X1.773F5000S0
G1 X0.499F2500S1000
G1 X5.509F5000S0
G1 X0.501F2500S1000
G0 X1.042
G0 X-0.04Y0.1
G0 X-1.042
G1 X-0.501
G1 X-5.457F5000S0
G1 X-0.5F2500S1000
G1 X-1.967F5000S0
G1 X-0.943F2500S1000
G1 X-3.018F5000S0
G1 X-1.191F2500S1000
G1 X-5.167F5000S0
G1 X-0.411F2500S1000
G1 X-4.499F5000S0
G1 X-1.064F2500S1000
G1 X-2.586F5000S0
G1 X-0.829F2500S1000
G1 X-1.749F5000S0
G1 X-0.443F2500S1000
G1 X-4.767F5000S0
G1 X-0.447F2500S1000
G1 X-5.637F5000S0
G1 X-0.297F2500S1000
G1 X-1.181F5000S0
G1 X-1.911F2500S1000
G0 X-1.042
G0 X-0.038Y0.1
G0 X1.042
G1 X1.274
G1 X1.836F5000S0
G1 X0.295F2500S1000
G1 X5.696F5000S0
G1 X0.448F2500S1000
G1 X4.721F5000S0
G1 X0.443F2500S1000
G1 X1.918F5000S0
G1 X0.829F2500S1000
G1 X2.25F5000S0
G1 X1.201F2500S1000
G1 X4.538F5000S0
G1 X0.411F2500S1000
G1 X5.204F5000S0
G1 X1.357F2500S1000
G1 X2.632F5000S0
G1 X0.941F2500S1000
G1 X2.162F5000S0
G1 X0.501F2500S1000
G1 X5.405F5000S0
G1 X0.502F2500S1000
G0 X1.041
G0 X-0.039Y0.1
G0 X-1.042
G1 X-0.502
G1 X-5.353F5000S0
G1 X-0.502F2500S1000
G1 X-2.357F5000S0
G1 X-0.939F2500S1000
G1 X-2.246F5000S0
G1 X-1.55F2500S1000
G1 X-5.214F5000S0
G1 X-0.41F2500S1000
G1 X-4.551F5000S0
G1 X-1.365F2500S1000
G1 X-1.915F5000S0
G1 X-0.826F2500S1000
G1 X-2.088F5000S0
G1 X-0.444F2500S1000
G1 X-4.676F5000S0
G1 X-0.447F2500S1000
G1 X-5.757F5000S0
G1 X-0.294F2500S1000
G1 X-2.396F5000S0
G1 X-0.621F2500S1000
G0 X-1.041
G0 X0.156Y0.1
G0 X1.042
G1 X0.498
G1 X2.34F5000S0
G1 X0.294F2500S1000
G1 X5.816F5000S0
G1 X0.448F2500S1000
G1 X4.631F5000S0
G1 X0.444F2500S1000
G1 X2.257F5000S0
G1 X0.825F2500S1000
G1 X1.58F5000S0
G1 X0.89F2500S1000
G1 X0.203S0
G1 X0.437S1000
G1 X4.562F5000S0
G1 X0.409F2500S1000
G1 X5.218F5000S0
G1 X0.493F2500S1000
G1 X0.243S0
G1 X1.012S1000
G1 X1.861F5000S0
G1 X0.937F2500S1000
G1 X2.552F5000S0
G1 X0.503F2500S1000
G1 X5.3F5000S0
G1 X0.503F2500S1000
G0 X1.042
G0 X-0.04Y0.1
G0 X-1.042
G1 X-0.503
G1 X-5.248F5000S0
G1 X-0.504F2500S1000
G1 X-2.748F5000S0
G1 X-0.934F2500S1000
G1 X-1.475F5000S0
G1 X-1.027F2500S1000
G1 X-0.442S0
G1 X-0.481S1000
G1 X-5.22F5000S0
G1 X-0.408F2500S1000
G1 X-4.562F5000S0
G1 X-0.43F2500S1000
G1 X-0.388S0
G1 X-0.888S1000
G1 X-1.244F5000S0
G1 X-0.824F2500S1000
G1 X-2.426F5000S0
G1 X-0.445F2500S1000
G1 X-4.586F5000S0
G1 X-0.447F2500S1000
G1 X-5.877F5000S0
G1 X-0.294F2500S1000
G1 X-2.172F5000S0
G1 X-0.5F2500S1000
G0 X-1.042
G0 X0.143Y0.1
G0 X1.042
G1 X0.501
G1 X2.006F5000S0
G1 X0.294F2500S1000
G1 X5.937F5000S0
G1 X0.447F2500S1000
G1 X4.54F5000S0
G1 X0.445F2500S1000
G1 X2.596F5000S0
G1 X0.822F2500S1000
G1 X0.91S0
G1 X0.885S1000
G1 X0.566S0
G1 X0.431S1000
G1 X4.562F5000S0
G1 X0.408F2500S1000
G1 X5.22F5000S0
G1 X0.481F2500S1000
G1 X0.629S0
G1 X1.042S1000
G1 X1.089F5000S0
G1 X0.932F2500S1000
G1 X2.943F5000S0
G1 X0.505F2500S1000
G1 X5.196F5000S0
G1 X0.504F2500S1000
G0 X1.041
G0 X-0.04Y0.1
G0 X-1.041
G1 X-0.504
G1 X-5.143F5000S0
G1 X-0.507F2500S1000
G1 X-3.138F5000S0
G1 X-0.93F2500S1000
G1 X-0.703S0
G1 X-1.031S1000
G1 X-0.841S0
G1 X-0.482S1000
G1 X-5.22F5000S0
G1 X-0.408F2500S1000
G1 X-4.563F5000S0
G1 X-0.431F2500S1000
G1 X-0.744S0
G1 X-0.883S1000
G1 X-0.574S0
G1 X-0.821S1000
G1 X-2.765F5000S0
G1 X-0.445F2500S1000
G1 X-4.496F5000S0
G1 X-0.447F2500S1000
G1 X-5.997F5000S0
G1 X-0.293F2500S1000
G1 X-1.84F5000S0
G1 X-0.502F2500S1000
G0 X-1.042
G0 X0.143Y0.1
G0 X1.042
G1 X0.503
G1 X1.672F5000S0
G1 X0.295F2500S1000
G1 X6.057F5000S0
G1 X0.447F2500S1000
G1 X4.45F5000S0
G1 X0.446F2500S1000
G1 X2.935F5000S0
G1 X0.836F2500S1000
G1 X0.207S0
G1 X0.893S1000
G1 X0.924S0
G1 X0.431S1000
G1 X4.564F5000S0
G1 X0.408F2500S1000
G1 X5.22F5000S0
G1 X0.482F2500S1000
G1 X1.06F5000S0
G1 X1.021F2500S1000
G1 X0.302S0
G1 X0.936S1000
G1 X3.333F5000S0
G1 X0.508F2500S1000
G1 X5.091F5000S0
G1 X0.504F2500S1000
G0 X1.042
G0 X-0.04Y0.1
G0 X-1.042
G1 X-0.504
G1 X-5.039F5000S0
G1 X-0.508F2500S1000
G1 X-3.53F5000S0
G1 X-1.838F2500S1000
G1 X-1.293F5000S0
G1 X-0.483F2500S1000
G1 X-5.221F5000S0
G1 X-0.408F2500S1000
G1 X-4.564F5000S0
G1 X-0.43F2500S1000
G1 X-1.105F5000S0
G1 X-1.595F2500S1000
G1 X-3.105F5000S0
G1 X-0.445F2500S1000
G1 X-4.405F5000S0
G1 X-0.448F2500S1000
G1 X-6.117F5000S0
G1 X-0.295F2500S1000
G1 X-1.504F5000S0
G1 X-0.505F2500S1000
G0 X-1.042
G0 X0.143Y0.1
G0 X1.042
G1 X0.506
G1 X1.337F5000S0
G1 X0.295F2500S1000
G1 X6.178F5000S0
G1 X0.447F2500S1000
G1 X4.361F5000S0
G1 X0.445F2500S1000
G1 X3.274F5000S0
G1 X1.254F2500S1000
G1 X1.285F5000S0
G1 X0.43F2500S1000
G1 X4.565F5000S0
G1 X0.408F2500S1000
G1 X5.221F5000S0
G1 X0.483F2500S1000
G1 X1.482F5000S0
G1 X1.463F2500S1000
G1 X3.725F5000S0
G1 X0.509F2500S1000
G1 X4.987F5000S0
G1 X0.504F2500S1000
G1 X4.84F5000S0
G1 X0.244F2500S1000
G0 X1.042
G0 X0.034Y0.1
G0 X-1.041
G1 X-0.288
G1 X-4.87F5000S0
G1 X-0.505F2500S1000
G1 X-4.935F5000S0
G1 X-0.51F2500S1000
G1 X-3.901F5000S0
G1 X-1.163F2500S1000
G1 X-1.614F5000S0
G1 X-0.484F2500S1000
G1 X-5.221F5000S0
G1 X-0.408F2500S1000
G1 X-4.566F5000S0
G1 X-0.43F2500S1000
G1 X-1.431F5000S0
G1 X-0.96F2500S1000
G1 X-3.43F5000S0
G1 X-0.445F2500S1000
G1 X-4.316F5000S0
G1 X-0.448F2500S1000
G1 X-6.239F5000S0
G1 X-0.295F2500S1000
G1 X-1.169F5000S0
G1 X-0.507F2500S1000
G0 X-1.042
G0 X0.143Y0.1
G0 X1.042
G1 X0.508
G1 X1.002F5000S0
G1 X0.294F2500S1000
G1 X6.301F5000S0
G1 X0.448F2500S1000
G1 X4.27F5000S0
G1 X0.446F2500S1000
G1 X3.527F5000S0
G1 X0.796F2500S1000
G1 X1.506F5000S0
G1 X0.43F2500S1000
G1 X4.567F5000S0
G1 X0.408F2500S1000
G1 X5.22F5000S0
G1 X0.485F2500S1000
G1 X1.709F5000S0
G1 X0.967F2500S1000
G1 X4.012F5000S0
G1 X0.51F2500S1000
G1 X4.883F5000S0
G1 X0.505F2500S1000
G1 X4.923F5000S0
G1 X0.299F2500S1000
G0 X1.041
G0 X0.019Y0.1
G0 X-1.041
G1 X-0.302
G1 X-4.979F5000S0
G1 X-0.505F2500S1000
G1 X-4.831F5000S0
G1 X-0.511F2500S1000
G1 X-4.05F5000S0
G1 X-0.877F2500S1000
G1 X-1.77F5000S0
G1 X-0.485F2500S1000
G1 X-5.22F5000S0
G1 X-0.409F2500S1000
G1 X-4.566F5000S0
G1 X-0.431F2500S1000
G1 X-1.544F5000S0
G1 X-0.737F2500S1000
G1 X-3.557F5000S0
G1 X-0.445F2500S1000
G1 X-4.225F5000S0
G1 X-0.448F2500S1000
G1 X-6.362F5000S0
G1 X-0.297F2500S1000
G1 X-0.831S0
G1 X-0.51S1000
G0 X-1.042
G0 X0.143Y0.1
G0 X1.042
G1 X0.511
G1 X0.661S0
G1 X0.299S1000
G1 X6.423F5000S0
G1 X0.448F2500S1000
G1 X4.181F5000S0
G1 X0.445F2500S1000
G1 X3.545F5000S0
G1 X0.741F2500S1000
G1 X1.56F5000S0
G1 X0.431F2500S1000
G1 X4.567F5000S0
G1 X0.408F2500S1000
G1 X5.221F5000S0
G1 X0.486F2500S1000
G1 X1.808F5000S0
G1 X0.849F2500S1000
G1 X4.049F5000S0
G1 X0.511F2500S1000
G1 X4.779F5000S0
G1 X0.505F2500S1000
G1 X5.035F5000S0
G1 X0.303F2500S1000
G0 X1.042
G0 X0.017Y0.1
G0 X-1.042
G1 X-0.305
G1 X-5.089F5000S0
G1 X-0.506F2500S1000
G1 X-4.726F5000S0
G1 X-0.512F2500S1000
G1 X-4.022F5000S0
G1 X-0.861F2500S1000
G1 X-1.833F5000S0
G1 X-0.486F2500S1000
G1 X-5.221F5000S0
G1 X-0.408F2500S1000
G1 X-4.568F5000S0
G1 X-0.431F2500S1000
G1 X-1.567F5000S0
G1 X-0.771F2500S1000
G1 X-3.516F5000S0
G1 X-0.445F2500S1000
G1 X-4.136F5000S0
G1 X-0.448F2500S1000
G1 X-6.484F5000S0
G1 X-0.308F2500S1000
G1 X-0.483S0
G1 X-0.514S1000
G0 X-1.042
G0 X0.143Y0.1
G0 X1.042
G1 X0.526
G1 X0.284S0
G1 X0.328S1000
G1 X6.545F5000S0
G1 X0.449F2500S1000
G1 X4.091F5000S0
G1 X0.444F2500S1000
G1 X3.479F5000S0
G1 X0.811F2500S1000
G1 X1.573F5000S0
G1 X0.431F2500S1000
G1 X4.569F5000S0
G1 X0.408F2500S1000
G1 X5.221F5000S0
G1 X0.487F2500S1000
G1 X1.839F5000S0
G1 X0.902F2500S1000
G1 X3.983F5000S0
G1 X0.513F2500S1000
G1 X4.674F5000S0
G1 X0.506F2500S1000
G1 X5.147F5000S0
G1 X0.305F2500S1000
G0 X1.041
G0 X0.018Y0.1
G0 X-1.042
G1 X-0.305
G1 X-5.204F5000S0
G1 X-0.506F2500S1000
G1 X-4.622F5000S0
G1 X-0.513F2500S1000
G1 X-3.94F5000S0
G1 X-0.957F2500S1000
G1 X-1.837F5000S0
G1 X-0.487F2500S1000
G1 X-5.221F5000S0
G1 X-0.409F2500S1000
G1 X-4.569F5000S0
G1 X-0.431F2500S1000
G1 X-1.579F5000S0
G1 X-0.85F2500S1000
G1 X-3.442F5000S0
G1 X-0.445F2500S1000
G1 X-4.045F5000S0
G1 X-0.449F2500S1000
G1 X-6.607F5000S0
G1 X-0.971F2500S1000
G0 X-1.042
G0 X0.144Y0.1
G0 X1.041
G1 X0.812
G1 X6.661F5000S0
G1 X0.449F2500S1000
G1 X4F5000S0
G1 X0.445F2500S1000
G1 X3.405F5000S0
G1 X0.889F2500S1000
G1 X1.585F5000S0
G1 X0.431F2500S1000
G1 X4.57F5000S0
G1 X0.409F2500S1000
G1 X5.221F5000S0
G1 X0.488F2500S1000
G1 X1.824F5000S0
G1 X1.021F2500S1000
G1 X3.898F5000S0
G1 X0.513F2500S1000
G1 X4.57F5000S0
G1 X0.506F2500S1000
G1 X5.261F5000S0
G1 X0.306F2500S1000
G0 X1.041
G0 X0.018Y0.1
G0 X-1.042
G1 X-0.306
G1 X-5.318F5000S0
G1 X-0.506F2500S1000
G1 X-4.518F5000S0
G1 X-0.514F2500S1000
G1 X-3.855F5000S0
G1 X-1.077F2500S1000
G1 X-1.82F5000S0
G1 X-0.488F2500S1000
G1 X-5.222F5000S0
G1 X-0.408F2500S1000
G1 X-4.57F5000S0
G1 X-0.432F2500S1000
G1 X-1.591F5000S0
G1 X-0.929F2500S1000
G1 X-3.367F5000S0
G1 X-0.445F2500S1000
G1 X-3.956F5000S0
G1 X-0.449F2500S1000
G1 X-6.697F5000S0
G1 X-0.669F2500S1000
G0 X-1.041
G0 X0.143Y0.1
G0 X1.042
G1 X0.566
G1 X6.694F5000S0
G1 X0.449F2500S1000
G1 X3.911F5000S0
G1 X0.444F2500S1000
G1 X3.331F5000S0
G1 X0.968F2500S1000
G1 X1.597F5000S0
G1 X0.432F2500S1000
G1 X4.57F5000S0
G1 X0.409F2500S1000
G1 X5.222F5000S0
G1 X0.489F2500S1000
G1 X1.831F5000S0
G1 X0.539F2500S1000
G1 X0.039S0
G1 X0.54S1000
G1 X3.812F5000S0
G1 X0.514F2500S1000
G1 X4.466F5000S0
G1 X0.507F2500S1000
G1 X5.376F5000S0
G1 X0.305F2500S1000
G0 X1.041
G0 X0.018Y0.1
G0 X-1.042
G1 X-0.304
G1 X-5.434F5000S0
G1 X-0.507F2500S1000
G1 X-4.415F5000S0
G1 X-0.514F2500S1000
G1 X-3.769F5000S0
G1 X-0.537F2500S1000
G1 X-0.105S0
G1 X-0.521S1000
G1 X-1.838F5000S0
G1 X-0.49F2500S1000
G1 X-5.221F5000S0
G1 X-0.409F2500S1000
G1 X-4.571F5000S0
G1 X-0.432F2500S1000
G1 X-1.603F5000S0
G1 X-0.435F2500S1000
G1 X-0.102S0
G1 X-0.471S1000
G1 X-3.293F5000S0
G1 X-0.444F2500S1000
G1 X-3.866F5000S0
G1 X-0.449F2500S1000
G1 X-6.632F5000S0
G1 X-0.522F2500S1000
G0 X-1.042
G0 X0.144Y0.1
G0 X1.042
G1 X0.519
G1 X6.528F5000S0
G1 X0.45F2500S1000
G1 X3.82F5000S0
G1 X0.445F2500S1000
G1 X3.256F5000S0
G1 X0.471F2500S1000
G1 X0.141S0
G1 X0.435S1000
G1 X1.609F5000S0
G1 X0.432F2500S1000
G1 X4.572F5000S0
G1 X0.409F2500S1000
G1 X5.221F5000S0
G1 X0.49F2500S1000
G1 X1.846F5000S0
G1 X0.502F2500S1000
G1 X0.169S0
G1 X0.536S1000
G1 X3.727F5000S0
G1 X0.514F2500S1000
G1 X4.363F5000S0
G1 X0.507F2500S1000
G1 X5.492F5000S0
G1 X0.303F2500S1000
G0 X1.042
G0 X0.017Y0.1
G0 X-1.042
G1 X-0.302
G1 X-5.55F5000S0
G1 X-0.508F2500S1000
G1 X-4.31F5000S0
G1 X-0.514F2500S1000
G1 X-3.685F5000S0
G1 X-0.536F2500S1000
G1 X-0.22S0
G1 X-0.495S1000
G1 X-1.853F5000S0
G1 X-0.491F2500S1000
G1 X-5.222F5000S0
G1 X-0.408F2500S1000
G1 X-4.573F5000S0
G1 X-0.432F2500S1000
G1 X-1.615F5000S0
G1 X-0.436F2500S1000
G1 X-0.179S0
G1 X-0.472S1000
G1 X-3.219F5000S0
G1 X-0.444F2500S1000
G1 X-3.776F5000S0
G1 X-0.449F2500S1000
G1 X-6.42F5000S0
G1 X-0.521F2500S1000
G0 X-1.042
G0 X0.144Y0.1
G0 X1.041
G1 X0.524
G1 X6.312F5000S0
G1 X0.449F2500S1000
G1 X3.731F5000S0
G1 X0.444F2500S1000
G1 X3.182F5000S0
G1 X0.472F2500S1000
G1 X0.218S0
G1 X0.436S1000
G1 X1.622F5000S0
G1 X0.431F2500S1000
G1 X4.573F5000S0
G1 X0.409F2500S1000
G1 X5.222F5000S0
G1 X0.491F2500S1000
G1 X1.861F5000S0
G1 X0.49F2500S1000
G1 X0.269S0
G1 X0.537S1000
G1 X3.641F5000S0
G1 X0.515F2500S1000
G1 X4.258F5000S0
G1 X0.508F2500S1000
G1 X5.608F5000S0
G1 X0.301F2500S1000
G0 X1.041
G0 X0.017Y0.1
G0 X-1.042
G1 X-0.299
G1 X-5.665F5000S0
G1 X-0.509F2500S1000
G1 X-4.206F5000S0
G1 X-0.515F2500S1000
G1 X-3.599F5000S0
G1 X-0.537F2500S1000
G1 X-0.316S0
G1 X-0.487S1000
G1 X-1.868F5000S0
G1 X-0.492F2500S1000
G1 X-5.222F5000S0
G1 X-0.409F2500S1000
G1 X-4.574F5000S0
G1 X-0.431F2500S1000
G1 X-1.628F5000S0
G1 X-0.436F2500S1000
G1 X-0.257S0
G1 X-0.472S1000
G1 X-3.145F5000S0
G1 X-0.444F2500S1000
G1 X-3.686F5000S0
G1 X-0.449F2500S1000
G1 X-6.205F5000S0
G1 X-0.525F2500S1000
G0 X-1.041
G0 X0.143Y0.1
G0 X1.042
G1 X0.525
G1 X6.098F5000S0
G1 X0.45F2500S1000
G1 X3.641F5000S0
G1 X0.444F2500S1000
G1 X3.107F5000S0
G1 X0.472F2500S1000
G1 X0.297S0
G1 X0.436S1000
G1 X1.635F5000S0
G1 X0.431F2500S1000
G1 X4.574F5000S0
G1 X0.409F2500S1000
G1 X5.222F5000S0
G1 X0.492F2500S1000
G1 X1.875F5000S0
G1 X0.491F2500S1000
G1 X0.357S0
G1 X0.537S1000
G1 X3.557F5000S0
G1 X0.515F2500S1000
G1 X4.154F5000S0
G1 X0.509F2500S1000
G1 X5.723F5000S0
G1 X0.298F2500S1000
G0 X1.041
G0 X0.017Y0.1
G0 X-1.042
G1 X-0.296
G1 X-5.781F5000S0
G1 X-0.509F2500S1000
G1 X-4.102F5000S0
G1 X-0.515F2500S1000
G1 X-3.514F5000S0
G1 X-0.538F2500S1000
G1 X-0.399S0
G1 X-0.493S1000
G1 X-1.882F5000S0
G1 X-0.493F2500S1000
G1 X-5.222F5000S0
G1 X-0.409F2500S1000
G1 X-4.575F5000S0
G1 X-0.431F2500S1000
G1 X-1.641F5000S0
G1 X-0.436F2500S1000
G1 X-0.336S0
G1 X-0.472S1000
G1 X-3.071F5000S0
G1 X-0.444F2500S1000
G1 X-3.595F5000S0
G1 X-0.45F2500S1000
G1 X-5.991F5000S0
G1 X-0.526F2500S1000
G0 X-1.042
G0 X0.144Y0.1
G0 X1.042
G1 X0.526
G1 X5.885F5000S0
G1 X0.449F2500S1000
G1 X3.551F5000S0
G1 X0.444F2500S1000
G1 X3.033F5000S0
G1 X0.473F2500S1000
G1 X0.374S0
G1 X0.437S1000
G1 X1.648F5000S0
G1 X0.43F2500S1000
G1 X4.575F5000S0
G1 X0.409F2500S1000
G1 X5.222F5000S0
G1 X0.494F2500S1000
G1 X1.89F5000S0
G1 X0.496F2500S1000
G1 X0.44S0
G1 X0.538S1000
G1 X3.472F5000S0
G1 X0.515F2500S1000
G1 X4.05F5000S0
G1 X0.509F2500S1000
G1 X5.839F5000S0
G1 X0.294F2500S1000
G0 X1.042
G0 X4.655Y0.1
G0 X-1.041
G1 X-0.685
G1 X-3.954F5000S0
G1 X-0.293F2500S1000
G1 X-5.897F5000S0
G1 X-0.509F2500S1000
G1 X-3.999F5000S0
G1 X-0.513F2500S1000
G1 X-3.431F5000S0
G1 X-0.538F2500S1000
G1 X-0.483S0
G1 X-0.497S1000
G1 X-1.897F5000S0
G1 X-0.495F2500S1000
G1 X-5.222F5000S0
G1 X-0.409F2500S1000
G1 X-4.576F5000S0
G1 X-0.43F2500S1000
G1 X-1.654F5000S0
G1 X-0.437F2500S1000
G1 X-0.413S0
G1 X-0.473S1000
G1 X-2.996F5000S0
G1 X-0.444F2500S1000
G1 X-3.506F5000S0
G1 X-0.45F2500S1000
G1 X-5.778F5000S0
G1 X-0.526F2500S1000
G0 X-1.042
G0 X0.144Y0.1
G0 X1.041
G1 X0.496
G1 X5.703F5000S0
G1 X0.45F2500S1000
G1 X3.461F5000S0
G1 X0.443F2500S1000
G1 X2.96F5000S0
G1 X0.473F2500S1000
G1 X0.452S0
G1 X0.437S1000
G1 X1.661F5000S0
G1 X0.429F2500S1000
G1 X4.577F5000S0
G1 X0.409F2500S1000
G1 X5.222F5000S0
G1 X0.495F2500S1000
G1 X1.905F5000S0
G1 X0.499F2500S1000
G1 X0.525S0
G1 X0.539S1000
G1 X3.388F5000S0
G1 X0.513F2500S1000
G1 X3.947F5000S0
G1 X0.509F2500S1000
G1 X5.955F5000S0
G1 X0.291F2500S1000
G1 X3.347F5000S0
G1 X1.288F2500S1000
G0 X1.041
G0 X-0.092Y0.1
G0 X-1.041
G1 X-1.787
G1 X-2.739F5000S0
G1 X-0.29F2500S1000
G1 X-6.013F5000S0
G1 X-0.509F2500S1000
G1 X-3.895F5000S0
G1 X-0.512F2500S1000
G1 X-3.347F5000S0
G1 X-0.539F2500S1000
G1 X-0.57S0
G1 X-0.499S1000
G1 X-1.911F5000S0
G1 X-0.496F2500S1000
G1 X-5.222F5000S0
G1 X-0.409F2500S1000
G1 X-4.577F5000S0
G1 X-0.43F2500S1000
G1 X-1.667F5000S0
G1 X-0.437F2500S1000
G1 X-0.492S0
G1 X-0.473S1000
G1 X-2.922F5000S0
G1 X-0.443F2500S1000
G1 X-3.416F5000S0
G1 X-0.45F2500S1000
G1 X-5.716F5000S0
G1 X-0.377F2500S1000
G0 X-1.041
G0 X0.124Y0.1
G0 X1.041
G1 X0.212
G1 X5.794F5000S0
G1 X0.45F2500S1000
G1 X3.371F5000S0
G1 X0.444F2500S1000
G1 X2.885F5000S0
G1 X0.473F2500S1000
G1 X0.531S0
G1 X0.437S1000
G1 X1.674F5000S0
G1 X0.43F2500S1000
G1 X4.576F5000S0
G1 X0.41F2500S1000
G1 X5.221F5000S0
G1 X0.497F2500S1000
G1 X1.919F5000S0
G1 X0.498F2500S1000
G1 X0.615S0
G1 X0.539S1000
G1 X3.305F5000S0
G1 X0.512F2500S1000
G1 X3.843F5000S0
G1 X0.509F2500S1000
G1 X6.071F5000S0
G1 X0.288F2500S1000
G1 X2.131F5000S0
G1 X1.827F2500S1000
G0 X1.042
G0 X-0.596Y0.1
G0 X-1.042
G1 X-1.822
G1 X-1.513F5000S0
G1 X-0.297F2500S1000
G1 X-6.128F5000S0
G1 X-0.51F2500S1000
G1 X-3.791F5000S0
G1 X-0.511F2500S1000
G1 X-3.263F5000S0
G1 X-0.54F2500S1000
G1 X-0.659S0
G1 X-0.498S1000
G1 X-1.927F5000S0
G1 X-0.497F2500S1000
G1 X-5.222F5000S0
G1 X-0.409F2500S1000
G1 X-4.576F5000S0
G1 X-0.431F2500S1000
G1 X-1.68F5000S0
G1 X-0.437F2500S1000
G1 X-0.57S0
G1 X-0.474S1000
G1 X-2.847F5000S0
G1 X-0.444F2500S1000
G1 X-3.326F5000S0
G1 X-0.45F2500S1000
G0 X-1.042
G0 X0.038Y0.1
G0 X1.042
G1 X0.45
G1 X3.281F5000S0
G1 X0.443F2500S1000
G1 X2.811F5000S0
G1 X0.474F2500S1000
G1 X0.608S0
G1 X0.438S1000
G1 X1.687F5000S0
G1 X0.43F2500S1000
G1 X4.577F5000S0
G1 X0.409F2500S1000
G1 X5.222F5000S0
G1 X0.498F2500S1000
G1 X1.934F5000S0
G1 X0.497F2500S1000
G1 X0.704S0
G1 X0.54S1000
G1 X3.221F5000S0
G1 X0.511F2500S1000
G1 X3.739F5000S0
G1 X0.51F2500S1000
G1 X6.186F5000S0
G1 X0.318F2500S1000
G1 X0.882S0
G1 X1.827S1000
G0 X1.042
G0 X-0.588Y0.1
G0 X-1.041
G1 X-1.817
G1 X-0.153S0
G1 X-0.452S1000
G1 X-6.244F5000S0
G1 X-0.51F2500S1000
G1 X-3.687F5000S0
G1 X-0.51F2500S1000
G1 X-3.18F5000S0
G1 X-0.54F2500S1000
G1 X-0.749S0
G1 X-0.496S1000
G1 X-1.942F5000S0
G1 X-0.499F2500S1000
G1 X-5.221F5000S0
G1 X-0.41F2500S1000
G1 X-4.576F5000S0
G1 X-0.431F2500S1000
G1 X-1.693F5000S0
G1 X-0.438F2500S1000
G1 X-0.647S0
G1 X-0.475S1000
G1 X-2.773F5000S0
G1 X-0.443F2500S1000
G1 X-3.236F5000S0
G1 X-0.451F2500S1000
G0 X-1.041
G0 X0.038Y0.1
G0 X1.041
G1 X0.45
G1 X3.192F5000S0
G1 X0.443F2500S1000
G1 X2.736F5000S0
G1 X0.474F2500S1000
G1 X0.687S0
G1 X0.438S1000
G1 X1.7F5000S0
G1 X0.431F2500S1000
G1 X4.576F5000S0
G1 X0.41F2500S1000
G1 X5.221F5000S0
G1 X0.5F2500S1000
G1 X1.948F5000S0
G1 X0.497F2500S1000
G1 X0.793S0
G1 X0.54S1000
G1 X3.138F5000S0
G1 X0.51F2500S1000
G1 X3.635F5000S0
G1 X0.51F2500S1000
G1 X6.302F5000S0
G1 X1.816F2500S1000
G0 X1.042
G0 X-0.587Y0.1
G0 X-1.042
G1 X-1.209
G1 X-6.362F5000S0
G1 X-0.51F2500S1000
G1 X-3.584F5000S0
G1 X-0.508F2500S1000
G1 X-3.096F5000S0
G1 X-0.541F2500S1000
G1 X-0.838S0
G1 X-0.496S1000
G1 X-1.955F5000S0
G1 X-0.501F2500S1000
G1 X-5.222F5000S0
G1 X-0.409F2500S1000
G1 X-4.576F5000S0
G1 X-0.432F2500S1000
G1 X-1.706F5000S0
G1 X-0.439F2500S1000
G1 X-0.725S0
G1 X-0.474S1000
G1 X-2.699F5000S0
G1 X-0.444F2500S1000
G1 X-3.146F5000S0
G1 X-0.45F2500S1000
G0 X-1.042
G0 X0.038Y0.1
G0 X1.042
G1 X0.45
G1 X3.101F5000S0
G1 X0.443F2500S1000
G1 X2.662F5000S0
G1 X0.475F2500S1000
G1 X0.764S0
G1 X0.439S1000
G1 X1.713F5000S0
G1 X0.431F2500S1000
G1 X4.577F5000S0
G1 X0.409F2500S1000
G1 X5.222F5000S0
G1 X0.502F2500S1000
G1 X1.962F5000S0
G1 X0.496F2500S1000
G1 X0.882S0
G1 X0.541S1000
G1 X3.054F5000S0
G1 X0.508F2500S1000
G1 X3.532F5000S0
G1 X0.51F2500S1000
G1 X6.438F5000S0
G1 X0.586F2500S1000
G0 X1.042
G0 X-7.064Y0.1
G0 X-1.042
G1 X-0.51
G1 X-3.48F5000S0
G1 X-0.507F2500S1000
G1 X-3.013F5000S0
G1 X-0.541F2500S1000
G1 X-0.927S0
G1 X-0.495S1000
G1 X-1.969F5000S0
G1 X-0.504F2500S1000
G1 X-5.221F5000S0
G1 X-0.41F2500S1000
G1 X-4.576F5000S0
G1 X-0.432F2500S1000
G1 X-1.719F5000S0
G1 X-0.439F2500S1000
G1 X-0.803S0
G1 X-0.475S1000
G1 X-2.625F5000S0
G1 X-0.443F2500S1000
G1 X-3.056F5000S0
G1 X-0.451F2500S1000
G0 X-1.041
G0 X0.037Y0.1
G0 X1.042
G1 X0.451
G1 X3.011F5000S0
G1 X0.443F2500S1000
G1 X2.587F5000S0
G1 X0.476F2500S1000
G1 X0.841S0
G1 X0.44S1000
G1 X1.726F5000S0
G1 X0.432F2500S1000
G1 X4.576F5000S0
G1 X0.41F2500S1000
G1 X5.221F5000S0
G1 X0.504F2500S1000
G1 X1.977F5000S0
G1 X0.494F2500S1000
G1 X0.972S0
G1 X0.542S1000
G1 X2.97F5000S0
G1 X0.507F2500S1000
G1 X3.428F5000S0
G1 X0.511F2500S1000
G0 X1.041
G0 X-0.04Y0.1
G0 X-1.041
G1 X-0.511
G1 X-3.376F5000S0
G1 X-0.506F2500S1000
G1 X-2.929F5000S0
G1 X-0.542F2500S1000
G1 X-1.016F5000S0
G1 X-0.495F2500S1000
G1 X-1.983F5000S0
G1 X-0.505F2500S1000
G1 X-5.221F5000S0
G1 X-0.41F2500S1000
G1 X-4.576F5000S0
G1 X-0.433F2500S1000
G1 X-1.732F5000S0
G1 X-0.44F2500S1000
G1 X-0.881S0
G1 X-0.475S1000
G1 X-2.551F5000S0
G1 X-0.442F2500S1000
G1 X-2.967F5000S0
G1 X-0.45F2500S1000
G0 X-1.042
G0 X0.038Y0.1
G0 X1.041
G1 X0.451
G1 X2.921F5000S0
G1 X0.443F2500S1000
G1 X2.513F5000S0
G1 X0.476F2500S1000
G1 X0.92S0
G1 X0.44S1000
G1 X1.739F5000S0
G1 X0.433F2500S1000
G1 X4.575F5000S0
G1 X0.41F2500S1000
G1 X5.221F5000S0
G1 X0.507F2500S1000
G1 X1.99F5000S0
G1 X0.494F2500S1000
G1 X1.061F5000S0
G1 X0.542F2500S1000
G1 X2.887F5000S0
G1 X0.506F2500S1000
G1 X3.323F5000S0
G1 X0.512F2500S1000
G0 X1.042
G0 X-0.04Y0.1
G0 X-1.042
G1 X-0.512
G1 X-3.271F5000S0
G1 X-0.505F2500S1000
G1 X-2.845F5000S0
G1 X-0.543F2500S1000
G1 X-1.106F5000S0
G1 X-0.493F2500S1000
G1 X-1.998F5000S0
G1 X-0.507F2500S1000
G1 X-5.221F5000S0
G1 X-0.41F2500S1000
G1 X-4.576F5000S0
G1 X-0.433F2500S1000
G1 X-1.745F5000S0
G1 X-0.441F2500S1000
G1 X-0.958S0
G1 X-0.476S1000
G1 X-2.476F5000S0
G1 X-0.443F2500S1000
G1 X-2.876F5000S0
G1 X-0.451F2500S1000
G0 X-1.042
G0 X0.038Y0.1
G0 X1.042
G1 X0.451
G1 X2.831F5000S0
G1 X0.442F2500S1000
G1 X2.44F5000S0
G1 X0.476F2500S1000
G1 X0.997S0
G1 X0.441S1000
G1 X1.752F5000S0
G1 X0.433F2500S1000
G1 X4.575F5000S0
G1 X0.411F2500S1000
G1 X5.221F5000S0
G1 X0.508F2500S1000
G1 X2.005F5000S0
G1 X0.493F2500S1000
G1 X1.15F5000S0
G1 X0.543F2500S1000
G1 X2.803F5000S0
G1 X0.505F2500S1000
G1 X3.219F5000S0
G1 X0.512F2500S1000
G0 X1.042
G0 X-0.04Y0.1
G0 X-1.042
G1 X-0.512
G1 X-3.168F5000S0
G1 X-0.503F2500S1000
G1 X-2.762F5000S0
G1 X-0.543F2500S1000
G1 X-1.195F5000S0
G1 X-0.493F2500S1000
G1 X-2.012F5000S0
G1 X-0.509F2500S1000
G1 X-5.22F5000S0
G1 X-0.411F2500S1000
G1 X-4.575F5000S0
G1 X-0.434F2500S1000
G1 X-1.758F5000S0
G1 X-0.442F2500S1000
G1 X-1.035F5000S0
G1 X-0.477F2500S1000
G1 X-2.402F5000S0
G1 X-0.442F2500S1000
G1 X-2.787F5000S0
G1 X-0.451F2500S1000
G0 X-1.041
G0 X0.037Y0.1
G0 X1.042
G1 X0.451
G1 X2.742F5000S0
G1 X0.441F2500S1000
G1 X2.366F5000S0
G1 X0.477F2500S1000
G1 X1.074F5000S0
G1 X0.441F2500S1000
G1 X1.766F5000S0
G1 X0.434F2500S1000
G1 X4.574F5000S0
G1 X0.411F2500S1000
G1 X5.221F5000S0
G1 X0.509F2500S1000
G1 X2.02F5000S0
G1 X0.492F2500S1000
G1 X1.24F5000S0
G1 X0.544F2500S1000
G1 X2.719F5000S0
G1 X0.503F2500S1000
G1 X3.116F5000S0
G1 X0.512F2500S1000
G0 X1.042
G0 X-0.04Y0.1
G0 X-1.041
G1 X-0.513
G1 X-3.065F5000S0
G1 X-0.501F2500S1000
G1 X-2.678F5000S0
G1 X-0.544F2500S1000
G1 X-1.284F5000S0
G1 X-0.493F2500S1000
G1 X-2.028F5000S0
G1 X-0.508F2500S1000
G1 X-5.221F5000S0
G1 X-0.412F2500S1000
G1 X-4.574F5000S0
G1 X-0.434F2500S1000
G1 X-1.772F5000S0
G1 X-0.441F2500S1000
G1 X-1.114F5000S0
G1 X-0.477F2500S1000
G1 X-2.328F5000S0
G1 X-0.442F2500S1000
G1 X-2.696F5000S0
G1 X-0.451F2500S1000
G0 X-1.042
G0 X0.038Y0.1
G0 X1.042
G1 X0.451
G1 X2.651F5000S0
G1 X0.441F2500S1000
G1 X2.292F5000S0
G1 X0.477F2500S1000
G1 X1.152F5000S0
G1 X0.442F2500S1000
G1 X1.778F5000S0
G1 X0.435F2500S1000
G1 X4.574F5000S0
G1 X0.412F2500S1000
G1 X5.221F5000S0
G1 X0.507F2500S1000
G1 X2.037F5000S0
G1 X0.492F2500S1000
G1 X1.329F5000S0
G1 X0.544F2500S1000
G1 X2.636F5000S0
G1 X0.501F2500S1000
G1 X3.013F5000S0
G1 X0.513F2500S1000
G0 X1.041
G0 X-0.04Y0.1
G0 X-1.041
G1 X-0.513
G1 X-2.961F5000S0
G1 X-0.5F2500S1000
G1 X-2.595F5000S0
G1 X-0.544F2500S1000
G1 X-1.374F5000S0
G1 X-0.491F2500S1000
G1 X-2.046F5000S0
G1 X-0.507F2500S1000
G1 X-5.22F5000S0
G1 X-0.413F2500S1000
G1 X-4.573F5000S0
G1 X-0.435F2500S1000
G1 X-1.785F5000S0
G1 X-0.442F2500S1000
G1 X-1.191F5000S0
G1 X-0.477F2500S1000
G1 X-2.255F5000S0
G1 X-0.441F2500S1000
G1 X-2.606F5000S0
G1 X-0.452F2500S1000
G0 X-1.041
G0 X0.037Y0.1
G0 X1.042
G1 X0.451
G1 X2.561F5000S0
G1 X0.441F2500S1000
G1 X2.218F5000S0
G1 X0.478F2500S1000
G1 X1.229F5000S0
G1 X0.442F2500S1000
G1 X1.792F5000S0
G1 X0.436F2500S1000
G1 X4.573F5000S0
G1 X0.413F2500S1000
G1 X5.22F5000S0
G1 X0.507F2500S1000
G1 X2.053F5000S0
G1 X0.491F2500S1000
G1 X1.419F5000S0
G1 X0.545F2500S1000
G1 X2.552F5000S0
G1 X0.499F2500S1000
G1 X2.91F5000S0
G1 X0.513F2500S1000
G0 X1.042
G0 X-0.04Y0.1
G0 X-1.042
G1 X-0.513
G1 X-2.858F5000S0
G1 X-0.498F2500S1000
G1 X-2.511F5000S0
G1 X-0.545F2500S1000
G1 X-1.464F5000S0
G1 X-0.49F2500S1000
G1 X-2.062F5000S0
G1 X-0.506F2500S1000
G1 X-5.221F5000S0
G1 X-0.413F2500S1000
G1 X-4.572F5000S0
G1 X-0.436F2500S1000
G1 X-1.799F5000S0
G1 X-0.443F2500S1000
G1 X-1.267F5000S0
G1 X-0.478F2500S1000
G1 X-2.181F5000S0
G1 X-0.441F2500S1000
G1 X-2.516F5000S0
G1 X-0.451F2500S1000
G1 X-6.785F5000S0
G1 X-4.457F2500S1000
G0 X-1.042
G0 X-0.251Y0.1
G0 X1.041
G1 X4.822
G1 X6.709F5000S0
G1 X0.452F2500S1000
G1 X2.47F5000S0
G1 X0.442F2500S1000
G1 X2.144F5000S0
G1 X0.477F2500S1000
G1 X1.306F5000S0
G1 X0.444F2500S1000
G1 X1.805F5000S0
G1 X0.436F2500S1000
G1 X4.572F5000S0
G1 X0.414F2500S1000
G1 X5.22F5000S0
G1 X0.506F2500S1000
G1 X2.071F5000S0
G1 X0.49F2500S1000
G1 X1.508F5000S0
G1 X0.545F2500S1000
G1 X2.469F5000S0
G1 X0.497F2500S1000
G1 X2.806F5000S0
G1 X0.514F2500S1000
G0 X1.042
G0 X-0.04Y0.1
G0 X-1.042
G1 X-0.514
G1 X-2.754F5000S0
G1 X-0.496F2500S1000
G1 X-2.427F5000S0
G1 X-0.546F2500S1000
G1 X-1.553F5000S0
G1 X-0.49F2500S1000
G1 X-2.079F5000S0
G1 X-0.505F2500S1000
G1 X-5.22F5000S0
G1 X-0.414F2500S1000
G1 X-4.572F5000S0
G1 X-0.436F2500S1000
G1 X-1.812F5000S0
G1 X-0.444F2500S1000
G1 X-1.345F5000S0
G1 X-0.478F2500S1000
G1 X-2.107F5000S0
G1 X-0.442F2500S1000
G1 X-2.424F5000S0
G1 X-0.452F2500S1000
G1 X-6.747F5000S0
G1 X-4.843F2500S1000
G0 X-1.042
G0 X-0.005Y0.1
G0 X1.042
G1 X4.725
G1 X6.908F5000S0
G1 X0.451F2500S1000
G1 X2.38F5000S0
G1 X0.442F2500S1000
G1 X2.07F5000S0
G1 X0.478F2500S1000
G1 X1.383F5000S0
G1 X0.444F2500S1000
G1 X1.819F5000S0
G1 X0.437F2500S1000
G1 X4.571F5000S0
G1 X0.415F2500S1000
G1 X5.22F5000S0
G1 X0.504F2500S1000
G1 X2.088F5000S0
G1 X0.489F2500S1000
G1 X1.599F5000S0
G1 X0.545F2500S1000
G1 X2.385F5000S0
G1 X0.496F2500S1000
G1 X2.702F5000S0
G1 X0.514F2500S1000
G0 X1.042
G0 X-0.04Y0.1
G0 X-1.041
G1 X-0.515
G1 X-2.651F5000S0
G1 X-0.494F2500S1000
G1 X-2.344F5000S0
G1 X-0.545F2500S1000
G1 X-1.644F5000S0
G1 X-0.488F2500S1000
G1 X-2.097F5000S0
G1 X-0.504F2500S1000
G1 X-5.219F5000S0
G1 X-0.415F2500S1000
G1 X-4.571F5000S0
G1 X-0.437F2500S1000
G1 X-1.826F5000S0
G1 X-0.445F2500S1000
G1 X-1.421F5000S0
G1 X-0.478F2500S1000
G1 X-2.034F5000S0
G1 X-0.442F2500S1000
G1 X-2.334F5000S0
G1 X-0.452F2500S1000
G1 X-8.824F5000S0
G1 X-0.365F2500S1000
G1 X-2.137F5000S0
G1 X-0.345F2500S1000
G0 X-1.042
G0 Y0.1
G0 X1.042
G1 X0.313
G1 X2.187F5000S0
G1 X0.319F2500S1000
G1 X8.89F5000S0
G1 X0.452F2500S1000
G1 X2.288F5000S0
G1 X0.443F2500S1000
G1 X1.997F5000S0
G1 X0.478F2500S1000
G1 X1.459F5000S0
G1 X0.446F2500S1000
G1 X1.832F5000S0
G1 X0.437F2500S1000
G1 X4.571F5000S0
G1 X0.415F2500S1000
G1 X5.22F5000S0
G1 X0.504F2500S1000
G1 X2.104F5000S0
G1 X0.488F2500S1000
G1 X1.689F5000S0
G1 X0.546F2500S1000
G1 X2.301F5000S0
G1 X0.494F2500S1000
G1 X2.599F5000S0
G1 X0.515F2500S1000
G0 X1.041
G0 X-0.04Y0.1
G0 X-1.042
G1 X-0.514
G1 X-2.548F5000S0
G1 X-0.493F2500S1000
G1 X-2.259F5000S0
G1 X-0.546F2500S1000
G1 X-1.734F5000S0
G1 X-0.487F2500S1000
G1 X-2.113F5000S0
G1 X-0.503F2500S1000
G1 X-5.22F5000S0
G1 X-0.416F2500S1000
G1 X-4.57F5000S0
G1 X-0.437F2500S1000
G1 X-1.839F5000S0
G1 X-0.446F2500S1000
G1 X-1.499F5000S0
G1 X-0.478F2500S1000
G1 X-1.96F5000S0
G1 X-0.442F2500S1000
G1 X-2.243F5000S0
G1 X-0.452F2500S1000
G1 X-8.934F5000S0
G1 X-0.312F2500S1000
G1 X-2.194F5000S0
G1 X-0.308F2500S1000
G0 X-1.042
G0 Y0.1
G0 X1.041
G1 X0.309
G1 X2.196F5000S0
G1 X0.308F2500S1000
G1 X8.973F5000S0
G1 X0.453F2500S1000
G1 X2.197F5000S0
G1 X0.443F2500S1000
G1 X1.923F5000S0
G1 X0.478F2500S1000
G1 X1.537F5000S0
G1 X0.447F2500S1000
G1 X1.845F5000S0
G1 X0.437F2500S1000
G1 X4.571F5000S0
G1 X0.416F2500S1000
G1 X5.22F5000S0
G1 X0.502F2500S1000
G1 X2.121F5000S0
G1 X0.487F2500S1000
G1 X1.779F5000S0
G1 X0.546F2500S1000
G1 X2.217F5000S0
G1 X0.493F2500S1000
G1 X2.495F5000S0
G1 X0.515F2500S1000
G0 X1.042
G0 X-0.04Y0.1
G0 X-1.042
G1 X-0.515
G1 X-2.443F5000S0
G1 X-0.494F2500S1000
G1 X-2.174F5000S0
G1 X-0.546F2500S1000
G1 X-1.823F5000S0
G1 X-0.487F2500S1000
G1 X-2.13F5000S0
G1 X-0.501F2500S1000
G1 X-5.22F5000S0
G1 X-0.417F2500S1000
G1 X-4.57F5000S0
G1 X-0.437F2500S1000
G1 X-1.853F5000S0
G1 X-0.447F2500S1000
G1 X-1.575F5000S0
G1 X-0.478F2500S1000
G1 X-1.887F5000S0
G1 X-0.443F2500S1000
G1 X-2.152F5000S0
G1 X-0.452F2500S1000
G1 X-9.014F5000S0
G1 X-0.305F2500S1000
G1 X-2.196F5000S0
G1 X-0.309F2500S1000
G0 X-1.042
G0 Y0.1
G0 X1.043
G1 X0.309
G1 X2.193F5000S0
G1 X0.304F2500S1000
G1 X9.055F5000S0
G1 X0.452F2500S1000
G1 X2.107F5000S0
G1 X0.443F2500S1000
G1 X1.85F5000S0
G1 X0.478F2500S1000
G1 X1.613F5000S0
G1 X0.448F2500S1000
G1 X1.859F5000S0
G1 X0.437F2500S1000
G1 X4.571F5000S0
G1 X0.416F2500S1000
G1 X5.221F5000S0
G1 X0.5F2500S1000
G1 X2.139F5000S0
G1 X0.486F2500S1000
G1 X1.868F5000S0
G1 X0.546F2500S1000
G1 X2.132F5000S0
G1 X0.493F2500S1000
G1 X2.392F5000S0
G1 X0.515F2500S1000
G0 X1.042
G0 X-0.04Y0.1
G0 X-1.042
G1 X-0.515
G1 X-2.34F5000S0
G1 X-0.493F2500S1000
G1 X-2.09F5000S0
G1 X-0.546F2500S1000
G1 X-1.913F5000S0
G1 X-0.486F2500S1000
G1 X-2.146F5000S0
G1 X-0.5F2500S1000
G1 X-5.221F5000S0
G1 X-0.417F2500S1000
G1 X-4.57F5000S0
G1 X-0.437F2500S1000
G1 X-1.866F5000S0
G1 X-0.448F2500S1000
G1 X-1.652F5000S0
G1 X-0.478F2500S1000
G1 X-1.813F5000S0
G1 X-0.444F2500S1000
G1 X-2.061F5000S0
G1 X-0.452F2500S1000
G1 X-9.1F5000S0
G1 X-0.299F2500S1000
G1 X-2.19F5000S0
G1 X-0.309F2500S1000
G0 X-1.042
G0 Y0.1
G0 X1.043
G1 X0.31
G1 X2.18F5000S0
G1 X0.295F2500S1000
G1 X9.149F5000S0
G1 X0.453F2500S1000
G1 X2.015F5000S0
G1 X0.444F2500S1000
G1 X1.776F5000S0
G1 X0.478F2500S1000
G1 X1.691F5000S0
G1 X0.449F2500S1000
G1 X1.872F5000S0
G1 X0.437F2500S1000
G1 X4.57F5000S0
G1 X0.418F2500S1000
G1 X5.221F5000S0
G1 X0.499F2500S1000
G1 X2.155F5000S0
G1 X0.485F2500S1000
G1 X1.958F5000S0
G1 X0.546F2500S1000
G1 X2.047F5000S0
G1 X0.494F2500S1000
G1 X2.288F5000S0
G1 X0.515F2500S1000
G0 X1.041
G0 X-0.04Y0.1
G0 X-1.041
G1 X-0.515
G1 X-2.237F5000S0
G1 X-0.493F2500S1000
G1 X-2.005F5000S0
G1 X-0.546F2500S1000
G1 X-2.003F5000S0
G1 X-0.484F2500S1000
G1 X-2.164F5000S0
G1 X-0.498F2500S1000
G1 X-5.221F5000S0
G1 X-0.418F2500S1000
G1 X-4.57F5000S0
G1 X-0.437F2500S1000
G1 X-1.88F5000S0
G1 X-0.449F2500S1000
G1 X-1.729F5000S0
G1 X-0.478F2500S1000
G1 X-1.739F5000S0
G1 X-0.444F2500S1000
G1 X-1.971F5000S0
G1 X-0.452F2500S1000
G1 X-9.194F5000S0
G1 X-0.298F2500S1000
G1 X-2.169F5000S0
G1 X-0.308F2500S1000
G0 X-1.041
G0 X0.009Y0.1
G0 X1.042
G1 X0.3
G1 X2.156F5000S0
G1 X0.308F2500S1000
G1 X9.233F5000S0
G1 X0.452F2500S1000
G1 X1.925F5000S0
G1 X0.444F2500S1000
G1 X1.703F5000S0
G1 X0.478F2500S1000
G1 X1.768F5000S0
G1 X0.449F2500S1000
G1 X1.886F5000S0
G1 X0.437F2500S1000
G1 X4.57F5000S0
G1 X0.419F2500S1000
G1 X5.22F5000S0
G1 X0.498F2500S1000
G1 X2.172F5000S0
G1 X0.484F2500S1000
G1 X2.048F5000S0
G1 X0.546F2500S1000
G1 X1.963F5000S0
G1 X0.493F2500S1000
G1 X2.184F5000S0
G1 X0.515F2500S1000
G0 X1.042
G0 X-0.04Y0.1
G0 X-1.042
G1 X-0.515
G1 X-2.133F5000S0
G1 X-0.493F2500S1000
G1 X-1.92F5000S0
G1 X-0.546F2500S1000
G1 X-2.093F5000S0
G1 X-0.483F2500S1000
G1 X-2.181F5000S0
G1 X-0.497F2500S1000
G1 X-5.221F5000S0
G1 X-0.418F2500S1000
G1 X-4.571F5000S0
G1 X-0.436F2500S1000
G1 X-1.893F5000S0
G1 X-0.45F2500S1000
G1 X-1.806F5000S0
G1 X-0.478F2500S1000
G1 X-1.666F5000S0
G1 X-0.445F2500S1000
G1 X-1.879F5000S0
G1 X-0.453F2500S1000
G1 X-9.242F5000S0
G1 X-0.36F2500S1000
G1 X-2.119F5000S0
G1 X-0.303F2500S1000
G0 X-1.042
G0 X0.023Y0.1
G0 X1.041
G1 X0.299
G1 X2.076F5000S0
G1 X0.455F2500S1000
G1 X9.21F5000S0
G1 X0.453F2500S1000
G1 X1.834F5000S0
G1 X0.444F2500S1000
G1 X1.629F5000S0
G1 X0.478F2500S1000
G1 X1.845F5000S0
G1 X0.451F2500S1000
G1 X1.899F5000S0
G1 X0.437F2500S1000
G1 X4.57F5000S0
G1 X0.419F2500S1000
G1 X5.221F5000S0
G1 X0.496F2500S1000
G1 X2.189F5000S0
G1 X0.483F2500S1000
G1 X2.138F5000S0
G1 X0.546F2500S1000
G1 X1.878F5000S0
G1 X0.493F2500S1000
G1 X2.081F5000S0
G1 X0.515F2500S1000
G0 X1.042
G0 X-0.04Y0.1
G0 X-1.042
G1 X-0.515
G1 X-2.029F5000S0
G1 X-0.493F2500S1000
G1 X-1.836F5000S0
G1 X-0.547F2500S1000
G1 X-2.181F5000S0
G1 X-0.484F2500S1000
G1 X-2.196F5000S0
G1 X-0.496F2500S1000
G1 X-5.221F5000S0
G1 X-0.42F2500S1000
G1 X-4.57F5000S0
G1 X-0.436F2500S1000
G1 X-1.907F5000S0
G1 X-0.451F2500S1000
G1 X-1.883F5000S0
G1 X-0.478F2500S1000
G1 X-1.592F5000S0
G1 X-0.445F2500S1000
G1 X-1.788F5000S0
G1 X-0.453F2500S1000
G1 X-9.121F5000S0
G1 X-0.611F2500S1000
G1 X-2.013F5000S0
G1 X-0.309F2500S1000
G0 X-1.041
G0 X0.033Y0.1
G0 X1.042
G1 X0.319
G1 X1.925F5000S0
G1 X0.82F2500S1000
G1 X8.993F5000S0
G1 X0.453F2500S1000
G1 X1.743F5000S0
G1 X0.445F2500S1000
G1 X1.556F5000S0
G1 X0.478F2500S1000
G1 X1.922F5000S0
G1 X0.451F2500S1000
G1 X1.913F5000S0
G1 X0.437F2500S1000
G1 X4.57F5000S0
G1 X0.42F2500S1000
G1 X5.221F5000S0
G1 X0.495F2500S1000
G1 X2.204F5000S0
G1 X0.484F2500S1000
G1 X2.226F5000S0
G1 X0.547F2500S1000
G1 X1.793F5000S0
G1 X0.493F2500S1000
G1 X1.978F5000S0
G1 X0.515F2500S1000
G0 X1.041
G0 X-0.04Y0.1
G0 X-1.041
G1 X-0.515
G1 X-1.926F5000S0
G1 X-0.493F2500S1000
G1 X-1.751F5000S0
G1 X-0.547F2500S1000
G1 X-2.27F5000S0
G1 X-0.485F2500S1000
G1 X-2.212F5000S0
G1 X-0.494F2500S1000
G1 X-5.222F5000S0
G1 X-0.42F2500S1000
G1 X-4.57F5000S0
G1 X-0.436F2500S1000
G1 X-1.92F5000S0
G1 X-0.452F2500S1000
G1 X-1.96F5000S0
G1 X-0.478F2500S1000
G1 X-1.519F5000S0
G1 X-0.445F2500S1000
G1 X-1.698F5000S0
G1 X-0.453F2500S1000
G1 X-8.863F5000S0
G1 X-1.044F2500S1000
G1 X-1.814F5000S0
G1 X-0.335F2500S1000
G0 X-1.041
G0 X0.047Y0.1
G0 X1.042
G1 X0.363
G1 X1.67F5000S0
G1 X0.378F2500S1000
G1 X0.314S0
G1 X0.588S1000
G1 X8.732F5000S0
G1 X0.454F2500S1000
G1 X1.652F5000S0
G1 X0.445F2500S1000
G1 X1.483F5000S0
G1 X0.477F2500S1000
G1 X1.999F5000S0
G1 X0.453F2500S1000
G1 X1.926F5000S0
G1 X0.437F2500S1000
G1 X4.57F5000S0
G1 X0.42F2500S1000
G1 X5.222F5000S0
G1 X0.493F2500S1000
G1 X2.221F5000S0
G1 X0.484F2500S1000
G1 X2.315F5000S0
G1 X0.547F2500S1000
G1 X1.709F5000S0
G1 X0.492F2500S1000
G1 X1.874F5000S0
G1 X0.515F2500S1000
G0 X1.042
G0 X-0.04Y0.1
G0 X-1.042
G1 X-0.515
G1 X-1.822F5000S0
G1 X-0.493F2500S1000
G1 X-1.666F5000S0
G1 X-0.547F2500S1000
G1 X-2.359F5000S0
G1 X-0.485F2500S1000
G1 X-2.229F5000S0
G1 X-0.492F2500S1000
G1 X-5.222F5000S0
G1 X-0.421F2500S1000
G1 X-4.57F5000S0
G1 X-0.436F2500S1000
G1 X-1.934F5000S0
G1 X-0.453F2500S1000
G1 X-2.037F5000S0
G1 X-0.478F2500S1000
G1 X-1.445F5000S0
G1 X-0.446F2500S1000
G1 X-1.606F5000S0
G1 X-0.454F2500S1000
G1 X-8.602F5000S0
G1 X-0.591F2500S1000
G1 X-0.556S0
G1 X-0.399S1000
G1 X-1.476F5000S0
G1 X-0.401F2500S1000
G0 X-1.042
G0 X0.069Y0.1
G0 X1.042
G1 X0.457
G1 X1.219F5000S0
G1 X0.458F2500S1000
G1 X0.795S0
G1 X0.592S1000
G1 X8.473F5000S0
G1 X0.453F2500S1000
G1 X1.562F5000S0
G1 X0.446F2500S1000
G1 X1.408F5000S0
G1 X0.478F2500S1000
G1 X2.076F5000S0
G1 X0.453F2500S1000
G1 X1.94F5000S0
G1 X0.437F2500S1000
G1 X4.569F5000S0
G1 X0.421F2500S1000
G1 X5.223F5000S0
G1 X0.492F2500S1000
G1 X2.236F5000S0
G1 X0.485F2500S1000
G1 X2.404F5000S0
G1 X0.547F2500S1000
G1 X1.624F5000S0
G1 X0.492F2500S1000
G1 X1.771F5000S0
G1 X0.515F2500S1000
G0 X1.042
G0 X-0.04Y0.1
G0 X-1.042
G1 X-0.515
G1 X-1.719F5000S0
G1 X-0.493F2500S1000
G1 X-1.581F5000S0
G1 X-0.547F2500S1000
G1 X-2.448F5000S0
G1 X-0.486F2500S1000
G1 X-2.244F5000S0
G1 X-0.491F2500S1000
G1 X-5.224F5000S0
G1 X-0.42F2500S1000
G1 X-4.57F5000S0
G1 X-0.437F2500S1000
G1 X-1.946F5000S0
G1 X-0.454F2500S1000
G1 X-2.115F5000S0
G1 X-0.477F2500S1000
G1 X-1.372F5000S0
G1 X-0.446F2500S1000
G1 X-1.516F5000S0
G1 X-0.454F2500S1000
G1 X-8.345F5000S0
G1 X-0.591F2500S1000
G1 X-1.05F5000S0
G1 X-0.57F2500S1000
G1 X-0.832S0
G1 X-0.563S1000
G0 X-1.041
G0 X0.106Y0.1
G0 X1.041
G1 X1.754
G1 X1.321F5000S0
G1 X0.589F2500S1000
G1 X8.219F5000S0
G1 X0.454F2500S1000
G1 X1.47F5000S0
G1 X0.447F2500S1000
G1 X1.335F5000S0
G1 X0.477F2500S1000
G1 X2.153F5000S0
G1 X0.455F2500S1000
G1 X1.951F5000S0
G1 X0.438F2500S1000
G1 X4.57F5000S0
G1 X0.421F2500S1000
G1 X5.223F5000S0
G1 X0.491F2500S1000
G1 X2.252F5000S0
G1 X0.486F2500S1000
G1 X2.493F5000S0
G1 X0.547F2500S1000
G1 X1.539F5000S0
G1 X0.492F2500S1000
G1 X1.668F5000S0
G1 X0.515F2500S1000
G0 X1.042
G0 X-0.041Y0.1
G0 X-1.041
G1 X-0.515
G1 X-1.616F5000S0
G1 X-0.492F2500S1000
G1 X-1.497F5000S0
G1 X-0.547F2500S1000
G1 X-2.537F5000S0
G1 X-0.486F2500S1000
G1 X-2.26F5000S0
G1 X-0.491F2500S1000
G1 X-5.224F5000S0
G1 X-0.42F2500S1000
G1 X-4.57F5000S0
G1 X-0.439F2500S1000
G1 X-1.957F5000S0
G1 X-0.456F2500S1000
G1 X-2.191F5000S0
G1 X-0.478F2500S1000
G1 X-1.298F5000S0
G1 X-0.446F2500S1000
G1 X-1.425F5000S0
G1 X-0.455F2500S1000
G1 X-8.092F5000S0
G1 X-0.587F2500S1000
G1 X-1.636F5000S0
G1 X-1.471F2500S1000
G0 X-1.042
G0 X0.208Y0.1
G0 X1.041
G1 X1.053
G1 X2.015F5000S0
G1 X0.583F2500S1000
G1 X7.966F5000S0
G1 X0.454F2500S1000
G1 X1.38F5000S0
G1 X0.447F2500S1000
G1 X1.261F5000S0
G1 X0.478F2500S1000
G1 X2.23F5000S0
G1 X0.455F2500S1000
G1 X1.964F5000S0
G1 X0.439F2500S1000
G1 X4.57F5000S0
G1 X0.42F2500S1000
G1 X5.225F5000S0
G1 X0.491F2500S1000
G1 X2.267F5000S0
G1 X0.486F2500S1000
G1 X2.582F5000S0
G1 X0.548F2500S1000
G1 X1.453F5000S0
G1 X0.492F2500S1000
G1 X1.564F5000S0
G1 X0.516F2500S1000
G0 X1.041
G0 X-0.04Y0.1
G0 X-1.042
G1 X-0.515
G1 X-1.512F5000S0
G1 X-0.492F2500S1000
G1 X-1.411F5000S0
G1 X-0.548F2500S1000
G1 X-2.626F5000S0
G1 X-0.487F2500S1000
G1 X-2.274F5000S0
G1 X-0.491F2500S1000
G1 X-5.225F5000S0
G1 X-0.421F2500S1000
G1 X-4.569F5000S0
G1 X-0.44F2500S1000
G1 X-1.97F5000S0
G1 X-0.456F2500S1000
G1 X-2.269F5000S0
G1 X-0.477F2500S1000
G1 X-1.225F5000S0
G1 X-0.447F2500S1000
G1 X-1.334F5000S0
G1 X-0.455F2500S1000
G1 X-7.839F5000S0
G1 X-0.579F2500S1000
G0 X-1.041
G0 X0.168Y0.1
G0 X1.041
G1 X0.56
G1 X7.728F5000S0
G1 X0.455F2500S1000
G1 X1.289F5000S0
G1 X0.447F2500S1000
G1 X1.188F5000S0
G1 X0.477F2500S1000
G1 X2.307F5000S0
G1 X0.457F2500S1000
G1 X1.976F5000S0
G1 X0.44F2500S1000
G1 X4.57F5000S0
G1 X0.42F2500S1000
G1 X5.226F5000S0
G1 X0.491F2500S1000
G1 X2.281F5000S0
G1 X0.487F2500S1000
G1 X2.671F5000S0
G1 X0.548F2500S1000
G1 X1.368F5000S0
G1 X0.492F2500S1000
G1 X1.461F5000S0
G1 X0.515F2500S1000
G0 X1.042
G0 X-0.04Y0.1
G0 X-1.042
G1 X-0.515
G1 X-1.409F5000S0
G1 X-0.492F2500S1000
G1 X-1.326F5000S0
G1 X-0.548F2500S1000
G1 X-2.715F5000S0
G1 X-0.488F2500S1000
G1 X-2.289F5000S0
G1 X-0.49F2500S1000
G1 X-5.227F5000S0
G1 X-0.42F2500S1000
G1 X-4.569F5000S0
G1 X-0.441F2500S1000
G1 X-1.982F5000S0
G1 X-0.458F2500S1000
G1 X-2.345F5000S0
G1 X-0.478F2500S1000
G1 X-1.151F5000S0
G1 X-0.447F2500S1000
G1 X-1.243F5000S0
G1 X-0.456F2500S1000
G1 X-7.693F5000S0
G1 X-0.463F2500S1000
G0 X-1.042
G0 X0.168Y0.1
G0 X1.042
G1 X0.296
G1 X7.73F5000S0
G1 X0.456F2500S1000
G1 X1.197F5000S0
G1 X0.448F2500S1000
G1 X1.114F5000S0
G1 X0.477F2500S1000
G1 X2.385F5000S0
G1 X0.457F2500S1000
G1 X1.988F5000S0
G1 X0.442F2500S1000
G1 X4.569F5000S0
G1 X0.42F2500S1000
G1 X5.228F5000S0
G1 X0.49F2500S1000
G1 X2.296F5000S0
G1 X0.488F2500S1000
G1 X2.76F5000S0
G1 X0.548F2500S1000
G1 X1.283F5000S0
G1 X0.492F2500S1000
G1 X1.358F5000S0
G1 X0.515F2500S1000
G0 X1.042
G0 X-0.041Y0.1
G0 X-1.041
G1 X-0.515
G1 X-1.306F5000S0
G1 X-0.493F2500S1000
G1 X-1.24F5000S0
G1 X-0.548F2500S1000
G1 X-2.804F5000S0
G1 X-0.488F2500S1000
G1 X-2.304F5000S0
G1 X-0.49F2500S1000
G1 X-5.228F5000S0
G1 X-0.421F2500S1000
G1 X-4.569F5000S0
G1 X-0.442F2500S1000
G1 X-1.994F5000S0
G1 X-0.458F2500S1000
G1 X-2.423F5000S0
G1 X-0.477F2500S1000
G1 X-1.077F5000S0
G1 X-0.448F2500S1000
G1 X-1.153F5000S0
G1 X-0.456F2500S1000
G1 X-7.843F5000S0
G1 X-0.062F2500S1000
G0 X-1.042
G0 X7.943Y0.1
G0 X1.042
G1 X0.456
G1 X1.107F5000S0
G1 X0.448F2500S1000
G1 X1.041F5000S0
G1 X0.477F2500S1000
G1 X2.461F5000S0
G1 X0.459F2500S1000
G1 X2F5000S0
G1 X0.442F2500S1000
G1 X4.569F5000S0
G1 X0.421F2500S1000
G1 X5.229F5000S0
G1 X0.49F2500S1000
G1 X2.311F5000S0
G1 X0.488F2500S1000
G1 X2.848F5000S0
G1 X0.549F2500S1000
G1 X1.198F5000S0
G1 X0.492F2500S1000
G1 X1.254F5000S0
G1 X0.516F2500S1000
G0 X1.041
G0 X-0.04Y0.1
G0 X-1.042
G1 X-0.515
G1 X-1.202F5000S0
G1 X-0.493F2500S1000
G1 X-1.155F5000S0
G1 X-0.549F2500S1000
G1 X-2.893F5000S0
G1 X-0.488F2500S1000
G1 X-2.318F5000S0
G1 X-0.491F2500S1000
G1 X-5.229F5000S0
G1 X-0.421F2500S1000
G1 X-4.57F5000S0
G1 X-0.441F2500S1000
G1 X-2.006F5000S0
G1 X-0.459F2500S1000
G1 X-2.5F5000S0
G1 X-0.477F2500S1000
G1 X-1.004F5000S0
G1 X-0.449F2500S1000
G1 X-1.061F5000S0
G1 X-0.457F2500S1000
G0 X-1.041
G0 X0.037Y0.1
G0 X1.042
G1 X0.457
G1 X1.016F5000S0
G1 X0.448F2500S1000
G1 X0.967S0
G1 X0.477S1000
G1 X2.539F5000S0
G1 X0.459F2500S1000
G1 X2.013F5000S0
G1 X0.441F2500S1000
G1 X4.57F5000S0
G1 X0.422F2500S1000
G1 X5.229F5000S0
G1 X0.491F2500S1000
G1 X2.325F5000S0
G1 X0.489F2500S1000
G1 X2.937F5000S0
G1 X0.549F2500S1000
G1 X1.113F5000S0
G1 X0.492F2500S1000
G1 X1.151F5000S0
G1 X0.515F2500S1000
G1 X9.909F5000S0
G1 X0.944F2500S1000
G0 X1.041
G0 X0.377Y0.1
G0 X-1.041
G1 X-1.692
G1 X-9.578F5000S0
G1 X-0.515F2500S1000
G1 X-1.099F5000S0
G1 X-0.493F2500S1000
G1 X-1.07F5000S0
G1 X-0.549F2500S1000
G1 X-2.982F5000S0
G1 X-0.489F2500S1000
G1 X-2.333F5000S0
G1 X-0.49F2500S1000
G1 X-5.23F5000S0
G1 X-0.423F2500S1000
G1 X-4.57F5000S0
G1 X-0.44F2500S1000
G1 X-2.019F5000S0
G1 X-0.46F2500S1000
G1 X-2.577F5000S0
G1 X-0.477F2500S1000
G1 X-0.93S0
G1 X-0.449S1000
G1 X-0.971S0
G1 X-0.456S1000
G0 X-1.042
G0 X0.037Y0.1
G0 X1.042
G1 X0.457
G1 X0.925S0
G1 X0.449S1000
G1 X0.894S0
G1 X0.477S1000
G1 X2.616F5000S0
G1 X0.46F2500S1000
G1 X2.024F5000S0
G1 X0.441F2500S1000
G1 X4.57F5000S0
G1 X0.423F2500S1000
G1 X5.23F5000S0
G1 X0.491F2500S1000
G1 X2.34F5000S0
G1 X0.49F2500S1000
G1 X3.026F5000S0
G1 X0.549F2500S1000
G1 X1.028F5000S0
G1 X0.492F2500S1000
G1 X1.048F5000S0
G1 X0.515F2500S1000
G1 X9.365F5000S0
G1 X2.194F2500S1000
G0 X1.041
G0 X0.204Y0.1
G0 X-1.042
G1 X-0.881
G1 X-0.819S0
G1 X-0.86S1000
G1 X-9.242F5000S0
G1 X-0.515F2500S1000
G1 X-0.996S0
G1 X-0.493S1000
G1 X-0.985S0
G1 X-0.549S1000
G1 X-3.07F5000S0
G1 X-0.491F2500S1000
G1 X-2.347F5000S0
