; LightBurn 1.3.01
; GRBL device profile, absolute coords
; Bounds: X10 Y0 to X320 Y430
G00 G17 G40 G21 G54
G90
M4
; Cut @ 2500.002 mm/min, 100% power
M8
G0 X42.417Y111.707
; Layer Linea 
G1 X41.774Y111.252S1000F2500
G1 X41.154Y110.765
G1 X40.56Y110.248
G1 X39.993Y109.7
G1 X39.454Y109.124
G1 X38.944Y108.519
G1 X38.464Y107.888
G1 X38.016Y107.23
G1 X37.601Y106.548
G1 X37.22Y105.842
G1 X36.917Y105.21
G1 X36.637Y104.568
G1 X36.38Y103.916
G1 X36.148Y103.256
G1 X35.939Y102.588
G1 X35.754Y101.913
G1 X35.594Y101.231
G1 X35.458Y100.543
G1 X35.256Y99.261
G1 X35.112Y97.974
G1 X35.025Y96.682
G1 X34.996Y95.389
G1 X35.025Y94.096
G1 X35.111Y92.804
G1 X35.255Y91.516
G1 X35.456Y90.234
G1 X35.615Y89.468
G1 X35.807Y88.709
G1 X36.031Y87.961
G1 X36.288Y87.223
G1 X36.576Y86.498
G1 X36.896Y85.785
G1 X37.247Y85.086
G1 X37.628Y84.402
G1 X38.31Y83.355
G1 X39.068Y82.371
G1 X39.899Y81.452
G1 X40.798Y80.602
G1 X41.762Y79.826
G1 X42.785Y79.127
G1 X43.863Y78.509
G1 X44.992Y77.975
G1 X45.679Y77.714
G1 X46.376Y77.483
G1 X47.082Y77.283
G1 X47.796Y77.114
G1 X48.516Y76.977
G1 X49.242Y76.871
G1 X49.973Y76.797
G1 X50.707Y76.755
G1 X51.518Y76.736
G1 X52.329Y76.747
G1 X53.073Y76.776
G1 X53.813Y76.837
G1 X54.55Y76.93
G1 X55.281Y77.055
G1 X56.006Y77.211
G1 X56.725Y77.398
G1 X57.435Y77.617
G1 X58.135Y77.867
G1 X59.121Y78.299
G1 X60.063Y78.809
G1 X60.957Y79.392
G1 X61.799Y80.046
G1 X62.584Y80.767
G1 X63.308Y81.551
G1 X63.967Y82.395
G1 X64.557Y83.295
G1 X64.91Y83.909
G1 X65.241Y84.534
G1 X65.549Y85.17
G1 X65.834Y85.816
G1 X66.096Y86.473
G1 X66.335Y87.138
G1 X66.55Y87.812
G1 X66.742Y88.493
G1 X59.608Y90.755
G1 X59.334Y89.666
G1 X58.972Y88.604
G1 X58.524Y87.577
G1 X57.992Y86.588
G1 X57.724Y86.176
G1 X57.431Y85.785
G1 X57.115Y85.418
G1 X56.777Y85.073
G1 X56.419Y84.753
G1 X56.042Y84.457
G1 X55.648Y84.187
G1 X55.237Y83.942
G1 X54.811Y83.725
G1 X54.372Y83.536
G1 X53.921Y83.375
G1 X53.459Y83.244
G1 X52.987Y83.142
G1 X52.508Y83.071
G1 X52.021Y83.032
G1 X51.529
G1 X50.953
G1 X50.381Y83.081
G1 X49.814Y83.168
G1 X49.256Y83.294
G1 X48.707Y83.457
G1 X48.17Y83.658
G1 X47.648Y83.896
G1 X47.141Y84.17
G1 X46.523Y84.585
G1 X45.948Y85.051
G1 X45.418Y85.564
G1 X44.937Y86.121
G1 X44.507Y86.718
G1 X44.131Y87.352
G1 X43.812Y88.019
G1 X43.552Y88.717
G1 X43.22Y89.852
G1 X42.961Y91.005
G1 X42.777Y92.172
G1 X42.668Y93.349
G1 X42.586Y94.893
G1 Y96.439
G1 X42.666Y97.981
G1 X42.827Y99.519
G1 X43Y100.557
G1 X43.254Y101.577
G1 X43.588Y102.574
G1 X44Y103.542
G1 X44.27Y104.044
G1 X44.572Y104.523
G1 X44.904Y104.976
G1 X45.263Y105.403
G1 X45.65Y105.804
G1 X46.061Y106.176
G1 X46.495Y106.519
G1 X46.951Y106.831
G1 X47.427Y107.113
G1 X47.921Y107.362
G1 X48.431Y107.577
G1 X48.957Y107.759
G1 X49.496Y107.904
G1 X50.047Y108.014
G1 X50.608Y108.085
G1 X51.178Y108.119
G1 X51.992Y108.13
G1 X52.803Y108.067
G1 X53.604Y107.93
G1 X54.391Y107.72
G1 X55.157Y107.417
G1 X55.877Y107.035
G1 X56.547Y106.578
G1 X57.161Y106.052
G1 X57.714Y105.462
G1 X58.199Y104.812
G1 X58.613Y104.109
G1 X58.948Y103.357
G1 X59.179Y102.694
G1 X59.359Y102.015
G1 X66.642Y103.755
G1 X66.265Y104.978
G1 X65.798Y106.168
G1 X65.243Y107.319
G1 X64.603Y108.427
G1 X64.01Y109.258
G1 X63.348Y110.032
G1 X62.62Y110.745
G1 X61.831Y111.393
G1 X61.092Y111.918
G1 X60.323Y112.395
G1 X59.528Y112.821
G1 X58.709Y113.197
G1 X57.868Y113.521
G1 X57.007Y113.792
G1 X56.13Y114.009
G1 X55.238Y114.172
G1 X54.171Y114.312
G1 X53.1Y114.396
G1 X52.028Y114.423
G1 X50.957Y114.394
G1 X49.889Y114.308
G1 X48.826Y114.165
G1 X47.771Y113.966
G1 X46.725Y113.711
G1 X45.96Y113.468
G1 X45.213Y113.188
G1 X44.483Y112.871
G1 X43.774Y112.517
G1 X43.085Y112.129
G1 X42.417Y111.707
G0 X72.945Y113.797
G1 Y77.357
G1 X100.66
G1 Y83.497
G1 X80.302
G1 Y93.415
G1 X98.597
G1 Y99.554
G1 X80.302
G1 Y107.633
G1 X99.964
G1 Y113.797
G1 X72.945
G0 X88.881Y137.427
G1 X95.717
G1 Y166.111
G1 X102.925Y137.427
G1 X110.009
G1 X117.242Y166.111
G1 Y137.427
G1 X124.078
G1 Y173.867
G1 X113.042
G1 X106.504Y149.01
G1 X99.893Y173.867
G1 X88.881
G1 Y137.427
G0 X131.233Y137.427
G1 X158.948
G1 Y143.567
G1 X138.59
G1 Y153.484
G1 X156.885
G1 Y159.624
G1 X138.59
G1 Y167.702
G1 X158.252
G1 Y173.867
G1 X131.233
G1 Y137.427
G0 X125.42Y107.524
G1 X125.785Y107.47
G1 X126.143Y107.388
G1 X126.492Y107.279
G1 X126.832Y107.143
G1 X127.16Y106.982
G1 X127.475Y106.795
G1 X127.775Y106.584
G1 X128.059Y106.349
G1 X128.292Y106.103
G1 X128.502Y105.84
G1 X128.689Y105.561
G1 X128.851Y105.267
G1 X128.988Y104.962
G1 X129.098Y104.645
G1 X129.182Y104.318
G1 X129.238Y103.984
G1 X129.285Y103.6
G1 X129.306Y103.214
G1 Y102.829
G1 X129.268Y102.445
G1 X129.21Y102.065
G1 X129.126Y101.689
G1 X129.015Y101.318
G1 X128.879Y100.955
G1 X128.622Y100.487
G1 X128.309Y100.062
G1 X127.947Y99.684
G1 X127.54Y99.357
G1 X127.095Y99.085
G1 X126.617Y98.872
G1 X126.111Y98.721
G1 X125.583Y98.638
G1 X124.321Y98.518
G1 X123.057Y98.436
G1 X121.791Y98.393
G1 X120.524
G1 X117.48
G1 X114.435
G1 Y107.633
G1 X118.529
G1 X122.623Y107.62
G1 X124.023Y107.603
G1 X125.42Y107.524
G0 X126.763Y113.64
G1 X125.37Y113.742
G1 X123.973Y113.782
G1 X123.268Y113.793
G1 X122.563
G1 X107.077
G1 Y77.357
G1 X114.435
G1 Y92.569
G1 X115.926
G1 X116.688
G1 X117.449Y92.527
G1 X118.206Y92.451
G1 X118.96Y92.339
G1 X119.329Y92.248
G1 X119.689Y92.13
G1 X120.038Y91.986
G1 X120.376Y91.818
G1 X120.7Y91.625
G1 X121.009Y91.409
G1 X121.303Y91.17
G1 X121.579Y90.909
G1 X122.05Y90.397
G1 X122.5Y89.866
G1 X122.928Y89.317
G1 X123.333Y88.751
G1 X124.365Y87.287
G1 X125.372Y85.806
G1 X131.039Y77.357
G1 X139.838
G1 X137.302Y81.429
G1 X134.747Y85.488
G1 X134.016Y86.635
G1 X133.248Y87.758
G1 X132.444Y88.855
G1 X131.606Y89.925
G1 X130.76Y90.824
G1 X129.848Y91.653
G1 X128.875Y92.408
G1 X127.844Y93.087
G1 X127.261Y93.44
G1 X127.851Y93.534
G1 X128.438Y93.639
G1 X129.018Y93.77
G1 X129.591Y93.927
G1 X130.157Y94.108
G1 X130.714Y94.315
G1 X131.262Y94.546
G1 X131.799Y94.802
G1 X132.325Y95.081
G1 X132.764Y95.354
G1 X133.185Y95.649
G1 X133.586Y95.967
G1 X133.967Y96.305
G1 X134.327Y96.663
G1 X134.666Y97.04
G1 X134.983Y97.434
G1 X135.277Y97.845
G1 X135.548Y98.273
G1 X135.795Y98.714
G1 X136.016Y99.17
G1 X136.213Y99.639
G1 X136.383Y100.119
G1 X136.526Y100.61
G1 X136.642Y101.11
G1 X136.729Y101.62
G1 X136.825Y102.34
G1 X136.876Y103.063
G1 Y103.786
G1 X136.846Y104.508
G1 X136.765Y105.226
G1 X136.64Y105.939
G1 X136.471Y106.644
G1 X136.259Y107.339
G1 X136.03Y107.929
G1 X135.764Y108.502
G1 X135.46Y109.054
G1 X135.121Y109.584
G1 X134.748Y110.09
G1 X134.342Y110.572
G1 X133.904Y111.026
G1 X133.434Y111.451
G1 X132.999Y111.779
G1 X132.546Y112.078
G1 X132.077Y112.348
G1 X131.592Y112.589
G1 X131.093Y112.8
G1 X130.582Y112.98
G1 X130.06Y113.128
G1 X129.528Y113.245
G1 X128.15Y113.474
G1 X126.763Y113.64
G0 X151.087Y107.633
G1 X155.182
G1 X159.276Y107.62
G1 X160.675Y107.603
G1 X162.072Y107.524
G1 X162.437Y107.47
G1 X162.795Y107.388
G1 X163.145Y107.279
G1 X163.484Y107.143
G1 X163.812Y106.982
G1 X164.127Y106.795
G1 X164.427Y106.584
G1 X164.712Y106.349
G1 X164.945Y106.103
G1 X165.155Y105.84
G1 X165.342Y105.561
G1 X165.504Y105.268
G1 X165.64Y104.962
G1 X165.751Y104.645
G1 X165.834Y104.318
G1 X165.89Y103.984
G1 X165.938Y103.6
G1 X165.959Y103.214
G1 Y102.829
G1 X165.921Y102.445
G1 X165.863Y102.065
G1 X165.779Y101.689
G1 X165.668Y101.318
G1 X165.532Y100.955
G1 X165.275Y100.487
G1 X164.962Y100.062
G1 X164.6Y99.684
G1 X164.193Y99.357
G1 X163.748Y99.085
G1 X163.27Y98.872
G1 X162.764Y98.721
G1 X162.236Y98.638
G1 X160.974Y98.518
G1 X159.71Y98.436
G1 X158.444Y98.393
G1 X157.177
G1 X154.132
G1 X151.087
G1 Y107.633
G0 X143.73Y113.797
G1 Y77.357
G1 X151.087
G1 Y92.569
G1 X152.579
G1 X153.341
G1 X154.101Y92.527
G1 X154.859Y92.451
G1 X155.613Y92.339
G1 X155.982Y92.248
G1 X156.342Y92.13
G1 X156.691Y91.986
G1 X157.028Y91.818
G1 X157.352Y91.625
G1 X157.662Y91.409
G1 X157.955Y91.17
G1 X158.232Y90.909
G1 X158.703Y90.397
G1 X159.153Y89.866
G1 X159.581Y89.317
G1 X159.986Y88.751
G1 X161.018Y87.287
G1 X162.025Y85.806
G1 X167.692Y77.357
G1 X176.491
G1 X173.954Y81.429
G1 X171.4Y85.488
G1 X170.668Y86.635
G1 X169.9Y87.758
G1 X169.097Y88.855
G1 X168.258Y89.925
G1 X167.412Y90.824
G1 X166.5Y91.653
G1 X165.527Y92.408
G1 X164.497Y93.087
G1 X163.913Y93.44
G1 X164.504Y93.534
G1 X165.09Y93.639
G1 X165.671Y93.77
G1 X166.244Y93.927
G1 X166.81Y94.108
G1 X167.367Y94.315
G1 X167.914Y94.546
G1 X168.452Y94.802
G1 X168.978Y95.081
G1 X169.417Y95.354
G1 X169.837Y95.649
G1 X170.238Y95.967
G1 X170.62Y96.305
G1 X170.98Y96.663
G1 X171.319Y97.04
G1 X171.636Y97.434
G1 X171.93Y97.845
G1 X172.201Y98.273
G1 X172.447Y98.714
G1 X172.669Y99.17
G1 X172.865Y99.639
G1 X173.035Y100.119
G1 X173.179Y100.61
G1 X173.294Y101.11
G1 X173.382Y101.62
G1 X173.478Y102.34
G1 X173.529Y103.063
G1 Y103.786
G1 X173.499Y104.508
G1 X173.417Y105.226
G1 X173.292Y105.939
G1 X173.124Y106.644
G1 X172.911Y107.339
G1 X172.683Y107.929
G1 X172.416Y108.502
G1 X172.113Y109.054
G1 X171.774Y109.584
G1 X171.401Y110.09
G1 X170.995Y110.572
G1 X170.556Y111.026
G1 X170.087Y111.451
G1 X169.652Y111.779
G1 X169.199Y112.078
G1 X168.729Y112.348
G1 X168.244Y112.589
G1 X167.746Y112.8
G1 X167.235Y112.98
G1 X166.712Y113.128
G1 X166.181Y113.245
G1 X164.802Y113.474
G1 X163.415Y113.64
G1 X162.023Y113.742
G1 X160.626Y113.782
G1 X159.921Y113.793
G1 X159.215
G1 X143.73
G0 X170.651Y138.225
G1 X171.196Y137.994
G1 X171.755Y137.791
G1 X172.998Y137.421
G1 X174.263Y137.136
G1 X175.544Y136.939
G1 X176.837Y136.83
G1 X177.969Y136.786
G1 X179.102
G1 X179.874Y136.8
G1 X180.645Y136.842
G1 X181.414Y136.911
G1 X182.179Y137.007
G1 X182.941Y137.13
G1 X183.698Y137.28
G1 X184.45Y137.456
G1 X185.195Y137.659
G1 X185.842Y137.867
G1 X186.474Y138.112
G1 X187.089Y138.394
G1 X187.685Y138.712
G1 X188.262Y139.065
G1 X188.817Y139.451
G1 X189.35Y139.87
G1 X189.857Y140.321
G1 X190.235Y140.712
G1 X190.591Y141.119
G1 X190.925Y141.541
G1 X191.237Y141.978
G1 X191.526Y142.429
G1 X191.792Y142.893
G1 X192.035Y143.369
G1 X192.254Y143.856
G1 X192.449Y144.353
G1 X192.619Y144.859
G1 X192.765Y145.374
G1 X192.885Y145.896
G1 X192.979Y146.425
G1 X193.048Y146.959
G1 X193.09Y147.498
G1 X193.105Y148.041
G1 X193.081Y149.027
G1 X192.977Y150.007
G1 X192.796Y150.975
G1 X192.537Y151.927
G1 X192.256Y152.658
G1 X191.918Y153.36
G1 X191.527Y154.031
G1 X191.084Y154.667
G1 X190.592Y155.266
G1 X190.052Y155.825
G1 X189.468Y156.34
G1 X188.841Y156.809
G1 X187.999Y157.329
G1 X187.127Y157.794
G1 X186.227Y158.202
G1 X185.301Y158.552
G1 X183.753Y159.067
G1 X182.191Y159.535
G1 X180.615Y159.956
G1 X179.027Y160.329
G1 X178.402Y160.486
G1 X177.326Y160.764
G1 X176.262Y161.088
G1 X175.213Y161.455
G1 X174.18Y161.867
G1 X173.768Y162.057
G1 X173.377Y162.284
G1 X173.008Y162.546
G1 X172.665Y162.842
G1 X172.48Y163.04
G1 X172.318Y163.251
G1 X172.179Y163.473
G1 X172.062Y163.706
G1 X171.899Y164.192
G1 X171.828Y164.697
G1 X171.85Y165.206
G1 X171.967Y165.706
G1 X172.061Y165.948
G1 X172.178Y166.183
G1 X172.32Y166.408
G1 X172.485Y166.623
G1 X172.708Y166.843
G1 X172.948Y167.045
G1 X173.203Y167.228
G1 X173.471Y167.39
G1 X174.191Y167.736
G1 X174.939Y168.007
G1 X175.711Y168.201
G1 X176.501Y168.316
G1 X177.408Y168.389
G1 X178.318
G1 X179.226Y168.343
G1 X180.129Y168.225
G1 X180.688Y168.108
G1 X181.233Y167.94
G1 X181.759Y167.722
G1 X182.265Y167.456
G1 X182.787Y167.071
G1 X183.248Y166.619
G1 X183.641Y166.107
G1 X183.961Y165.543
G1 X184.213Y164.961
G1 X184.422Y164.363
G1 X184.585Y163.752
G1 X184.703Y163.129
G1 X192.061Y163.452
G1 X192.032Y164.104
G1 X191.966Y164.751
G1 X191.864Y165.393
G1 X191.726Y166.028
G1 X191.553Y166.654
G1 X191.344Y167.269
G1 X191.101Y167.873
G1 X190.823Y168.464
G1 X190.346Y169.275
G1 X189.802Y170.036
G1 X189.193Y170.741
G1 X188.525Y171.388
G1 X187.801Y171.973
G1 X187.027Y172.491
G1 X186.205Y172.939
G1 X185.342Y173.313
G1 X184.173Y173.708
G1 X182.981Y174.018
G1 X181.77Y174.244
G1 X180.545Y174.382
G1 X179.751Y174.445
G1 X178.956Y174.482
G1 X178.16Y174.494
G1 X177.365Y174.48
G1 X176.571Y174.441
G1 X175.778Y174.376
G1 X174.987Y174.286
G1 X174.198Y174.171
G1 X173.165Y173.962
G1 X172.151Y173.677
G1 X171.161Y173.317
G1 X170.199Y172.886
G1 X169.708Y172.627
G1 X169.233Y172.342
G1 X168.775Y172.031
G1 X168.337Y171.695
G1 X167.917Y171.335
G1 X167.519Y170.951
G1 X167.142Y170.545
G1 X166.788Y170.117
G1 X166.384Y169.553
G1 X166.025Y168.967
G1 X165.712Y168.362
G1 X165.443Y167.739
G1 X165.221Y167.102
G1 X165.044Y166.454
G1 X164.914Y165.796
G1 X164.83Y165.131
G1 X164.792Y164.462
G1 Y163.791
G1 X164.858Y163.121
G1 X164.962Y162.454
G1 X165.113Y161.794
G1 X165.313Y161.142
G1 X165.56Y160.501
G1 X165.855Y159.873
G1 X166.266Y159.174
G1 X166.728Y158.513
G1 X167.239Y157.892
G1 X167.797Y157.313
G1 X168.398Y156.781
G1 X169.04Y156.296
G1 X169.719Y155.861
G1 X170.435Y155.48
G1 X171.719Y154.902
G1 X173.031Y154.39
G1 X174.367Y153.946
G1 X175.725Y153.571
G1 X176.637Y153.338
G1 X177.549Y153.11
G1 X178.544Y152.857
G1 X179.501Y152.618
G1 X180.453Y152.361
G1 X181.4Y152.087
G1 X182.342Y151.794
G1 X182.926Y151.579
G1 X183.489Y151.316
G1 X184.027Y151.008
G1 X184.54Y150.654
G1 X184.82Y150.398
G1 X185.067Y150.114
G1 X185.278Y149.806
G1 X185.452Y149.476
G1 X185.588Y149.129
G1 X185.683Y148.768
G1 X185.737Y148.396
G1 X185.747Y148.016
G1 X185.731Y147.641
G1 X185.681Y147.272
G1 X185.599Y146.911
G1 X185.486Y146.558
G1 X185.342Y146.217
G1 X185.168Y145.889
G1 X184.965Y145.577
G1 X184.734Y145.282
G1 X184.394Y144.913
G1 X184.027Y144.575
G1 X183.634Y144.269
G1 X183.217Y143.998
G1 X182.78Y143.763
G1 X182.324Y143.564
G1 X181.851Y143.404
G1 X181.364Y143.283
G1 X180.687Y143.152
G1 X180.007Y143.059
G1 X179.323Y143.006
G1 X178.638Y142.991
G1 X177.953Y143.015
G1 X177.27Y143.077
G1 X176.591Y143.178
G1 X175.917Y143.318
G1 X175.177Y143.551
G1 X174.477Y143.865
G1 X173.824Y144.257
G1 X173.222Y144.721
G1 X172.678Y145.252
G1 X172.198Y145.844
G1 X171.788Y146.493
G1 X171.455Y147.192
G1 X171.188Y147.87
G1 X170.962Y148.562
G1 X170.777Y149.265
G1 X170.635Y149.98
G1 X163.476Y149.284
G1 X163.562Y148.587
G1 X163.676Y147.896
G1 X163.819Y147.21
G1 X163.989Y146.531
G1 X164.187Y145.86
G1 X164.412Y145.197
G1 X164.664Y144.543
G1 X164.942Y143.899
G1 X165.205Y143.366
G1 X165.494Y142.849
G1 X165.807Y142.349
G1 X166.144Y141.868
G1 X166.505Y141.406
G1 X166.888Y140.963
G1 X167.292Y140.541
G1 X167.717Y140.14
G1 X168.161Y139.762
G1 X168.625Y139.406
G1 X169.107Y139.073
G1 X169.605Y138.765
G1 X170.12Y138.482
G1 X170.651Y138.225
G0 X208.818Y151.844
G1 X213.74Y165.366
G1 X218.761Y151.844
G1 X208.818
G0 X206.556Y145.704
G1 X221.123
G1 X224.304Y137.427
G1 X232.308
G1 X217.717Y173.867
G1 X209.937
G1 X195.744Y137.427
G1 X203.549
G1 X206.556Y145.704
G0 X194.65Y105.296
G1 X199.671Y91.774
G1 X189.729
G1 X194.65Y105.296
G0 X190.847Y113.797
G1 X176.654Y77.357
G1 X184.459
G1 X187.467Y85.635
G1 X202.032
G1 X205.214Y77.357
G1 X213.218
G1 X198.627Y113.797
G1 X190.847
G0 X222.816Y107.633
G1 X225.73
G1 X228.645Y107.599
G1 X229.476Y107.575
G1 X230.306Y107.522
G1 X231.133Y107.439
G1 X231.958Y107.327
G1 X232.401Y107.236
G1 X232.836Y107.117
G1 X233.263Y106.973
G1 X233.679Y106.803
G1 X234.084Y106.607
G1 X234.477Y106.387
G1 X234.856Y106.142
G1 X235.22Y105.874
G1 X235.543Y105.584
G1 X235.847Y105.276
G1 X236.131Y104.952
G1 X236.396Y104.611
G1 X236.641Y104.256
G1 X236.864Y103.886
G1 X237.066Y103.504
G1 X237.245Y103.109
G1 X237.628Y102.084
G1 X237.926Y101.033
G1 X238.136Y99.961
G1 X238.258Y98.874
G1 X238.333Y97.885
G1 X238.381Y96.896
G1 X238.403Y95.905
G1 Y94.915
G1 X238.365Y93.925
G1 X238.307Y92.937
G1 X238.222Y91.95
G1 X238.11Y90.964
G1 X237.92Y89.877
G1 X237.638Y88.813
G1 X237.264Y87.776
G1 X236.801Y86.775
G1 X236.556Y86.361
G1 X236.277Y85.972
G1 X235.967Y85.611
G1 X235.627Y85.277
G1 X235.26Y84.975
G1 X234.868Y84.704
G1 X234.452Y84.468
G1 X234.015Y84.268
G1 X233.277Y83.997
G1 X232.519Y83.792
G1 X231.746Y83.654
G1 X230.962Y83.584
G1 X229.637Y83.515
G1 X228.309Y83.497
G1 X222.816
G1 Y107.633
G0 X228.906Y113.797
G1 X215.458
G1 Y77.357
G1 X229.303
G1 X230.297Y77.369
G1 X231.353Y77.405
G1 X232.405Y77.488
G1 X233.453Y77.616
G1 X234.495Y77.791
G1 X235.225Y77.961
G1 X235.944Y78.168
G1 X236.65Y78.412
G1 X237.342Y78.691
G1 X238.019Y79.006
G1 X238.68Y79.355
G1 X239.322Y79.738
G1 X239.945Y80.155
G1 X240.727Y80.804
G1 X241.453Y81.513
G1 X242.119Y82.277
G1 X242.723Y83.095
G1 X243.295Y84.004
G1 X243.813Y84.942
G1 X244.275Y85.907
G1 X244.682Y86.895
G1 X245.031Y87.905
G1 X245.322Y88.935
G1 X245.555Y89.981
G1 X245.727Y91.041
G1 X245.874Y92.348
G1 X245.969Y93.658
G1 X246.012Y94.97
G1 Y96.282
G1 X245.941Y97.593
G1 X245.827Y98.9
G1 X245.661Y100.203
G1 X245.443Y101.5
G1 X245.234Y102.438
G1 X244.975Y103.361
G1 X244.667Y104.266
G1 X244.309Y105.153
G1 X243.904Y106.019
G1 X243.451Y106.862
G1 X242.953Y107.681
G1 X242.409Y108.472
G1 X242.032Y108.96
G1 X241.633Y109.428
G1 X241.213Y109.876
G1 X240.772Y110.303
G1 X240.311Y110.709
G1 X239.831Y111.092
G1 X239.333Y111.453
G1 X238.817Y111.79
G1 X238.182Y112.145
G1 X237.529Y112.464
G1 X236.86Y112.746
G1 X236.178Y112.99
G1 X235.483Y113.195
G1 X234.777Y113.362
G1 X234.062Y113.489
G1 X233.339Y113.577
G1 X232.233Y113.679
G1 X231.125Y113.75
G1 X230.016Y113.789
G1 X228.906
G0 X266.428Y105.296
G1 X271.449Y91.774
G1 X261.507
G1 X266.428Y105.296
G0 X262.625Y113.797
G1 X248.432Y77.357
G1 X256.237
G1 X259.245Y85.635
G1 X273.811
G1 X276.992Y77.357
G1 X284.996
G1 X270.405Y113.797
G1 X262.625
; Cut @ 600 mm/min, 95% power
M8
G0 X46.023Y399.435
; Layer Corte Pass 1 of 10
G1 Y397.555S950F600
G1 X46.071Y395.675
G1 X46.098Y395.246
G1 X46.143Y394.819
G1 X52.839Y394.723
G1 X52.895Y344.275
G1 X52.909Y339.747
G1 X52.959Y335.219
G1 X52.971Y334.614
G1 X53.015Y334.011
G1 Y333.995
G1 X139.919
G1 Y330.891
G1 X53.071
G1 X53.055
G1 Y330.867
G1 X52.992Y330.541
G1 Y330.211
G1 X52.936Y328.183
G1 X52.919Y326.155
G1 X52.895Y319.915
G1 X52.839Y252.323
G1 X49.527Y252.275
G1 X47.914Y252.241
G1 X46.303Y252.163
G1 X46.207
G1 X46.163Y252.141
G1 X46.119Y252.123
G1 Y252.007
G1 X46.095Y251.427
G1 X46.057Y246.647
G1 X46.042Y241.867
G1 Y237.088
G1 X46.079Y232.307
G1 X46.091Y231.827
G1 X46.111Y231.347
G1 X46.135Y231.315
G1 X46.175Y231.291
G1 X46.255Y231.267
G1 X47.182Y231.198
G1 X48.111Y231.187
G1 X49.535
G1 X60.215
G1 X61.627Y231.176
G1 X63.04Y231.193
G1 X64.452Y231.232
G1 X65.863Y231.291
G1 X66.816Y231.373
G1 X67.762Y231.511
G1 X68.698Y231.702
G1 X69.623Y231.947
G1 X70.595Y232.189
G1 X71.554Y232.474
G1 X72.5Y232.802
G1 X73.431Y233.171
G1 X74.772Y233.766
G1 X76.073Y234.44
G1 X77.331Y235.192
G1 X78.543Y236.019
G1 X79.282Y236.548
G1 X79.992Y237.115
G1 X80.671Y237.717
G1 X81.319Y238.355
G1 X82.038Y239.077
G1 X82.714Y239.839
G1 X83.344Y240.639
G1 X84.456Y242.232
G1 X84.928Y243.025
G1 X85.338Y243.851
G1 X85.938Y245.323
G1 X86.171Y245.946
G1 X86.386Y246.575
G1 X86.583Y247.211
G1 X86.754Y248.005
G1 X86.892Y248.805
G1 X86.998Y249.61
G1 X87.071Y250.419
G1 X87.097Y251.315
G1 Y252.212
G1 X87.069Y253.108
G1 X87.015Y254.003
G1 X87.005Y254.05
G1 X86.983Y254.09
G1 X86.947Y254.119
G1 X86.815Y254.155
G1 X86.386Y254.19
G1 X85.955Y254.206
G1 X85.525
G1 X85.095Y254.179
G1 X81.074Y254.015
G1 X77.055Y253.819
G1 X75.999Y253.787
G1 X74.95Y253.758
G1 X73.903Y253.803
G1 X73.795Y253.837
G1 X73.727Y253.923
G1 X73.659Y254.089
G1 X73.613Y254.262
G1 X73.587Y254.439
G1 Y254.619
G1 Y265.376
G1 X73.609Y276.139
G1 X73.678Y286.902
G1 X73.783Y297.659
G1 Y298.031
G1 X73.805Y298.402
G1 X73.844Y298.772
G1 X73.903Y299.139
G1 X73.958Y299.301
G1 X74.055Y299.443
G1 X74.234Y299.542
G1 X74.431Y299.595
G1 X76.48Y299.964
G1 X78.535Y300.299
G1 X208.143Y321.027
G1 X209.672Y321.267
G1 X211.207Y321.475
G1 X211.495Y321.491
G1 X211.631
G1 X211.759Y321.458
G1 X211.874Y321.39
G1 X211.967Y321.291
G1 X212.155Y320.93
G1 X212.295Y320.547
G1 X212.712Y319.347
G1 X213.103Y318.139
G1 X214.415Y314.043
G1 X214.965Y312.333
G1 X215.551Y310.635
G1 X215.585Y310.53
G1 X215.638Y310.433
G1 X215.707Y310.347
G1 X215.791Y310.275
G1 X215.978Y310.243
G1 X216.167Y310.232
G1 X216.356Y310.243
G1 X216.543Y310.275
G1 X217.972Y310.478
G1 X219.399Y310.699
G1 X235.887Y313.362
G1 X252.367Y316.083
G1 X253.351Y316.244
G1 X254.327Y316.451
G1 X254.405Y316.47
G1 X254.471Y316.515
G1 X254.487Y316.911
G1 Y317.307
G1 X254.534Y323.259
G1 X254.552Y329.207
G1 Y335.155
G1 X254.527Y341.107
G1 X254.487Y341.963
G1 X253.901Y342.044
G1 X253.311Y342.083
G1 X251.047Y342.187
G1 X85.751Y349.131
G1 X83.398Y349.226
G1 X81.047Y349.355
G1 X80.704Y349.367
G1 X80.367Y349.427
G1 X80.279Y349.459
G1 X80.204Y349.524
G1 X80.143Y349.603
G1 X80.111Y349.683
G1 X80.079Y349.795
G1 X80.028Y350.594
G1 X80.039Y351.395
G1 X80.068Y352.299
G1 X80.103Y353.203
G1 X80.135Y354.491
G1 X80.163Y356.335
G1 Y358.178
G1 X80.129Y360.02
G1 X80.066Y361.861
G1 X79.974Y363.7
G1 X79.851Y365.537
G1 X79.698Y367.371
G1 X79.515Y369.203
G1 X79.302Y371.031
G1 X79.059Y372.856
G1 X78.786Y374.676
G1 X78.484Y376.493
G1 X78.151Y378.304
G1 X77.789Y380.111
G1 X77.397Y381.912
G1 X76.975Y383.707
G1 X76.566Y385.304
G1 X76.122Y386.891
G1 X75.643Y388.467
G1 X75.13Y390.033
G1 X74.582Y391.586
G1 X74.001Y393.128
G1 X73.385Y394.656
G1 X72.735Y396.171
G1 X72.251Y397.236
G1 X71.738Y398.286
G1 X71.197Y399.321
G1 X70.627Y400.34
G1 X70.029Y401.344
G1 X69.403Y402.33
G1 X68.751Y403.3
G1 X68.071Y404.251
G1 X67.563Y404.924
G1 X67.035Y405.579
G1 X66.485Y406.217
G1 X65.915Y406.836
G1 X65.325Y407.435
G1 X64.715Y408.015
G1 X64.086Y408.575
G1 X63.439Y409.115
G1 X62.654Y409.691
G1 X61.841Y410.225
G1 X61.003Y410.715
G1 X60.142Y411.16
G1 X59.259Y411.561
G1 X58.355Y411.915
G1 X57.433Y412.223
G1 X56.495Y412.483
G1 X55.67Y412.65
G1 X54.838Y412.767
G1 X54Y412.834
G1 X53.159Y412.851
G1 X49.651
G1 X46.143Y412.819
G1 X46.066Y411.664
G1 X46.047Y410.507
G1 X46.015Y404.971
G1 Y399.435
; Layer Corte Pass 2 of 10
G1 X46.03Y397.555
G1 X46.071Y395.675
G1 X46.098Y395.246
G1 X46.143Y394.819
G1 X52.839Y394.723
G1 X52.895Y344.275
G1 X52.909Y339.747
G1 X52.959Y335.219
G1 X52.971Y334.614
G1 X53.015Y334.011
G1 Y333.995
G1 X139.919
G1 Y330.891
G1 X53.071
G1 X53.055
G1 Y330.867
G1 X52.992Y330.541
G1 Y330.211
G1 X52.936Y328.183
G1 X52.919Y326.155
G1 X52.895Y319.915
G1 X52.839Y252.323
G1 X49.527Y252.275
G1 X47.914Y252.241
G1 X46.303Y252.163
G1 X46.207
G1 X46.163Y252.141
G1 X46.119Y252.123
G1 Y252.007
G1 X46.095Y251.427
G1 X46.057Y246.647
G1 X46.042Y241.867
G1 Y237.088
G1 X46.079Y232.307
G1 X46.091Y231.827
G1 X46.111Y231.347
G1 X46.135Y231.315
G1 X46.175Y231.291
G1 X46.255Y231.267
G1 X47.182Y231.198
G1 X48.111Y231.187
G1 X49.535
G1 X60.215
G1 X61.627Y231.176
G1 X63.04Y231.193
G1 X64.452Y231.232
G1 X65.863Y231.291
G1 X66.816Y231.373
G1 X67.762Y231.511
G1 X68.698Y231.702
G1 X69.623Y231.947
G1 X70.595Y232.189
G1 X71.554Y232.474
G1 X72.5Y232.802
G1 X73.431Y233.171
G1 X74.772Y233.766
G1 X76.073Y234.44
G1 X77.331Y235.192
G1 X78.543Y236.019
G1 X79.282Y236.548
G1 X79.992Y237.115
G1 X80.671Y237.717
G1 X81.319Y238.355
G1 X82.038Y239.077
G1 X82.714Y239.839
G1 X83.344Y240.639
G1 X84.456Y242.232
G1 X84.928Y243.025
G1 X85.338Y243.851
G1 X85.938Y245.323
G1 X86.171Y245.946
G1 X86.386Y246.575
G1 X86.583Y247.211
G1 X86.754Y248.005
G1 X86.892Y248.805
G1 X86.998Y249.61
G1 X87.071Y250.419
G1 X87.097Y251.315
G1 Y252.212
G1 X87.069Y253.108
G1 X87.015Y254.003
G1 X87.005Y254.05
G1 X86.983Y254.09
G1 X86.947Y254.119
G1 X86.815Y254.155
G1 X86.386Y254.19
G1 X85.955Y254.206
G1 X85.525
G1 X85.095Y254.179
G1 X81.074Y254.015
G1 X77.055Y253.819
G1 X75.999Y253.787
G1 X74.95Y253.758
G1 X73.903Y253.803
G1 X73.795Y253.837
G1 X73.727Y253.923
G1 X73.659Y254.089
G1 X73.613Y254.262
G1 X73.587Y254.439
G1 Y254.619
G1 Y265.376
G1 X73.609Y276.139
G1 X73.678Y286.902
G1 X73.783Y297.659
G1 Y298.031
G1 X73.805Y298.402
G1 X73.844Y298.772
G1 X73.903Y299.139
G1 X73.958Y299.301
G1 X74.055Y299.443
G1 X74.234Y299.542
G1 X74.431Y299.595
G1 X76.48Y299.964
G1 X78.535Y300.299
G1 X208.143Y321.027
G1 X209.672Y321.267
G1 X211.207Y321.475
G1 X211.495Y321.491
G1 X211.631
G1 X211.759Y321.458
G1 X211.874Y321.39
G1 X211.967Y321.291
G1 X212.155Y320.93
G1 X212.295Y320.547
G1 X212.712Y319.347
G1 X213.103Y318.139
G1 X214.415Y314.043
G1 X214.965Y312.333
G1 X215.551Y310.635
G1 X215.585Y310.53
G1 X215.638Y310.433
G1 X215.707Y310.347
G1 X215.791Y310.275
G1 X215.978Y310.243
G1 X216.167Y310.232
G1 X216.356Y310.243
G1 X216.543Y310.275
G1 X217.972Y310.478
G1 X219.399Y310.699
G1 X235.887Y313.362
G1 X252.367Y316.083
G1 X253.351Y316.244
G1 X254.327Y316.451
G1 X254.405Y316.47
G1 X254.471Y316.515
G1 X254.487Y316.911
G1 Y317.307
G1 X254.534Y323.259
G1 X254.552Y329.207
G1 Y335.155
G1 X254.527Y341.107
G1 X254.487Y341.963
G1 X253.901Y342.044
G1 X253.311Y342.083
G1 X251.047Y342.187
G1 X85.751Y349.131
G1 X83.398Y349.226
G1 X81.047Y349.355
G1 X80.704Y349.367
G1 X80.367Y349.427
G1 X80.279Y349.459
G1 X80.204Y349.524
G1 X80.143Y349.603
G1 X80.111Y349.683
G1 X80.079Y349.795
G1 X80.028Y350.594
G1 X80.039Y351.395
G1 X80.068Y352.299
G1 X80.103Y353.203
G1 X80.135Y354.491
G1 X80.163Y356.335
G1 Y358.178
G1 X80.129Y360.02
G1 X80.066Y361.861
G1 X79.974Y363.7
G1 X79.851Y365.537
G1 X79.698Y367.371
G1 X79.515Y369.203
G1 X79.302Y371.031
G1 X79.059Y372.856
G1 X78.786Y374.676
G1 X78.484Y376.493
G1 X78.151Y378.304
G1 X77.789Y380.111
G1 X77.397Y381.912
G1 X76.975Y383.707
G1 X76.566Y385.304
G1 X76.122Y386.891
G1 X75.643Y388.467
G1 X75.13Y390.033
G1 X74.582Y391.586
G1 X74.001Y393.128
G1 X73.385Y394.656
G1 X72.735Y396.171
G1 X72.251Y397.236
G1 X71.738Y398.286
G1 X71.197Y399.321
G1 X70.627Y400.34
G1 X70.029Y401.344
G1 X69.403Y402.33
G1 X68.751Y403.3
G1 X68.071Y404.251
G1 X67.563Y404.924
G1 X67.035Y405.579
G1 X66.485Y406.217
G1 X65.915Y406.836
G1 X65.325Y407.435
G1 X64.715Y408.015
G1 X64.086Y408.575
G1 X63.439Y409.115
G1 X62.654Y409.691
G1 X61.841Y410.225
G1 X61.003Y410.715
G1 X60.142Y411.16
G1 X59.259Y411.561
G1 X58.355Y411.915
G1 X57.433Y412.223
G1 X56.495Y412.483
G1 X55.67Y412.65
G1 X54.838Y412.767
G1 X54Y412.834
G1 X53.159Y412.851
G1 X49.651
G1 X46.143Y412.819
G1 X46.066Y411.664
G1 X46.047Y410.507
G1 X46.015Y404.971
G1 Y399.435
; Layer Corte Pass 3 of 10
G1 X46.03Y397.555
G1 X46.071Y395.675
G1 X46.098Y395.246
G1 X46.143Y394.819
G1 X52.839Y394.723
G1 X52.895Y344.275
G1 X52.909Y339.747
G1 X52.959Y335.219
G1 X52.971Y334.614
G1 X53.015Y334.011
G1 Y333.995
G1 X139.919
G1 Y330.891
G1 X53.071
G1 X53.055
G1 Y330.867
G1 X52.992Y330.541
G1 Y330.211
G1 X52.936Y328.183
G1 X52.919Y326.155
G1 X52.895Y319.915
G1 X52.839Y252.323
G1 X49.527Y252.275
G1 X47.914Y252.241
G1 X46.303Y252.163
G1 X46.207
G1 X46.163Y252.141
G1 X46.119Y252.123
G1 Y252.007
G1 X46.095Y251.427
G1 X46.057Y246.647
G1 X46.042Y241.867
G1 Y237.088
G1 X46.079Y232.307
G1 X46.091Y231.827
G1 X46.111Y231.347
G1 X46.135Y231.315
G1 X46.175Y231.291
G1 X46.255Y231.267
G1 X47.182Y231.198
G1 X48.111Y231.187
G1 X49.535
G1 X60.215
G1 X61.627Y231.176
G1 X63.04Y231.193
G1 X64.452Y231.232
G1 X65.863Y231.291
G1 X66.816Y231.373
G1 X67.762Y231.511
G1 X68.698Y231.702
G1 X69.623Y231.947
G1 X70.595Y232.189
G1 X71.554Y232.474
G1 X72.5Y232.802
G1 X73.431Y233.171
G1 X74.772Y233.766
G1 X76.073Y234.44
G1 X77.331Y235.192
G1 X78.543Y236.019
G1 X79.282Y236.548
G1 X79.992Y237.115
G1 X80.671Y237.717
G1 X81.319Y238.355
G1 X82.038Y239.077
G1 X82.714Y239.839
G1 X83.344Y240.639
G1 X84.456Y242.232
G1 X84.928Y243.025
G1 X85.338Y243.851
G1 X85.938Y245.323
G1 X86.171Y245.946
G1 X86.386Y246.575
G1 X86.583Y247.211
G1 X86.754Y248.005
G1 X86.892Y248.805
G1 X86.998Y249.61
G1 X87.071Y250.419
G1 X87.097Y251.315
G1 Y252.212
G1 X87.069Y253.108
G1 X87.015Y254.003
G1 X87.005Y254.05
G1 X86.983Y254.09
G1 X86.947Y254.119
G1 X86.815Y254.155
G1 X86.386Y254.19
G1 X85.955Y254.206
G1 X85.525
G1 X85.095Y254.179
G1 X81.074Y254.015
G1 X77.055Y253.819
G1 X75.999Y253.787
G1 X74.95Y253.758
G1 X73.903Y253.803
G1 X73.795Y253.837
G1 X73.727Y253.923
G1 X73.659Y254.089
G1 X73.613Y254.262
G1 X73.587Y254.439
G1 Y254.619
G1 Y265.376
G1 X73.609Y276.139
G1 X73.678Y286.902
G1 X73.783Y297.659
G1 Y298.031
G1 X73.805Y298.402
G1 X73.844Y298.772
G1 X73.903Y299.139
G1 X73.958Y299.301
G1 X74.055Y299.443
G1 X74.234Y299.542
G1 X74.431Y299.595
G1 X76.48Y299.964
G1 X78.535Y300.299
G1 X208.143Y321.027
G1 X209.672Y321.267
G1 X211.207Y321.475
G1 X211.495Y321.491
G1 X211.631
G1 X211.759Y321.458
G1 X211.874Y321.39
G1 X211.967Y321.291
G1 X212.155Y320.93
G1 X212.295Y320.547
G1 X212.712Y319.347
G1 X213.103Y318.139
G1 X214.415Y314.043
G1 X214.965Y312.333
G1 X215.551Y310.635
G1 X215.585Y310.53
G1 X215.638Y310.433
G1 X215.707Y310.347
G1 X215.791Y310.275
G1 X215.978Y310.243
G1 X216.167Y310.232
G1 X216.356Y310.243
G1 X216.543Y310.275
G1 X217.972Y310.478
G1 X219.399Y310.699
G1 X235.887Y313.362
G1 X252.367Y316.083
G1 X253.351Y316.244
G1 X254.327Y316.451
G1 X254.405Y316.47
G1 X254.471Y316.515
G1 X254.487Y316.911
G1 Y317.307
G1 X254.534Y323.259
G1 X254.552Y329.207
G1 Y335.155
G1 X254.527Y341.107
G1 X254.487Y341.963
G1 X253.901Y342.044
G1 X253.311Y342.083
G1 X251.047Y342.187
G1 X85.751Y349.131
G1 X83.398Y349.226
G1 X81.047Y349.355
G1 X80.704Y349.367
G1 X80.367Y349.427
G1 X80.279Y349.459
G1 X80.204Y349.524
G1 X80.143Y349.603
G1 X80.111Y349.683
G1 X80.079Y349.795
G1 X80.028Y350.594
G1 X80.039Y351.395
G1 X80.068Y352.299
G1 X80.103Y353.203
G1 X80.135Y354.491
G1 X80.163Y356.335
G1 Y358.178
G1 X80.129Y360.02
G1 X80.066Y361.861
G1 X79.974Y363.7
G1 X79.851Y365.537
G1 X79.698Y367.371
G1 X79.515Y369.203
G1 X79.302Y371.031
G1 X79.059Y372.856
G1 X78.786Y374.676
G1 X78.484Y376.493
G1 X78.151Y378.304
G1 X77.789Y380.111
G1 X77.397Y381.912
G1 X76.975Y383.707
G1 X76.566Y385.304
G1 X76.122Y386.891
G1 X75.643Y388.467
G1 X75.13Y390.033
G1 X74.582Y391.586
G1 X74.001Y393.128
G1 X73.385Y394.656
G1 X72.735Y396.171
G1 X72.251Y397.236
G1 X71.738Y398.286
G1 X71.197Y399.321
G1 X70.627Y400.34
G1 X70.029Y401.344
G1 X69.403Y402.33
G1 X68.751Y403.3
G1 X68.071Y404.251
G1 X67.563Y404.924
G1 X67.035Y405.579
G1 X66.485Y406.217
G1 X65.915Y406.836
G1 X65.325Y407.435
G1 X64.715Y408.015
G1 X64.086Y408.575
G1 X63.439Y409.115
G1 X62.654Y409.691
G1 X61.841Y410.225
G1 X61.003Y410.715
G1 X60.142Y411.16
G1 X59.259Y411.561
G1 X58.355Y411.915
G1 X57.433Y412.223
G1 X56.495Y412.483
G1 X55.67Y412.65
G1 X54.838Y412.767
G1 X54Y412.834
G1 X53.159Y412.851
G1 X49.651
G1 X46.143Y412.819
G1 X46.066Y411.664
G1 X46.047Y410.507
G1 X46.015Y404.971
G1 Y399.435
; Layer Corte Pass 4 of 10
G1 X46.03Y397.555
G1 X46.071Y395.675
G1 X46.098Y395.246
G1 X46.143Y394.819
G1 X52.839Y394.723
G1 X52.895Y344.275
G1 X52.909Y339.747
G1 X52.959Y335.219
G1 X52.971Y334.614
G1 X53.015Y334.011
G1 Y333.995
G1 X139.919
G1 Y330.891
G1 X53.071
G1 X53.055
G1 Y330.867
G1 X52.992Y330.541
G1 Y330.211
G1 X52.936Y328.183
G1 X52.919Y326.155
G1 X52.895Y319.915
G1 X52.839Y252.323
G1 X49.527Y252.275
G1 X47.914Y252.241
G1 X46.303Y252.163
G1 X46.207
G1 X46.163Y252.141
G1 X46.119Y252.123
G1 Y252.007
G1 X46.095Y251.427
G1 X46.057Y246.647
G1 X46.042Y241.867
G1 Y237.088
G1 X46.079Y232.307
G1 X46.091Y231.827
G1 X46.111Y231.347
G1 X46.135Y231.315
G1 X46.175Y231.291
G1 X46.255Y231.267
G1 X47.182Y231.198
G1 X48.111Y231.187
G1 X49.535
G1 X60.215
G1 X61.627Y231.176
G1 X63.04Y231.193
G1 X64.452Y231.232
G1 X65.863Y231.291
G1 X66.816Y231.373
G1 X67.762Y231.511
G1 X68.698Y231.702
G1 X69.623Y231.947
G1 X70.595Y232.189
G1 X71.554Y232.474
G1 X72.5Y232.802
G1 X73.431Y233.171
G1 X74.772Y233.766
G1 X76.073Y234.44
G1 X77.331Y235.192
G1 X78.543Y236.019
G1 X79.282Y236.548
G1 X79.992Y237.115
G1 X80.671Y237.717
G1 X81.319Y238.355
G1 X82.038Y239.077
G1 X82.714Y239.839
G1 X83.344Y240.639
G1 X84.456Y242.232
G1 X84.928Y243.025
G1 X85.338Y243.851
G1 X85.938Y245.323
G1 X86.171Y245.946
G1 X86.386Y246.575
G1 X86.583Y247.211
G1 X86.754Y248.005
G1 X86.892Y248.805
G1 X86.998Y249.61
G1 X87.071Y250.419
G1 X87.097Y251.315
G1 Y252.212
G1 X87.069Y253.108
G1 X87.015Y254.003
G1 X87.005Y254.05
G1 X86.983Y254.09
G1 X86.947Y254.119
G1 X86.815Y254.155
G1 X86.386Y254.19
G1 X85.955Y254.206
G1 X85.525
G1 X85.095Y254.179
G1 X81.074Y254.015
G1 X77.055Y253.819
G1 X75.999Y253.787
G1 X74.95Y253.758
G1 X73.903Y253.803
G1 X73.795Y253.837
G1 X73.727Y253.923
G1 X73.659Y254.089
G1 X73.613Y254.262
G1 X73.587Y254.439
G1 Y254.619
G1 Y265.376
G1 X73.609Y276.139
G1 X73.678Y286.902
G1 X73.783Y297.659
G1 Y298.031
G1 X73.805Y298.402
G1 X73.844Y298.772
G1 X73.903Y299.139
G1 X73.958Y299.301
G1 X74.055Y299.443
G1 X74.234Y299.542
G1 X74.431Y299.595
G1 X76.48Y299.964
G1 X78.535Y300.299
G1 X208.143Y321.027
G1 X209.672Y321.267
G1 X211.207Y321.475
G1 X211.495Y321.491
G1 X211.631
G1 X211.759Y321.458
G1 X211.874Y321.39
G1 X211.967Y321.291
G1 X212.155Y320.93
G1 X212.295Y320.547
G1 X212.712Y319.347
G1 X213.103Y318.139
G1 X214.415Y314.043
G1 X214.965Y312.333
G1 X215.551Y310.635
G1 X215.585Y310.53
G1 X215.638Y310.433
G1 X215.707Y310.347
G1 X215.791Y310.275
G1 X215.978Y310.243
G1 X216.167Y310.232
G1 X216.356Y310.243
G1 X216.543Y310.275
G1 X217.972Y310.478
G1 X219.399Y310.699
G1 X235.887Y313.362
G1 X252.367Y316.083
G1 X253.351Y316.244
G1 X254.327Y316.451
G1 X254.405Y316.47
G1 X254.471Y316.515
G1 X254.487Y316.911
G1 Y317.307
G1 X254.534Y323.259
G1 X254.552Y329.207
G1 Y335.155
G1 X254.527Y341.107
G1 X254.487Y341.963
G1 X253.901Y342.044
G1 X253.311Y342.083
G1 X251.047Y342.187
G1 X85.751Y349.131
G1 X83.398Y349.226
G1 X81.047Y349.355
G1 X80.704Y349.367
G1 X80.367Y349.427
G1 X80.279Y349.459
G1 X80.204Y349.524
G1 X80.143Y349.603
G1 X80.111Y349.683
G1 X80.079Y349.795
G1 X80.028Y350.594
G1 X80.039Y351.395
G1 X80.068Y352.299
G1 X80.103Y353.203
G1 X80.135Y354.491
G1 X80.163Y356.335
G1 Y358.178
G1 X80.129Y360.02
G1 X80.066Y361.861
G1 X79.974Y363.7
G1 X79.851Y365.537
G1 X79.698Y367.371
G1 X79.515Y369.203
G1 X79.302Y371.031
G1 X79.059Y372.856
G1 X78.786Y374.676
G1 X78.484Y376.493
G1 X78.151Y378.304
G1 X77.789Y380.111
G1 X77.397Y381.912
G1 X76.975Y383.707
G1 X76.566Y385.304
G1 X76.122Y386.891
G1 X75.643Y388.467
G1 X75.13Y390.033
G1 X74.582Y391.586
G1 X74.001Y393.128
G1 X73.385Y394.656
G1 X72.735Y396.171
G1 X72.251Y397.236
G1 X71.738Y398.286
G1 X71.197Y399.321
G1 X70.627Y400.34
G1 X70.029Y401.344
G1 X69.403Y402.33
G1 X68.751Y403.3
G1 X68.071Y404.251
G1 X67.563Y404.924
G1 X67.035Y405.579
G1 X66.485Y406.217
G1 X65.915Y406.836
G1 X65.325Y407.435
G1 X64.715Y408.015
G1 X64.086Y408.575
G1 X63.439Y409.115
G1 X62.654Y409.691
G1 X61.841Y410.225
G1 X61.003Y410.715
G1 X60.142Y411.16
G1 X59.259Y411.561
G1 X58.355Y411.915
G1 X57.433Y412.223
G1 X56.495Y412.483
G1 X55.67Y412.65
G1 X54.838Y412.767
G1 X54Y412.834
G1 X53.159Y412.851
G1 X49.651
G1 X46.143Y412.819
G1 X46.066Y411.664
G1 X46.047Y410.507
G1 X46.015Y404.971
G1 Y399.435
; Layer Corte Pass 5 of 10
G1 X46.03Y397.555
G1 X46.071Y395.675
G1 X46.098Y395.246
G1 X46.143Y394.819
G1 X52.839Y394.723
G1 X52.895Y344.275
G1 X52.909Y339.747
G1 X52.959Y335.219
G1 X52.971Y334.614
G1 X53.015Y334.011
G1 Y333.995
G1 X139.919
G1 Y330.891
G1 X53.071
G1 X53.055
G1 Y330.867
G1 X52.992Y330.541
G1 Y330.211
G1 X52.936Y328.183
G1 X52.919Y326.155
G1 X52.895Y319.915
G1 X52.839Y252.323
G1 X49.527Y252.275
G1 X47.914Y252.241
G1 X46.303Y252.163
G1 X46.207
G1 X46.163Y252.141
G1 X46.119Y252.123
G1 Y252.007
G1 X46.095Y251.427
G1 X46.057Y246.647
G1 X46.042Y241.867
G1 Y237.088
G1 X46.079Y232.307
G1 X46.091Y231.827
G1 X46.111Y231.347
G1 X46.135Y231.315
G1 X46.175Y231.291
G1 X46.255Y231.267
G1 X47.182Y231.198
G1 X48.111Y231.187
G1 X49.535
G1 X60.215
G1 X61.627Y231.176
G1 X63.04Y231.193
G1 X64.452Y231.232
G1 X65.863Y231.291
G1 X66.816Y231.373
G1 X67.762Y231.511
G1 X68.698Y231.702
G1 X69.623Y231.947
G1 X70.595Y232.189
G1 X71.554Y232.474
G1 X72.5Y232.802
G1 X73.431Y233.171
G1 X74.772Y233.766
G1 X76.073Y234.44
G1 X77.331Y235.192
G1 X78.543Y236.019
G1 X79.282Y236.548
G1 X79.992Y237.115
G1 X80.671Y237.717
G1 X81.319Y238.355
G1 X82.038Y239.077
G1 X82.714Y239.839
G1 X83.344Y240.639
G1 X84.456Y242.232
G1 X84.928Y243.025
G1 X85.338Y243.851
G1 X85.938Y245.323
G1 X86.171Y245.946
G1 X86.386Y246.575
G1 X86.583Y247.211
G1 X86.754Y248.005
G1 X86.892Y248.805
G1 X86.998Y249.61
G1 X87.071Y250.419
G1 X87.097Y251.315
G1 Y252.212
G1 X87.069Y253.108
G1 X87.015Y254.003
G1 X87.005Y254.05
G1 X86.983Y254.09
G1 X86.947Y254.119
G1 X86.815Y254.155
G1 X86.386Y254.19
G1 X85.955Y254.206
G1 X85.525
G1 X85.095Y254.179
G1 X81.074Y254.015
G1 X77.055Y253.819
G1 X75.999Y253.787
G1 X74.95Y253.758
G1 X73.903Y253.803
G1 X73.795Y253.837
G1 X73.727Y253.923
G1 X73.659Y254.089
G1 X73.613Y254.262
G1 X73.587Y254.439
G1 Y254.619
G1 Y265.376
G1 X73.609Y276.139
G1 X73.678Y286.902
G1 X73.783Y297.659
G1 Y298.031
G1 X73.805Y298.402
G1 X73.844Y298.772
G1 X73.903Y299.139
G1 X73.958Y299.301
G1 X74.055Y299.443
G1 X74.234Y299.542
G1 X74.431Y299.595
G1 X76.48Y299.964
G1 X78.535Y300.299
G1 X208.143Y321.027
G1 X209.672Y321.267
G1 X211.207Y321.475
G1 X211.495Y321.491
G1 X211.631
G1 X211.759Y321.458
G1 X211.874Y321.39
G1 X211.967Y321.291
G1 X212.155Y320.93
G1 X212.295Y320.547
G1 X212.712Y319.347
G1 X213.103Y318.139
G1 X214.415Y314.043
G1 X214.965Y312.333
G1 X215.551Y310.635
G1 X215.585Y310.53
G1 X215.638Y310.433
G1 X215.707Y310.347
G1 X215.791Y310.275
G1 X215.978Y310.243
G1 X216.167Y310.232
G1 X216.356Y310.243
G1 X216.543Y310.275
G1 X217.972Y310.478
G1 X219.399Y310.699
G1 X235.887Y313.362
G1 X252.367Y316.083
G1 X253.351Y316.244
G1 X254.327Y316.451
G1 X254.405Y316.47
G1 X254.471Y316.515
G1 X254.487Y316.911
G1 Y317.307
G1 X254.534Y323.259
G1 X254.552Y329.207
G1 Y335.155
G1 X254.527Y341.107
G1 X254.487Y341.963
G1 X253.901Y342.044
G1 X253.311Y342.083
G1 X251.047Y342.187
G1 X85.751Y349.131
G1 X83.398Y349.226
G1 X81.047Y349.355
G1 X80.704Y349.367
G1 X80.367Y349.427
G1 X80.279Y349.459
G1 X80.204Y349.524
G1 X80.143Y349.603
G1 X80.111Y349.683
G1 X80.079Y349.795
G1 X80.028Y350.594
G1 X80.039Y351.395
G1 X80.068Y352.299
G1 X80.103Y353.203
G1 X80.135Y354.491
G1 X80.163Y356.335
G1 Y358.178
G1 X80.129Y360.02
G1 X80.066Y361.861
G1 X79.974Y363.7
G1 X79.851Y365.537
G1 X79.698Y367.371
G1 X79.515Y369.203
G1 X79.302Y371.031
G1 X79.059Y372.856
G1 X78.786Y374.676
G1 X78.484Y376.493
G1 X78.151Y378.304
G1 X77.789Y380.111
G1 X77.397Y381.912
G1 X76.975Y383.707
G1 X76.566Y385.304
G1 X76.122Y386.891
G1 X75.643Y388.467
G1 X75.13Y390.033
G1 X74.582Y391.586
G1 X74.001Y393.128
G1 X73.385Y394.656
G1 X72.735Y396.171
G1 X72.251Y397.236
G1 X71.738Y398.286
G1 X71.197Y399.321
G1 X70.627Y400.34
G1 X70.029Y401.344
G1 X69.403Y402.33
G1 X68.751Y403.3
G1 X68.071Y404.251
G1 X67.563Y404.924
G1 X67.035Y405.579
G1 X66.485Y406.217
G1 X65.915Y406.836
G1 X65.325Y407.435
G1 X64.715Y408.015
G1 X64.086Y408.575
G1 X63.439Y409.115
G1 X62.654Y409.691
G1 X61.841Y410.225
G1 X61.003Y410.715
G1 X60.142Y411.16
G1 X59.259Y411.561
G1 X58.355Y411.915
G1 X57.433Y412.223
G1 X56.495Y412.483
G1 X55.67Y412.65
G1 X54.838Y412.767
G1 X54Y412.834
G1 X53.159Y412.851
G1 X49.651
G1 X46.143Y412.819
G1 X46.066Y411.664
G1 X46.047Y410.507
G1 X46.015Y404.971
G1 Y399.435
; Layer Corte Pass 6 of 10
G1 X46.03Y397.555
G1 X46.071Y395.675
G1 X46.098Y395.246
G1 X46.143Y394.819
G1 X52.839Y394.723
G1 X52.895Y344.275
G1 X52.909Y339.747
G1 X52.959Y335.219
G1 X52.971Y334.614
G1 X53.015Y334.011
G1 Y333.995
G1 X139.919
G1 Y330.891
G1 X53.071
G1 X53.055
G1 Y330.867
G1 X52.992Y330.541
G1 Y330.211
G1 X52.936Y328.183
G1 X52.919Y326.155
G1 X52.895Y319.915
G1 X52.839Y252.323
G1 X49.527Y252.275
G1 X47.914Y252.241
G1 X46.303Y252.163
G1 X46.207
G1 X46.163Y252.141
G1 X46.119Y252.123
G1 Y252.007
G1 X46.095Y251.427
G1 X46.057Y246.647
G1 X46.042Y241.867
G1 Y237.088
G1 X46.079Y232.307
G1 X46.091Y231.827
G1 X46.111Y231.347
G1 X46.135Y231.315
G1 X46.175Y231.291
G1 X46.255Y231.267
G1 X47.182Y231.198
G1 X48.111Y231.187
G1 X49.535
G1 X60.215
G1 X61.627Y231.176
G1 X63.04Y231.193
G1 X64.452Y231.232
G1 X65.863Y231.291
G1 X66.816Y231.373
G1 X67.762Y231.511
G1 X68.698Y231.702
G1 X69.623Y231.947
G1 X70.595Y232.189
G1 X71.554Y232.474
G1 X72.5Y232.802
G1 X73.431Y233.171
G1 X74.772Y233.766
G1 X76.073Y234.44
G1 X77.331Y235.192
G1 X78.543Y236.019
G1 X79.282Y236.548
G1 X79.992Y237.115
G1 X80.671Y237.717
G1 X81.319Y238.355
G1 X82.038Y239.077
G1 X82.714Y239.839
G1 X83.344Y240.639
G1 X84.456Y242.232
G1 X84.928Y243.025
G1 X85.338Y243.851
G1 X85.938Y245.323
G1 X86.171Y245.946
G1 X86.386Y246.575
G1 X86.583Y247.211
G1 X86.754Y248.005
G1 X86.892Y248.805
G1 X86.998Y249.61
G1 X87.071Y250.419
G1 X87.097Y251.315
G1 Y252.212
G1 X87.069Y253.108
G1 X87.015Y254.003
G1 X87.005Y254.05
G1 X86.983Y254.09
G1 X86.947Y254.119
G1 X86.815Y254.155
G1 X86.386Y254.19
G1 X85.955Y254.206
G1 X85.525
G1 X85.095Y254.179
G1 X81.074Y254.015
G1 X77.055Y253.819
G1 X75.999Y253.787
G1 X74.95Y253.758
G1 X73.903Y253.803
G1 X73.795Y253.837
G1 X73.727Y253.923
G1 X73.659Y254.089
G1 X73.613Y254.262
G1 X73.587Y254.439
G1 Y254.619
G1 Y265.376
G1 X73.609Y276.139
G1 X73.678Y286.902
G1 X73.783Y297.659
G1 Y298.031
G1 X73.805Y298.402
G1 X73.844Y298.772
G1 X73.903Y299.139
G1 X73.958Y299.301
G1 X74.055Y299.443
G1 X74.234Y299.542
G1 X74.431Y299.595
G1 X76.48Y299.964
G1 X78.535Y300.299
G1 X208.143Y321.027
G1 X209.672Y321.267
G1 X211.207Y321.475
G1 X211.495Y321.491
G1 X211.631
G1 X211.759Y321.458
G1 X211.874Y321.39
G1 X211.967Y321.291
G1 X212.155Y320.93
G1 X212.295Y320.547
G1 X212.712Y319.347
G1 X213.103Y318.139
G1 X214.415Y314.043
G1 X214.965Y312.333
G1 X215.551Y310.635
G1 X215.585Y310.53
G1 X215.638Y310.433
G1 X215.707Y310.347
G1 X215.791Y310.275
G1 X215.978Y310.243
G1 X216.167Y310.232
G1 X216.356Y310.243
G1 X216.543Y310.275
G1 X217.972Y310.478
G1 X219.399Y310.699
G1 X235.887Y313.362
G1 X252.367Y316.083
G1 X253.351Y316.244
G1 X254.327Y316.451
G1 X254.405Y316.47
G1 X254.471Y316.515
G1 X254.487Y316.911
G1 Y317.307
G1 X254.534Y323.259
G1 X254.552Y329.207
G1 Y335.155
G1 X254.527Y341.107
G1 X254.487Y341.963
G1 X253.901Y342.044
G1 X253.311Y342.083
G1 X251.047Y342.187
G1 X85.751Y349.131
G1 X83.398Y349.226
G1 X81.047Y349.355
G1 X80.704Y349.367
G1 X80.367Y349.427
G1 X80.279Y349.459
G1 X80.204Y349.524
G1 X80.143Y349.603
G1 X80.111Y349.683
G1 X80.079Y349.795
G1 X80.028Y350.594
G1 X80.039Y351.395
G1 X80.068Y352.299
G1 X80.103Y353.203
G1 X80.135Y354.491
G1 X80.163Y356.335
G1 Y358.178
G1 X80.129Y360.02
G1 X80.066Y361.861
G1 X79.974Y363.7
G1 X79.851Y365.537
G1 X79.698Y367.371
G1 X79.515Y369.203
G1 X79.302Y371.031
G1 X79.059Y372.856
G1 X78.786Y374.676
G1 X78.484Y376.493
G1 X78.151Y378.304
G1 X77.789Y380.111
G1 X77.397Y381.912
G1 X76.975Y383.707
G1 X76.566Y385.304
G1 X76.122Y386.891
G1 X75.643Y388.467
G1 X75.13Y390.033
G1 X74.582Y391.586
G1 X74.001Y393.128
G1 X73.385Y394.656
G1 X72.735Y396.171
G1 X72.251Y397.236
G1 X71.738Y398.286
G1 X71.197Y399.321
G1 X70.627Y400.34
G1 X70.029Y401.344
G1 X69.403Y402.33
G1 X68.751Y403.3
G1 X68.071Y404.251
G1 X67.563Y404.924
G1 X67.035Y405.579
G1 X66.485Y406.217
G1 X65.915Y406.836
G1 X65.325Y407.435
G1 X64.715Y408.015
G1 X64.086Y408.575
G1 X63.439Y409.115
G1 X62.654Y409.691
G1 X61.841Y410.225
G1 X61.003Y410.715
G1 X60.142Y411.16
G1 X59.259Y411.561
G1 X58.355Y411.915
G1 X57.433Y412.223
G1 X56.495Y412.483
G1 X55.67Y412.65
G1 X54.838Y412.767
G1 X54Y412.834
G1 X53.159Y412.851
G1 X49.651
G1 X46.143Y412.819
G1 X46.066Y411.664
G1 X46.047Y410.507
G1 X46.015Y404.971
G1 Y399.435
; Layer Corte Pass 7 of 10
G1 X46.03Y397.555
G1 X46.071Y395.675
G1 X46.098Y395.246
G1 X46.143Y394.819
G1 X52.839Y394.723
G1 X52.895Y344.275
G1 X52.909Y339.747
G1 X52.959Y335.219
G1 X52.971Y334.614
G1 X53.015Y334.011
G1 Y333.995
G1 X139.919
G1 Y330.891
G1 X53.071
G1 X53.055
G1 Y330.867
G1 X52.992Y330.541
G1 Y330.211
G1 X52.936Y328.183
G1 X52.919Y326.155
G1 X52.895Y319.915
G1 X52.839Y252.323
G1 X49.527Y252.275
G1 X47.914Y252.241
G1 X46.303Y252.163
G1 X46.207
G1 X46.163Y252.141
G1 X46.119Y252.123
G1 Y252.007
G1 X46.095Y251.427
G1 X46.057Y246.647
G1 X46.042Y241.867
G1 Y237.088
G1 X46.079Y232.307
G1 X46.091Y231.827
G1 X46.111Y231.347
G1 X46.135Y231.315
G1 X46.175Y231.291
G1 X46.255Y231.267
G1 X47.182Y231.198
G1 X48.111Y231.187
G1 X49.535
G1 X60.215
G1 X61.627Y231.176
G1 X63.04Y231.193
G1 X64.452Y231.232
G1 X65.863Y231.291
G1 X66.816Y231.373
G1 X67.762Y231.511
G1 X68.698Y231.702
G1 X69.623Y231.947
G1 X70.595Y232.189
G1 X71.554Y232.474
G1 X72.5Y232.802
G1 X73.431Y233.171
G1 X74.772Y233.766
G1 X76.073Y234.44
G1 X77.331Y235.192
G1 X78.543Y236.019
G1 X79.282Y236.548
G1 X79.992Y237.115
G1 X80.671Y237.717
G1 X81.319Y238.355
G1 X82.038Y239.077
G1 X82.714Y239.839
G1 X83.344Y240.639
G1 X84.456Y242.232
G1 X84.928Y243.025
G1 X85.338Y243.851
G1 X85.938Y245.323
G1 X86.171Y245.946
G1 X86.386Y246.575
G1 X86.583Y247.211
G1 X86.754Y248.005
G1 X86.892Y248.805
G1 X86.998Y249.61
G1 X87.071Y250.419
G1 X87.097Y251.315
G1 Y252.212
G1 X87.069Y253.108
G1 X87.015Y254.003
G1 X87.005Y254.05
G1 X86.983Y254.09
G1 X86.947Y254.119
G1 X86.815Y254.155
G1 X86.386Y254.19
G1 X85.955Y254.206
G1 X85.525
G1 X85.095Y254.179
G1 X81.074Y254.015
G1 X77.055Y253.819
G1 X75.999Y253.787
G1 X74.95Y253.758
G1 X73.903Y253.803
G1 X73.795Y253.837
G1 X73.727Y253.923
G1 X73.659Y254.089
G1 X73.613Y254.262
G1 X73.587Y254.439
G1 Y254.619
G1 Y265.376
G1 X73.609Y276.139
G1 X73.678Y286.902
G1 X73.783Y297.659
G1 Y298.031
G1 X73.805Y298.402
G1 X73.844Y298.772
G1 X73.903Y299.139
G1 X73.958Y299.301
G1 X74.055Y299.443
G1 X74.234Y299.542
G1 X74.431Y299.595
G1 X76.48Y299.964
G1 X78.535Y300.299
G1 X208.143Y321.027
G1 X209.672Y321.267
G1 X211.207Y321.475
G1 X211.495Y321.491
G1 X211.631
G1 X211.759Y321.458
G1 X211.874Y321.39
G1 X211.967Y321.291
G1 X212.155Y320.93
G1 X212.295Y320.547
G1 X212.712Y319.347
G1 X213.103Y318.139
G1 X214.415Y314.043
G1 X214.965Y312.333
G1 X215.551Y310.635
G1 X215.585Y310.53
G1 X215.638Y310.433
G1 X215.707Y310.347
G1 X215.791Y310.275
G1 X215.978Y310.243
G1 X216.167Y310.232
G1 X216.356Y310.243
G1 X216.543Y310.275
G1 X217.972Y310.478
G1 X219.399Y310.699
G1 X235.887Y313.362
G1 X252.367Y316.083
G1 X253.351Y316.244
G1 X254.327Y316.451
G1 X254.405Y316.47
G1 X254.471Y316.515
G1 X254.487Y316.911
G1 Y317.307
G1 X254.534Y323.259
G1 X254.552Y329.207
G1 Y335.155
G1 X254.527Y341.107
G1 X254.487Y341.963
G1 X253.901Y342.044
G1 X253.311Y342.083
G1 X251.047Y342.187
G1 X85.751Y349.131
G1 X83.398Y349.226
G1 X81.047Y349.355
G1 X80.704Y349.367
G1 X80.367Y349.427
G1 X80.279Y349.459
G1 X80.204Y349.524
G1 X80.143Y349.603
G1 X80.111Y349.683
G1 X80.079Y349.795
G1 X80.028Y350.594
G1 X80.039Y351.395
G1 X80.068Y352.299
G1 X80.103Y353.203
G1 X80.135Y354.491
G1 X80.163Y356.335
G1 Y358.178
G1 X80.129Y360.02
G1 X80.066Y361.861
G1 X79.974Y363.7
G1 X79.851Y365.537
G1 X79.698Y367.371
G1 X79.515Y369.203
G1 X79.302Y371.031
G1 X79.059Y372.856
G1 X78.786Y374.676
G1 X78.484Y376.493
G1 X78.151Y378.304
G1 X77.789Y380.111
G1 X77.397Y381.912
G1 X76.975Y383.707
G1 X76.566Y385.304
G1 X76.122Y386.891
G1 X75.643Y388.467
G1 X75.13Y390.033
G1 X74.582Y391.586
G1 X74.001Y393.128
G1 X73.385Y394.656
G1 X72.735Y396.171
G1 X72.251Y397.236
G1 X71.738Y398.286
G1 X71.197Y399.321
G1 X70.627Y400.34
G1 X70.029Y401.344
G1 X69.403Y402.33
G1 X68.751Y403.3
G1 X68.071Y404.251
G1 X67.563Y404.924
G1 X67.035Y405.579
G1 X66.485Y406.217
G1 X65.915Y406.836
G1 X65.325Y407.435
G1 X64.715Y408.015
G1 X64.086Y408.575
G1 X63.439Y409.115
G1 X62.654Y409.691
G1 X61.841Y410.225
G1 X61.003Y410.715
G1 X60.142Y411.16
G1 X59.259Y411.561
G1 X58.355Y411.915
G1 X57.433Y412.223
G1 X56.495Y412.483
G1 X55.67Y412.65
G1 X54.838Y412.767
G1 X54Y412.834
G1 X53.159Y412.851
G1 X49.651
G1 X46.143Y412.819
G1 X46.066Y411.664
G1 X46.047Y410.507
G1 X46.015Y404.971
G1 Y399.435
; Layer Corte Pass 8 of 10
G1 X46.03Y397.555
G1 X46.071Y395.675
G1 X46.098Y395.246
G1 X46.143Y394.819
G1 X52.839Y394.723
G1 X52.895Y344.275
G1 X52.909Y339.747
G1 X52.959Y335.219
G1 X52.971Y334.614
G1 X53.015Y334.011
G1 Y333.995
G1 X139.919
G1 Y330.891
G1 X53.071
G1 X53.055
G1 Y330.867
G1 X52.992Y330.541
G1 Y330.211
G1 X52.936Y328.183
G1 X52.919Y326.155
G1 X52.895Y319.915
G1 X52.839Y252.323
G1 X49.527Y252.275
G1 X47.914Y252.241
G1 X46.303Y252.163
G1 X46.207
G1 X46.163Y252.141
G1 X46.119Y252.123
G1 Y252.007
G1 X46.095Y251.427
G1 X46.057Y246.647
G1 X46.042Y241.867
G1 Y237.088
G1 X46.079Y232.307
G1 X46.091Y231.827
G1 X46.111Y231.347
G1 X46.135Y231.315
G1 X46.175Y231.291
G1 X46.255Y231.267
G1 X47.182Y231.198
G1 X48.111Y231.187
G1 X49.535
G1 X60.215
G1 X61.627Y231.176
G1 X63.04Y231.193
G1 X64.452Y231.232
G1 X65.863Y231.291
G1 X66.816Y231.373
G1 X67.762Y231.511
G1 X68.698Y231.702
G1 X69.623Y231.947
G1 X70.595Y232.189
G1 X71.554Y232.474
G1 X72.5Y232.802
G1 X73.431Y233.171
G1 X74.772Y233.766
G1 X76.073Y234.44
G1 X77.331Y235.192
G1 X78.543Y236.019
G1 X79.282Y236.548
G1 X79.992Y237.115
G1 X80.671Y237.717
G1 X81.319Y238.355
G1 X82.038Y239.077
G1 X82.714Y239.839
G1 X83.344Y240.639
G1 X84.456Y242.232
G1 X84.928Y243.025
G1 X85.338Y243.851
G1 X85.938Y245.323
G1 X86.171Y245.946
G1 X86.386Y246.575
G1 X86.583Y247.211
G1 X86.754Y248.005
G1 X86.892Y248.805
G1 X86.998Y249.61
G1 X87.071Y250.419
G1 X87.097Y251.315
G1 Y252.212
G1 X87.069Y253.108
G1 X87.015Y254.003
G1 X87.005Y254.05
G1 X86.983Y254.09
G1 X86.947Y254.119
G1 X86.815Y254.155
G1 X86.386Y254.19
G1 X85.955Y254.206
G1 X85.525
G1 X85.095Y254.179
G1 X81.074Y254.015
G1 X77.055Y253.819
G1 X75.999Y253.787
G1 X74.95Y253.758
G1 X73.903Y253.803
G1 X73.795Y253.837
G1 X73.727Y253.923
G1 X73.659Y254.089
G1 X73.613Y254.262
G1 X73.587Y254.439
G1 Y254.619
G1 Y265.376
G1 X73.609Y276.139
G1 X73.678Y286.902
G1 X73.783Y297.659
G1 Y298.031
G1 X73.805Y298.402
G1 X73.844Y298.772
G1 X73.903Y299.139
G1 X73.958Y299.301
G1 X74.055Y299.443
G1 X74.234Y299.542
G1 X74.431Y299.595
G1 X76.48Y299.964
G1 X78.535Y300.299
G1 X208.143Y321.027
G1 X209.672Y321.267
G1 X211.207Y321.475
G1 X211.495Y321.491
G1 X211.631
G1 X211.759Y321.458
G1 X211.874Y321.39
G1 X211.967Y321.291
G1 X212.155Y320.93
G1 X212.295Y320.547
G1 X212.712Y319.347
G1 X213.103Y318.139
G1 X214.415Y314.043
G1 X214.965Y312.333
G1 X215.551Y310.635
G1 X215.585Y310.53
G1 X215.638Y310.433
G1 X215.707Y310.347
G1 X215.791Y310.275
G1 X215.978Y310.243
G1 X216.167Y310.232
G1 X216.356Y310.243
G1 X216.543Y310.275
G1 X217.972Y310.478
G1 X219.399Y310.699
G1 X235.887Y313.362
G1 X252.367Y316.083
G1 X253.351Y316.244
G1 X254.327Y316.451
G1 X254.405Y316.47
G1 X254.471Y316.515
G1 X254.487Y316.911
G1 Y317.307
G1 X254.534Y323.259
G1 X254.552Y329.207
G1 Y335.155
G1 X254.527Y341.107
G1 X254.487Y341.963
G1 X253.901Y342.044
G1 X253.311Y342.083
G1 X251.047Y342.187
G1 X85.751Y349.131
G1 X83.398Y349.226
G1 X81.047Y349.355
G1 X80.704Y349.367
G1 X80.367Y349.427
G1 X80.279Y349.459
G1 X80.204Y349.524
G1 X80.143Y349.603
G1 X80.111Y349.683
G1 X80.079Y349.795
G1 X80.028Y350.594
G1 X80.039Y351.395
G1 X80.068Y352.299
G1 X80.103Y353.203
G1 X80.135Y354.491
G1 X80.163Y356.335
G1 Y358.178
G1 X80.129Y360.02
G1 X80.066Y361.861
G1 X79.974Y363.7
G1 X79.851Y365.537
G1 X79.698Y367.371
G1 X79.515Y369.203
G1 X79.302Y371.031
G1 X79.059Y372.856
G1 X78.786Y374.676
G1 X78.484Y376.493
G1 X78.151Y378.304
G1 X77.789Y380.111
G1 X77.397Y381.912
G1 X76.975Y383.707
G1 X76.566Y385.304
G1 X76.122Y386.891
G1 X75.643Y388.467
G1 X75.13Y390.033
G1 X74.582Y391.586
G1 X74.001Y393.128
G1 X73.385Y394.656
G1 X72.735Y396.171
G1 X72.251Y397.236
G1 X71.738Y398.286
G1 X71.197Y399.321
G1 X70.627Y400.34
G1 X70.029Y401.344
G1 X69.403Y402.33
G1 X68.751Y403.3
G1 X68.071Y404.251
G1 X67.563Y404.924
G1 X67.035Y405.579
G1 X66.485Y406.217
G1 X65.915Y406.836
G1 X65.325Y407.435
G1 X64.715Y408.015
G1 X64.086Y408.575
G1 X63.439Y409.115
G1 X62.654Y409.691
G1 X61.841Y410.225
G1 X61.003Y410.715
G1 X60.142Y411.16
G1 X59.259Y411.561
G1 X58.355Y411.915
G1 X57.433Y412.223
G1 X56.495Y412.483
G1 X55.67Y412.65
G1 X54.838Y412.767
G1 X54Y412.834
G1 X53.159Y412.851
G1 X49.651
G1 X46.143Y412.819
G1 X46.066Y411.664
G1 X46.047Y410.507
G1 X46.015Y404.971
G1 Y399.435
; Layer Corte Pass 9 of 10
G1 X46.03Y397.555
G1 X46.071Y395.675
G1 X46.098Y395.246
G1 X46.143Y394.819
G1 X52.839Y394.723
G1 X52.895Y344.275
G1 X52.909Y339.747
G1 X52.959Y335.219
G1 X52.971Y334.614
G1 X53.015Y334.011
G1 Y333.995
G1 X139.919
G1 Y330.891
G1 X53.071
G1 X53.055
G1 Y330.867
G1 X52.992Y330.541
G1 Y330.211
G1 X52.936Y328.183
G1 X52.919Y326.155
G1 X52.895Y319.915
G1 X52.839Y252.323
G1 X49.527Y252.275
G1 X47.914Y252.241
G1 X46.303Y252.163
G1 X46.207
G1 X46.163Y252.141
G1 X46.119Y252.123
G1 Y252.007
G1 X46.095Y251.427
G1 X46.057Y246.647
G1 X46.042Y241.867
G1 Y237.088
G1 X46.079Y232.307
G1 X46.091Y231.827
G1 X46.111Y231.347
G1 X46.135Y231.315
G1 X46.175Y231.291
G1 X46.255Y231.267
G1 X47.182Y231.198
G1 X48.111Y231.187
G1 X49.535
G1 X60.215
G1 X61.627Y231.176
G1 X63.04Y231.193
G1 X64.452Y231.232
G1 X65.863Y231.291
G1 X66.816Y231.373
G1 X67.762Y231.511
G1 X68.698Y231.702
G1 X69.623Y231.947
G1 X70.595Y232.189
G1 X71.554Y232.474
G1 X72.5Y232.802
G1 X73.431Y233.171
G1 X74.772Y233.766
G1 X76.073Y234.44
G1 X77.331Y235.192
G1 X78.543Y236.019
G1 X79.282Y236.548
G1 X79.992Y237.115
G1 X80.671Y237.717
G1 X81.319Y238.355
G1 X82.038Y239.077
G1 X82.714Y239.839
G1 X83.344Y240.639
G1 X84.456Y242.232
G1 X84.928Y243.025
G1 X85.338Y243.851
G1 X85.938Y245.323
G1 X86.171Y245.946
G1 X86.386Y246.575
G1 X86.583Y247.211
G1 X86.754Y248.005
G1 X86.892Y248.805
G1 X86.998Y249.61
G1 X87.071Y250.419
G1 X87.097Y251.315
G1 Y252.212
G1 X87.069Y253.108
G1 X87.015Y254.003
G1 X87.005Y254.05
G1 X86.983Y254.09
G1 X86.947Y254.119
G1 X86.815Y254.155
G1 X86.386Y254.19
G1 X85.955Y254.206
G1 X85.525
G1 X85.095Y254.179
G1 X81.074Y254.015
G1 X77.055Y253.819
G1 X75.999Y253.787
G1 X74.95Y253.758
G1 X73.903Y253.803
G1 X73.795Y253.837
G1 X73.727Y253.923
G1 X73.659Y254.089
G1 X73.613Y254.262
G1 X73.587Y254.439
G1 Y254.619
G1 Y265.376
G1 X73.609Y276.139
G1 X73.678Y286.902
G1 X73.783Y297.659
G1 Y298.031
G1 X73.805Y298.402
G1 X73.844Y298.772
G1 X73.903Y299.139
G1 X73.958Y299.301
G1 X74.055Y299.443
G1 X74.234Y299.542
G1 X74.431Y299.595
G1 X76.48Y299.964
G1 X78.535Y300.299
G1 X208.143Y321.027
G1 X209.672Y321.267
G1 X211.207Y321.475
G1 X211.495Y321.491
G1 X211.631
G1 X211.759Y321.458
G1 X211.874Y321.39
G1 X211.967Y321.291
G1 X212.155Y320.93
G1 X212.295Y320.547
G1 X212.712Y319.347
G1 X213.103Y318.139
G1 X214.415Y314.043
G1 X214.965Y312.333
G1 X215.551Y310.635
G1 X215.585Y310.53
G1 X215.638Y310.433
G1 X215.707Y310.347
G1 X215.791Y310.275
G1 X215.978Y310.243
G1 X216.167Y310.232
G1 X216.356Y310.243
G1 X216.543Y310.275
G1 X217.972Y310.478
G1 X219.399Y310.699
G1 X235.887Y313.362
G1 X252.367Y316.083
G1 X253.351Y316.244
G1 X254.327Y316.451
G1 X254.405Y316.47
G1 X254.471Y316.515
G1 X254.487Y316.911
G1 Y317.307
G1 X254.534Y323.259
G1 X254.552Y329.207
G1 Y335.155
G1 X254.527Y341.107
G1 X254.487Y341.963
G1 X253.901Y342.044
G1 X253.311Y342.083
G1 X251.047Y342.187
G1 X85.751Y349.131
G1 X83.398Y349.226
G1 X81.047Y349.355
G1 X80.704Y349.367
G1 X80.367Y349.427
G1 X80.279Y349.459
G1 X80.204Y349.524
G1 X80.143Y349.603
G1 X80.111Y349.683
G1 X80.079Y349.795
G1 X80.028Y350.594
G1 X80.039Y351.395
G1 X80.068Y352.299
G1 X80.103Y353.203
G1 X80.135Y354.491
G1 X80.163Y356.335
G1 Y358.178
G1 X80.129Y360.02
G1 X80.066Y361.861
G1 X79.974Y363.7
G1 X79.851Y365.537
G1 X79.698Y367.371
G1 X79.515Y369.203
G1 X79.302Y371.031
G1 X79.059Y372.856
G1 X78.786Y374.676
G1 X78.484Y376.493
G1 X78.151Y378.304
G1 X77.789Y380.111
G1 X77.397Y381.912
G1 X76.975Y383.707
G1 X76.566Y385.304
G1 X76.122Y386.891
G1 X75.643Y388.467
G1 X75.13Y390.033
G1 X74.582Y391.586
G1 X74.001Y393.128
G1 X73.385Y394.656
G1 X72.735Y396.171
G1 X72.251Y397.236
G1 X71.738Y398.286
G1 X71.197Y399.321
G1 X70.627Y400.34
G1 X70.029Y401.344
G1 X69.403Y402.33
G1 X68.751Y403.3
G1 X68.071Y404.251
G1 X67.563Y404.924
G1 X67.035Y405.579
G1 X66.485Y406.217
G1 X65.915Y406.836
G1 X65.325Y407.435
G1 X64.715Y408.015
G1 X64.086Y408.575
G1 X63.439Y409.115
G1 X62.654Y409.691
G1 X61.841Y410.225
G1 X61.003Y410.715
G1 X60.142Y411.16
G1 X59.259Y411.561
G1 X58.355Y411.915
G1 X57.433Y412.223
G1 X56.495Y412.483
G1 X55.67Y412.65
G1 X54.838Y412.767
G1 X54Y412.834
G1 X53.159Y412.851
G1 X49.651
G1 X46.143Y412.819
G1 X46.066Y411.664
G1 X46.047Y410.507
G1 X46.015Y404.971
G1 Y399.435
; Layer Corte Pass 10 of 10
G1 X46.03Y397.555
G1 X46.071Y395.675
G1 X46.098Y395.246
G1 X46.143Y394.819
G1 X52.839Y394.723
G1 X52.895Y344.275
G1 X52.909Y339.747
G1 X52.959Y335.219
G1 X52.971Y334.614
G1 X53.015Y334.011
G1 Y333.995
G1 X139.919
G1 Y330.891
G1 X53.071
G1 X53.055
G1 Y330.867
G1 X52.992Y330.541
G1 Y330.211
G1 X52.936Y328.183
G1 X52.919Y326.155
G1 X52.895Y319.915
G1 X52.839Y252.323
G1 X49.527Y252.275
G1 X47.914Y252.241
G1 X46.303Y252.163
G1 X46.207
G1 X46.163Y252.141
G1 X46.119Y252.123
G1 Y252.007
G1 X46.095Y251.427
G1 X46.057Y246.647
G1 X46.042Y241.867
G1 Y237.088
G1 X46.079Y232.307
G1 X46.091Y231.827
G1 X46.111Y231.347
G1 X46.135Y231.315
G1 X46.175Y231.291
G1 X46.255Y231.267
G1 X47.182Y231.198
G1 X48.111Y231.187
G1 X49.535
G1 X60.215
G1 X61.627Y231.176
G1 X63.04Y231.193
G1 X64.452Y231.232
G1 X65.863Y231.291
G1 X66.816Y231.373
G1 X67.762Y231.511
G1 X68.698Y231.702
G1 X69.623Y231.947
G1 X70.595Y232.189
G1 X71.554Y232.474
G1 X72.5Y232.802
G1 X73.431Y233.171
G1 X74.772Y233.766
G1 X76.073Y234.44
G1 X77.331Y235.192
G1 X78.543Y236.019
G1 X79.282Y236.548
G1 X79.992Y237.115
G1 X80.671Y237.717
G1 X81.319Y238.355
G1 X82.038Y239.077
G1 X82.714Y239.839
G1 X83.344Y240.639
G1 X84.456Y242.232
G1 X84.928Y243.025
G1 X85.338Y243.851
G1 X85.938Y245.323
G1 X86.171Y245.946
G1 X86.386Y246.575
G1 X86.583Y247.211
G1 X86.754Y248.005
G1 X86.892Y248.805
G1 X86.998Y249.61
G1 X87.071Y250.419
G1 X87.097Y251.315
G1 Y252.212
G1 X87.069Y253.108
G1 X87.015Y254.003
G1 X87.005Y254.05
G1 X86.983Y254.09
G1 X86.947Y254.119
G1 X86.815Y254.155
G1 X86.386Y254.19
G1 X85.955Y254.206
G1 X85.525
G1 X85.095Y254.179
G1 X81.074Y254.015
G1 X77.055Y253.819
G1 X75.999Y253.787
G1 X74.95Y253.758
G1 X73.903Y253.803
G1 X73.795Y253.837
G1 X73.727Y253.923
G1 X73.659Y254.089
G1 X73.613Y254.262
G1 X73.587Y254.439
G1 Y254.619
G1 Y265.376
G1 X73.609Y276.139
G1 X73.678Y286.902
G1 X73.783Y297.659
G1 Y298.031
G1 X73.805Y298.402
G1 X73.844Y298.772
G1 X73.903Y299.139
G1 X73.958Y299.301
G1 X74.055Y299.443
G1 X74.234Y299.542
G1 X74.431Y299.595
G1 X76.48Y299.964
G1 X78.535Y300.299
G1 X208.143Y321.027
G1 X209.672Y321.267
G1 X211.207Y321.475
G1 X211.495Y321.491
G1 X211.631
G1 X211.759Y321.458
G1 X211.874Y321.39
G1 X211.967Y321.291
G1 X212.155Y320.93
G1 X212.295Y320.547
G1 X212.712Y319.347
G1 X213.103Y318.139
G1 X214.415Y314.043
G1 X214.965Y312.333
G1 X215.551Y310.635
G1 X215.585Y310.53
G1 X215.638Y310.433
G1 X215.707Y310.347
G1 X215.791Y310.275
G1 X215.978Y310.243
G1 X216.167Y310.232
G1 X216.356Y310.243
G1 X216.543Y310.275
G1 X217.972Y310.478
G1 X219.399Y310.699
G1 X235.887Y313.362
G1 X252.367Y316.083
G1 X253.351Y316.244
G1 X254.327Y316.451
G1 X254.405Y316.47
G1 X254.471Y316.515
G1 X254.487Y316.911
G1 Y317.307
G1 X254.534Y323.259
G1 X254.552Y329.207
G1 Y335.155
G1 X254.527Y341.107
G1 X254.487Y341.963
G1 X253.901Y342.044
G1 X253.311Y342.083
G1 X251.047Y342.187
G1 X85.751Y349.131
G1 X83.398Y349.226
G1 X81.047Y349.355
G1 X80.704Y349.367
G1 X80.367Y349.427
G1 X80.279Y349.459
G1 X80.204Y349.524
G1 X80.143Y349.603
G1 X80.111Y349.683
G1 X80.079Y349.795
G1 X80.028Y350.594
G1 X80.039Y351.395
G1 X80.068Y352.299
G1 X80.103Y353.203
G1 X80.135Y354.491
G1 X80.163Y356.335
G1 Y358.178
G1 X80.129Y360.02
G1 X80.066Y361.861
G1 X79.974Y363.7
G1 X79.851Y365.537
G1 X79.698Y367.371
G1 X79.515Y369.203
G1 X79.302Y371.031
G1 X79.059Y372.856
G1 X78.786Y374.676
G1 X78.484Y376.493
G1 X78.151Y378.304
G1 X77.789Y380.111
G1 X77.397Y381.912
G1 X76.975Y383.707
G1 X76.566Y385.304
G1 X76.122Y386.891
G1 X75.643Y388.467
G1 X75.13Y390.033
G1 X74.582Y391.586
G1 X74.001Y393.128
G1 X73.385Y394.656
G1 X72.735Y396.171
G1 X72.251Y397.236
G1 X71.738Y398.286
G1 X71.197Y399.321
G1 X70.627Y400.34
G1 X70.029Y401.344
G1 X69.403Y402.33
G1 X68.751Y403.3
G1 X68.071Y404.251
G1 X67.563Y404.924
G1 X67.035Y405.579
G1 X66.485Y406.217
G1 X65.915Y406.836
G1 X65.325Y407.435
G1 X64.715Y408.015
G1 X64.086Y408.575
G1 X63.439Y409.115
G1 X62.654Y409.691
G1 X61.841Y410.225
G1 X61.003Y410.715
G1 X60.142Y411.16
G1 X59.259Y411.561
G1 X58.355Y411.915
G1 X57.433Y412.223
G1 X56.495Y412.483
G1 X55.67Y412.65
G1 X54.838Y412.767
G1 X54Y412.834
G1 X53.159Y412.851
G1 X49.651
G1 X46.143Y412.819
G1 X46.066Y411.664
G1 X46.047Y410.507
G1 X46.015Y404.971
G1 Y399.435
G0 X84.35Y298.141
; Layer Corte Pass 1 of 10
G1 X81.58Y297.657
G1 X81.324Y297.606
G1 X81.092Y297.489
G1 X81.024Y290.309
G1 X81.012Y283.129
G1 X195.644
G1 Y280.033
G1 X81.02
G1 Y276.473
G1 X81.044Y272.913
G1 X81.084Y272.057
G1 X81.669Y271.976
G1 X82.26Y271.945
G1 X84.516Y271.833
G1 X245.996Y265.065
G1 X249.975Y264.889
G1 X253.956Y264.705
G1 X254.274
G1 X254.591Y264.685
G1 X254.907Y264.645
G1 X255.22Y264.585
G1 X255.34Y264.529
G1 X255.432Y264.391
G1 X255.484Y264.233
G1 X255.522Y263.78
G1 X255.54Y263.326
G1 Y262.871
G1 X255.516Y262.417
G1 X255.468Y260.825
G1 X255.416Y258.839
G1 X255.4Y256.853
G1 X255.419Y254.868
G1 X255.473Y252.885
G1 X255.561Y250.903
G1 X255.685Y248.924
G1 X255.843Y246.948
G1 X256.036Y244.974
G1 X256.264Y243.005
G1 X256.527Y241.04
G1 X256.824Y239.079
G1 X257.156Y237.123
G1 X257.522Y235.173
G1 X257.923Y233.229
G1 X258.358Y231.292
G1 X258.828Y229.361
G1 X259.246Y227.828
G1 X259.696Y226.305
G1 X260.176Y224.791
G1 X260.687Y223.287
G1 X261.229Y221.795
G1 X261.801Y220.313
G1 X262.403Y218.843
G1 X263.036Y217.385
G1 X263.516Y216.37
G1 X264.021Y215.369
G1 X264.552Y214.38
G1 X265.107Y213.406
G1 X265.687Y212.446
G1 X266.292Y211.501
G1 X266.92Y210.571
G1 X267.572Y209.657
G1 X268.56Y208.415
G1 X269.617Y207.234
G1 X270.742Y206.116
G1 X271.932Y205.065
G1 X272.823Y204.391
G1 X273.751Y203.775
G1 X274.713Y203.218
G1 X275.707Y202.722
G1 X276.73Y202.288
G1 X277.778Y201.916
G1 X278.849Y201.61
G1 X279.94Y201.369
G1 X280.6Y201.274
G1 X281.263Y201.209
G1 X281.929Y201.174
G1 X282.596
G1 X286.012
G1 X289.428Y201.201
G1 X289.492Y202.153
G1 X289.507Y202.629
G1 Y203.105
G1 X289.555Y209.481
G1 X289.54Y215.857
G1 Y217.338
G1 X289.468Y218.817
G1 X289.428Y219.201
G1 X282.724Y219.305
G1 X282.676Y269.145
G1 Y295.505
G1 X282.7Y322.489
G1 X282.724Y361.705
G1 X284.795Y361.744
G1 X286.868
G1 X287.7Y361.777
G1 X288.528Y361.817
G1 X289.356Y361.865
G1 X289.412
G1 X289.444Y361.881
G1 X289.456Y362.005
G1 Y362.129
G1 X289.512Y367.259
G1 X289.53Y372.389
G1 X289.512Y377.519
G1 X289.46Y382.649
G1 X289.436Y382.705
G1 X289.165Y382.785
G1 X288.884Y382.801
G1 X287.46Y382.841
G1 X279.575Y382.858
G1 X271.692Y382.817
G1 X270.101Y382.757
G1 X268.516Y382.625
G1 X267.666Y382.477
G1 X266.821Y382.303
G1 X265.981Y382.105
G1 X265.148Y381.881
G1 X264.17Y381.595
G1 X263.205Y381.27
G1 X262.256Y380.905
G1 X261.322Y380.503
G1 X260.406Y380.063
G1 X259.508Y379.585
G1 X258.629Y379.071
G1 X257.772Y378.521
G1 X257.145Y378.105
G1 X256.535Y377.667
G1 X255.941Y377.207
G1 X255.364Y376.727
G1 X254.804Y376.227
G1 X254.262Y375.707
G1 X253.739Y375.167
G1 X253.236Y374.609
G1 X252.633Y373.902
G1 X252.063Y373.168
G1 X251.528Y372.409
G1 X251.028Y371.625
G1 X250.564Y370.865
G1 X250.108Y369.876
G1 X249.694Y368.869
G1 X249.32Y367.846
G1 X248.988Y366.809
G1 X248.723Y365.545
G1 X248.549Y364.267
G1 X248.466Y362.98
G1 Y361.689
G1 Y361.252
G1 X248.482Y360.814
G1 X248.519Y360.379
G1 X248.58Y359.945
G1 X248.745Y359.883
G1 X248.916Y359.842
G1 X249.091Y359.823
G1 X250.913Y359.848
G1 X252.556Y359.929
G1 X255.404Y360.055
G1 X258.252Y360.201
G1 X259.284Y360.241
G1 X260.324
G1 X261.364
G1 X261.583Y360.226
G1 X261.796Y360.169
G1 X261.844Y360.097
G1 X261.909Y359.932
G1 X261.954Y359.761
G1 X261.98Y359.586
G1 Y359.409
G1 X261.993Y348.553
G1 X261.96Y337.701
G1 X261.889Y326.849
G1 X261.78Y315.993
G1 X261.742Y315.385
G1 X261.636Y314.785
G1 X261.549Y314.646
G1 X261.432Y314.536
G1 X261.291Y314.46
G1 X261.132Y314.425
G1 X259.306Y314.097
G1 X257.476Y313.793
G1 X128.596Y293.177
G1 X125.068Y292.633
G1 X124.478Y292.562
G1 X123.884Y292.545
G1 X123.804Y292.569
G1 X123.696Y292.63
G1 X123.606Y292.713
G1 X123.537Y292.814
G1 X123.123Y293.882
G1 X122.796Y294.849
G1 X122.123Y296.922
G1 X121.468Y299.001
G1 X120.86Y300.889
G1 X120.445Y302.202
G1 X119.98Y303.497
G1 X119.934Y303.589
G1 X119.87Y303.668
G1 X119.792Y303.732
G1 X119.7Y303.777
G1 X119.177
G1 X118.66Y303.705
G1 X115.85Y303.274
G1 X113.044Y302.825
G1 X88.916Y298.889
G1 X87.124Y298.609
G1 X84.35Y298.141
; Layer Corte Pass 2 of 10
G1 X81.58Y297.657
G1 X81.324Y297.606
G1 X81.092Y297.489
G1 X81.024Y290.309
G1 X81.012Y283.129
G1 X195.644
G1 Y280.033
G1 X81.02
G1 Y276.473
G1 X81.044Y272.913
G1 X81.084Y272.057
G1 X81.669Y271.976
G1 X82.26Y271.945
G1 X84.516Y271.833
G1 X245.996Y265.065
G1 X249.975Y264.889
G1 X253.956Y264.705
G1 X254.274
G1 X254.591Y264.685
G1 X254.907Y264.645
G1 X255.22Y264.585
G1 X255.34Y264.529
G1 X255.432Y264.391
G1 X255.484Y264.233
G1 X255.522Y263.78
G1 X255.54Y263.326
G1 Y262.871
G1 X255.516Y262.417
G1 X255.468Y260.825
G1 X255.416Y258.839
G1 X255.4Y256.853
G1 X255.419Y254.868
G1 X255.473Y252.885
G1 X255.561Y250.903
G1 X255.685Y248.924
G1 X255.843Y246.948
G1 X256.036Y244.974
G1 X256.264Y243.005
G1 X256.527Y241.04
G1 X256.824Y239.079
G1 X257.156Y237.123
G1 X257.522Y235.173
G1 X257.923Y233.229
G1 X258.358Y231.292
G1 X258.828Y229.361
G1 X259.246Y227.828
G1 X259.696Y226.305
G1 X260.176Y224.791
G1 X260.687Y223.287
G1 X261.229Y221.795
G1 X261.801Y220.313
G1 X262.403Y218.843
G1 X263.036Y217.385
G1 X263.516Y216.37
G1 X264.021Y215.369
G1 X264.552Y214.38
G1 X265.107Y213.406
G1 X265.687Y212.446
G1 X266.292Y211.501
G1 X266.92Y210.571
G1 X267.572Y209.657
G1 X268.56Y208.415
G1 X269.617Y207.234
G1 X270.742Y206.116
G1 X271.932Y205.065
G1 X272.823Y204.391
G1 X273.751Y203.775
G1 X274.713Y203.218
G1 X275.707Y202.722
G1 X276.73Y202.288
G1 X277.778Y201.916
G1 X278.849Y201.61
G1 X279.94Y201.369
G1 X280.6Y201.274
G1 X281.263Y201.209
G1 X281.929Y201.174
G1 X282.596
G1 X286.012
G1 X289.428Y201.201
G1 X289.492Y202.153
G1 X289.507Y202.629
G1 Y203.105
G1 X289.555Y209.481
G1 X289.54Y215.857
G1 Y217.338
G1 X289.468Y218.817
G1 X289.428Y219.201
G1 X282.724Y219.305
G1 X282.676Y269.145
G1 Y295.505
G1 X282.7Y322.489
G1 X282.724Y361.705
G1 X284.795Y361.744
G1 X286.868
G1 X287.7Y361.777
G1 X288.528Y361.817
G1 X289.356Y361.865
G1 X289.412
G1 X289.444Y361.881
G1 X289.456Y362.005
G1 Y362.129
G1 X289.512Y367.259
G1 X289.53Y372.389
G1 X289.512Y377.519
G1 X289.46Y382.649
G1 X289.436Y382.705
G1 X289.165Y382.785
G1 X288.884Y382.801
G1 X287.46Y382.841
G1 X279.575Y382.858
G1 X271.692Y382.817
G1 X270.101Y382.757
G1 X268.516Y382.625
G1 X267.666Y382.477
G1 X266.821Y382.303
G1 X265.981Y382.105
G1 X265.148Y381.881
G1 X264.17Y381.595
G1 X263.205Y381.27
G1 X262.256Y380.905
G1 X261.322Y380.503
G1 X260.406Y380.063
G1 X259.508Y379.585
G1 X258.629Y379.071
G1 X257.772Y378.521
G1 X257.145Y378.105
G1 X256.535Y377.667
G1 X255.941Y377.207
G1 X255.364Y376.727
G1 X254.804Y376.227
G1 X254.262Y375.707
G1 X253.739Y375.167
G1 X253.236Y374.609
G1 X252.633Y373.902
G1 X252.063Y373.168
G1 X251.528Y372.409
G1 X251.028Y371.625
G1 X250.564Y370.865
G1 X250.108Y369.876
G1 X249.694Y368.869
G1 X249.32Y367.846
G1 X248.988Y366.809
G1 X248.723Y365.545
G1 X248.549Y364.267
G1 X248.466Y362.98
G1 Y361.689
G1 Y361.252
G1 X248.482Y360.814
G1 X248.519Y360.379
G1 X248.58Y359.945
G1 X248.745Y359.883
G1 X248.916Y359.842
G1 X249.091Y359.823
G1 X250.913Y359.848
G1 X252.556Y359.929
G1 X255.404Y360.055
G1 X258.252Y360.201
G1 X259.284Y360.241
G1 X260.324
G1 X261.364
G1 X261.583Y360.226
G1 X261.796Y360.169
G1 X261.844Y360.097
G1 X261.909Y359.932
G1 X261.954Y359.761
G1 X261.98Y359.586
G1 Y359.409
G1 X261.993Y348.553
G1 X261.96Y337.701
G1 X261.889Y326.849
G1 X261.78Y315.993
G1 X261.742Y315.385
G1 X261.636Y314.785
G1 X261.549Y314.646
G1 X261.432Y314.536
G1 X261.291Y314.46
G1 X261.132Y314.425
G1 X259.306Y314.097
G1 X257.476Y313.793
G1 X128.596Y293.177
G1 X125.068Y292.633
G1 X124.478Y292.562
G1 X123.884Y292.545
G1 X123.804Y292.569
G1 X123.696Y292.63
G1 X123.606Y292.713
G1 X123.537Y292.814
G1 X123.123Y293.882
G1 X122.796Y294.849
G1 X122.123Y296.922
G1 X121.468Y299.001
G1 X120.86Y300.889
G1 X120.445Y302.202
G1 X119.98Y303.497
G1 X119.934Y303.589
G1 X119.87Y303.668
G1 X119.792Y303.732
G1 X119.7Y303.777
G1 X119.177
G1 X118.66Y303.705
G1 X115.85Y303.274
G1 X113.044Y302.825
G1 X88.916Y298.889
G1 X87.124Y298.609
G1 X84.35Y298.141
; Layer Corte Pass 3 of 10
G1 X81.58Y297.657
G1 X81.324Y297.606
G1 X81.092Y297.489
G1 X81.024Y290.309
G1 X81.012Y283.129
G1 X195.644
G1 Y280.033
G1 X81.02
G1 Y276.473
G1 X81.044Y272.913
G1 X81.084Y272.057
G1 X81.669Y271.976
G1 X82.26Y271.945
G1 X84.516Y271.833
G1 X245.996Y265.065
G1 X249.975Y264.889
G1 X253.956Y264.705
G1 X254.274
G1 X254.591Y264.685
G1 X254.907Y264.645
G1 X255.22Y264.585
G1 X255.34Y264.529
G1 X255.432Y264.391
G1 X255.484Y264.233
G1 X255.522Y263.78
G1 X255.54Y263.326
G1 Y262.871
G1 X255.516Y262.417
G1 X255.468Y260.825
G1 X255.416Y258.839
G1 X255.4Y256.853
G1 X255.419Y254.868
G1 X255.473Y252.885
G1 X255.561Y250.903
G1 X255.685Y248.924
G1 X255.843Y246.948
G1 X256.036Y244.974
G1 X256.264Y243.005
G1 X256.527Y241.04
G1 X256.824Y239.079
G1 X257.156Y237.123
G1 X257.522Y235.173
G1 X257.923Y233.229
G1 X258.358Y231.292
G1 X258.828Y229.361
G1 X259.246Y227.828
G1 X259.696Y226.305
G1 X260.176Y224.791
G1 X260.687Y223.287
G1 X261.229Y221.795
G1 X261.801Y220.313
G1 X262.403Y218.843
G1 X263.036Y217.385
G1 X263.516Y216.37
G1 X264.021Y215.369
G1 X264.552Y214.38
G1 X265.107Y213.406
G1 X265.687Y212.446
G1 X266.292Y211.501
G1 X266.92Y210.571
G1 X267.572Y209.657
G1 X268.56Y208.415
G1 X269.617Y207.234
G1 X270.742Y206.116
G1 X271.932Y205.065
G1 X272.823Y204.391
G1 X273.751Y203.775
G1 X274.713Y203.218
G1 X275.707Y202.722
G1 X276.73Y202.288
G1 X277.778Y201.916
G1 X278.849Y201.61
G1 X279.94Y201.369
G1 X280.6Y201.274
G1 X281.263Y201.209
G1 X281.929Y201.174
G1 X282.596
G1 X286.012
G1 X289.428Y201.201
G1 X289.492Y202.153
G1 X289.507Y202.629
G1 Y203.105
G1 X289.555Y209.481
G1 X289.54Y215.857
G1 Y217.338
G1 X289.468Y218.817
G1 X289.428Y219.201
G1 X282.724Y219.305
G1 X282.676Y269.145
G1 Y295.505
G1 X282.7Y322.489
G1 X282.724Y361.705
G1 X284.795Y361.744
G1 X286.868
G1 X287.7Y361.777
G1 X288.528Y361.817
G1 X289.356Y361.865
G1 X289.412
G1 X289.444Y361.881
G1 X289.456Y362.005
G1 Y362.129
G1 X289.512Y367.259
G1 X289.53Y372.389
G1 X289.512Y377.519
G1 X289.46Y382.649
G1 X289.436Y382.705
G1 X289.165Y382.785
G1 X288.884Y382.801
G1 X287.46Y382.841
G1 X279.575Y382.858
G1 X271.692Y382.817
G1 X270.101Y382.757
G1 X268.516Y382.625
G1 X267.666Y382.477
G1 X266.821Y382.303
G1 X265.981Y382.105
G1 X265.148Y381.881
G1 X264.17Y381.595
G1 X263.205Y381.27
G1 X262.256Y380.905
G1 X261.322Y380.503
G1 X260.406Y380.063
G1 X259.508Y379.585
G1 X258.629Y379.071
G1 X257.772Y378.521
G1 X257.145Y378.105
G1 X256.535Y377.667
G1 X255.941Y377.207
G1 X255.364Y376.727
G1 X254.804Y376.227
G1 X254.262Y375.707
G1 X253.739Y375.167
G1 X253.236Y374.609
G1 X252.633Y373.902
G1 X252.063Y373.168
G1 X251.528Y372.409
G1 X251.028Y371.625
G1 X250.564Y370.865
G1 X250.108Y369.876
G1 X249.694Y368.869
G1 X249.32Y367.846
G1 X248.988Y366.809
G1 X248.723Y365.545
G1 X248.549Y364.267
G1 X248.466Y362.98
G1 Y361.689
G1 Y361.252
G1 X248.482Y360.814
G1 X248.519Y360.379
G1 X248.58Y359.945
G1 X248.745Y359.883
G1 X248.916Y359.842
G1 X249.091Y359.823
G1 X250.913Y359.848
G1 X252.556Y359.929
G1 X255.404Y360.055
G1 X258.252Y360.201
G1 X259.284Y360.241
G1 X260.324
G1 X261.364
G1 X261.583Y360.226
G1 X261.796Y360.169
G1 X261.844Y360.097
G1 X261.909Y359.932
G1 X261.954Y359.761
G1 X261.98Y359.586
G1 Y359.409
G1 X261.993Y348.553
G1 X261.96Y337.701
G1 X261.889Y326.849
G1 X261.78Y315.993
G1 X261.742Y315.385
G1 X261.636Y314.785
G1 X261.549Y314.646
G1 X261.432Y314.536
G1 X261.291Y314.46
G1 X261.132Y314.425
G1 X259.306Y314.097
G1 X257.476Y313.793
G1 X128.596Y293.177
G1 X125.068Y292.633
G1 X124.478Y292.562
G1 X123.884Y292.545
G1 X123.804Y292.569
G1 X123.696Y292.63
G1 X123.606Y292.713
G1 X123.537Y292.814
G1 X123.123Y293.882
G1 X122.796Y294.849
G1 X122.123Y296.922
G1 X121.468Y299.001
G1 X120.86Y300.889
G1 X120.445Y302.202
G1 X119.98Y303.497
G1 X119.934Y303.589
G1 X119.87Y303.668
G1 X119.792Y303.732
G1 X119.7Y303.777
G1 X119.177
G1 X118.66Y303.705
G1 X115.85Y303.274
G1 X113.044Y302.825
G1 X88.916Y298.889
G1 X87.124Y298.609
G1 X84.35Y298.141
; Layer Corte Pass 4 of 10
G1 X81.58Y297.657
G1 X81.324Y297.606
G1 X81.092Y297.489
G1 X81.024Y290.309
G1 X81.012Y283.129
G1 X195.644
G1 Y280.033
G1 X81.02
G1 Y276.473
G1 X81.044Y272.913
G1 X81.084Y272.057
G1 X81.669Y271.976
G1 X82.26Y271.945
G1 X84.516Y271.833
G1 X245.996Y265.065
G1 X249.975Y264.889
G1 X253.956Y264.705
G1 X254.274
G1 X254.591Y264.685
G1 X254.907Y264.645
G1 X255.22Y264.585
G1 X255.34Y264.529
G1 X255.432Y264.391
G1 X255.484Y264.233
G1 X255.522Y263.78
G1 X255.54Y263.326
G1 Y262.871
G1 X255.516Y262.417
G1 X255.468Y260.825
G1 X255.416Y258.839
G1 X255.4Y256.853
G1 X255.419Y254.868
G1 X255.473Y252.885
G1 X255.561Y250.903
G1 X255.685Y248.924
G1 X255.843Y246.948
G1 X256.036Y244.974
G1 X256.264Y243.005
G1 X256.527Y241.04
G1 X256.824Y239.079
G1 X257.156Y237.123
G1 X257.522Y235.173
G1 X257.923Y233.229
G1 X258.358Y231.292
G1 X258.828Y229.361
G1 X259.246Y227.828
G1 X259.696Y226.305
G1 X260.176Y224.791
G1 X260.687Y223.287
G1 X261.229Y221.795
G1 X261.801Y220.313
G1 X262.403Y218.843
G1 X263.036Y217.385
G1 X263.516Y216.37
G1 X264.021Y215.369
G1 X264.552Y214.38
G1 X265.107Y213.406
G1 X265.687Y212.446
G1 X266.292Y211.501
G1 X266.92Y210.571
G1 X267.572Y209.657
G1 X268.56Y208.415
G1 X269.617Y207.234
G1 X270.742Y206.116
G1 X271.932Y205.065
G1 X272.823Y204.391
G1 X273.751Y203.775
G1 X274.713Y203.218
G1 X275.707Y202.722
G1 X276.73Y202.288
G1 X277.778Y201.916
G1 X278.849Y201.61
G1 X279.94Y201.369
G1 X280.6Y201.274
G1 X281.263Y201.209
G1 X281.929Y201.174
G1 X282.596
G1 X286.012
G1 X289.428Y201.201
G1 X289.492Y202.153
G1 X289.507Y202.629
G1 Y203.105
G1 X289.555Y209.481
G1 X289.54Y215.857
G1 Y217.338
G1 X289.468Y218.817
G1 X289.428Y219.201
G1 X282.724Y219.305
G1 X282.676Y269.145
G1 Y295.505
G1 X282.7Y322.489
G1 X282.724Y361.705
G1 X284.795Y361.744
G1 X286.868
G1 X287.7Y361.777
G1 X288.528Y361.817
G1 X289.356Y361.865
G1 X289.412
G1 X289.444Y361.881
G1 X289.456Y362.005
G1 Y362.129
G1 X289.512Y367.259
G1 X289.53Y372.389
G1 X289.512Y377.519
G1 X289.46Y382.649
G1 X289.436Y382.705
G1 X289.165Y382.785
G1 X288.884Y382.801
G1 X287.46Y382.841
G1 X279.575Y382.858
G1 X271.692Y382.817
G1 X270.101Y382.757
G1 X268.516Y382.625
G1 X267.666Y382.477
G1 X266.821Y382.303
G1 X265.981Y382.105
G1 X265.148Y381.881
G1 X264.17Y381.595
G1 X263.205Y381.27
G1 X262.256Y380.905
G1 X261.322Y380.503
G1 X260.406Y380.063
G1 X259.508Y379.585
G1 X258.629Y379.071
G1 X257.772Y378.521
G1 X257.145Y378.105
G1 X256.535Y377.667
G1 X255.941Y377.207
G1 X255.364Y376.727
G1 X254.804Y376.227
G1 X254.262Y375.707
G1 X253.739Y375.167
G1 X253.236Y374.609
G1 X252.633Y373.902
G1 X252.063Y373.168
G1 X251.528Y372.409
G1 X251.028Y371.625
G1 X250.564Y370.865
G1 X250.108Y369.876
G1 X249.694Y368.869
G1 X249.32Y367.846
G1 X248.988Y366.809
G1 X248.723Y365.545
G1 X248.549Y364.267
G1 X248.466Y362.98
G1 Y361.689
G1 Y361.252
G1 X248.482Y360.814
G1 X248.519Y360.379
G1 X248.58Y359.945
G1 X248.745Y359.883
G1 X248.916Y359.842
G1 X249.091Y359.823
G1 X250.913Y359.848
G1 X252.556Y359.929
G1 X255.404Y360.055
G1 X258.252Y360.201
G1 X259.284Y360.241
G1 X260.324
G1 X261.364
G1 X261.583Y360.226
G1 X261.796Y360.169
G1 X261.844Y360.097
G1 X261.909Y359.932
G1 X261.954Y359.761
G1 X261.98Y359.586
G1 Y359.409
G1 X261.993Y348.553
G1 X261.96Y337.701
G1 X261.889Y326.849
G1 X261.78Y315.993
G1 X261.742Y315.385
G1 X261.636Y314.785
G1 X261.549Y314.646
G1 X261.432Y314.536
G1 X261.291Y314.46
G1 X261.132Y314.425
G1 X259.306Y314.097
G1 X257.476Y313.793
G1 X128.596Y293.177
G1 X125.068Y292.633
G1 X124.478Y292.562
G1 X123.884Y292.545
G1 X123.804Y292.569
G1 X123.696Y292.63
G1 X123.606Y292.713
G1 X123.537Y292.814
G1 X123.123Y293.882
G1 X122.796Y294.849
G1 X122.123Y296.922
G1 X121.468Y299.001
G1 X120.86Y300.889
G1 X120.445Y302.202
G1 X119.98Y303.497
G1 X119.934Y303.589
G1 X119.87Y303.668
G1 X119.792Y303.732
G1 X119.7Y303.777
G1 X119.177
G1 X118.66Y303.705
G1 X115.85Y303.274
G1 X113.044Y302.825
G1 X88.916Y298.889
G1 X87.124Y298.609
G1 X84.35Y298.141
; Layer Corte Pass 5 of 10
G1 X81.58Y297.657
G1 X81.324Y297.606
G1 X81.092Y297.489
G1 X81.024Y290.309
G1 X81.012Y283.129
G1 X195.644
G1 Y280.033
G1 X81.02
G1 Y276.473
G1 X81.044Y272.913
G1 X81.084Y272.057
G1 X81.669Y271.976
G1 X82.26Y271.945
G1 X84.516Y271.833
G1 X245.996Y265.065
G1 X249.975Y264.889
G1 X253.956Y264.705
G1 X254.274
G1 X254.591Y264.685
G1 X254.907Y264.645
G1 X255.22Y264.585
G1 X255.34Y264.529
G1 X255.432Y264.391
G1 X255.484Y264.233
G1 X255.522Y263.78
G1 X255.54Y263.326
G1 Y262.871
G1 X255.516Y262.417
G1 X255.468Y260.825
G1 X255.416Y258.839
G1 X255.4Y256.853
G1 X255.419Y254.868
G1 X255.473Y252.885
G1 X255.561Y250.903
G1 X255.685Y248.924
G1 X255.843Y246.948
G1 X256.036Y244.974
G1 X256.264Y243.005
G1 X256.527Y241.04
G1 X256.824Y239.079
G1 X257.156Y237.123
G1 X257.522Y235.173
G1 X257.923Y233.229
G1 X258.358Y231.292
G1 X258.828Y229.361
G1 X259.246Y227.828
G1 X259.696Y226.305
G1 X260.176Y224.791
G1 X260.687Y223.287
G1 X261.229Y221.795
G1 X261.801Y220.313
G1 X262.403Y218.843
G1 X263.036Y217.385
G1 X263.516Y216.37
G1 X264.021Y215.369
G1 X264.552Y214.38
G1 X265.107Y213.406
G1 X265.687Y212.446
G1 X266.292Y211.501
G1 X266.92Y210.571
G1 X267.572Y209.657
G1 X268.56Y208.415
G1 X269.617Y207.234
G1 X270.742Y206.116
G1 X271.932Y205.065
G1 X272.823Y204.391
G1 X273.751Y203.775
G1 X274.713Y203.218
G1 X275.707Y202.722
G1 X276.73Y202.288
G1 X277.778Y201.916
G1 X278.849Y201.61
G1 X279.94Y201.369
G1 X280.6Y201.274
G1 X281.263Y201.209
G1 X281.929Y201.174
G1 X282.596
G1 X286.012
G1 X289.428Y201.201
G1 X289.492Y202.153
G1 X289.507Y202.629
G1 Y203.105
G1 X289.555Y209.481
G1 X289.54Y215.857
G1 Y217.338
G1 X289.468Y218.817
G1 X289.428Y219.201
G1 X282.724Y219.305
G1 X282.676Y269.145
G1 Y295.505
G1 X282.7Y322.489
G1 X282.724Y361.705
G1 X284.795Y361.744
G1 X286.868
G1 X287.7Y361.777
G1 X288.528Y361.817
G1 X289.356Y361.865
G1 X289.412
G1 X289.444Y361.881
G1 X289.456Y362.005
G1 Y362.129
G1 X289.512Y367.259
G1 X289.53Y372.389
G1 X289.512Y377.519
G1 X289.46Y382.649
G1 X289.436Y382.705
G1 X289.165Y382.785
G1 X288.884Y382.801
G1 X287.46Y382.841
G1 X279.575Y382.858
G1 X271.692Y382.817
G1 X270.101Y382.757
G1 X268.516Y382.625
G1 X267.666Y382.477
G1 X266.821Y382.303
G1 X265.981Y382.105
G1 X265.148Y381.881
G1 X264.17Y381.595
G1 X263.205Y381.27
G1 X262.256Y380.905
G1 X261.322Y380.503
G1 X260.406Y380.063
G1 X259.508Y379.585
G1 X258.629Y379.071
G1 X257.772Y378.521
G1 X257.145Y378.105
G1 X256.535Y377.667
G1 X255.941Y377.207
G1 X255.364Y376.727
G1 X254.804Y376.227
G1 X254.262Y375.707
G1 X253.739Y375.167
G1 X253.236Y374.609
G1 X252.633Y373.902
G1 X252.063Y373.168
G1 X251.528Y372.409
G1 X251.028Y371.625
G1 X250.564Y370.865
G1 X250.108Y369.876
G1 X249.694Y368.869
G1 X249.32Y367.846
G1 X248.988Y366.809
G1 X248.723Y365.545
G1 X248.549Y364.267
G1 X248.466Y362.98
G1 Y361.689
G1 Y361.252
G1 X248.482Y360.814
G1 X248.519Y360.379
G1 X248.58Y359.945
G1 X248.745Y359.883
G1 X248.916Y359.842
G1 X249.091Y359.823
G1 X250.913Y359.848
G1 X252.556Y359.929
G1 X255.404Y360.055
G1 X258.252Y360.201
G1 X259.284Y360.241
G1 X260.324
G1 X261.364
G1 X261.583Y360.226
G1 X261.796Y360.169
G1 X261.844Y360.097
G1 X261.909Y359.932
G1 X261.954Y359.761
G1 X261.98Y359.586
G1 Y359.409
G1 X261.993Y348.553
G1 X261.96Y337.701
G1 X261.889Y326.849
G1 X261.78Y315.993
G1 X261.742Y315.385
G1 X261.636Y314.785
G1 X261.549Y314.646
G1 X261.432Y314.536
G1 X261.291Y314.46
G1 X261.132Y314.425
G1 X259.306Y314.097
G1 X257.476Y313.793
G1 X128.596Y293.177
G1 X125.068Y292.633
G1 X124.478Y292.562
G1 X123.884Y292.545
G1 X123.804Y292.569
G1 X123.696Y292.63
G1 X123.606Y292.713
G1 X123.537Y292.814
G1 X123.123Y293.882
G1 X122.796Y294.849
G1 X122.123Y296.922
G1 X121.468Y299.001
G1 X120.86Y300.889
G1 X120.445Y302.202
G1 X119.98Y303.497
G1 X119.934Y303.589
G1 X119.87Y303.668
G1 X119.792Y303.732
G1 X119.7Y303.777
G1 X119.177
G1 X118.66Y303.705
G1 X115.85Y303.274
G1 X113.044Y302.825
G1 X88.916Y298.889
G1 X87.124Y298.609
G1 X84.35Y298.141
; Layer Corte Pass 6 of 10
G1 X81.58Y297.657
G1 X81.324Y297.606
G1 X81.092Y297.489
G1 X81.024Y290.309
G1 X81.012Y283.129
G1 X195.644
G1 Y280.033
G1 X81.02
G1 Y276.473
G1 X81.044Y272.913
G1 X81.084Y272.057
G1 X81.669Y271.976
G1 X82.26Y271.945
G1 X84.516Y271.833
G1 X245.996Y265.065
G1 X249.975Y264.889
G1 X253.956Y264.705
G1 X254.274
G1 X254.591Y264.685
G1 X254.907Y264.645
G1 X255.22Y264.585
G1 X255.34Y264.529
G1 X255.432Y264.391
G1 X255.484Y264.233
G1 X255.522Y263.78
G1 X255.54Y263.326
G1 Y262.871
G1 X255.516Y262.417
G1 X255.468Y260.825
G1 X255.416Y258.839
G1 X255.4Y256.853
G1 X255.419Y254.868
G1 X255.473Y252.885
G1 X255.561Y250.903
G1 X255.685Y248.924
G1 X255.843Y246.948
G1 X256.036Y244.974
G1 X256.264Y243.005
G1 X256.527Y241.04
G1 X256.824Y239.079
G1 X257.156Y237.123
G1 X257.522Y235.173
G1 X257.923Y233.229
G1 X258.358Y231.292
G1 X258.828Y229.361
G1 X259.246Y227.828
G1 X259.696Y226.305
G1 X260.176Y224.791
G1 X260.687Y223.287
G1 X261.229Y221.795
G1 X261.801Y220.313
G1 X262.403Y218.843
G1 X263.036Y217.385
G1 X263.516Y216.37
G1 X264.021Y215.369
G1 X264.552Y214.38
G1 X265.107Y213.406
G1 X265.687Y212.446
G1 X266.292Y211.501
G1 X266.92Y210.571
G1 X267.572Y209.657
G1 X268.56Y208.415
G1 X269.617Y207.234
G1 X270.742Y206.116
G1 X271.932Y205.065
G1 X272.823Y204.391
G1 X273.751Y203.775
G1 X274.713Y203.218
G1 X275.707Y202.722
G1 X276.73Y202.288
G1 X277.778Y201.916
G1 X278.849Y201.61
G1 X279.94Y201.369
G1 X280.6Y201.274
G1 X281.263Y201.209
G1 X281.929Y201.174
G1 X282.596
G1 X286.012
G1 X289.428Y201.201
G1 X289.492Y202.153
G1 X289.507Y202.629
G1 Y203.105
G1 X289.555Y209.481
G1 X289.54Y215.857
G1 Y217.338
G1 X289.468Y218.817
G1 X289.428Y219.201
G1 X282.724Y219.305
G1 X282.676Y269.145
G1 Y295.505
G1 X282.7Y322.489
G1 X282.724Y361.705
G1 X284.795Y361.744
G1 X286.868
G1 X287.7Y361.777
G1 X288.528Y361.817
G1 X289.356Y361.865
G1 X289.412
G1 X289.444Y361.881
G1 X289.456Y362.005
G1 Y362.129
G1 X289.512Y367.259
G1 X289.53Y372.389
G1 X289.512Y377.519
G1 X289.46Y382.649
G1 X289.436Y382.705
G1 X289.165Y382.785
G1 X288.884Y382.801
G1 X287.46Y382.841
G1 X279.575Y382.858
G1 X271.692Y382.817
G1 X270.101Y382.757
G1 X268.516Y382.625
G1 X267.666Y382.477
G1 X266.821Y382.303
G1 X265.981Y382.105
G1 X265.148Y381.881
G1 X264.17Y381.595
G1 X263.205Y381.27
G1 X262.256Y380.905
G1 X261.322Y380.503
G1 X260.406Y380.063
G1 X259.508Y379.585
G1 X258.629Y379.071
G1 X257.772Y378.521
G1 X257.145Y378.105
G1 X256.535Y377.667
G1 X255.941Y377.207
G1 X255.364Y376.727
G1 X254.804Y376.227
G1 X254.262Y375.707
G1 X253.739Y375.167
G1 X253.236Y374.609
G1 X252.633Y373.902
G1 X252.063Y373.168
G1 X251.528Y372.409
G1 X251.028Y371.625
G1 X250.564Y370.865
G1 X250.108Y369.876
G1 X249.694Y368.869
G1 X249.32Y367.846
G1 X248.988Y366.809
G1 X248.723Y365.545
G1 X248.549Y364.267
G1 X248.466Y362.98
G1 Y361.689
G1 Y361.252
G1 X248.482Y360.814
G1 X248.519Y360.379
G1 X248.58Y359.945
G1 X248.745Y359.883
G1 X248.916Y359.842
G1 X249.091Y359.823
G1 X250.913Y359.848
G1 X252.556Y359.929
G1 X255.404Y360.055
G1 X258.252Y360.201
G1 X259.284Y360.241
G1 X260.324
G1 X261.364
G1 X261.583Y360.226
G1 X261.796Y360.169
G1 X261.844Y360.097
G1 X261.909Y359.932
G1 X261.954Y359.761
G1 X261.98Y359.586
G1 Y359.409
G1 X261.993Y348.553
G1 X261.96Y337.701
G1 X261.889Y326.849
G1 X261.78Y315.993
G1 X261.742Y315.385
G1 X261.636Y314.785
G1 X261.549Y314.646
G1 X261.432Y314.536
G1 X261.291Y314.46
G1 X261.132Y314.425
G1 X259.306Y314.097
G1 X257.476Y313.793
G1 X128.596Y293.177
G1 X125.068Y292.633
G1 X124.478Y292.562
G1 X123.884Y292.545
G1 X123.804Y292.569
G1 X123.696Y292.63
G1 X123.606Y292.713
G1 X123.537Y292.814
G1 X123.123Y293.882
G1 X122.796Y294.849
G1 X122.123Y296.922
G1 X121.468Y299.001
G1 X120.86Y300.889
G1 X120.445Y302.202
G1 X119.98Y303.497
G1 X119.934Y303.589
G1 X119.87Y303.668
G1 X119.792Y303.732
G1 X119.7Y303.777
G1 X119.177
G1 X118.66Y303.705
G1 X115.85Y303.274
G1 X113.044Y302.825
G1 X88.916Y298.889
G1 X87.124Y298.609
G1 X84.35Y298.141
; Layer Corte Pass 7 of 10
G1 X81.58Y297.657
G1 X81.324Y297.606
G1 X81.092Y297.489
G1 X81.024Y290.309
G1 X81.012Y283.129
G1 X195.644
G1 Y280.033
G1 X81.02
G1 Y276.473
G1 X81.044Y272.913
G1 X81.084Y272.057
G1 X81.669Y271.976
G1 X82.26Y271.945
G1 X84.516Y271.833
G1 X245.996Y265.065
G1 X249.975Y264.889
G1 X253.956Y264.705
G1 X254.274
G1 X254.591Y264.685
G1 X254.907Y264.645
G1 X255.22Y264.585
G1 X255.34Y264.529
G1 X255.432Y264.391
G1 X255.484Y264.233
G1 X255.522Y263.78
G1 X255.54Y263.326
G1 Y262.871
G1 X255.516Y262.417
G1 X255.468Y260.825
G1 X255.416Y258.839
G1 X255.4Y256.853
G1 X255.419Y254.868
G1 X255.473Y252.885
G1 X255.561Y250.903
G1 X255.685Y248.924
G1 X255.843Y246.948
G1 X256.036Y244.974
G1 X256.264Y243.005
G1 X256.527Y241.04
G1 X256.824Y239.079
G1 X257.156Y237.123
G1 X257.522Y235.173
G1 X257.923Y233.229
G1 X258.358Y231.292
G1 X258.828Y229.361
G1 X259.246Y227.828
G1 X259.696Y226.305
G1 X260.176Y224.791
G1 X260.687Y223.287
G1 X261.229Y221.795
G1 X261.801Y220.313
G1 X262.403Y218.843
G1 X263.036Y217.385
G1 X263.516Y216.37
G1 X264.021Y215.369
G1 X264.552Y214.38
G1 X265.107Y213.406
G1 X265.687Y212.446
G1 X266.292Y211.501
G1 X266.92Y210.571
G1 X267.572Y209.657
G1 X268.56Y208.415
G1 X269.617Y207.234
G1 X270.742Y206.116
G1 X271.932Y205.065
G1 X272.823Y204.391
G1 X273.751Y203.775
G1 X274.713Y203.218
G1 X275.707Y202.722
G1 X276.73Y202.288
G1 X277.778Y201.916
G1 X278.849Y201.61
G1 X279.94Y201.369
G1 X280.6Y201.274
G1 X281.263Y201.209
G1 X281.929Y201.174
G1 X282.596
G1 X286.012
G1 X289.428Y201.201
G1 X289.492Y202.153
G1 X289.507Y202.629
G1 Y203.105
G1 X289.555Y209.481
G1 X289.54Y215.857
G1 Y217.338
G1 X289.468Y218.817
G1 X289.428Y219.201
G1 X282.724Y219.305
G1 X282.676Y269.145
G1 Y295.505
G1 X282.7Y322.489
G1 X282.724Y361.705
G1 X284.795Y361.744
G1 X286.868
G1 X287.7Y361.777
G1 X288.528Y361.817
G1 X289.356Y361.865
G1 X289.412
G1 X289.444Y361.881
G1 X289.456Y362.005
G1 Y362.129
G1 X289.512Y367.259
G1 X289.53Y372.389
G1 X289.512Y377.519
G1 X289.46Y382.649
G1 X289.436Y382.705
G1 X289.165Y382.785
G1 X288.884Y382.801
G1 X287.46Y382.841
G1 X279.575Y382.858
G1 X271.692Y382.817
G1 X270.101Y382.757
G1 X268.516Y382.625
G1 X267.666Y382.477
G1 X266.821Y382.303
G1 X265.981Y382.105
G1 X265.148Y381.881
G1 X264.17Y381.595
G1 X263.205Y381.27
G1 X262.256Y380.905
G1 X261.322Y380.503
G1 X260.406Y380.063
G1 X259.508Y379.585
G1 X258.629Y379.071
G1 X257.772Y378.521
G1 X257.145Y378.105
G1 X256.535Y377.667
G1 X255.941Y377.207
G1 X255.364Y376.727
G1 X254.804Y376.227
G1 X254.262Y375.707
G1 X253.739Y375.167
G1 X253.236Y374.609
G1 X252.633Y373.902
G1 X252.063Y373.168
G1 X251.528Y372.409
G1 X251.028Y371.625
G1 X250.564Y370.865
G1 X250.108Y369.876
G1 X249.694Y368.869
G1 X249.32Y367.846
G1 X248.988Y366.809
G1 X248.723Y365.545
G1 X248.549Y364.267
G1 X248.466Y362.98
G1 Y361.689
G1 Y361.252
G1 X248.482Y360.814
G1 X248.519Y360.379
G1 X248.58Y359.945
G1 X248.745Y359.883
G1 X248.916Y359.842
G1 X249.091Y359.823
G1 X250.913Y359.848
G1 X252.556Y359.929
G1 X255.404Y360.055
G1 X258.252Y360.201
G1 X259.284Y360.241
G1 X260.324
G1 X261.364
G1 X261.583Y360.226
G1 X261.796Y360.169
G1 X261.844Y360.097
G1 X261.909Y359.932
G1 X261.954Y359.761
G1 X261.98Y359.586
G1 Y359.409
G1 X261.993Y348.553
G1 X261.96Y337.701
G1 X261.889Y326.849
G1 X261.78Y315.993
G1 X261.742Y315.385
G1 X261.636Y314.785
G1 X261.549Y314.646
G1 X261.432Y314.536
G1 X261.291Y314.46
G1 X261.132Y314.425
G1 X259.306Y314.097
G1 X257.476Y313.793
G1 X128.596Y293.177
G1 X125.068Y292.633
G1 X124.478Y292.562
G1 X123.884Y292.545
G1 X123.804Y292.569
G1 X123.696Y292.63
G1 X123.606Y292.713
G1 X123.537Y292.814
G1 X123.123Y293.882
G1 X122.796Y294.849
G1 X122.123Y296.922
G1 X121.468Y299.001
G1 X120.86Y300.889
G1 X120.445Y302.202
G1 X119.98Y303.497
G1 X119.934Y303.589
G1 X119.87Y303.668
G1 X119.792Y303.732
G1 X119.7Y303.777
G1 X119.177
G1 X118.66Y303.705
G1 X115.85Y303.274
G1 X113.044Y302.825
G1 X88.916Y298.889
G1 X87.124Y298.609
G1 X84.35Y298.141
; Layer Corte Pass 8 of 10
G1 X81.58Y297.657
G1 X81.324Y297.606
G1 X81.092Y297.489
G1 X81.024Y290.309
G1 X81.012Y283.129
G1 X195.644
G1 Y280.033
G1 X81.02
G1 Y276.473
G1 X81.044Y272.913
G1 X81.084Y272.057
G1 X81.669Y271.976
G1 X82.26Y271.945
G1 X84.516Y271.833
G1 X245.996Y265.065
G1 X249.975Y264.889
G1 X253.956Y264.705
G1 X254.274
G1 X254.591Y264.685
G1 X254.907Y264.645
G1 X255.22Y264.585
G1 X255.34Y264.529
G1 X255.432Y264.391
G1 X255.484Y264.233
G1 X255.522Y263.78
G1 X255.54Y263.326
G1 Y262.871
G1 X255.516Y262.417
G1 X255.468Y260.825
G1 X255.416Y258.839
G1 X255.4Y256.853
G1 X255.419Y254.868
G1 X255.473Y252.885
G1 X255.561Y250.903
G1 X255.685Y248.924
G1 X255.843Y246.948
G1 X256.036Y244.974
G1 X256.264Y243.005
G1 X256.527Y241.04
G1 X256.824Y239.079
G1 X257.156Y237.123
G1 X257.522Y235.173
G1 X257.923Y233.229
G1 X258.358Y231.292
G1 X258.828Y229.361
G1 X259.246Y227.828
G1 X259.696Y226.305
G1 X260.176Y224.791
G1 X260.687Y223.287
G1 X261.229Y221.795
G1 X261.801Y220.313
G1 X262.403Y218.843
G1 X263.036Y217.385
G1 X263.516Y216.37
G1 X264.021Y215.369
G1 X264.552Y214.38
G1 X265.107Y213.406
G1 X265.687Y212.446
G1 X266.292Y211.501
G1 X266.92Y210.571
G1 X267.572Y209.657
G1 X268.56Y208.415
G1 X269.617Y207.234
G1 X270.742Y206.116
G1 X271.932Y205.065
G1 X272.823Y204.391
G1 X273.751Y203.775
G1 X274.713Y203.218
G1 X275.707Y202.722
G1 X276.73Y202.288
G1 X277.778Y201.916
G1 X278.849Y201.61
G1 X279.94Y201.369
G1 X280.6Y201.274
G1 X281.263Y201.209
G1 X281.929Y201.174
G1 X282.596
G1 X286.012
G1 X289.428Y201.201
G1 X289.492Y202.153
G1 X289.507Y202.629
G1 Y203.105
G1 X289.555Y209.481
G1 X289.54Y215.857
G1 Y217.338
G1 X289.468Y218.817
G1 X289.428Y219.201
G1 X282.724Y219.305
G1 X282.676Y269.145
G1 Y295.505
G1 X282.7Y322.489
G1 X282.724Y361.705
G1 X284.795Y361.744
G1 X286.868
G1 X287.7Y361.777
G1 X288.528Y361.817
G1 X289.356Y361.865
G1 X289.412
G1 X289.444Y361.881
G1 X289.456Y362.005
G1 Y362.129
G1 X289.512Y367.259
G1 X289.53Y372.389
G1 X289.512Y377.519
G1 X289.46Y382.649
G1 X289.436Y382.705
G1 X289.165Y382.785
G1 X288.884Y382.801
G1 X287.46Y382.841
G1 X279.575Y382.858
G1 X271.692Y382.817
G1 X270.101Y382.757
G1 X268.516Y382.625
G1 X267.666Y382.477
G1 X266.821Y382.303
G1 X265.981Y382.105
G1 X265.148Y381.881
G1 X264.17Y381.595
G1 X263.205Y381.27
G1 X262.256Y380.905
G1 X261.322Y380.503
G1 X260.406Y380.063
G1 X259.508Y379.585
G1 X258.629Y379.071
G1 X257.772Y378.521
G1 X257.145Y378.105
G1 X256.535Y377.667
G1 X255.941Y377.207
G1 X255.364Y376.727
G1 X254.804Y376.227
G1 X254.262Y375.707
G1 X253.739Y375.167
G1 X253.236Y374.609
G1 X252.633Y373.902
G1 X252.063Y373.168
G1 X251.528Y372.409
G1 X251.028Y371.625
G1 X250.564Y370.865
G1 X250.108Y369.876
G1 X249.694Y368.869
G1 X249.32Y367.846
G1 X248.988Y366.809
G1 X248.723Y365.545
G1 X248.549Y364.267
G1 X248.466Y362.98
G1 Y361.689
G1 Y361.252
G1 X248.482Y360.814
G1 X248.519Y360.379
G1 X248.58Y359.945
G1 X248.745Y359.883
G1 X248.916Y359.842
G1 X249.091Y359.823
G1 X250.913Y359.848
G1 X252.556Y359.929
G1 X255.404Y360.055
G1 X258.252Y360.201
G1 X259.284Y360.241
G1 X260.324
G1 X261.364
G1 X261.583Y360.226
G1 X261.796Y360.169
G1 X261.844Y360.097
G1 X261.909Y359.932
G1 X261.954Y359.761
G1 X261.98Y359.586
G1 Y359.409
G1 X261.993Y348.553
G1 X261.96Y337.701
G1 X261.889Y326.849
G1 X261.78Y315.993
G1 X261.742Y315.385
G1 X261.636Y314.785
G1 X261.549Y314.646
G1 X261.432Y314.536
G1 X261.291Y314.46
G1 X261.132Y314.425
G1 X259.306Y314.097
G1 X257.476Y313.793
G1 X128.596Y293.177
G1 X125.068Y292.633
G1 X124.478Y292.562
G1 X123.884Y292.545
G1 X123.804Y292.569
G1 X123.696Y292.63
G1 X123.606Y292.713
G1 X123.537Y292.814
G1 X123.123Y293.882
G1 X122.796Y294.849
G1 X122.123Y296.922
G1 X121.468Y299.001
G1 X120.86Y300.889
G1 X120.445Y302.202
G1 X119.98Y303.497
G1 X119.934Y303.589
G1 X119.87Y303.668
G1 X119.792Y303.732
G1 X119.7Y303.777
G1 X119.177
G1 X118.66Y303.705
G1 X115.85Y303.274
G1 X113.044Y302.825
G1 X88.916Y298.889
G1 X87.124Y298.609
G1 X84.35Y298.141
; Layer Corte Pass 9 of 10
G1 X81.58Y297.657
G1 X81.324Y297.606
G1 X81.092Y297.489
G1 X81.024Y290.309
G1 X81.012Y283.129
G1 X195.644
G1 Y280.033
G1 X81.02
G1 Y276.473
G1 X81.044Y272.913
G1 X81.084Y272.057
G1 X81.669Y271.976
G1 X82.26Y271.945
G1 X84.516Y271.833
G1 X245.996Y265.065
G1 X249.975Y264.889
G1 X253.956Y264.705
G1 X254.274
G1 X254.591Y264.685
G1 X254.907Y264.645
G1 X255.22Y264.585
G1 X255.34Y264.529
G1 X255.432Y264.391
G1 X255.484Y264.233
G1 X255.522Y263.78
G1 X255.54Y263.326
G1 Y262.871
G1 X255.516Y262.417
G1 X255.468Y260.825
G1 X255.416Y258.839
G1 X255.4Y256.853
G1 X255.419Y254.868
G1 X255.473Y252.885
G1 X255.561Y250.903
G1 X255.685Y248.924
G1 X255.843Y246.948
G1 X256.036Y244.974
G1 X256.264Y243.005
G1 X256.527Y241.04
G1 X256.824Y239.079
G1 X257.156Y237.123
G1 X257.522Y235.173
G1 X257.923Y233.229
G1 X258.358Y231.292
G1 X258.828Y229.361
G1 X259.246Y227.828
G1 X259.696Y226.305
G1 X260.176Y224.791
G1 X260.687Y223.287
G1 X261.229Y221.795
G1 X261.801Y220.313
G1 X262.403Y218.843
G1 X263.036Y217.385
G1 X263.516Y216.37
G1 X264.021Y215.369
G1 X264.552Y214.38
G1 X265.107Y213.406
G1 X265.687Y212.446
G1 X266.292Y211.501
G1 X266.92Y210.571
G1 X267.572Y209.657
G1 X268.56Y208.415
G1 X269.617Y207.234
G1 X270.742Y206.116
G1 X271.932Y205.065
G1 X272.823Y204.391
G1 X273.751Y203.775
G1 X274.713Y203.218
G1 X275.707Y202.722
G1 X276.73Y202.288
G1 X277.778Y201.916
G1 X278.849Y201.61
G1 X279.94Y201.369
G1 X280.6Y201.274
G1 X281.263Y201.209
G1 X281.929Y201.174
G1 X282.596
G1 X286.012
G1 X289.428Y201.201
G1 X289.492Y202.153
G1 X289.507Y202.629
G1 Y203.105
G1 X289.555Y209.481
G1 X289.54Y215.857
G1 Y217.338
G1 X289.468Y218.817
G1 X289.428Y219.201
G1 X282.724Y219.305
G1 X282.676Y269.145
G1 Y295.505
G1 X282.7Y322.489
G1 X282.724Y361.705
G1 X284.795Y361.744
G1 X286.868
G1 X287.7Y361.777
G1 X288.528Y361.817
G1 X289.356Y361.865
G1 X289.412
G1 X289.444Y361.881
G1 X289.456Y362.005
G1 Y362.129
G1 X289.512Y367.259
G1 X289.53Y372.389
G1 X289.512Y377.519
G1 X289.46Y382.649
G1 X289.436Y382.705
G1 X289.165Y382.785
G1 X288.884Y382.801
G1 X287.46Y382.841
G1 X279.575Y382.858
G1 X271.692Y382.817
G1 X270.101Y382.757
G1 X268.516Y382.625
G1 X267.666Y382.477
G1 X266.821Y382.303
G1 X265.981Y382.105
G1 X265.148Y381.881
G1 X264.17Y381.595
G1 X263.205Y381.27
G1 X262.256Y380.905
G1 X261.322Y380.503
G1 X260.406Y380.063
G1 X259.508Y379.585
G1 X258.629Y379.071
G1 X257.772Y378.521
G1 X257.145Y378.105
G1 X256.535Y377.667
G1 X255.941Y377.207
G1 X255.364Y376.727
G1 X254.804Y376.227
G1 X254.262Y375.707
G1 X253.739Y375.167
G1 X253.236Y374.609
G1 X252.633Y373.902
G1 X252.063Y373.168
G1 X251.528Y372.409
G1 X251.028Y371.625
G1 X250.564Y370.865
G1 X250.108Y369.876
G1 X249.694Y368.869
G1 X249.32Y367.846
G1 X248.988Y366.809
G1 X248.723Y365.545
G1 X248.549Y364.267
G1 X248.466Y362.98
G1 Y361.689
G1 Y361.252
G1 X248.482Y360.814
G1 X248.519Y360.379
G1 X248.58Y359.945
G1 X248.745Y359.883
G1 X248.916Y359.842
G1 X249.091Y359.823
G1 X250.913Y359.848
G1 X252.556Y359.929
G1 X255.404Y360.055
G1 X258.252Y360.201
G1 X259.284Y360.241
G1 X260.324
G1 X261.364
G1 X261.583Y360.226
G1 X261.796Y360.169
G1 X261.844Y360.097
G1 X261.909Y359.932
G1 X261.954Y359.761
G1 X261.98Y359.586
G1 Y359.409
G1 X261.993Y348.553
G1 X261.96Y337.701
G1 X261.889Y326.849
G1 X261.78Y315.993
G1 X261.742Y315.385
G1 X261.636Y314.785
G1 X261.549Y314.646
G1 X261.432Y314.536
G1 X261.291Y314.46
G1 X261.132Y314.425
G1 X259.306Y314.097
G1 X257.476Y313.793
G1 X128.596Y293.177
G1 X125.068Y292.633
G1 X124.478Y292.562
G1 X123.884Y292.545
G1 X123.804Y292.569
G1 X123.696Y292.63
G1 X123.606Y292.713
G1 X123.537Y292.814
G1 X123.123Y293.882
G1 X122.796Y294.849
G1 X122.123Y296.922
G1 X121.468Y299.001
G1 X120.86Y300.889
G1 X120.445Y302.202
G1 X119.98Y303.497
G1 X119.934Y303.589
G1 X119.87Y303.668
G1 X119.792Y303.732
G1 X119.7Y303.777
G1 X119.177
G1 X118.66Y303.705
G1 X115.85Y303.274
G1 X113.044Y302.825
G1 X88.916Y298.889
G1 X87.124Y298.609
G1 X84.35Y298.141
; Layer Corte Pass 10 of 10
G1 X81.58Y297.657
G1 X81.324Y297.606
G1 X81.092Y297.489
G1 X81.024Y290.309
G1 X81.012Y283.129
G1 X195.644
G1 Y280.033
G1 X81.02
G1 Y276.473
G1 X81.044Y272.913
G1 X81.084Y272.057
G1 X81.669Y271.976
G1 X82.26Y271.945
G1 X84.516Y271.833
G1 X245.996Y265.065
G1 X249.975Y264.889
G1 X253.956Y264.705
G1 X254.274
G1 X254.591Y264.685
G1 X254.907Y264.645
G1 X255.22Y264.585
G1 X255.34Y264.529
G1 X255.432Y264.391
G1 X255.484Y264.233
G1 X255.522Y263.78
G1 X255.54Y263.326
G1 Y262.871
G1 X255.516Y262.417
G1 X255.468Y260.825
G1 X255.416Y258.839
G1 X255.4Y256.853
G1 X255.419Y254.868
G1 X255.473Y252.885
G1 X255.561Y250.903
G1 X255.685Y248.924
G1 X255.843Y246.948
G1 X256.036Y244.974
G1 X256.264Y243.005
G1 X256.527Y241.04
G1 X256.824Y239.079
G1 X257.156Y237.123
G1 X257.522Y235.173
G1 X257.923Y233.229
G1 X258.358Y231.292
G1 X258.828Y229.361
G1 X259.246Y227.828
G1 X259.696Y226.305
G1 X260.176Y224.791
G1 X260.687Y223.287
G1 X261.229Y221.795
G1 X261.801Y220.313
G1 X262.403Y218.843
G1 X263.036Y217.385
G1 X263.516Y216.37
G1 X264.021Y215.369
G1 X264.552Y214.38
G1 X265.107Y213.406
G1 X265.687Y212.446
G1 X266.292Y211.501
G1 X266.92Y210.571
G1 X267.572Y209.657
G1 X268.56Y208.415
G1 X269.617Y207.234
G1 X270.742Y206.116
G1 X271.932Y205.065
G1 X272.823Y204.391
G1 X273.751Y203.775
G1 X274.713Y203.218
G1 X275.707Y202.722
G1 X276.73Y202.288
G1 X277.778Y201.916
G1 X278.849Y201.61
G1 X279.94Y201.369
G1 X280.6Y201.274
G1 X281.263Y201.209
G1 X281.929Y201.174
G1 X282.596
G1 X286.012
G1 X289.428Y201.201
G1 X289.492Y202.153
G1 X289.507Y202.629
G1 Y203.105
G1 X289.555Y209.481
G1 X289.54Y215.857
G1 Y217.338
G1 X289.468Y218.817
G1 X289.428Y219.201
G1 X282.724Y219.305
G1 X282.676Y269.145
G1 Y295.505
G1 X282.7Y322.489
G1 X282.724Y361.705
G1 X284.795Y361.744
G1 X286.868
G1 X287.7Y361.777
G1 X288.528Y361.817
G1 X289.356Y361.865
G1 X289.412
G1 X289.444Y361.881
G1 X289.456Y362.005
G1 Y362.129
G1 X289.512Y367.259
G1 X289.53Y372.389
G1 X289.512Y377.519
G1 X289.46Y382.649
G1 X289.436Y382.705
G1 X289.165Y382.785
G1 X288.884Y382.801
G1 X287.46Y382.841
G1 X279.575Y382.858
G1 X271.692Y382.817
G1 X270.101Y382.757
G1 X268.516Y382.625
G1 X267.666Y382.477
G1 X266.821Y382.303
G1 X265.981Y382.105
G1 X265.148Y381.881
G1 X264.17Y381.595
G1 X263.205Y381.27
G1 X262.256Y380.905
G1 X261.322Y380.503
G1 X260.406Y380.063
G1 X259.508Y379.585
G1 X258.629Y379.071
G1 X257.772Y378.521
G1 X257.145Y378.105
G1 X256.535Y377.667
G1 X255.941Y377.207
G1 X255.364Y376.727
G1 X254.804Y376.227
G1 X254.262Y375.707
G1 X253.739Y375.167
G1 X253.236Y374.609
G1 X252.633Y373.902
G1 X252.063Y373.168
G1 X251.528Y372.409
G1 X251.028Y371.625
G1 X250.564Y370.865
G1 X250.108Y369.876
G1 X249.694Y368.869
G1 X249.32Y367.846
G1 X248.988Y366.809
G1 X248.723Y365.545
G1 X248.549Y364.267
G1 X248.466Y362.98
G1 Y361.689
G1 Y361.252
G1 X248.482Y360.814
G1 X248.519Y360.379
G1 X248.58Y359.945
G1 X248.745Y359.883
G1 X248.916Y359.842
G1 X249.091Y359.823
G1 X250.913Y359.848
G1 X252.556Y359.929
G1 X255.404Y360.055
G1 X258.252Y360.201
G1 X259.284Y360.241
G1 X260.324
G1 X261.364
G1 X261.583Y360.226
G1 X261.796Y360.169
G1 X261.844Y360.097
G1 X261.909Y359.932
G1 X261.954Y359.761
G1 X261.98Y359.586
G1 Y359.409
G1 X261.993Y348.553
G1 X261.96Y337.701
G1 X261.889Y326.849
G1 X261.78Y315.993
G1 X261.742Y315.385
G1 X261.636Y314.785
G1 X261.549Y314.646
G1 X261.432Y314.536
G1 X261.291Y314.46
G1 X261.132Y314.425
G1 X259.306Y314.097
G1 X257.476Y313.793
G1 X128.596Y293.177
G1 X125.068Y292.633
G1 X124.478Y292.562
G1 X123.884Y292.545
G1 X123.804Y292.569
G1 X123.696Y292.63
G1 X123.606Y292.713
G1 X123.537Y292.814
G1 X123.123Y293.882
G1 X122.796Y294.849
G1 X122.123Y296.922
G1 X121.468Y299.001
G1 X120.86Y300.889
G1 X120.445Y302.202
G1 X119.98Y303.497
G1 X119.934Y303.589
G1 X119.87Y303.668
G1 X119.792Y303.732
G1 X119.7Y303.777
G1 X119.177
G1 X118.66Y303.705
G1 X115.85Y303.274
G1 X113.044Y302.825
G1 X88.916Y298.889
G1 X87.124Y298.609
G1 X84.35Y298.141
G0 X83.775Y230.628
; Layer Corte Pass 1 of 10
G1 X82.336Y230.517
G1 X80.926Y230.358
G1 X79.545Y230.15
G1 X78.194Y229.894
G1 X76.872Y229.59
G1 X75.581Y229.239
G1 X74.319Y228.84
G1 X73.089Y228.395
G1 X71.889Y227.903
G1 X70.721Y227.364
G1 X69.584Y226.779
G1 X68.479Y226.148
G1 X67.406Y225.472
G1 X66.365Y224.75
G1 X65.357Y223.982
G1 X64.382Y223.17
G1 X63.441Y222.313
G1 X62.533Y221.412
G1 X61.659Y220.466
G1 X60.819Y219.477
G1 X60.014Y218.443
G1 X59.243Y217.367
G1 X58.507Y216.247
G1 X57.807Y215.084
G1 X57.143Y213.879
G1 X56.514Y212.631
G1 X55.922Y211.342
G1 X55.366Y210.01
G1 X54.847Y208.637
G1 X54.365Y207.222
G1 X53.92Y205.766
G1 X53.513Y204.269
; Layer Corte Pass 2 of 10
G1 X53.92Y205.766
G1 X54.365Y207.222
G1 X54.847Y208.637
G1 X55.366Y210.01
G1 X55.922Y211.342
G1 X56.514Y212.631
G1 X57.143Y213.879
G1 X57.807Y215.084
G1 X58.507Y216.247
G1 X59.243Y217.367
G1 X60.014Y218.443
G1 X60.819Y219.477
G1 X61.659Y220.466
G1 X62.533Y221.412
G1 X63.441Y222.313
G1 X64.382Y223.17
G1 X65.357Y223.982
G1 X66.365Y224.75
G1 X67.406Y225.472
G1 X68.479Y226.148
G1 X69.584Y226.779
G1 X70.721Y227.364
G1 X71.889Y227.903
G1 X73.089Y228.395
G1 X74.319Y228.84
G1 X75.581Y229.239
G1 X76.872Y229.59
G1 X78.194Y229.894
G1 X79.545Y230.15
G1 X80.926Y230.358
G1 X82.336Y230.517
G1 X83.775Y230.628
; Layer Corte Pass 3 of 10
G1 X82.336Y230.517
G1 X80.926Y230.358
G1 X79.545Y230.15
G1 X78.194Y229.894
G1 X76.872Y229.59
G1 X75.581Y229.239
G1 X74.319Y228.84
G1 X73.089Y228.395
G1 X71.889Y227.903
G1 X70.721Y227.364
G1 X69.584Y226.779
G1 X68.479Y226.148
G1 X67.406Y225.472
G1 X66.365Y224.75
G1 X65.357Y223.982
G1 X64.382Y223.17
G1 X63.441Y222.313
G1 X62.533Y221.412
G1 X61.659Y220.466
G1 X60.819Y219.477
G1 X60.014Y218.443
G1 X59.243Y217.367
G1 X58.507Y216.247
G1 X57.807Y215.084
G1 X57.143Y213.879
G1 X56.514Y212.631
G1 X55.922Y211.342
G1 X55.366Y210.01
G1 X54.847Y208.637
G1 X54.365Y207.222
