; LightBurn 1.3.01
; GRBL device profile, absolute coords
; Bounds: X0 Y10 to X400 Y659.89
G00 G17 G40 G21 G54
G90
M4
; Cut @ 600 mm/min, 100% power
M8
G0 X70.329Y52
; Layer Trayectorias_de_corte_1 Pass 1 of 9
G1 Y92S1000F600
G1 X94.248
G1 Y52
G1 X70.329
; Layer Trayectorias_de_corte_1 Pass 2 of 9
G1 Y92
G1 X94.248
G1 Y52
G1 X70.329
; Layer Trayectorias_de_corte_1 Pass 3 of 9
G1 Y92
G1 X94.248
G1 Y52
G1 X70.329
; Layer Trayectorias_de_corte_1 Pass 4 of 9
G1 Y92
G1 X94.248
G1 Y52
G1 X70.329
; Layer Trayectorias_de_corte_1 Pass 5 of 9
G1 Y92
G1 X94.248
G1 Y52
G1 X70.329
; Layer Trayectorias_de_corte_1 Pass 6 of 9
G1 Y92
G1 X94.248
G1 Y52
G1 X70.329
; Layer Trayectorias_de_corte_1 Pass 7 of 9
G1 Y92
G1 X94.248
G1 Y52
G1 X70.329
; Layer Trayectorias_de_corte_1 Pass 8 of 9
G1 Y92
G1 X94.248
G1 Y52
G1 X70.329
; Layer Trayectorias_de_corte_1 Pass 9 of 9
G1 Y92
G1 X94.248
G1 Y52
G1 X70.329
G0 X104.249Y48.901
; Layer Trayectorias_de_corte_1 Pass 1 of 9
G1 Y55.501
G1 X107.548
G1 Y62.101
G1 X104.249
G1 Y68.701
G1 X107.548
G1 Y75.3
G1 X104.249
G1 Y81.901
G1 X107.548
G1 Y88.501
G1 X104.249
G1 Y95.101
G1 X107.548
G1 Y101.701
G1 X104.249
G1 Y108.3
G1 X107.548
G1 Y114.901
G1 X104.249
G1 Y124.906
G1 X93.849
G1 Y128.206
G1 X87.249
G1 Y124.906
G1 X80.649
G1 Y128.206
G1 X74.048
G1 Y124.906
G1 X67.449
G1 Y128.206
G1 X60.849
G1 Y124.906
G1 X54.249
G1 Y128.206
G1 X47.649
G1 Y124.906
G1 X41.048
G1 Y128.206
G1 X34.449
G1 Y124.906
G1 X27.85
G1 Y128.206
G1 X21.249
G1 Y124.906
G1 X10.849
G1 Y19.096
G1 X21.249
G1 Y15.795
G1 X27.85
G1 Y19.096
G1 X34.449
G1 Y15.795
G1 X41.048
G1 Y19.096
G1 X47.649
G1 Y15.795
G1 X54.249
G1 Y19.096
G1 X60.849
G1 Y15.795
G1 X67.449
G1 Y19.096
G1 X74.048
G1 Y15.795
G1 X80.649
G1 Y19.096
G1 X87.249
G1 Y15.795
G1 X93.849
G1 Y19.096
G1 X104.249
G1 Y29.1
G1 X107.548
G1 Y35.701
G1 X104.249
G1 Y42.3
G1 X107.548
G1 Y48.901
G1 X104.249
; Layer Trayectorias_de_corte_1 Pass 2 of 9
G1 Y55.501
G1 X107.548
G1 Y62.101
G1 X104.249
G1 Y68.701
G1 X107.548
G1 Y75.3
G1 X104.249
G1 Y81.901
G1 X107.548
G1 Y88.501
G1 X104.249
G1 Y95.101
G1 X107.548
G1 Y101.701
G1 X104.249
G1 Y108.3
G1 X107.548
G1 Y114.901
G1 X104.249
G1 Y124.906
G1 X93.849
G1 Y128.206
G1 X87.249
G1 Y124.906
G1 X80.649
G1 Y128.206
G1 X74.048
G1 Y124.906
G1 X67.449
G1 Y128.206
G1 X60.849
G1 Y124.906
G1 X54.249
G1 Y128.206
G1 X47.649
G1 Y124.906
G1 X41.048
G1 Y128.206
G1 X34.449
G1 Y124.906
G1 X27.85
G1 Y128.206
G1 X21.249
G1 Y124.906
G1 X10.849
G1 Y19.096
G1 X21.249
G1 Y15.795
G1 X27.85
G1 Y19.096
G1 X34.449
G1 Y15.795
G1 X41.048
G1 Y19.096
G1 X47.649
G1 Y15.795
G1 X54.249
G1 Y19.096
G1 X60.849
G1 Y15.795
G1 X67.449
G1 Y19.096
G1 X74.048
G1 Y15.795
G1 X80.649
G1 Y19.096
G1 X87.249
G1 Y15.795
G1 X93.849
G1 Y19.096
G1 X104.249
G1 Y29.1
G1 X107.548
G1 Y35.701
G1 X104.249
G1 Y42.3
G1 X107.548
G1 Y48.901
G1 X104.249
; Layer Trayectorias_de_corte_1 Pass 3 of 9
G1 Y55.501
G1 X107.548
G1 Y62.101
G1 X104.249
G1 Y68.701
G1 X107.548
G1 Y75.3
G1 X104.249
G1 Y81.901
G1 X107.548
G1 Y88.501
G1 X104.249
G1 Y95.101
G1 X107.548
G1 Y101.701
G1 X104.249
G1 Y108.3
G1 X107.548
G1 Y114.901
G1 X104.249
G1 Y124.906
G1 X93.849
G1 Y128.206
G1 X87.249
G1 Y124.906
G1 X80.649
G1 Y128.206
G1 X74.048
G1 Y124.906
G1 X67.449
G1 Y128.206
G1 X60.849
G1 Y124.906
G1 X54.249
G1 Y128.206
G1 X47.649
G1 Y124.906
G1 X41.048
G1 Y128.206
G1 X34.449
G1 Y124.906
G1 X27.85
G1 Y128.206
G1 X21.249
G1 Y124.906
G1 X10.849
G1 Y19.096
G1 X21.249
G1 Y15.795
G1 X27.85
G1 Y19.096
G1 X34.449
G1 Y15.795
G1 X41.048
G1 Y19.096
G1 X47.649
G1 Y15.795
G1 X54.249
G1 Y19.096
G1 X60.849
G1 Y15.795
G1 X67.449
G1 Y19.096
G1 X74.048
G1 Y15.795
G1 X80.649
G1 Y19.096
G1 X87.249
G1 Y15.795
G1 X93.849
G1 Y19.096
G1 X104.249
G1 Y29.1
G1 X107.548
G1 Y35.701
G1 X104.249
G1 Y42.3
G1 X107.548
G1 Y48.901
G1 X104.249
; Layer Trayectorias_de_corte_1 Pass 4 of 9
G1 Y55.501
G1 X107.548
G1 Y62.101
G1 X104.249
G1 Y68.701
G1 X107.548
G1 Y75.3
G1 X104.249
G1 Y81.901
G1 X107.548
G1 Y88.501
G1 X104.249
G1 Y95.101
G1 X107.548
G1 Y101.701
G1 X104.249
G1 Y108.3
G1 X107.548
G1 Y114.901
G1 X104.249
G1 Y124.906
G1 X93.849
G1 Y128.206
G1 X87.249
G1 Y124.906
G1 X80.649
G1 Y128.206
G1 X74.048
G1 Y124.906
G1 X67.449
G1 Y128.206
G1 X60.849
G1 Y124.906
G1 X54.249
G1 Y128.206
G1 X47.649
G1 Y124.906
G1 X41.048
G1 Y128.206
G1 X34.449
G1 Y124.906
G1 X27.85
G1 Y128.206
G1 X21.249
G1 Y124.906
G1 X10.849
G1 Y19.096
G1 X21.249
G1 Y15.795
G1 X27.85
G1 Y19.096
G1 X34.449
G1 Y15.795
G1 X41.048
G1 Y19.096
G1 X47.649
G1 Y15.795
G1 X54.249
G1 Y19.096
G1 X60.849
G1 Y15.795
G1 X67.449
G1 Y19.096
G1 X74.048
G1 Y15.795
G1 X80.649
G1 Y19.096
G1 X87.249
G1 Y15.795
G1 X93.849
G1 Y19.096
G1 X104.249
G1 Y29.1
G1 X107.548
G1 Y35.701
G1 X104.249
G1 Y42.3
G1 X107.548
G1 Y48.901
G1 X104.249
; Layer Trayectorias_de_corte_1 Pass 5 of 9
G1 Y55.501
G1 X107.548
G1 Y62.101
G1 X104.249
G1 Y68.701
G1 X107.548
G1 Y75.3
G1 X104.249
G1 Y81.901
G1 X107.548
G1 Y88.501
G1 X104.249
G1 Y95.101
G1 X107.548
G1 Y101.701
G1 X104.249
G1 Y108.3
G1 X107.548
G1 Y114.901
G1 X104.249
G1 Y124.906
G1 X93.849
G1 Y128.206
G1 X87.249
G1 Y124.906
G1 X80.649
G1 Y128.206
G1 X74.048
G1 Y124.906
G1 X67.449
G1 Y128.206
G1 X60.849
G1 Y124.906
G1 X54.249
G1 Y128.206
G1 X47.649
G1 Y124.906
G1 X41.048
G1 Y128.206
G1 X34.449
G1 Y124.906
G1 X27.85
G1 Y128.206
G1 X21.249
G1 Y124.906
G1 X10.849
G1 Y19.096
G1 X21.249
G1 Y15.795
G1 X27.85
G1 Y19.096
G1 X34.449
G1 Y15.795
G1 X41.048
G1 Y19.096
G1 X47.649
G1 Y15.795
G1 X54.249
G1 Y19.096
G1 X60.849
G1 Y15.795
G1 X67.449
G1 Y19.096
G1 X74.048
G1 Y15.795
G1 X80.649
G1 Y19.096
G1 X87.249
G1 Y15.795
G1 X93.849
G1 Y19.096
G1 X104.249
G1 Y29.1
G1 X107.548
G1 Y35.701
G1 X104.249
G1 Y42.3
G1 X107.548
G1 Y48.901
G1 X104.249
; Layer Trayectorias_de_corte_1 Pass 6 of 9
G1 Y55.501
G1 X107.548
G1 Y62.101
G1 X104.249
G1 Y68.701
G1 X107.548
G1 Y75.3
G1 X104.249
G1 Y81.901
G1 X107.548
G1 Y88.501
G1 X104.249
G1 Y95.101
G1 X107.548
G1 Y101.701
G1 X104.249
G1 Y108.3
G1 X107.548
G1 Y114.901
G1 X104.249
G1 Y124.906
G1 X93.849
G1 Y128.206
G1 X87.249
G1 Y124.906
G1 X80.649
G1 Y128.206
G1 X74.048
G1 Y124.906
G1 X67.449
G1 Y128.206
G1 X60.849
G1 Y124.906
G1 X54.249
G1 Y128.206
G1 X47.649
G1 Y124.906
G1 X41.048
G1 Y128.206
G1 X34.449
G1 Y124.906
G1 X27.85
G1 Y128.206
G1 X21.249
G1 Y124.906
G1 X10.849
G1 Y19.096
G1 X21.249
G1 Y15.795
G1 X27.85
G1 Y19.096
G1 X34.449
G1 Y15.795
G1 X41.048
G1 Y19.096
G1 X47.649
G1 Y15.795
G1 X54.249
G1 Y19.096
G1 X60.849
G1 Y15.795
G1 X67.449
G1 Y19.096
G1 X74.048
G1 Y15.795
G1 X80.649
G1 Y19.096
G1 X87.249
G1 Y15.795
G1 X93.849
G1 Y19.096
G1 X104.249
G1 Y29.1
G1 X107.548
G1 Y35.701
G1 X104.249
G1 Y42.3
G1 X107.548
G1 Y48.901
G1 X104.249
; Layer Trayectorias_de_corte_1 Pass 7 of 9
G1 Y55.501
G1 X107.548
G1 Y62.101
G1 X104.249
G1 Y68.701
G1 X107.548
G1 Y75.3
G1 X104.249
G1 Y81.901
G1 X107.548
G1 Y88.501
G1 X104.249
G1 Y95.101
G1 X107.548
G1 Y101.701
G1 X104.249
G1 Y108.3
G1 X107.548
G1 Y114.901
G1 X104.249
G1 Y124.906
G1 X93.849
G1 Y128.206
G1 X87.249
G1 Y124.906
G1 X80.649
G1 Y128.206
G1 X74.048
G1 Y124.906
G1 X67.449
G1 Y128.206
G1 X60.849
G1 Y124.906
G1 X54.249
G1 Y128.206
G1 X47.649
G1 Y124.906
G1 X41.048
G1 Y128.206
G1 X34.449
G1 Y124.906
G1 X27.85
G1 Y128.206
G1 X21.249
G1 Y124.906
G1 X10.849
G1 Y19.096
G1 X21.249
G1 Y15.795
G1 X27.85
G1 Y19.096
G1 X34.449
G1 Y15.795
G1 X41.048
G1 Y19.096
G1 X47.649
G1 Y15.795
G1 X54.249
G1 Y19.096
G1 X60.849
G1 Y15.795
G1 X67.449
G1 Y19.096
G1 X74.048
G1 Y15.795
G1 X80.649
G1 Y19.096
G1 X87.249
G1 Y15.795
G1 X93.849
G1 Y19.096
G1 X104.249
G1 Y29.1
G1 X107.548
G1 Y35.701
G1 X104.249
G1 Y42.3
G1 X107.548
G1 Y48.901
G1 X104.249
; Layer Trayectorias_de_corte_1 Pass 8 of 9
G1 Y55.501
G1 X107.548
G1 Y62.101
G1 X104.249
G1 Y68.701
G1 X107.548
G1 Y75.3
G1 X104.249
G1 Y81.901
G1 X107.548
G1 Y88.501
G1 X104.249
G1 Y95.101
G1 X107.548
G1 Y101.701
G1 X104.249
G1 Y108.3
G1 X107.548
G1 Y114.901
G1 X104.249
G1 Y124.906
G1 X93.849
G1 Y128.206
G1 X87.249
G1 Y124.906
G1 X80.649
G1 Y128.206
G1 X74.048
G1 Y124.906
G1 X67.449
G1 Y128.206
G1 X60.849
G1 Y124.906
G1 X54.249
G1 Y128.206
G1 X47.649
G1 Y124.906
G1 X41.048
G1 Y128.206
G1 X34.449
G1 Y124.906
G1 X27.85
G1 Y128.206
G1 X21.249
G1 Y124.906
G1 X10.849
G1 Y19.096
G1 X21.249
G1 Y15.795
G1 X27.85
G1 Y19.096
G1 X34.449
G1 Y15.795
G1 X41.048
G1 Y19.096
G1 X47.649
G1 Y15.795
G1 X54.249
G1 Y19.096
G1 X60.849
G1 Y15.795
G1 X67.449
G1 Y19.096
G1 X74.048
G1 Y15.795
G1 X80.649
G1 Y19.096
G1 X87.249
G1 Y15.795
G1 X93.849
G1 Y19.096
G1 X104.249
G1 Y29.1
G1 X107.548
G1 Y35.701
G1 X104.249
G1 Y42.3
G1 X107.548
G1 Y48.901
G1 X104.249
; Layer Trayectorias_de_corte_1 Pass 9 of 9
G1 Y55.501
G1 X107.548
G1 Y62.101
G1 X104.249
G1 Y68.701
G1 X107.548
G1 Y75.3
G1 X104.249
G1 Y81.901
G1 X107.548
G1 Y88.501
G1 X104.249
G1 Y95.101
G1 X107.548
G1 Y101.701
G1 X104.249
G1 Y108.3
G1 X107.548
G1 Y114.901
G1 X104.249
G1 Y124.906
G1 X93.849
G1 Y128.206
G1 X87.249
G1 Y124.906
G1 X80.649
G1 Y128.206
G1 X74.048
G1 Y124.906
G1 X67.449
G1 Y128.206
G1 X60.849
G1 Y124.906
G1 X54.249
G1 Y128.206
G1 X47.649
G1 Y124.906
G1 X41.048
G1 Y128.206
G1 X34.449
G1 Y124.906
G1 X27.85
G1 Y128.206
G1 X21.249
G1 Y124.906
G1 X10.849
G1 Y19.096
G1 X21.249
G1 Y15.795
G1 X27.85
G1 Y19.096
G1 X34.449
G1 Y15.795
G1 X41.048
G1 Y19.096
G1 X47.649
G1 Y15.795
G1 X54.249
G1 Y19.096
G1 X60.849
G1 Y15.795
G1 X67.449
G1 Y19.096
G1 X74.048
G1 Y15.795
G1 X80.649
G1 Y19.096
G1 X87.249
G1 Y15.795
G1 X93.849
G1 Y19.096
G1 X104.249
G1 Y29.1
G1 X107.548
G1 Y35.701
G1 X104.249
G1 Y42.3
G1 X107.548
G1 Y48.901
G1 X104.249
G0 X118.498Y53.649
; Layer Trayectorias_de_corte_1 Pass 1 of 9
G1 X231.898
G1 Y64.051
G1 X235.197
G1 Y70.65
G1 X231.898
G1 Y77.25
G1 X235.197
G1 Y83.851
G1 X231.898
G1 Y90.45
G1 X235.197
G1 Y97.051
G1 X231.898
G1 Y103.65
G1 X235.197
G1 Y110.25
G1 X231.898
G1 Y116.85
G1 X235.197
G1 Y123.45
G1 X231.898
G1 Y130.051
G1 X235.197
G1 Y136.65
G1 X231.898
G1 Y147.05
G1 X224.698
G1 Y150.351
G1 X218.098
G1 Y147.05
G1 X211.501
G1 Y150.351
G1 X204.897
G1 Y147.05
G1 X198.3
G1 Y150.351
G1 X191.699
G1 Y147.05
G1 X185.099
G1 Y150.351
G1 X178.498
G1 Y147.05
G1 X171.898
G1 Y150.351
G1 X165.297
G1 Y147.05
G1 X158.701
G1 Y150.351
G1 X152.1
G1 Y147.05
G1 X145.5
G1 Y150.351
G1 X138.899
G1 Y147.05
G1 X132.299
G1 Y150.351
G1 X125.698
G1 Y147.05
G1 X118.498
G1 Y136.65
G1 X115.2
G1 Y130.051
G1 X118.498
G1 Y123.45
G1 X115.2
G1 Y116.85
G1 X118.498
G1 Y110.25
G1 X115.2
G1 Y103.65
G1 X118.498
G1 Y97.051
G1 X115.2
G1 Y90.45
G1 X118.498
G1 Y83.851
G1 X115.2
G1 Y77.25
G1 X118.498
G1 Y70.65
G1 X115.2
G1 Y64.051
G1 X118.498
G1 Y53.649
; Layer Trayectorias_de_corte_1 Pass 2 of 9
G1 X231.898
G1 Y64.051
G1 X235.197
G1 Y70.65
G1 X231.898
G1 Y77.25
G1 X235.197
G1 Y83.851
G1 X231.898
G1 Y90.45
G1 X235.197
G1 Y97.051
G1 X231.898
G1 Y103.65
G1 X235.197
G1 Y110.25
G1 X231.898
G1 Y116.85
G1 X235.197
G1 Y123.45
G1 X231.898
G1 Y130.051
G1 X235.197
G1 Y136.65
G1 X231.898
G1 Y147.05
G1 X224.698
G1 Y150.351
G1 X218.098
G1 Y147.05
G1 X211.501
G1 Y150.351
G1 X204.897
G1 Y147.05
G1 X198.3
G1 Y150.351
G1 X191.699
G1 Y147.05
G1 X185.099
G1 Y150.351
G1 X178.498
G1 Y147.05
G1 X171.898
G1 Y150.351
G1 X165.297
G1 Y147.05
G1 X158.701
G1 Y150.351
G1 X152.1
G1 Y147.05
G1 X145.5
G1 Y150.351
G1 X138.899
G1 Y147.05
G1 X132.299
G1 Y150.351
G1 X125.698
G1 Y147.05
G1 X118.498
G1 Y136.65
G1 X115.2
G1 Y130.051
G1 X118.498
G1 Y123.45
G1 X115.2
G1 Y116.85
G1 X118.498
G1 Y110.25
G1 X115.2
G1 Y103.65
G1 X118.498
G1 Y97.051
G1 X115.2
G1 Y90.45
G1 X118.498
G1 Y83.851
G1 X115.2
G1 Y77.25
G1 X118.498
G1 Y70.65
G1 X115.2
G1 Y64.051
G1 X118.498
G1 Y53.649
; Layer Trayectorias_de_corte_1 Pass 3 of 9
G1 X231.898
G1 Y64.051
G1 X235.197
G1 Y70.65
G1 X231.898
G1 Y77.25
G1 X235.197
G1 Y83.851
G1 X231.898
G1 Y90.45
G1 X235.197
G1 Y97.051
G1 X231.898
G1 Y103.65
G1 X235.197
G1 Y110.25
G1 X231.898
G1 Y116.85
G1 X235.197
G1 Y123.45
G1 X231.898
G1 Y130.051
G1 X235.197
G1 Y136.65
G1 X231.898
G1 Y147.05
G1 X224.698
G1 Y150.351
G1 X218.098
G1 Y147.05
G1 X211.501
G1 Y150.351
G1 X204.897
G1 Y147.05
G1 X198.3
G1 Y150.351
G1 X191.699
G1 Y147.05
G1 X185.099
G1 Y150.351
G1 X178.498
G1 Y147.05
G1 X171.898
G1 Y150.351
G1 X165.297
G1 Y147.05
G1 X158.701
G1 Y150.351
G1 X152.1
G1 Y147.05
G1 X145.5
G1 Y150.351
G1 X138.899
G1 Y147.05
G1 X132.299
G1 Y150.351
G1 X125.698
G1 Y147.05
G1 X118.498
G1 Y136.65
G1 X115.2
G1 Y130.051
G1 X118.498
G1 Y123.45
G1 X115.2
G1 Y116.85
G1 X118.498
G1 Y110.25
G1 X115.2
G1 Y103.65
G1 X118.498
G1 Y97.051
G1 X115.2
G1 Y90.45
G1 X118.498
G1 Y83.851
G1 X115.2
G1 Y77.25
G1 X118.498
G1 Y70.65
G1 X115.2
G1 Y64.051
G1 X118.498
G1 Y53.649
; Layer Trayectorias_de_corte_1 Pass 4 of 9
G1 X231.898
G1 Y64.051
G1 X235.197
G1 Y70.65
G1 X231.898
G1 Y77.25
G1 X235.197
G1 Y83.851
G1 X231.898
G1 Y90.45
G1 X235.197
G1 Y97.051
G1 X231.898
G1 Y103.65
G1 X235.197
G1 Y110.25
G1 X231.898
G1 Y116.85
G1 X235.197
G1 Y123.45
G1 X231.898
G1 Y130.051
G1 X235.197
G1 Y136.65
G1 X231.898
G1 Y147.05
G1 X224.698
G1 Y150.351
G1 X218.098
G1 Y147.05
G1 X211.501
G1 Y150.351
G1 X204.897
G1 Y147.05
G1 X198.3
G1 Y150.351
G1 X191.699
G1 Y147.05
G1 X185.099
G1 Y150.351
G1 X178.498
G1 Y147.05
G1 X171.898
G1 Y150.351
G1 X165.297
G1 Y147.05
G1 X158.701
G1 Y150.351
G1 X152.1
G1 Y147.05
G1 X145.5
G1 Y150.351
G1 X138.899
G1 Y147.05
G1 X132.299
G1 Y150.351
G1 X125.698
G1 Y147.05
G1 X118.498
G1 Y136.65
G1 X115.2
G1 Y130.051
G1 X118.498
G1 Y123.45
G1 X115.2
G1 Y116.85
G1 X118.498
G1 Y110.25
G1 X115.2
G1 Y103.65
G1 X118.498
G1 Y97.051
G1 X115.2
G1 Y90.45
G1 X118.498
G1 Y83.851
G1 X115.2
G1 Y77.25
G1 X118.498
G1 Y70.65
G1 X115.2
G1 Y64.051
G1 X118.498
G1 Y53.649
; Layer Trayectorias_de_corte_1 Pass 5 of 9
G1 X231.898
G1 Y64.051
G1 X235.197
G1 Y70.65
G1 X231.898
G1 Y77.25
G1 X235.197
G1 Y83.851
G1 X231.898
G1 Y90.45
G1 X235.197
G1 Y97.051
G1 X231.898
G1 Y103.65
G1 X235.197
G1 Y110.25
G1 X231.898
G1 Y116.85
G1 X235.197
G1 Y123.45
G1 X231.898
G1 Y130.051
G1 X235.197
G1 Y136.65
G1 X231.898
G1 Y147.05
G1 X224.698
G1 Y150.351
G1 X218.098
G1 Y147.05
G1 X211.501
G1 Y150.351
G1 X204.897
G1 Y147.05
G1 X198.3
G1 Y150.351
G1 X191.699
G1 Y147.05
G1 X185.099
G1 Y150.351
G1 X178.498
G1 Y147.05
G1 X171.898
G1 Y150.351
G1 X165.297
G1 Y147.05
G1 X158.701
G1 Y150.351
G1 X152.1
G1 Y147.05
G1 X145.5
G1 Y150.351
G1 X138.899
G1 Y147.05
G1 X132.299
G1 Y150.351
G1 X125.698
G1 Y147.05
G1 X118.498
G1 Y136.65
G1 X115.2
G1 Y130.051
G1 X118.498
G1 Y123.45
G1 X115.2
G1 Y116.85
G1 X118.498
G1 Y110.25
G1 X115.2
G1 Y103.65
G1 X118.498
G1 Y97.051
G1 X115.2
G1 Y90.45
G1 X118.498
G1 Y83.851
G1 X115.2
G1 Y77.25
G1 X118.498
G1 Y70.65
G1 X115.2
G1 Y64.051
G1 X118.498
G1 Y53.649
; Layer Trayectorias_de_corte_1 Pass 6 of 9
G1 X231.898
G1 Y64.051
G1 X235.197
G1 Y70.65
G1 X231.898
G1 Y77.25
G1 X235.197
G1 Y83.851
G1 X231.898
G1 Y90.45
G1 X235.197
G1 Y97.051
G1 X231.898
G1 Y103.65
G1 X235.197
G1 Y110.25
G1 X231.898
G1 Y116.85
G1 X235.197
G1 Y123.45
G1 X231.898
G1 Y130.051
G1 X235.197
G1 Y136.65
G1 X231.898
G1 Y147.05
G1 X224.698
G1 Y150.351
G1 X218.098
G1 Y147.05
G1 X211.501
G1 Y150.351
G1 X204.897
G1 Y147.05
G1 X198.3
G1 Y150.351
G1 X191.699
G1 Y147.05
G1 X185.099
G1 Y150.351
G1 X178.498
G1 Y147.05
G1 X171.898
G1 Y150.351
G1 X165.297
G1 Y147.05
G1 X158.701
G1 Y150.351
G1 X152.1
G1 Y147.05
G1 X145.5
G1 Y150.351
G1 X138.899
G1 Y147.05
G1 X132.299
G1 Y150.351
G1 X125.698
G1 Y147.05
G1 X118.498
G1 Y136.65
G1 X115.2
G1 Y130.051
G1 X118.498
G1 Y123.45
G1 X115.2
G1 Y116.85
G1 X118.498
G1 Y110.25
G1 X115.2
G1 Y103.65
G1 X118.498
G1 Y97.051
G1 X115.2
G1 Y90.45
G1 X118.498
G1 Y83.851
G1 X115.2
G1 Y77.25
G1 X118.498
G1 Y70.65
G1 X115.2
G1 Y64.051
G1 X118.498
G1 Y53.649
; Layer Trayectorias_de_corte_1 Pass 7 of 9
G1 X231.898
G1 Y64.051
G1 X235.197
G1 Y70.65
G1 X231.898
G1 Y77.25
G1 X235.197
G1 Y83.851
G1 X231.898
G1 Y90.45
G1 X235.197
G1 Y97.051
G1 X231.898
G1 Y103.65
G1 X235.197
G1 Y110.25
G1 X231.898
G1 Y116.85
G1 X235.197
G1 Y123.45
G1 X231.898
G1 Y130.051
G1 X235.197
G1 Y136.65
G1 X231.898
G1 Y147.05
G1 X224.698
G1 Y150.351
G1 X218.098
G1 Y147.05
G1 X211.501
G1 Y150.351
G1 X204.897
G1 Y147.05
G1 X198.3
G1 Y150.351
G1 X191.699
G1 Y147.05
G1 X185.099
G1 Y150.351
G1 X178.498
G1 Y147.05
G1 X171.898
G1 Y150.351
G1 X165.297
G1 Y147.05
G1 X158.701
G1 Y150.351
G1 X152.1
G1 Y147.05
G1 X145.5
G1 Y150.351
G1 X138.899
G1 Y147.05
G1 X132.299
G1 Y150.351
G1 X125.698
G1 Y147.05
G1 X118.498
G1 Y136.65
G1 X115.2
G1 Y130.051
G1 X118.498
G1 Y123.45
G1 X115.2
G1 Y116.85
G1 X118.498
G1 Y110.25
G1 X115.2
G1 Y103.65
G1 X118.498
G1 Y97.051
G1 X115.2
G1 Y90.45
G1 X118.498
G1 Y83.851
G1 X115.2
G1 Y77.25
G1 X118.498
G1 Y70.65
G1 X115.2
G1 Y64.051
G1 X118.498
G1 Y53.649
; Layer Trayectorias_de_corte_1 Pass 8 of 9
G1 X231.898
G1 Y64.051
G1 X235.197
G1 Y70.65
G1 X231.898
G1 Y77.25
G1 X235.197
G1 Y83.851
G1 X231.898
G1 Y90.45
G1 X235.197
G1 Y97.051
G1 X231.898
G1 Y103.65
G1 X235.197
G1 Y110.25
G1 X231.898
G1 Y116.85
G1 X235.197
G1 Y123.45
G1 X231.898
G1 Y130.051
G1 X235.197
G1 Y136.65
G1 X231.898
G1 Y147.05
G1 X224.698
G1 Y150.351
G1 X218.098
G1 Y147.05
G1 X211.501
G1 Y150.351
G1 X204.897
G1 Y147.05
G1 X198.3
G1 Y150.351
G1 X191.699
G1 Y147.05
G1 X185.099
G1 Y150.351
G1 X178.498
G1 Y147.05
G1 X171.898
G1 Y150.351
G1 X165.297
G1 Y147.05
G1 X158.701
G1 Y150.351
G1 X152.1
G1 Y147.05
G1 X145.5
G1 Y150.351
G1 X138.899
G1 Y147.05
G1 X132.299
G1 Y150.351
G1 X125.698
G1 Y147.05
G1 X118.498
G1 Y136.65
G1 X115.2
G1 Y130.051
G1 X118.498
G1 Y123.45
G1 X115.2
G1 Y116.85
G1 X118.498
G1 Y110.25
G1 X115.2
G1 Y103.65
G1 X118.498
G1 Y97.051
G1 X115.2
G1 Y90.45
G1 X118.498
G1 Y83.851
G1 X115.2
G1 Y77.25
G1 X118.498
G1 Y70.65
G1 X115.2
G1 Y64.051
G1 X118.498
G1 Y53.649
; Layer Trayectorias_de_corte_1 Pass 9 of 9
G1 X231.898
G1 Y64.051
G1 X235.197
G1 Y70.65
G1 X231.898
G1 Y77.25
G1 X235.197
G1 Y83.851
G1 X231.898
G1 Y90.45
G1 X235.197
G1 Y97.051
G1 X231.898
G1 Y103.65
G1 X235.197
G1 Y110.25
G1 X231.898
G1 Y116.85
G1 X235.197
G1 Y123.45
G1 X231.898
G1 Y130.051
G1 X235.197
G1 Y136.65
G1 X231.898
G1 Y147.05
G1 X224.698
G1 Y150.351
G1 X218.098
G1 Y147.05
G1 X211.501
G1 Y150.351
G1 X204.897
G1 Y147.05
G1 X198.3
G1 Y150.351
G1 X191.699
G1 Y147.05
G1 X185.099
G1 Y150.351
G1 X178.498
G1 Y147.05
G1 X171.898
G1 Y150.351
G1 X165.297
G1 Y147.05
G1 X158.701
G1 Y150.351
G1 X152.1
G1 Y147.05
G1 X145.5
G1 Y150.351
G1 X138.899
G1 Y147.05
G1 X132.299
G1 Y150.351
G1 X125.698
G1 Y147.05
G1 X118.498
G1 Y136.65
G1 X115.2
G1 Y130.051
G1 X118.498
G1 Y123.45
G1 X115.2
G1 Y116.85
G1 X118.498
G1 Y110.25
G1 X115.2
G1 Y103.65
G1 X118.498
G1 Y97.051
G1 X115.2
G1 Y90.45
G1 X118.498
G1 Y83.851
G1 X115.2
G1 Y77.25
G1 X118.498
G1 Y70.65
G1 X115.2
G1 Y64.051
G1 X118.498
G1 Y53.649
G0 X104.249Y133.999
; Layer Trayectorias_de_corte_1 Pass 1 of 9
G1 Y137.3
G1 Y146.3
G1 X107.55
G1 Y152.901
G1 X104.249
G1 Y159.5
G1 X107.55
G1 Y166.099
G1 X104.249
G1 Y172.7
G1 X107.55
G1 Y179.3
G1 X104.249
G1 Y185.9
G1 X107.55
G1 Y192.5
G1 X104.249
G1 Y199.101
G1 X107.55
G1 Y205.7
G1 X104.249
G1 Y212.3
G1 X107.55
G1 Y218.9
G1 X104.249
G1 Y225.5
G1 X107.55
G1 Y232.1
G1 X104.249
G1 Y238.7
G1 X107.55
G1 Y245.299
G1 X104.249
G1 Y251.9
G1 X107.55
G1 Y258.499
G1 X104.249
G1 Y265.1
G1 X107.55
G1 Y271.7
G1 X104.249
G1 Y284
G1 X93.849
G1 Y280.7
G1 X87.25
G1 Y284
G1 X80.649
G1 Y280.7
G1 X74.049
G1 Y284
G1 X67.449
G1 Y280.7
G1 X60.849
G1 Y284
G1 X54.25
G1 Y280.7
G1 X47.649
G1 Y284
G1 X41.05
G1 Y280.7
G1 X34.449
G1 Y284
G1 X27.849
G1 Y280.7
G1 X21.25
G1 Y284
G1 X10.848
G1 Y133.999
G1 X21.25
G1 Y137.3
G1 X27.849
G1 Y133.999
G1 X34.449
G1 Y137.3
G1 X41.05
G1 Y133.999
G1 X47.649
G1 Y137.3
G1 X54.25
G1 Y133.999
G1 X60.849
G1 Y137.3
G1 X67.449
G1 Y133.999
G1 X74.049
G1 Y137.3
G1 X80.649
G1 Y133.999
G1 X87.25
G1 Y137.3
G1 X93.849
G1 Y133.999
G1 X104.249
; Layer Trayectorias_de_corte_1 Pass 2 of 9
G1 Y137.3
G1 Y146.3
G1 X107.55
G1 Y152.901
G1 X104.249
G1 Y159.5
G1 X107.55
G1 Y166.099
G1 X104.249
G1 Y172.7
G1 X107.55
G1 Y179.3
G1 X104.249
G1 Y185.9
G1 X107.55
G1 Y192.5
G1 X104.249
G1 Y199.101
G1 X107.55
G1 Y205.7
G1 X104.249
G1 Y212.3
G1 X107.55
G1 Y218.9
G1 X104.249
G1 Y225.5
G1 X107.55
G1 Y232.1
G1 X104.249
G1 Y238.7
G1 X107.55
G1 Y245.299
G1 X104.249
G1 Y251.9
G1 X107.55
G1 Y258.499
G1 X104.249
G1 Y265.1
G1 X107.55
G1 Y271.7
G1 X104.249
G1 Y284
G1 X93.849
G1 Y280.7
G1 X87.25
G1 Y284
G1 X80.649
G1 Y280.7
G1 X74.049
G1 Y284
G1 X67.449
G1 Y280.7
G1 X60.849
G1 Y284
G1 X54.25
G1 Y280.7
G1 X47.649
G1 Y284
G1 X41.05
G1 Y280.7
G1 X34.449
G1 Y284
G1 X27.849
G1 Y280.7
G1 X21.25
G1 Y284
G1 X10.848
G1 Y133.999
G1 X21.25
G1 Y137.3
G1 X27.849
G1 Y133.999
G1 X34.449
G1 Y137.3
G1 X41.05
G1 Y133.999
G1 X47.649
G1 Y137.3
G1 X54.25
G1 Y133.999
G1 X60.849
G1 Y137.3
G1 X67.449
G1 Y133.999
G1 X74.049
G1 Y137.3
G1 X80.649
G1 Y133.999
G1 X87.25
G1 Y137.3
G1 X93.849
G1 Y133.999
G1 X104.249
; Layer Trayectorias_de_corte_1 Pass 3 of 9
G1 Y137.3
G1 Y146.3
G1 X107.55
G1 Y152.901
G1 X104.249
G1 Y159.5
G1 X107.55
G1 Y166.099
G1 X104.249
G1 Y172.7
G1 X107.55
G1 Y179.3
G1 X104.249
G1 Y185.9
G1 X107.55
G1 Y192.5
G1 X104.249
G1 Y199.101
G1 X107.55
G1 Y205.7
G1 X104.249
G1 Y212.3
G1 X107.55
G1 Y218.9
G1 X104.249
G1 Y225.5
G1 X107.55
G1 Y232.1
G1 X104.249
G1 Y238.7
G1 X107.55
G1 Y245.299
G1 X104.249
G1 Y251.9
G1 X107.55
G1 Y258.499
G1 X104.249
G1 Y265.1
G1 X107.55
G1 Y271.7
G1 X104.249
G1 Y284
G1 X93.849
G1 Y280.7
G1 X87.25
G1 Y284
G1 X80.649
G1 Y280.7
G1 X74.049
G1 Y284
G1 X67.449
G1 Y280.7
G1 X60.849
G1 Y284
G1 X54.25
G1 Y280.7
G1 X47.649
G1 Y284
G1 X41.05
G1 Y280.7
G1 X34.449
G1 Y284
G1 X27.849
G1 Y280.7
G1 X21.25
G1 Y284
G1 X10.848
G1 Y133.999
G1 X21.25
G1 Y137.3
G1 X27.849
G1 Y133.999
G1 X34.449
G1 Y137.3
G1 X41.05
G1 Y133.999
G1 X47.649
G1 Y137.3
G1 X54.25
G1 Y133.999
G1 X60.849
G1 Y137.3
G1 X67.449
G1 Y133.999
G1 X74.049
G1 Y137.3
G1 X80.649
G1 Y133.999
G1 X87.25
G1 Y137.3
G1 X93.849
G1 Y133.999
G1 X104.249
; Layer Trayectorias_de_corte_1 Pass 4 of 9
G1 Y137.3
G1 Y146.3
G1 X107.55
G1 Y152.901
G1 X104.249
G1 Y159.5
G1 X107.55
G1 Y166.099
G1 X104.249
G1 Y172.7
G1 X107.55
G1 Y179.3
G1 X104.249
G1 Y185.9
G1 X107.55
G1 Y192.5
G1 X104.249
G1 Y199.101
G1 X107.55
G1 Y205.7
G1 X104.249
G1 Y212.3
G1 X107.55
G1 Y218.9
G1 X104.249
G1 Y225.5
G1 X107.55
G1 Y232.1
G1 X104.249
G1 Y238.7
G1 X107.55
G1 Y245.299
G1 X104.249
G1 Y251.9
G1 X107.55
G1 Y258.499
G1 X104.249
G1 Y265.1
G1 X107.55
G1 Y271.7
G1 X104.249
G1 Y284
G1 X93.849
G1 Y280.7
G1 X87.25
G1 Y284
G1 X80.649
G1 Y280.7
G1 X74.049
G1 Y284
G1 X67.449
G1 Y280.7
G1 X60.849
G1 Y284
G1 X54.25
G1 Y280.7
G1 X47.649
G1 Y284
G1 X41.05
G1 Y280.7
G1 X34.449
G1 Y284
G1 X27.849
G1 Y280.7
G1 X21.25
G1 Y284
G1 X10.848
G1 Y133.999
G1 X21.25
G1 Y137.3
G1 X27.849
G1 Y133.999
G1 X34.449
G1 Y137.3
G1 X41.05
G1 Y133.999
G1 X47.649
G1 Y137.3
G1 X54.25
G1 Y133.999
G1 X60.849
G1 Y137.3
G1 X67.449
G1 Y133.999
G1 X74.049
G1 Y137.3
G1 X80.649
G1 Y133.999
G1 X87.25
G1 Y137.3
G1 X93.849
G1 Y133.999
G1 X104.249
; Layer Trayectorias_de_corte_1 Pass 5 of 9
G1 Y137.3
G1 Y146.3
G1 X107.55
G1 Y152.901
G1 X104.249
G1 Y159.5
G1 X107.55
G1 Y166.099
G1 X104.249
G1 Y172.7
G1 X107.55
G1 Y179.3
G1 X104.249
G1 Y185.9
G1 X107.55
G1 Y192.5
G1 X104.249
G1 Y199.101
G1 X107.55
G1 Y205.7
G1 X104.249
G1 Y212.3
G1 X107.55
G1 Y218.9
G1 X104.249
G1 Y225.5
G1 X107.55
G1 Y232.1
G1 X104.249
G1 Y238.7
G1 X107.55
G1 Y245.299
G1 X104.249
G1 Y251.9
G1 X107.55
G1 Y258.499
G1 X104.249
G1 Y265.1
G1 X107.55
G1 Y271.7
G1 X104.249
G1 Y284
G1 X93.849
G1 Y280.7
G1 X87.25
G1 Y284
G1 X80.649
G1 Y280.7
G1 X74.049
G1 Y284
G1 X67.449
G1 Y280.7
G1 X60.849
G1 Y284
G1 X54.25
G1 Y280.7
G1 X47.649
G1 Y284
G1 X41.05
G1 Y280.7
G1 X34.449
G1 Y284
G1 X27.849
G1 Y280.7
G1 X21.25
G1 Y284
G1 X10.848
G1 Y133.999
G1 X21.25
G1 Y137.3
G1 X27.849
G1 Y133.999
G1 X34.449
G1 Y137.3
G1 X41.05
G1 Y133.999
G1 X47.649
G1 Y137.3
G1 X54.25
G1 Y133.999
G1 X60.849
G1 Y137.3
G1 X67.449
G1 Y133.999
G1 X74.049
G1 Y137.3
G1 X80.649
G1 Y133.999
G1 X87.25
G1 Y137.3
G1 X93.849
G1 Y133.999
G1 X104.249
; Layer Trayectorias_de_corte_1 Pass 6 of 9
G1 Y137.3
G1 Y146.3
G1 X107.55
G1 Y152.901
G1 X104.249
G1 Y159.5
G1 X107.55
G1 Y166.099
G1 X104.249
G1 Y172.7
G1 X107.55
G1 Y179.3
G1 X104.249
G1 Y185.9
G1 X107.55
G1 Y192.5
G1 X104.249
G1 Y199.101
G1 X107.55
G1 Y205.7
G1 X104.249
G1 Y212.3
G1 X107.55
G1 Y218.9
G1 X104.249
G1 Y225.5
G1 X107.55
G1 Y232.1
G1 X104.249
G1 Y238.7
G1 X107.55
G1 Y245.299
G1 X104.249
G1 Y251.9
G1 X107.55
G1 Y258.499
G1 X104.249
G1 Y265.1
G1 X107.55
G1 Y271.7
G1 X104.249
G1 Y284
G1 X93.849
G1 Y280.7
G1 X87.25
G1 Y284
G1 X80.649
G1 Y280.7
G1 X74.049
G1 Y284
G1 X67.449
G1 Y280.7
G1 X60.849
G1 Y284
G1 X54.25
G1 Y280.7
G1 X47.649
G1 Y284
G1 X41.05
G1 Y280.7
G1 X34.449
G1 Y284
G1 X27.849
G1 Y280.7
G1 X21.25
G1 Y284
G1 X10.848
G1 Y133.999
G1 X21.25
G1 Y137.3
G1 X27.849
G1 Y133.999
G1 X34.449
G1 Y137.3
G1 X41.05
G1 Y133.999
G1 X47.649
G1 Y137.3
G1 X54.25
G1 Y133.999
G1 X60.849
G1 Y137.3
G1 X67.449
G1 Y133.999
G1 X74.049
G1 Y137.3
G1 X80.649
G1 Y133.999
G1 X87.25
G1 Y137.3
G1 X93.849
G1 Y133.999
G1 X104.249
; Layer Trayectorias_de_corte_1 Pass 7 of 9
G1 Y137.3
G1 Y146.3
G1 X107.55
G1 Y152.901
G1 X104.249
G1 Y159.5
G1 X107.55
G1 Y166.099
G1 X104.249
G1 Y172.7
G1 X107.55
G1 Y179.3
G1 X104.249
G1 Y185.9
G1 X107.55
G1 Y192.5
G1 X104.249
G1 Y199.101
G1 X107.55
G1 Y205.7
G1 X104.249
G1 Y212.3
G1 X107.55
G1 Y218.9
G1 X104.249
G1 Y225.5
G1 X107.55
G1 Y232.1
G1 X104.249
G1 Y238.7
G1 X107.55
G1 Y245.299
G1 X104.249
G1 Y251.9
G1 X107.55
G1 Y258.499
G1 X104.249
G1 Y265.1
G1 X107.55
G1 Y271.7
G1 X104.249
G1 Y284
G1 X93.849
G1 Y280.7
G1 X87.25
G1 Y284
G1 X80.649
G1 Y280.7
G1 X74.049
G1 Y284
G1 X67.449
G1 Y280.7
G1 X60.849
G1 Y284
G1 X54.25
G1 Y280.7
G1 X47.649
G1 Y284
G1 X41.05
G1 Y280.7
G1 X34.449
G1 Y284
G1 X27.849
G1 Y280.7
G1 X21.25
G1 Y284
G1 X10.848
G1 Y133.999
G1 X21.25
G1 Y137.3
G1 X27.849
G1 Y133.999
G1 X34.449
G1 Y137.3
G1 X41.05
G1 Y133.999
G1 X47.649
G1 Y137.3
G1 X54.25
G1 Y133.999
G1 X60.849
G1 Y137.3
G1 X67.449
G1 Y133.999
G1 X74.049
G1 Y137.3
G1 X80.649
G1 Y133.999
G1 X87.25
G1 Y137.3
G1 X93.849
G1 Y133.999
G1 X104.249
; Layer Trayectorias_de_corte_1 Pass 8 of 9
G1 Y137.3
G1 Y146.3
G1 X107.55
G1 Y152.901
G1 X104.249
G1 Y159.5
G1 X107.55
G1 Y166.099
G1 X104.249
G1 Y172.7
G1 X107.55
G1 Y179.3
G1 X104.249
G1 Y185.9
G1 X107.55
G1 Y192.5
G1 X104.249
G1 Y199.101
G1 X107.55
G1 Y205.7
G1 X104.249
G1 Y212.3
G1 X107.55
G1 Y218.9
G1 X104.249
G1 Y225.5
G1 X107.55
G1 Y232.1
G1 X104.249
G1 Y238.7
G1 X107.55
G1 Y245.299
G1 X104.249
G1 Y251.9
G1 X107.55
G1 Y258.499
G1 X104.249
G1 Y265.1
G1 X107.55
G1 Y271.7
G1 X104.249
G1 Y284
G1 X93.849
G1 Y280.7
G1 X87.25
G1 Y284
G1 X80.649
G1 Y280.7
G1 X74.049
G1 Y284
G1 X67.449
G1 Y280.7
G1 X60.849
G1 Y284
G1 X54.25
G1 Y280.7
G1 X47.649
G1 Y284
G1 X41.05
G1 Y280.7
G1 X34.449
G1 Y284
G1 X27.849
G1 Y280.7
G1 X21.25
G1 Y284
G1 X10.848
G1 Y133.999
G1 X21.25
G1 Y137.3
G1 X27.849
G1 Y133.999
G1 X34.449
G1 Y137.3
G1 X41.05
G1 Y133.999
G1 X47.649
G1 Y137.3
G1 X54.25
G1 Y133.999
G1 X60.849
G1 Y137.3
G1 X67.449
G1 Y133.999
G1 X74.049
G1 Y137.3
G1 X80.649
G1 Y133.999
G1 X87.25
G1 Y137.3
G1 X93.849
G1 Y133.999
G1 X104.249
; Layer Trayectorias_de_corte_1 Pass 9 of 9
G1 Y137.3
G1 Y146.3
G1 X107.55
G1 Y152.901
G1 X104.249
G1 Y159.5
G1 X107.55
G1 Y166.099
G1 X104.249
G1 Y172.7
G1 X107.55
G1 Y179.3
G1 X104.249
G1 Y185.9
G1 X107.55
G1 Y192.5
G1 X104.249
G1 Y199.101
G1 X107.55
G1 Y205.7
G1 X104.249
G1 Y212.3
G1 X107.55
G1 Y218.9
G1 X104.249
G1 Y225.5
G1 X107.55
G1 Y232.1
G1 X104.249
G1 Y238.7
G1 X107.55
G1 Y245.299
G1 X104.249
G1 Y251.9
G1 X107.55
G1 Y258.499
G1 X104.249
G1 Y265.1
G1 X107.55
G1 Y271.7
G1 X104.249
G1 Y284
G1 X93.849
G1 Y280.7
G1 X87.25
G1 Y284
G1 X80.649
G1 Y280.7
G1 X74.049
G1 Y284
G1 X67.449
G1 Y280.7
G1 X60.849
G1 Y284
G1 X54.25
G1 Y280.7
G1 X47.649
G1 Y284
G1 X41.05
G1 Y280.7
G1 X34.449
G1 Y284
G1 X27.849
G1 Y280.7
G1 X21.25
G1 Y284
G1 X10.848
G1 Y133.999
G1 X21.25
G1 Y137.3
G1 X27.849
G1 Y133.999
G1 X34.449
G1 Y137.3
G1 X41.05
G1 Y133.999
G1 X47.649
G1 Y137.3
G1 X54.25
G1 Y133.999
G1 X60.849
G1 Y137.3
G1 X67.449
G1 Y133.999
G1 X74.049
G1 Y137.3
G1 X80.649
G1 Y133.999
G1 X87.25
G1 Y137.3
G1 X93.849
G1 Y133.999
G1 X104.249
G0 X159.199Y216.432
; Layer Trayectorias_de_corte_1 Pass 1 of 9
G1 Y240.351
G1 X199.199
G1 Y216.432
G1 X159.199
; Layer Trayectorias_de_corte_1 Pass 2 of 9
G1 Y240.351
G1 X199.199
G1 Y216.432
G1 X159.199
; Layer Trayectorias_de_corte_1 Pass 3 of 9
G1 Y240.351
G1 X199.199
G1 Y216.432
G1 X159.199
; Layer Trayectorias_de_corte_1 Pass 4 of 9
G1 Y240.351
G1 X199.199
G1 Y216.432
G1 X159.199
; Layer Trayectorias_de_corte_1 Pass 5 of 9
G1 Y240.351
G1 X199.199
G1 Y216.432
G1 X159.199
; Layer Trayectorias_de_corte_1 Pass 6 of 9
G1 Y240.351
G1 X199.199
G1 Y216.432
G1 X159.199
; Layer Trayectorias_de_corte_1 Pass 7 of 9
G1 Y240.351
G1 X199.199
G1 Y216.432
G1 X159.199
; Layer Trayectorias_de_corte_1 Pass 8 of 9
G1 Y240.351
G1 X199.199
G1 Y216.432
G1 X159.199
; Layer Trayectorias_de_corte_1 Pass 9 of 9
G1 Y240.351
G1 X199.199
G1 Y216.432
G1 X159.199
G0 X122.499Y213.55
; Layer Trayectorias_de_corte_1 Pass 1 of 9
G1 X119.199
G1 Y206.949
G1 X122.499
G1 Y200.35
G1 X119.199
G1 Y193.75
G1 X122.499
G1 Y187.15
G1 X119.199
G1 Y180.55
G1 X122.499
G1 Y173.949
G1 X119.199
G1 Y167.35
G1 X122.499
G1 Y156.95
G1 X129.699
G1 Y153.649
G1 X136.299
G1 Y156.95
G1 X142.9
G1 Y153.649
G1 X149.499
G1 Y156.95
G1 X156.1
G1 Y153.649
G1 X162.699
G1 Y156.95
G1 X169.299
G1 Y153.649
G1 X175.899
G1 Y156.95
G1 X182.499
G1 Y153.649
G1 X189.1
G1 Y156.95
G1 X195.699
G1 Y153.649
G1 X202.299
G1 Y156.95
G1 X208.899
G1 Y153.649
G1 X215.499
G1 Y156.95
G1 X222.1
G1 Y153.649
G1 X228.699
G1 Y156.95
G1 X235.899
G1 Y167.35
G1 X239.199
G1 Y173.949
G1 X235.899
G1 Y180.55
G1 X239.199
G1 Y187.15
G1 X235.899
G1 Y193.75
G1 X239.199
G1 Y200.35
G1 X235.899
G1 Y206.949
G1 X239.199
G1 Y213.55
G1 X235.899
G1 Y220.149
G1 X239.199
G1 Y226.75
G1 X235.899
G1 Y233.35
G1 X239.199
G1 Y239.949
G1 X235.899
G1 Y250.351
G1 X122.499
G1 Y239.949
G1 X119.199
G1 Y233.35
G1 X122.499
G1 Y226.75
G1 X119.199
G1 Y220.149
G1 X122.499
G1 Y213.55
; Layer Trayectorias_de_corte_1 Pass 2 of 9
G1 X119.199
G1 Y206.949
G1 X122.499
G1 Y200.35
G1 X119.199
G1 Y193.75
G1 X122.499
G1 Y187.15
G1 X119.199
G1 Y180.55
G1 X122.499
G1 Y173.949
G1 X119.199
G1 Y167.35
G1 X122.499
G1 Y156.95
G1 X129.699
G1 Y153.649
G1 X136.299
G1 Y156.95
G1 X142.9
G1 Y153.649
G1 X149.499
G1 Y156.95
G1 X156.1
G1 Y153.649
G1 X162.699
G1 Y156.95
G1 X169.299
G1 Y153.649
G1 X175.899
G1 Y156.95
G1 X182.499
G1 Y153.649
G1 X189.1
G1 Y156.95
G1 X195.699
G1 Y153.649
G1 X202.299
G1 Y156.95
G1 X208.899
G1 Y153.649
G1 X215.499
G1 Y156.95
G1 X222.1
G1 Y153.649
G1 X228.699
G1 Y156.95
G1 X235.899
G1 Y167.35
G1 X239.199
G1 Y173.949
G1 X235.899
G1 Y180.55
G1 X239.199
G1 Y187.15
G1 X235.899
G1 Y193.75
G1 X239.199
G1 Y200.35
G1 X235.899
G1 Y206.949
G1 X239.199
G1 Y213.55
G1 X235.899
G1 Y220.149
G1 X239.199
G1 Y226.75
G1 X235.899
G1 Y233.35
G1 X239.199
G1 Y239.949
G1 X235.899
G1 Y250.351
G1 X122.499
G1 Y239.949
G1 X119.199
G1 Y233.35
G1 X122.499
G1 Y226.75
G1 X119.199
G1 Y220.149
G1 X122.499
G1 Y213.55
; Layer Trayectorias_de_corte_1 Pass 3 of 9
G1 X119.199
G1 Y206.949
G1 X122.499
G1 Y200.35
G1 X119.199
G1 Y193.75
G1 X122.499
G1 Y187.15
G1 X119.199
G1 Y180.55
G1 X122.499
G1 Y173.949
G1 X119.199
G1 Y167.35
G1 X122.499
G1 Y156.95
G1 X129.699
G1 Y153.649
G1 X136.299
G1 Y156.95
G1 X142.9
G1 Y153.649
G1 X149.499
G1 Y156.95
G1 X156.1
G1 Y153.649
G1 X162.699
G1 Y156.95
G1 X169.299
G1 Y153.649
G1 X175.899
G1 Y156.95
G1 X182.499
G1 Y153.649
G1 X189.1
G1 Y156.95
G1 X195.699
G1 Y153.649
G1 X202.299
G1 Y156.95
G1 X208.899
G1 Y153.649
G1 X215.499
G1 Y156.95
G1 X222.1
G1 Y153.649
G1 X228.699
G1 Y156.95
G1 X235.899
G1 Y167.35
G1 X239.199
G1 Y173.949
G1 X235.899
G1 Y180.55
G1 X239.199
G1 Y187.15
G1 X235.899
G1 Y193.75
G1 X239.199
G1 Y200.35
G1 X235.899
G1 Y206.949
G1 X239.199
G1 Y213.55
G1 X235.899
G1 Y220.149
G1 X239.199
G1 Y226.75
G1 X235.899
G1 Y233.35
G1 X239.199
G1 Y239.949
G1 X235.899
G1 Y250.351
G1 X122.499
G1 Y239.949
G1 X119.199
G1 Y233.35
G1 X122.499
G1 Y226.75
G1 X119.199
G1 Y220.149
G1 X122.499
G1 Y213.55
; Layer Trayectorias_de_corte_1 Pass 4 of 9
G1 X119.199
G1 Y206.949
G1 X122.499
G1 Y200.35
G1 X119.199
G1 Y193.75
G1 X122.499
G1 Y187.15
G1 X119.199
G1 Y180.55
G1 X122.499
G1 Y173.949
G1 X119.199
G1 Y167.35
G1 X122.499
G1 Y156.95
G1 X129.699
G1 Y153.649
G1 X136.299
G1 Y156.95
G1 X142.9
G1 Y153.649
G1 X149.499
G1 Y156.95
G1 X156.1
G1 Y153.649
G1 X162.699
G1 Y156.95
G1 X169.299
G1 Y153.649
G1 X175.899
G1 Y156.95
G1 X182.499
G1 Y153.649
G1 X189.1
G1 Y156.95
G1 X195.699
G1 Y153.649
G1 X202.299
G1 Y156.95
G1 X208.899
G1 Y153.649
G1 X215.499
G1 Y156.95
G1 X222.1
G1 Y153.649
G1 X228.699
G1 Y156.95
G1 X235.899
G1 Y167.35
G1 X239.199
G1 Y173.949
G1 X235.899
G1 Y180.55
G1 X239.199
G1 Y187.15
G1 X235.899
G1 Y193.75
G1 X239.199
G1 Y200.35
G1 X235.899
G1 Y206.949
G1 X239.199
G1 Y213.55
G1 X235.899
G1 Y220.149
G1 X239.199
G1 Y226.75
G1 X235.899
G1 Y233.35
G1 X239.199
G1 Y239.949
G1 X235.899
G1 Y250.351
G1 X122.499
G1 Y239.949
G1 X119.199
G1 Y233.35
G1 X122.499
G1 Y226.75
G1 X119.199
G1 Y220.149
G1 X122.499
G1 Y213.55
; Layer Trayectorias_de_corte_1 Pass 5 of 9
G1 X119.199
G1 Y206.949
G1 X122.499
G1 Y200.35
G1 X119.199
G1 Y193.75
G1 X122.499
G1 Y187.15
G1 X119.199
G1 Y180.55
G1 X122.499
G1 Y173.949
G1 X119.199
G1 Y167.35
G1 X122.499
G1 Y156.95
G1 X129.699
G1 Y153.649
G1 X136.299
G1 Y156.95
G1 X142.9
G1 Y153.649
G1 X149.499
G1 Y156.95
G1 X156.1
G1 Y153.649
G1 X162.699
G1 Y156.95
G1 X169.299
G1 Y153.649
G1 X175.899
G1 Y156.95
G1 X182.499
G1 Y153.649
G1 X189.1
G1 Y156.95
G1 X195.699
G1 Y153.649
G1 X202.299
G1 Y156.95
G1 X208.899
G1 Y153.649
G1 X215.499
G1 Y156.95
G1 X222.1
G1 Y153.649
G1 X228.699
G1 Y156.95
G1 X235.899
G1 Y167.35
G1 X239.199
G1 Y173.949
G1 X235.899
G1 Y180.55
G1 X239.199
G1 Y187.15
G1 X235.899
G1 Y193.75
G1 X239.199
G1 Y200.35
G1 X235.899
G1 Y206.949
G1 X239.199
G1 Y213.55
G1 X235.899
G1 Y220.149
G1 X239.199
G1 Y226.75
G1 X235.899
G1 Y233.35
G1 X239.199
G1 Y239.949
G1 X235.899
G1 Y250.351
G1 X122.499
G1 Y239.949
G1 X119.199
G1 Y233.35
G1 X122.499
G1 Y226.75
G1 X119.199
G1 Y220.149
G1 X122.499
G1 Y213.55
; Layer Trayectorias_de_corte_1 Pass 6 of 9
G1 X119.199
G1 Y206.949
G1 X122.499
G1 Y200.35
G1 X119.199
G1 Y193.75
G1 X122.499
G1 Y187.15
G1 X119.199
G1 Y180.55
G1 X122.499
G1 Y173.949
G1 X119.199
G1 Y167.35
G1 X122.499
G1 Y156.95
G1 X129.699
G1 Y153.649
G1 X136.299
G1 Y156.95
G1 X142.9
G1 Y153.649
G1 X149.499
G1 Y156.95
G1 X156.1
G1 Y153.649
G1 X162.699
G1 Y156.95
G1 X169.299
G1 Y153.649
G1 X175.899
G1 Y156.95
G1 X182.499
G1 Y153.649
G1 X189.1
G1 Y156.95
G1 X195.699
G1 Y153.649
G1 X202.299
G1 Y156.95
G1 X208.899
G1 Y153.649
G1 X215.499
G1 Y156.95
G1 X222.1
G1 Y153.649
G1 X228.699
G1 Y156.95
G1 X235.899
G1 Y167.35
G1 X239.199
G1 Y173.949
G1 X235.899
G1 Y180.55
G1 X239.199
G1 Y187.15
G1 X235.899
G1 Y193.75
G1 X239.199
G1 Y200.35
G1 X235.899
G1 Y206.949
G1 X239.199
G1 Y213.55
G1 X235.899
G1 Y220.149
G1 X239.199
G1 Y226.75
G1 X235.899
G1 Y233.35
G1 X239.199
G1 Y239.949
G1 X235.899
G1 Y250.351
G1 X122.499
G1 Y239.949
G1 X119.199
G1 Y233.35
G1 X122.499
G1 Y226.75
G1 X119.199
G1 Y220.149
G1 X122.499
G1 Y213.55
; Layer Trayectorias_de_corte_1 Pass 7 of 9
G1 X119.199
G1 Y206.949
G1 X122.499
G1 Y200.35
G1 X119.199
G1 Y193.75
G1 X122.499
G1 Y187.15
G1 X119.199
G1 Y180.55
G1 X122.499
G1 Y173.949
G1 X119.199
G1 Y167.35
G1 X122.499
G1 Y156.95
G1 X129.699
G1 Y153.649
G1 X136.299
G1 Y156.95
G1 X142.9
G1 Y153.649
G1 X149.499
G1 Y156.95
G1 X156.1
G1 Y153.649
G1 X162.699
G1 Y156.95
G1 X169.299
G1 Y153.649
G1 X175.899
G1 Y156.95
G1 X182.499
G1 Y153.649
G1 X189.1
G1 Y156.95
G1 X195.699
G1 Y153.649
G1 X202.299
G1 Y156.95
G1 X208.899
G1 Y153.649
G1 X215.499
G1 Y156.95
G1 X222.1
G1 Y153.649
G1 X228.699
G1 Y156.95
G1 X235.899
G1 Y167.35
G1 X239.199
G1 Y173.949
G1 X235.899
G1 Y180.55
G1 X239.199
G1 Y187.15
G1 X235.899
G1 Y193.75
G1 X239.199
G1 Y200.35
G1 X235.899
G1 Y206.949
G1 X239.199
G1 Y213.55
G1 X235.899
G1 Y220.149
G1 X239.199
G1 Y226.75
G1 X235.899
G1 Y233.35
G1 X239.199
G1 Y239.949
G1 X235.899
G1 Y250.351
G1 X122.499
G1 Y239.949
G1 X119.199
G1 Y233.35
G1 X122.499
G1 Y226.75
G1 X119.199
G1 Y220.149
G1 X122.499
G1 Y213.55
; Layer Trayectorias_de_corte_1 Pass 8 of 9
G1 X119.199
G1 Y206.949
G1 X122.499
G1 Y200.35
G1 X119.199
G1 Y193.75
G1 X122.499
G1 Y187.15
G1 X119.199
G1 Y180.55
G1 X122.499
G1 Y173.949
G1 X119.199
G1 Y167.35
G1 X122.499
G1 Y156.95
G1 X129.699
G1 Y153.649
G1 X136.299
G1 Y156.95
G1 X142.9
G1 Y153.649
G1 X149.499
G1 Y156.95
G1 X156.1
G1 Y153.649
G1 X162.699
G1 Y156.95
G1 X169.299
G1 Y153.649
G1 X175.899
G1 Y156.95
G1 X182.499
G1 Y153.649
G1 X189.1
G1 Y156.95
G1 X195.699
G1 Y153.649
G1 X202.299
G1 Y156.95
G1 X208.899
G1 Y153.649
G1 X215.499
G1 Y156.95
G1 X222.1
G1 Y153.649
G1 X228.699
G1 Y156.95
G1 X235.899
G1 Y167.35
G1 X239.199
G1 Y173.949
G1 X235.899
G1 Y180.55
G1 X239.199
G1 Y187.15
G1 X235.899
G1 Y193.75
G1 X239.199
G1 Y200.35
G1 X235.899
G1 Y206.949
G1 X239.199
G1 Y213.55
G1 X235.899
G1 Y220.149
G1 X239.199
G1 Y226.75
G1 X235.899
G1 Y233.35
G1 X239.199
G1 Y239.949
G1 X235.899
G1 Y250.351
G1 X122.499
G1 Y239.949
G1 X119.199
G1 Y233.35
G1 X122.499
G1 Y226.75
G1 X119.199
G1 Y220.149
G1 X122.499
G1 Y213.55
; Layer Trayectorias_de_corte_1 Pass 9 of 9
G1 X119.199
G1 Y206.949
G1 X122.499
G1 Y200.35
G1 X119.199
G1 Y193.75
G1 X122.499
G1 Y187.15
G1 X119.199
G1 Y180.55
G1 X122.499
G1 Y173.949
G1 X119.199
G1 Y167.35
G1 X122.499
G1 Y156.95
G1 X129.699
G1 Y153.649
G1 X136.299
G1 Y156.95
G1 X142.9
G1 Y153.649
G1 X149.499
G1 Y156.95
G1 X156.1
G1 Y153.649
G1 X162.699
G1 Y156.95
G1 X169.299
G1 Y153.649
G1 X175.899
G1 Y156.95
G1 X182.499
G1 Y153.649
G1 X189.1
G1 Y156.95
G1 X195.699
G1 Y153.649
G1 X202.299
G1 Y156.95
G1 X208.899
G1 Y153.649
G1 X215.499
G1 Y156.95
G1 X222.1
G1 Y153.649
G1 X228.699
G1 Y156.95
G1 X235.899
G1 Y167.35
G1 X239.199
G1 Y173.949
G1 X235.899
G1 Y180.55
G1 X239.199
G1 Y187.15
G1 X235.899
G1 Y193.75
G1 X239.199
G1 Y200.35
G1 X235.899
G1 Y206.949
G1 X239.199
G1 Y213.55
G1 X235.899
G1 Y220.149
G1 X239.199
G1 Y226.75
G1 X235.899
G1 Y233.35
G1 X239.199
G1 Y239.949
G1 X235.899
G1 Y250.351
G1 X122.499
G1 Y239.949
G1 X119.199
G1 Y233.35
G1 X122.499
G1 Y226.75
G1 X119.199
G1 Y220.149
G1 X122.499
G1 Y213.55
G0 X93.849Y289.795
; Layer Trayectorias_de_corte_1 Pass 1 of 9
G1 Y293.094
G1 X104.249
G1 Y303.099
G1 X107.548
G1 Y309.699
G1 X104.249
G1 Y316.299
G1 X107.548
G1 Y322.9
G1 X104.249
G1 Y329.5
G1 X107.548
G1 Y336.101
G1 X104.249
G1 Y342.701
G1 X107.548
G1 Y349.298
G1 X104.249
G1 Y355.899
G1 X107.548
G1 Y362.499
G1 X104.249
G1 Y369.1
G1 X107.548
G1 Y375.7
G1 X104.249
G1 Y382.301
G1 X107.548
G1 Y388.901
G1 X104.249
G1 Y398.906
G1 X93.849
G1 Y402.204
G1 X87.249
G1 Y398.906
G1 X80.649
G1 Y402.204
G1 X74.048
G1 Y398.906
G1 X67.449
G1 Y402.204
G1 X60.849
G1 Y398.906
G1 X54.249
G1 Y402.204
G1 X47.649
G1 Y398.906
G1 X41.048
G1 Y402.204
G1 X34.449
G1 Y398.906
G1 X27.85
G1 Y402.204
G1 X21.249
G1 Y398.906
G1 X10.849
G1 Y293.094
G1 X21.249
G1 Y289.795
G1 X27.85
G1 Y293.094
G1 X34.449
G1 Y289.795
G1 X41.048
G1 Y293.094
G1 X47.649
G1 Y289.795
G1 X54.249
G1 Y293.094
G1 X60.849
G1 Y289.795
G1 X67.449
G1 Y293.094
G1 X74.048
G1 Y289.795
G1 X80.649
G1 Y293.094
G1 X87.249
G1 Y289.795
G1 X93.849
; Layer Trayectorias_de_corte_1 Pass 2 of 9
G1 Y293.094
G1 X104.249
G1 Y303.099
G1 X107.548
G1 Y309.699
G1 X104.249
G1 Y316.299
G1 X107.548
G1 Y322.9
G1 X104.249
G1 Y329.5
G1 X107.548
G1 Y336.101
G1 X104.249
G1 Y342.701
G1 X107.548
G1 Y349.298
G1 X104.249
G1 Y355.899
G1 X107.548
G1 Y362.499
G1 X104.249
G1 Y369.1
G1 X107.548
G1 Y375.7
G1 X104.249
G1 Y382.301
G1 X107.548
G1 Y388.901
G1 X104.249
G1 Y398.906
G1 X93.849
G1 Y402.204
G1 X87.249
G1 Y398.906
G1 X80.649
G1 Y402.204
G1 X74.048
G1 Y398.906
G1 X67.449
G1 Y402.204
G1 X60.849
G1 Y398.906
G1 X54.249
G1 Y402.204
G1 X47.649
G1 Y398.906
G1 X41.048
G1 Y402.204
G1 X34.449
G1 Y398.906
G1 X27.85
G1 Y402.204
G1 X21.249
G1 Y398.906
G1 X10.849
G1 Y293.094
G1 X21.249
G1 Y289.795
G1 X27.85
G1 Y293.094
G1 X34.449
G1 Y289.795
G1 X41.048
G1 Y293.094
G1 X47.649
G1 Y289.795
G1 X54.249
G1 Y293.094
G1 X60.849
G1 Y289.795
G1 X67.449
G1 Y293.094
G1 X74.048
G1 Y289.795
G1 X80.649
G1 Y293.094
G1 X87.249
G1 Y289.795
G1 X93.849
; Layer Trayectorias_de_corte_1 Pass 3 of 9
G1 Y293.094
G1 X104.249
G1 Y303.099
G1 X107.548
G1 Y309.699
G1 X104.249
G1 Y316.299
G1 X107.548
G1 Y322.9
G1 X104.249
G1 Y329.5
G1 X107.548
G1 Y336.101
G1 X104.249
G1 Y342.701
G1 X107.548
G1 Y349.298
G1 X104.249
G1 Y355.899
G1 X107.548
G1 Y362.499
G1 X104.249
G1 Y369.1
G1 X107.548
G1 Y375.7
G1 X104.249
G1 Y382.301
G1 X107.548
G1 Y388.901
G1 X104.249
G1 Y398.906
G1 X93.849
G1 Y402.204
G1 X87.249
G1 Y398.906
G1 X80.649
G1 Y402.204
G1 X74.048
G1 Y398.906
G1 X67.449
G1 Y402.204
G1 X60.849
G1 Y398.906
G1 X54.249
G1 Y402.204
G1 X47.649
G1 Y398.906
G1 X41.048
G1 Y402.204
G1 X34.449
G1 Y398.906
G1 X27.85
G1 Y402.204
G1 X21.249
G1 Y398.906
G1 X10.849
G1 Y293.094
G1 X21.249
G1 Y289.795
G1 X27.85
G1 Y293.094
G1 X34.449
G1 Y289.795
G1 X41.048
G1 Y293.094
G1 X47.649
G1 Y289.795
G1 X54.249
G1 Y293.094
G1 X60.849
G1 Y289.795
G1 X67.449
G1 Y293.094
G1 X74.048
G1 Y289.795
G1 X80.649
G1 Y293.094
G1 X87.249
G1 Y289.795
G1 X93.849
; Layer Trayectorias_de_corte_1 Pass 4 of 9
G1 Y293.094
G1 X104.249
G1 Y303.099
G1 X107.548
G1 Y309.699
G1 X104.249
G1 Y316.299
G1 X107.548
G1 Y322.9
G1 X104.249
G1 Y329.5
G1 X107.548
G1 Y336.101
G1 X104.249
G1 Y342.701
G1 X107.548
G1 Y349.298
G1 X104.249
G1 Y355.899
G1 X107.548
G1 Y362.499
G1 X104.249
G1 Y369.1
G1 X107.548
G1 Y375.7
G1 X104.249
G1 Y382.301
G1 X107.548
G1 Y388.901
G1 X104.249
G1 Y398.906
G1 X93.849
G1 Y402.204
G1 X87.249
G1 Y398.906
G1 X80.649
G1 Y402.204
G1 X74.048
G1 Y398.906
G1 X67.449
G1 Y402.204
G1 X60.849
G1 Y398.906
G1 X54.249
G1 Y402.204
G1 X47.649
G1 Y398.906
G1 X41.048
G1 Y402.204
G1 X34.449
G1 Y398.906
G1 X27.85
G1 Y402.204
G1 X21.249
G1 Y398.906
G1 X10.849
G1 Y293.094
G1 X21.249
G1 Y289.795
G1 X27.85
G1 Y293.094
G1 X34.449
G1 Y289.795
G1 X41.048
G1 Y293.094
G1 X47.649
G1 Y289.795
G1 X54.249
G1 Y293.094
G1 X60.849
G1 Y289.795
G1 X67.449
G1 Y293.094
G1 X74.048
G1 Y289.795
G1 X80.649
G1 Y293.094
G1 X87.249
G1 Y289.795
G1 X93.849
; Layer Trayectorias_de_corte_1 Pass 5 of 9
G1 Y293.094
G1 X104.249
G1 Y303.099
G1 X107.548
G1 Y309.699
G1 X104.249
G1 Y316.299
G1 X107.548
G1 Y322.9
G1 X104.249
G1 Y329.5
G1 X107.548
G1 Y336.101
G1 X104.249
G1 Y342.701
G1 X107.548
G1 Y349.298
G1 X104.249
G1 Y355.899
G1 X107.548
G1 Y362.499
G1 X104.249
G1 Y369.1
G1 X107.548
G1 Y375.7
G1 X104.249
G1 Y382.301
G1 X107.548
G1 Y388.901
G1 X104.249
G1 Y398.906
G1 X93.849
G1 Y402.204
G1 X87.249
G1 Y398.906
G1 X80.649
G1 Y402.204
G1 X74.048
G1 Y398.906
G1 X67.449
G1 Y402.204
G1 X60.849
G1 Y398.906
G1 X54.249
G1 Y402.204
G1 X47.649
G1 Y398.906
G1 X41.048
G1 Y402.204
G1 X34.449
G1 Y398.906
G1 X27.85
G1 Y402.204
G1 X21.249
G1 Y398.906
G1 X10.849
G1 Y293.094
G1 X21.249
G1 Y289.795
G1 X27.85
G1 Y293.094
G1 X34.449
G1 Y289.795
G1 X41.048
G1 Y293.094
G1 X47.649
G1 Y289.795
G1 X54.249
G1 Y293.094
G1 X60.849
G1 Y289.795
G1 X67.449
G1 Y293.094
G1 X74.048
G1 Y289.795
G1 X80.649
G1 Y293.094
G1 X87.249
G1 Y289.795
G1 X93.849
; Layer Trayectorias_de_corte_1 Pass 6 of 9
G1 Y293.094
G1 X104.249
G1 Y303.099
G1 X107.548
G1 Y309.699
G1 X104.249
G1 Y316.299
G1 X107.548
G1 Y322.9
G1 X104.249
G1 Y329.5
G1 X107.548
G1 Y336.101
G1 X104.249
G1 Y342.701
G1 X107.548
G1 Y349.298
G1 X104.249
G1 Y355.899
G1 X107.548
G1 Y362.499
G1 X104.249
G1 Y369.1
G1 X107.548
G1 Y375.7
G1 X104.249
G1 Y382.301
G1 X107.548
G1 Y388.901
G1 X104.249
G1 Y398.906
G1 X93.849
G1 Y402.204
G1 X87.249
G1 Y398.906
G1 X80.649
G1 Y402.204
G1 X74.048
G1 Y398.906
G1 X67.449
G1 Y402.204
G1 X60.849
G1 Y398.906
G1 X54.249
G1 Y402.204
G1 X47.649
G1 Y398.906
G1 X41.048
G1 Y402.204
G1 X34.449
G1 Y398.906
G1 X27.85
G1 Y402.204
G1 X21.249
G1 Y398.906
G1 X10.849
G1 Y293.094
G1 X21.249
G1 Y289.795
G1 X27.85
G1 Y293.094
G1 X34.449
G1 Y289.795
G1 X41.048
G1 Y293.094
G1 X47.649
G1 Y289.795
G1 X54.249
G1 Y293.094
G1 X60.849
G1 Y289.795
G1 X67.449
G1 Y293.094
G1 X74.048
G1 Y289.795
G1 X80.649
G1 Y293.094
G1 X87.249
G1 Y289.795
G1 X93.849
; Layer Trayectorias_de_corte_1 Pass 7 of 9
G1 Y293.094
G1 X104.249
G1 Y303.099
G1 X107.548
G1 Y309.699
G1 X104.249
G1 Y316.299
G1 X107.548
G1 Y322.9
G1 X104.249
G1 Y329.5
G1 X107.548
G1 Y336.101
G1 X104.249
G1 Y342.701
G1 X107.548
G1 Y349.298
G1 X104.249
G1 Y355.899
G1 X107.548
G1 Y362.499
G1 X104.249
G1 Y369.1
G1 X107.548
G1 Y375.7
G1 X104.249
G1 Y382.301
G1 X107.548
G1 Y388.901
G1 X104.249
G1 Y398.906
G1 X93.849
G1 Y402.204
G1 X87.249
G1 Y398.906
G1 X80.649
G1 Y402.204
G1 X74.048
G1 Y398.906
G1 X67.449
G1 Y402.204
G1 X60.849
G1 Y398.906
G1 X54.249
G1 Y402.204
G1 X47.649
G1 Y398.906
G1 X41.048
G1 Y402.204
G1 X34.449
G1 Y398.906
G1 X27.85
G1 Y402.204
G1 X21.249
G1 Y398.906
G1 X10.849
G1 Y293.094
G1 X21.249
G1 Y289.795
G1 X27.85
G1 Y293.094
G1 X34.449
G1 Y289.795
G1 X41.048
G1 Y293.094
G1 X47.649
G1 Y289.795
G1 X54.249
G1 Y293.094
G1 X60.849
G1 Y289.795
G1 X67.449
G1 Y293.094
G1 X74.048
G1 Y289.795
G1 X80.649
G1 Y293.094
G1 X87.249
G1 Y289.795
G1 X93.849
; Layer Trayectorias_de_corte_1 Pass 8 of 9
G1 Y293.094
G1 X104.249
G1 Y303.099
G1 X107.548
G1 Y309.699
G1 X104.249
G1 Y316.299
G1 X107.548
G1 Y322.9
G1 X104.249
G1 Y329.5
G1 X107.548
G1 Y336.101
G1 X104.249
G1 Y342.701
G1 X107.548
G1 Y349.298
G1 X104.249
G1 Y355.899
G1 X107.548
G1 Y362.499
G1 X104.249
G1 Y369.1
G1 X107.548
G1 Y375.7
G1 X104.249
G1 Y382.301
G1 X107.548
G1 Y388.901
G1 X104.249
G1 Y398.906
G1 X93.849
G1 Y402.204
G1 X87.249
G1 Y398.906
G1 X80.649
G1 Y402.204
G1 X74.048
G1 Y398.906
G1 X67.449
G1 Y402.204
G1 X60.849
G1 Y398.906
G1 X54.249
G1 Y402.204
G1 X47.649
G1 Y398.906
G1 X41.048
G1 Y402.204
G1 X34.449
G1 Y398.906
G1 X27.85
G1 Y402.204
G1 X21.249
G1 Y398.906
G1 X10.849
G1 Y293.094
G1 X21.249
G1 Y289.795
G1 X27.85
G1 Y293.094
G1 X34.449
G1 Y289.795
G1 X41.048
G1 Y293.094
G1 X47.649
G1 Y289.795
G1 X54.249
G1 Y293.094
G1 X60.849
G1 Y289.795
G1 X67.449
G1 Y293.094
G1 X74.048
G1 Y289.795
G1 X80.649
G1 Y293.094
G1 X87.249
G1 Y289.795
G1 X93.849
; Layer Trayectorias_de_corte_1 Pass 9 of 9
G1 Y293.094
G1 X104.249
G1 Y303.099
G1 X107.548
G1 Y309.699
G1 X104.249
G1 Y316.299
G1 X107.548
G1 Y322.9
G1 X104.249
G1 Y329.5
G1 X107.548
G1 Y336.101
G1 X104.249
G1 Y342.701
G1 X107.548
G1 Y349.298
G1 X104.249
G1 Y355.899
G1 X107.548
G1 Y362.499
G1 X104.249
G1 Y369.1
G1 X107.548
G1 Y375.7
G1 X104.249
G1 Y382.301
G1 X107.548
G1 Y388.901
G1 X104.249
G1 Y398.906
G1 X93.849
G1 Y402.204
G1 X87.249
G1 Y398.906
G1 X80.649
G1 Y402.204
G1 X74.048
G1 Y398.906
G1 X67.449
G1 Y402.204
G1 X60.849
G1 Y398.906
G1 X54.249
G1 Y402.204
G1 X47.649
G1 Y398.906
G1 X41.048
G1 Y402.204
G1 X34.449
G1 Y398.906
G1 X27.85
G1 Y402.204
G1 X21.249
G1 Y398.906
G1 X10.849
G1 Y293.094
G1 X21.249
G1 Y289.795
G1 X27.85
G1 Y293.094
G1 X34.449
G1 Y289.795
G1 X41.048
G1 Y293.094
G1 X47.649
G1 Y289.795
G1 X54.249
G1 Y293.094
G1 X60.849
G1 Y289.795
G1 X67.449
G1 Y293.094
G1 X74.048
G1 Y289.795
G1 X80.649
G1 Y293.094
G1 X87.249
G1 Y289.795
G1 X93.849
G0 X150.199Y296.049
; Layer Trayectorias_de_corte_1 Pass 1 of 9
G1 Y364.049
G1 X202.199
G1 Y296.049
G1 X150.199
; Layer Trayectorias_de_corte_1 Pass 2 of 9
G1 Y364.049
G1 X202.199
G1 Y296.049
G1 X150.199
; Layer Trayectorias_de_corte_1 Pass 3 of 9
G1 Y364.049
G1 X202.199
G1 Y296.049
G1 X150.199
; Layer Trayectorias_de_corte_1 Pass 4 of 9
G1 Y364.049
G1 X202.199
G1 Y296.049
G1 X150.199
; Layer Trayectorias_de_corte_1 Pass 5 of 9
G1 Y364.049
G1 X202.199
G1 Y296.049
G1 X150.199
; Layer Trayectorias_de_corte_1 Pass 6 of 9
G1 Y364.049
G1 X202.199
G1 Y296.049
G1 X150.199
; Layer Trayectorias_de_corte_1 Pass 7 of 9
G1 Y364.049
G1 X202.199
G1 Y296.049
G1 X150.199
; Layer Trayectorias_de_corte_1 Pass 8 of 9
G1 Y364.049
G1 X202.199
G1 Y296.049
G1 X150.199
; Layer Trayectorias_de_corte_1 Pass 9 of 9
G1 Y364.049
G1 X202.199
G1 Y296.049
G1 X150.199
G0 X119.5Y293.699
; Layer Trayectorias_de_corte_1 Pass 1 of 9
G1 X116.199
G1 Y287.098
G1 X119.5
G1 Y280.499
G1 X116.199
G1 Y273.898
G1 X119.5
G1 Y267.299
G1 X116.199
G1 Y254.999
G1 X126.698
G1 Y258.299
G1 X133.299
G1 Y254.999
G1 X139.899
G1 Y258.299
G1 X146.498
G1 Y254.999
G1 X153.099
G1 Y258.299
G1 X159.698
G1 Y254.999
G1 X166.299
G1 Y258.299
G1 X172.899
G1 Y254.999
G1 X179.499
G1 Y258.299
G1 X186.099
G1 Y254.999
G1 X192.698
G1 Y258.299
G1 X199.299
G1 Y254.999
G1 X205.899
G1 Y258.299
G1 X212.499
G1 Y254.999
G1 X219.099
G1 Y258.299
G1 X225.7
G1 Y254.999
G1 X236.199
G1 Y258.299
G1 Y267.299
G1 X232.898
G1 Y273.898
G1 X236.199
G1 Y280.499
G1 X232.898
G1 Y287.098
G1 X236.199
G1 Y293.699
G1 X232.898
G1 Y300.299
G1 X236.199
G1 Y306.898
G1 X232.898
G1 Y313.499
G1 X236.199
G1 Y320.098
G1 X232.898
G1 Y326.699
G1 X236.199
G1 Y333.299
G1 X232.898
G1 Y339.899
G1 X236.199
G1 Y346.499
G1 X232.898
G1 Y353.098
G1 X236.199
G1 Y359.699
G1 X232.898
G1 Y366.298
G1 X236.199
G1 Y372.899
G1 X232.898
G1 Y379.499
G1 X236.199
G1 Y386.098
G1 X232.898
G1 Y392.699
G1 X236.199
G1 Y404.999
G1 X225.7
G1 Y401.699
G1 X219.099
G1 Y404.999
G1 X212.499
G1 Y401.699
G1 X205.899
G1 Y404.999
G1 X199.299
G1 Y401.699
G1 X192.698
G1 Y404.999
G1 X186.099
G1 Y401.699
G1 X179.499
G1 Y404.999
G1 X172.899
G1 Y401.699
G1 X166.299
G1 Y404.999
G1 X159.698
G1 Y401.699
G1 X153.099
G1 Y404.999
G1 X146.498
G1 Y401.699
G1 X139.899
G1 Y404.999
G1 X133.299
G1 Y401.699
G1 X126.698
G1 Y404.999
G1 X116.199
G1 Y392.699
G1 X119.5
G1 Y386.098
G1 X116.199
G1 Y379.499
G1 X119.5
G1 Y372.899
G1 X116.199
G1 Y366.298
G1 X119.5
G1 Y359.699
G1 X116.199
G1 Y353.098
G1 X119.5
G1 Y346.499
G1 X116.199
G1 Y339.899
G1 X119.5
G1 Y333.299
G1 X116.199
G1 Y326.699
G1 X119.5
G1 Y320.098
G1 X116.199
G1 Y313.499
G1 X119.5
G1 Y306.898
G1 X116.199
G1 Y300.299
G1 X119.5
G1 Y293.699
; Layer Trayectorias_de_corte_1 Pass 2 of 9
G1 X116.199
G1 Y287.098
G1 X119.5
G1 Y280.499
G1 X116.199
G1 Y273.898
G1 X119.5
G1 Y267.299
G1 X116.199
G1 Y254.999
G1 X126.698
G1 Y258.299
G1 X133.299
G1 Y254.999
G1 X139.899
G1 Y258.299
G1 X146.498
G1 Y254.999
G1 X153.099
G1 Y258.299
G1 X159.698
G1 Y254.999
G1 X166.299
G1 Y258.299
G1 X172.899
G1 Y254.999
G1 X179.499
G1 Y258.299
G1 X186.099
G1 Y254.999
G1 X192.698
G1 Y258.299
G1 X199.299
G1 Y254.999
G1 X205.899
G1 Y258.299
G1 X212.499
G1 Y254.999
G1 X219.099
G1 Y258.299
G1 X225.7
G1 Y254.999
G1 X236.199
G1 Y258.299
G1 Y267.299
G1 X232.898
G1 Y273.898
G1 X236.199
G1 Y280.499
G1 X232.898
G1 Y287.098
G1 X236.199
G1 Y293.699
G1 X232.898
G1 Y300.299
G1 X236.199
G1 Y306.898
G1 X232.898
G1 Y313.499
G1 X236.199
G1 Y320.098
G1 X232.898
G1 Y326.699
G1 X236.199
G1 Y333.299
G1 X232.898
G1 Y339.899
G1 X236.199
G1 Y346.499
G1 X232.898
G1 Y353.098
G1 X236.199
G1 Y359.699
G1 X232.898
G1 Y366.298
G1 X236.199
G1 Y372.899
G1 X232.898
G1 Y379.499
G1 X236.199
G1 Y386.098
G1 X232.898
G1 Y392.699
G1 X236.199
G1 Y404.999
G1 X225.7
G1 Y401.699
G1 X219.099
G1 Y404.999
G1 X212.499
G1 Y401.699
G1 X205.899
G1 Y404.999
G1 X199.299
G1 Y401.699
G1 X192.698
G1 Y404.999
G1 X186.099
G1 Y401.699
G1 X179.499
G1 Y404.999
G1 X172.899
G1 Y401.699
G1 X166.299
G1 Y404.999
G1 X159.698
G1 Y401.699
G1 X153.099
G1 Y404.999
G1 X146.498
G1 Y401.699
G1 X139.899
G1 Y404.999
G1 X133.299
G1 Y401.699
G1 X126.698
G1 Y404.999
G1 X116.199
G1 Y392.699
G1 X119.5
G1 Y386.098
G1 X116.199
G1 Y379.499
G1 X119.5
G1 Y372.899
G1 X116.199
G1 Y366.298
G1 X119.5
G1 Y359.699
G1 X116.199
G1 Y353.098
G1 X119.5
G1 Y346.499
G1 X116.199
G1 Y339.899
G1 X119.5
G1 Y333.299
G1 X116.199
G1 Y326.699
G1 X119.5
G1 Y320.098
G1 X116.199
G1 Y313.499
G1 X119.5
G1 Y306.898
G1 X116.199
G1 Y300.299
G1 X119.5
G1 Y293.699
; Layer Trayectorias_de_corte_1 Pass 3 of 9
G1 X116.199
G1 Y287.098
G1 X119.5
G1 Y280.499
G1 X116.199
G1 Y273.898
G1 X119.5
G1 Y267.299
G1 X116.199
G1 Y254.999
G1 X126.698
G1 Y258.299
G1 X133.299
G1 Y254.999
G1 X139.899
G1 Y258.299
G1 X146.498
G1 Y254.999
G1 X153.099
G1 Y258.299
G1 X159.698
G1 Y254.999
G1 X166.299
G1 Y258.299
G1 X172.899
G1 Y254.999
G1 X179.499
G1 Y258.299
G1 X186.099
G1 Y254.999
G1 X192.698
G1 Y258.299
G1 X199.299
G1 Y254.999
G1 X205.899
G1 Y258.299
G1 X212.499
G1 Y254.999
G1 X219.099
G1 Y258.299
G1 X225.7
G1 Y254.999
G1 X236.199
G1 Y258.299
G1 Y267.299
G1 X232.898
G1 Y273.898
G1 X236.199
G1 Y280.499
G1 X232.898
G1 Y287.098
G1 X236.199
G1 Y293.699
G1 X232.898
G1 Y300.299
G1 X236.199
G1 Y306.898
G1 X232.898
G1 Y313.499
G1 X236.199
G1 Y320.098
G1 X232.898
G1 Y326.699
G1 X236.199
G1 Y333.299
G1 X232.898
G1 Y339.899
G1 X236.199
G1 Y346.499
G1 X232.898
G1 Y353.098
G1 X236.199
G1 Y359.699
G1 X232.898
G1 Y366.298
G1 X236.199
G1 Y372.899
G1 X232.898
G1 Y379.499
G1 X236.199
G1 Y386.098
G1 X232.898
G1 Y392.699
G1 X236.199
G1 Y404.999
G1 X225.7
G1 Y401.699
G1 X219.099
G1 Y404.999
G1 X212.499
G1 Y401.699
G1 X205.899
G1 Y404.999
G1 X199.299
G1 Y401.699
G1 X192.698
G1 Y404.999
G1 X186.099
G1 Y401.699
G1 X179.499
G1 Y404.999
G1 X172.899
G1 Y401.699
G1 X166.299
G1 Y404.999
G1 X159.698
G1 Y401.699
G1 X153.099
G1 Y404.999
G1 X146.498
G1 Y401.699
G1 X139.899
G1 Y404.999
G1 X133.299
G1 Y401.699
G1 X126.698
G1 Y404.999
G1 X116.199
G1 Y392.699
G1 X119.5
G1 Y386.098
G1 X116.199
G1 Y379.499
G1 X119.5
G1 Y372.899
G1 X116.199
G1 Y366.298
G1 X119.5
G1 Y359.699
G1 X116.199
G1 Y353.098
G1 X119.5
G1 Y346.499
G1 X116.199
G1 Y339.899
G1 X119.5
G1 Y333.299
G1 X116.199
G1 Y326.699
G1 X119.5
G1 Y320.098
G1 X116.199
G1 Y313.499
G1 X119.5
G1 Y306.898
G1 X116.199
G1 Y300.299
G1 X119.5
G1 Y293.699
; Layer Trayectorias_de_corte_1 Pass 4 of 9
G1 X116.199
G1 Y287.098
G1 X119.5
G1 Y280.499
G1 X116.199
G1 Y273.898
G1 X119.5
G1 Y267.299
G1 X116.199
G1 Y254.999
G1 X126.698
G1 Y258.299
G1 X133.299
G1 Y254.999
G1 X139.899
G1 Y258.299
G1 X146.498
G1 Y254.999
G1 X153.099
G1 Y258.299
G1 X159.698
G1 Y254.999
G1 X166.299
G1 Y258.299
G1 X172.899
G1 Y254.999
G1 X179.499
G1 Y258.299
G1 X186.099
G1 Y254.999
G1 X192.698
G1 Y258.299
G1 X199.299
G1 Y254.999
G1 X205.899
G1 Y258.299
G1 X212.499
G1 Y254.999
G1 X219.099
G1 Y258.299
G1 X225.7
G1 Y254.999
G1 X236.199
G1 Y258.299
G1 Y267.299
G1 X232.898
G1 Y273.898
G1 X236.199
G1 Y280.499
G1 X232.898
G1 Y287.098
G1 X236.199
G1 Y293.699
G1 X232.898
G1 Y300.299
G1 X236.199
G1 Y306.898
G1 X232.898
G1 Y313.499
G1 X236.199
G1 Y320.098
G1 X232.898
G1 Y326.699
G1 X236.199
G1 Y333.299
G1 X232.898
G1 Y339.899
G1 X236.199
G1 Y346.499
G1 X232.898
G1 Y353.098
G1 X236.199
G1 Y359.699
G1 X232.898
G1 Y366.298
G1 X236.199
G1 Y372.899
G1 X232.898
G1 Y379.499
G1 X236.199
G1 Y386.098
G1 X232.898
G1 Y392.699
G1 X236.199
G1 Y404.999
G1 X225.7
G1 Y401.699
G1 X219.099
G1 Y404.999
G1 X212.499
G1 Y401.699
G1 X205.899
G1 Y404.999
G1 X199.299
G1 Y401.699
G1 X192.698
G1 Y404.999
G1 X186.099
G1 Y401.699
G1 X179.499
G1 Y404.999
G1 X172.899
G1 Y401.699
G1 X166.299
G1 Y404.999
G1 X159.698
G1 Y401.699
G1 X153.099
G1 Y404.999
G1 X146.498
G1 Y401.699
G1 X139.899
G1 Y404.999
G1 X133.299
G1 Y401.699
G1 X126.698
G1 Y404.999
G1 X116.199
G1 Y392.699
G1 X119.5
G1 Y386.098
G1 X116.199
G1 Y379.499
G1 X119.5
G1 Y372.899
G1 X116.199
G1 Y366.298
G1 X119.5
G1 Y359.699
G1 X116.199
G1 Y353.098
G1 X119.5
G1 Y346.499
G1 X116.199
G1 Y339.899
G1 X119.5
G1 Y333.299
G1 X116.199
G1 Y326.699
G1 X119.5
G1 Y320.098
G1 X116.199
G1 Y313.499
G1 X119.5
G1 Y306.898
G1 X116.199
G1 Y300.299
G1 X119.5
G1 Y293.699
; Layer Trayectorias_de_corte_1 Pass 5 of 9
G1 X116.199
G1 Y287.098
G1 X119.5
G1 Y280.499
G1 X116.199
G1 Y273.898
G1 X119.5
G1 Y267.299
G1 X116.199
G1 Y254.999
G1 X126.698
G1 Y258.299
G1 X133.299
G1 Y254.999
G1 X139.899
G1 Y258.299
G1 X146.498
G1 Y254.999
G1 X153.099
G1 Y258.299
G1 X159.698
G1 Y254.999
G1 X166.299
G1 Y258.299
G1 X172.899
G1 Y254.999
G1 X179.499
G1 Y258.299
G1 X186.099
G1 Y254.999
G1 X192.698
G1 Y258.299
G1 X199.299
G1 Y254.999
G1 X205.899
G1 Y258.299
G1 X212.499
G1 Y254.999
G1 X219.099
G1 Y258.299
G1 X225.7
G1 Y254.999
G1 X236.199
G1 Y258.299
G1 Y267.299
G1 X232.898
G1 Y273.898
G1 X236.199
G1 Y280.499
G1 X232.898
G1 Y287.098
G1 X236.199
G1 Y293.699
G1 X232.898
G1 Y300.299
G1 X236.199
G1 Y306.898
G1 X232.898
G1 Y313.499
G1 X236.199
G1 Y320.098
G1 X232.898
G1 Y326.699
G1 X236.199
G1 Y333.299
G1 X232.898
G1 Y339.899
G1 X236.199
G1 Y346.499
G1 X232.898
G1 Y353.098
G1 X236.199
G1 Y359.699
G1 X232.898
G1 Y366.298
G1 X236.199
G1 Y372.899
G1 X232.898
G1 Y379.499
G1 X236.199
G1 Y386.098
G1 X232.898
G1 Y392.699
G1 X236.199
G1 Y404.999
G1 X225.7
G1 Y401.699
G1 X219.099
G1 Y404.999
G1 X212.499
G1 Y401.699
G1 X205.899
G1 Y404.999
G1 X199.299
G1 Y401.699
G1 X192.698
G1 Y404.999
G1 X186.099
G1 Y401.699
G1 X179.499
G1 Y404.999
G1 X172.899
G1 Y401.699
G1 X166.299
G1 Y404.999
G1 X159.698
G1 Y401.699
G1 X153.099
G1 Y404.999
G1 X146.498
G1 Y401.699
G1 X139.899
G1 Y404.999
G1 X133.299
G1 Y401.699
G1 X126.698
G1 Y404.999
G1 X116.199
G1 Y392.699
G1 X119.5
G1 Y386.098
G1 X116.199
G1 Y379.499
G1 X119.5
G1 Y372.899
G1 X116.199
G1 Y366.298
G1 X119.5
G1 Y359.699
G1 X116.199
G1 Y353.098
G1 X119.5
G1 Y346.499
G1 X116.199
G1 Y339.899
G1 X119.5
G1 Y333.299
G1 X116.199
G1 Y326.699
G1 X119.5
G1 Y320.098
G1 X116.199
G1 Y313.499
G1 X119.5
G1 Y306.898
G1 X116.199
G1 Y300.299
G1 X119.5
G1 Y293.699
; Layer Trayectorias_de_corte_1 Pass 6 of 9
G1 X116.199
G1 Y287.098
G1 X119.5
G1 Y280.499
G1 X116.199
G1 Y273.898
G1 X119.5
G1 Y267.299
G1 X116.199
G1 Y254.999
G1 X126.698
G1 Y258.299
G1 X133.299
G1 Y254.999
G1 X139.899
G1 Y258.299
G1 X146.498
G1 Y254.999
G1 X153.099
G1 Y258.299
G1 X159.698
G1 Y254.999
G1 X166.299
G1 Y258.299
G1 X172.899
G1 Y254.999
G1 X179.499
G1 Y258.299
G1 X186.099
G1 Y254.999
G1 X192.698
G1 Y258.299
G1 X199.299
G1 Y254.999
G1 X205.899
G1 Y258.299
G1 X212.499
G1 Y254.999
G1 X219.099
G1 Y258.299
G1 X225.7
G1 Y254.999
G1 X236.199
G1 Y258.299
G1 Y267.299
G1 X232.898
G1 Y273.898
G1 X236.199
G1 Y280.499
G1 X232.898
G1 Y287.098
G1 X236.199
G1 Y293.699
G1 X232.898
G1 Y300.299
G1 X236.199
G1 Y306.898
G1 X232.898
G1 Y313.499
G1 X236.199
G1 Y320.098
G1 X232.898
G1 Y326.699
G1 X236.199
G1 Y333.299
G1 X232.898
G1 Y339.899
G1 X236.199
G1 Y346.499
G1 X232.898
G1 Y353.098
G1 X236.199
G1 Y359.699
G1 X232.898
G1 Y366.298
G1 X236.199
G1 Y372.899
G1 X232.898
G1 Y379.499
G1 X236.199
G1 Y386.098
G1 X232.898
G1 Y392.699
G1 X236.199
G1 Y404.999
G1 X225.7
G1 Y401.699
G1 X219.099
G1 Y404.999
G1 X212.499
G1 Y401.699
G1 X205.899
G1 Y404.999
G1 X199.299
G1 Y401.699
G1 X192.698
G1 Y404.999
G1 X186.099
G1 Y401.699
G1 X179.499
G1 Y404.999
G1 X172.899
G1 Y401.699
G1 X166.299
G1 Y404.999
G1 X159.698
G1 Y401.699
G1 X153.099
G1 Y404.999
G1 X146.498
G1 Y401.699
G1 X139.899
G1 Y404.999
G1 X133.299
G1 Y401.699
G1 X126.698
G1 Y404.999
G1 X116.199
G1 Y392.699
G1 X119.5
G1 Y386.098
G1 X116.199
G1 Y379.499
G1 X119.5
G1 Y372.899
G1 X116.199
G1 Y366.298
G1 X119.5
G1 Y359.699
G1 X116.199
G1 Y353.098
G1 X119.5
G1 Y346.499
G1 X116.199
G1 Y339.899
G1 X119.5
G1 Y333.299
G1 X116.199
G1 Y326.699
G1 X119.5
G1 Y320.098
G1 X116.199
G1 Y313.499
G1 X119.5
G1 Y306.898
G1 X116.199
G1 Y300.299
G1 X119.5
G1 Y293.699
; Layer Trayectorias_de_corte_1 Pass 7 of 9
G1 X116.199
G1 Y287.098
G1 X119.5
G1 Y280.499
G1 X116.199
G1 Y273.898
G1 X119.5
G1 Y267.299
G1 X116.199
G1 Y254.999
G1 X126.698
G1 Y258.299
G1 X133.299
G1 Y254.999
G1 X139.899
G1 Y258.299
G1 X146.498
G1 Y254.999
G1 X153.099
G1 Y258.299
G1 X159.698
G1 Y254.999
G1 X166.299
G1 Y258.299
G1 X172.899
G1 Y254.999
G1 X179.499
G1 Y258.299
G1 X186.099
G1 Y254.999
G1 X192.698
G1 Y258.299
G1 X199.299
G1 Y254.999
G1 X205.899
G1 Y258.299
G1 X212.499
G1 Y254.999
G1 X219.099
G1 Y258.299
G1 X225.7
G1 Y254.999
G1 X236.199
G1 Y258.299
G1 Y267.299
G1 X232.898
G1 Y273.898
G1 X236.199
G1 Y280.499
G1 X232.898
G1 Y287.098
G1 X236.199
G1 Y293.699
G1 X232.898
G1 Y300.299
G1 X236.199
G1 Y306.898
G1 X232.898
G1 Y313.499
G1 X236.199
G1 Y320.098
G1 X232.898
G1 Y326.699
G1 X236.199
G1 Y333.299
G1 X232.898
G1 Y339.899
G1 X236.199
G1 Y346.499
G1 X232.898
G1 Y353.098
G1 X236.199
G1 Y359.699
G1 X232.898
G1 Y366.298
G1 X236.199
G1 Y372.899
G1 X232.898
G1 Y379.499
G1 X236.199
G1 Y386.098
G1 X232.898
G1 Y392.699
G1 X236.199
G1 Y404.999
G1 X225.7
G1 Y401.699
G1 X219.099
G1 Y404.999
G1 X212.499
G1 Y401.699
G1 X205.899
G1 Y404.999
G1 X199.299
G1 Y401.699
G1 X192.698
G1 Y404.999
G1 X186.099
G1 Y401.699
G1 X179.499
G1 Y404.999
G1 X172.899
G1 Y401.699
G1 X166.299
G1 Y404.999
G1 X159.698
G1 Y401.699
G1 X153.099
G1 Y404.999
G1 X146.498
G1 Y401.699
G1 X139.899
G1 Y404.999
G1 X133.299
G1 Y401.699
G1 X126.698
G1 Y404.999
G1 X116.199
G1 Y392.699
G1 X119.5
G1 Y386.098
G1 X116.199
G1 Y379.499
G1 X119.5
G1 Y372.899
G1 X116.199
G1 Y366.298
G1 X119.5
G1 Y359.699
G1 X116.199
G1 Y353.098
G1 X119.5
G1 Y346.499
G1 X116.199
G1 Y339.899
G1 X119.5
G1 Y333.299
G1 X116.199
G1 Y326.699
G1 X119.5
G1 Y320.098
G1 X116.199
G1 Y313.499
G1 X119.5
G1 Y306.898
G1 X116.199
G1 Y300.299
G1 X119.5
G1 Y293.699
; Layer Trayectorias_de_corte_1 Pass 8 of 9
G1 X116.199
G1 Y287.098
G1 X119.5
G1 Y280.499
G1 X116.199
G1 Y273.898
G1 X119.5
G1 Y267.299
G1 X116.199
G1 Y254.999
G1 X126.698
G1 Y258.299
G1 X133.299
G1 Y254.999
G1 X139.899
G1 Y258.299
G1 X146.498
G1 Y254.999
G1 X153.099
G1 Y258.299
G1 X159.698
G1 Y254.999
G1 X166.299
G1 Y258.299
G1 X172.899
G1 Y254.999
G1 X179.499
G1 Y258.299
G1 X186.099
G1 Y254.999
G1 X192.698
G1 Y258.299
G1 X199.299
G1 Y254.999
G1 X205.899
G1 Y258.299
G1 X212.499
G1 Y254.999
G1 X219.099
G1 Y258.299
G1 X225.7
G1 Y254.999
G1 X236.199
G1 Y258.299
G1 Y267.299
G1 X232.898
G1 Y273.898
G1 X236.199
G1 Y280.499
G1 X232.898
G1 Y287.098
G1 X236.199
G1 Y293.699
G1 X232.898
G1 Y300.299
G1 X236.199
G1 Y306.898
G1 X232.898
G1 Y313.499
G1 X236.199
G1 Y320.098
G1 X232.898
G1 Y326.699
G1 X236.199
G1 Y333.299
G1 X232.898
G1 Y339.899
G1 X236.199
G1 Y346.499
G1 X232.898
G1 Y353.098
G1 X236.199
G1 Y359.699
G1 X232.898
G1 Y366.298
G1 X236.199
G1 Y372.899
G1 X232.898
G1 Y379.499
G1 X236.199
G1 Y386.098
G1 X232.898
G1 Y392.699
G1 X236.199
G1 Y404.999
G1 X225.7
G1 Y401.699
G1 X219.099
G1 Y404.999
G1 X212.499
G1 Y401.699
G1 X205.899
G1 Y404.999
G1 X199.299
G1 Y401.699
G1 X192.698
G1 Y404.999
G1 X186.099
G1 Y401.699
G1 X179.499
G1 Y404.999
G1 X172.899
G1 Y401.699
G1 X166.299
G1 Y404.999
G1 X159.698
G1 Y401.699
G1 X153.099
G1 Y404.999
G1 X146.498
G1 Y401.699
G1 X139.899
G1 Y404.999
G1 X133.299
G1 Y401.699
G1 X126.698
G1 Y404.999
G1 X116.199
G1 Y392.699
G1 X119.5
G1 Y386.098
G1 X116.199
G1 Y379.499
G1 X119.5
G1 Y372.899
G1 X116.199
G1 Y366.298
G1 X119.5
G1 Y359.699
G1 X116.199
G1 Y353.098
G1 X119.5
G1 Y346.499
G1 X116.199
G1 Y339.899
G1 X119.5
G1 Y333.299
G1 X116.199
G1 Y326.699
G1 X119.5
G1 Y320.098
G1 X116.199
G1 Y313.499
G1 X119.5
G1 Y306.898
G1 X116.199
G1 Y300.299
G1 X119.5
G1 Y293.699
; Layer Trayectorias_de_corte_1 Pass 9 of 9
G1 X116.199
G1 Y287.098
G1 X119.5
G1 Y280.499
G1 X116.199
G1 Y273.898
G1 X119.5
G1 Y267.299
G1 X116.199
G1 Y254.999
G1 X126.698
G1 Y258.299
G1 X133.299
G1 Y254.999
G1 X139.899
G1 Y258.299
G1 X146.498
G1 Y254.999
G1 X153.099
G1 Y258.299
G1 X159.698
G1 Y254.999
G1 X166.299
G1 Y258.299
G1 X172.899
G1 Y254.999
G1 X179.499
G1 Y258.299
G1 X186.099
G1 Y254.999
G1 X192.698
G1 Y258.299
G1 X199.299
G1 Y254.999
G1 X205.899
G1 Y258.299
G1 X212.499
G1 Y254.999
G1 X219.099
G1 Y258.299
G1 X225.7
G1 Y254.999
G1 X236.199
G1 Y258.299
G1 Y267.299
G1 X232.898
G1 Y273.898
G1 X236.199
G1 Y280.499
G1 X232.898
G1 Y287.098
G1 X236.199
G1 Y293.699
G1 X232.898
G1 Y300.299
G1 X236.199
G1 Y306.898
G1 X232.898
G1 Y313.499
G1 X236.199
G1 Y320.098
G1 X232.898
G1 Y326.699
G1 X236.199
G1 Y333.299
G1 X232.898
G1 Y339.899
G1 X236.199
G1 Y346.499
G1 X232.898
G1 Y353.098
G1 X236.199
G1 Y359.699
G1 X232.898
G1 Y366.298
G1 X236.199
G1 Y372.899
G1 X232.898
G1 Y379.499
G1 X236.199
G1 Y386.098
G1 X232.898
G1 Y392.699
G1 X236.199
G1 Y404.999
G1 X225.7
G1 Y401.699
G1 X219.099
G1 Y404.999
G1 X212.499
G1 Y401.699
G1 X205.899
G1 Y404.999
G1 X199.299
G1 Y401.699
G1 X192.698
G1 Y404.999
G1 X186.099
G1 Y401.699
G1 X179.499
G1 Y404.999
G1 X172.899
G1 Y401.699
G1 X166.299
G1 Y404.999
G1 X159.698
G1 Y401.699
G1 X153.099
G1 Y404.999
G1 X146.498
G1 Y401.699
G1 X139.899
G1 Y404.999
G1 X133.299
G1 Y401.699
G1 X126.698
G1 Y404.999
G1 X116.199
G1 Y392.699
G1 X119.5
G1 Y386.098
G1 X116.199
G1 Y379.499
G1 X119.5
G1 Y372.899
G1 X116.199
G1 Y366.298
G1 X119.5
G1 Y359.699
G1 X116.199
G1 Y353.098
G1 X119.5
G1 Y346.499
G1 X116.199
G1 Y339.899
G1 X119.5
G1 Y333.299
G1 X116.199
G1 Y326.699
G1 X119.5
G1 Y320.098
G1 X116.199
G1 Y313.499
G1 X119.5
G1 Y306.898
G1 X116.199
G1 Y300.299
G1 X119.5
G1 Y293.699
G0 X248.79Y296.616
; Layer Trayectorias_de_corte_1 Pass 1 of 9
G1 X252.09
G1 Y290.015
G1 X248.79
G1 Y283.416
G1 X252.09
G1 Y276.817
G1 X248.79
G1 Y270.216
G1 X252.09
G1 Y263.616
G1 X248.79
G1 Y257.016
G1 X252.09
G1 Y250.416
G1 X248.79
G1 Y243.817
G1 X252.09
G1 Y237.216
G1 X248.79
G1 Y230.617
G1 X252.09
G1 Y224.016
G1 X248.79
G1 Y213.616
G1 X252.09
G1 X263.894
G1 Y210.317
G1 X270.495
G1 Y213.616
G1 X277.094
G1 Y210.317
G1 X283.695
G1 Y213.616
G1 X290.295
G1 Y210.317
G1 X296.895
G1 Y213.616
G1 X303.495
G1 Y210.317
G1 X310.094
G1 Y213.616
G1 X316.695
G1 Y210.317
G1 X323.295
G1 Y213.616
G1 X329.897
G1 Y210.317
G1 X336.494
G1 Y213.616
G1 X343.095
G1 Y210.317
G1 X349.695
G1 Y213.616
G1 X356.295
G1 Y210.317
G1 X362.896
G1 Y213.616
G1 X369.496
G1 Y210.317
G1 X376.097
G1 Y213.616
G1 X391.199
G1 Y224.016
G1 X387.901
G1 Y230.616
G1 X391.199
G1 Y237.216
G1 X387.901
G1 Y243.817
G1 X391.199
G1 Y250.416
G1 X387.901
G1 Y257.016
G1 X391.199
G1 Y263.616
G1 X387.901
G1 Y270.216
G1 X391.199
G1 Y276.817
G1 X387.901
G1 Y283.416
G1 X391.199
G1 Y290.015
G1 X387.901
G1 Y296.616
G1 X391.199
G1 Y307.016
G1 X248.79
G1 Y296.616
; Layer Trayectorias_de_corte_1 Pass 2 of 9
G1 X252.09
G1 Y290.015
G1 X248.79
G1 Y283.416
G1 X252.09
G1 Y276.817
G1 X248.79
G1 Y270.216
G1 X252.09
G1 Y263.616
G1 X248.79
G1 Y257.016
G1 X252.09
G1 Y250.416
G1 X248.79
G1 Y243.817
G1 X252.09
G1 Y237.216
G1 X248.79
G1 Y230.617
G1 X252.09
G1 Y224.016
G1 X248.79
G1 Y213.616
G1 X252.09
G1 X263.894
G1 Y210.317
G1 X270.495
G1 Y213.616
G1 X277.094
G1 Y210.317
G1 X283.695
G1 Y213.616
G1 X290.295
G1 Y210.317
G1 X296.895
G1 Y213.616
G1 X303.495
G1 Y210.317
G1 X310.094
G1 Y213.616
G1 X316.695
G1 Y210.317
G1 X323.295
G1 Y213.616
G1 X329.897
G1 Y210.317
G1 X336.494
G1 Y213.616
G1 X343.095
G1 Y210.317
G1 X349.695
G1 Y213.616
G1 X356.295
G1 Y210.317
G1 X362.896
G1 Y213.616
G1 X369.496
G1 Y210.317
G1 X376.097
G1 Y213.616
G1 X391.199
G1 Y224.016
G1 X387.901
G1 Y230.616
G1 X391.199
G1 Y237.216
G1 X387.901
G1 Y243.817
G1 X391.199
G1 Y250.416
G1 X387.901
G1 Y257.016
G1 X391.199
G1 Y263.616
G1 X387.901
G1 Y270.216
G1 X391.199
G1 Y276.817
G1 X387.901
G1 Y283.416
G1 X391.199
G1 Y290.015
G1 X387.901
G1 Y296.616
G1 X391.199
G1 Y307.016
G1 X248.79
G1 Y296.616
; Layer Trayectorias_de_corte_1 Pass 3 of 9
G1 X252.09
G1 Y290.015
G1 X248.79
G1 Y283.416
G1 X252.09
G1 Y276.817
G1 X248.79
G1 Y270.216
G1 X252.09
G1 Y263.616
G1 X248.79
G1 Y257.016
G1 X252.09
G1 Y250.416
G1 X248.79
G1 Y243.817
G1 X252.09
G1 Y237.216
G1 X248.79
G1 Y230.617
G1 X252.09
G1 Y224.016
G1 X248.79
G1 Y213.616
G1 X252.09
G1 X263.894
G1 Y210.317
G1 X270.495
G1 Y213.616
G1 X277.094
G1 Y210.317
G1 X283.695
G1 Y213.616
G1 X290.295
G1 Y210.317
G1 X296.895
G1 Y213.616
G1 X303.495
G1 Y210.317
G1 X310.094
G1 Y213.616
G1 X316.695
G1 Y210.317
G1 X323.295
G1 Y213.616
G1 X329.897
G1 Y210.317
G1 X336.494
G1 Y213.616
G1 X343.095
G1 Y210.317
G1 X349.695
G1 Y213.616
G1 X356.295
G1 Y210.317
G1 X362.896
G1 Y213.616
G1 X369.496
G1 Y210.317
G1 X376.097
G1 Y213.616
G1 X391.199
G1 Y224.016
G1 X387.901
G1 Y230.616
G1 X391.199
G1 Y237.216
G1 X387.901
G1 Y243.817
G1 X391.199
G1 Y250.416
G1 X387.901
G1 Y257.016
G1 X391.199
G1 Y263.616
G1 X387.901
G1 Y270.216
G1 X391.199
G1 Y276.817
G1 X387.901
G1 Y283.416
G1 X391.199
G1 Y290.015
G1 X387.901
G1 Y296.616
G1 X391.199
G1 Y307.016
G1 X248.79
G1 Y296.616
; Layer Trayectorias_de_corte_1 Pass 4 of 9
G1 X252.09
G1 Y290.015
G1 X248.79
G1 Y283.416
G1 X252.09
G1 Y276.817
G1 X248.79
G1 Y270.216
G1 X252.09
G1 Y263.616
G1 X248.79
G1 Y257.016
G1 X252.09
G1 Y250.416
G1 X248.79
G1 Y243.817
G1 X252.09
G1 Y237.216
G1 X248.79
G1 Y230.617
G1 X252.09
G1 Y224.016
G1 X248.79
G1 Y213.616
G1 X252.09
G1 X263.894
G1 Y210.317
G1 X270.495
G1 Y213.616
G1 X277.094
G1 Y210.317
G1 X283.695
G1 Y213.616
G1 X290.295
G1 Y210.317
G1 X296.895
G1 Y213.616
G1 X303.495
G1 Y210.317
G1 X310.094
G1 Y213.616
G1 X316.695
G1 Y210.317
G1 X323.295
G1 Y213.616
G1 X329.897
G1 Y210.317
G1 X336.494
G1 Y213.616
G1 X343.095
G1 Y210.317
G1 X349.695
G1 Y213.616
G1 X356.295
G1 Y210.317
G1 X362.896
G1 Y213.616
G1 X369.496
G1 Y210.317
G1 X376.097
G1 Y213.616
G1 X391.199
G1 Y224.016
G1 X387.901
G1 Y230.616
G1 X391.199
G1 Y237.216
G1 X387.901
G1 Y243.817
G1 X391.199
G1 Y250.416
G1 X387.901
G1 Y257.016
G1 X391.199
G1 Y263.616
G1 X387.901
G1 Y270.216
G1 X391.199
G1 Y276.817
G1 X387.901
G1 Y283.416
G1 X391.199
G1 Y290.015
G1 X387.901
G1 Y296.616
G1 X391.199
G1 Y307.016
G1 X248.79
G1 Y296.616
; Layer Trayectorias_de_corte_1 Pass 5 of 9
G1 X252.09
G1 Y290.015
G1 X248.79
G1 Y283.416
G1 X252.09
G1 Y276.817
G1 X248.79
G1 Y270.216
G1 X252.09
G1 Y263.616
G1 X248.79
G1 Y257.016
G1 X252.09
G1 Y250.416
G1 X248.79
G1 Y243.817
G1 X252.09
G1 Y237.216
G1 X248.79
G1 Y230.617
G1 X252.09
G1 Y224.016
G1 X248.79
G1 Y213.616
G1 X252.09
G1 X263.894
G1 Y210.317
G1 X270.495
G1 Y213.616
G1 X277.094
G1 Y210.317
G1 X283.695
G1 Y213.616
G1 X290.295
G1 Y210.317
G1 X296.895
G1 Y213.616
G1 X303.495
G1 Y210.317
G1 X310.094
G1 Y213.616
G1 X316.695
G1 Y210.317
G1 X323.295
G1 Y213.616
G1 X329.897
G1 Y210.317
G1 X336.494
G1 Y213.616
G1 X343.095
G1 Y210.317
G1 X349.695
G1 Y213.616
G1 X356.295
G1 Y210.317
G1 X362.896
G1 Y213.616
G1 X369.496
G1 Y210.317
G1 X376.097
G1 Y213.616
G1 X391.199
G1 Y224.016
G1 X387.901
G1 Y230.616
G1 X391.199
G1 Y237.216
G1 X387.901
G1 Y243.817
G1 X391.199
G1 Y250.416
G1 X387.901
G1 Y257.016
G1 X391.199
G1 Y263.616
G1 X387.901
G1 Y270.216
G1 X391.199
G1 Y276.817
G1 X387.901
G1 Y283.416
G1 X391.199
G1 Y290.015
G1 X387.901
G1 Y296.616
G1 X391.199
G1 Y307.016
G1 X248.79
G1 Y296.616
; Layer Trayectorias_de_corte_1 Pass 6 of 9
G1 X252.09
G1 Y290.015
G1 X248.79
G1 Y283.416
G1 X252.09
G1 Y276.817
G1 X248.79
G1 Y270.216
G1 X252.09
G1 Y263.616
G1 X248.79
G1 Y257.016
G1 X252.09
G1 Y250.416
G1 X248.79
G1 Y243.817
G1 X252.09
G1 Y237.216
G1 X248.79
G1 Y230.617
G1 X252.09
G1 Y224.016
G1 X248.79
G1 Y213.616
G1 X252.09
G1 X263.894
G1 Y210.317
G1 X270.495
G1 Y213.616
G1 X277.094
G1 Y210.317
G1 X283.695
G1 Y213.616
G1 X290.295
G1 Y210.317
G1 X296.895
G1 Y213.616
G1 X303.495
G1 Y210.317
G1 X310.094
G1 Y213.616
G1 X316.695
G1 Y210.317
G1 X323.295
G1 Y213.616
G1 X329.897
G1 Y210.317
G1 X336.494
G1 Y213.616
G1 X343.095
G1 Y210.317
G1 X349.695
G1 Y213.616
G1 X356.295
G1 Y210.317
G1 X362.896
G1 Y213.616
G1 X369.496
G1 Y210.317
G1 X376.097
G1 Y213.616
G1 X391.199
G1 Y224.016
G1 X387.901
G1 Y230.616
G1 X391.199
G1 Y237.216
G1 X387.901
G1 Y243.817
G1 X391.199
G1 Y250.416
G1 X387.901
G1 Y257.016
G1 X391.199
G1 Y263.616
G1 X387.901
G1 Y270.216
G1 X391.199
G1 Y276.817
G1 X387.901
G1 Y283.416
G1 X391.199
G1 Y290.015
G1 X387.901
G1 Y296.616
G1 X391.199
G1 Y307.016
G1 X248.79
G1 Y296.616
; Layer Trayectorias_de_corte_1 Pass 7 of 9
G1 X252.09
G1 Y290.015
G1 X248.79
G1 Y283.416
G1 X252.09
G1 Y276.817
G1 X248.79
G1 Y270.216
G1 X252.09
G1 Y263.616
G1 X248.79
G1 Y257.016
G1 X252.09
G1 Y250.416
G1 X248.79
G1 Y243.817
G1 X252.09
G1 Y237.216
G1 X248.79
G1 Y230.617
G1 X252.09
G1 Y224.016
G1 X248.79
G1 Y213.616
G1 X252.09
G1 X263.894
G1 Y210.317
G1 X270.495
G1 Y213.616
G1 X277.094
G1 Y210.317
G1 X283.695
G1 Y213.616
G1 X290.295
G1 Y210.317
G1 X296.895
G1 Y213.616
G1 X303.495
G1 Y210.317
G1 X310.094
G1 Y213.616
G1 X316.695
G1 Y210.317
G1 X323.295
G1 Y213.616
G1 X329.897
G1 Y210.317
G1 X336.494
G1 Y213.616
G1 X343.095
G1 Y210.317
G1 X349.695
G1 Y213.616
G1 X356.295
G1 Y210.317
G1 X362.896
G1 Y213.616
G1 X369.496
G1 Y210.317
G1 X376.097
G1 Y213.616
G1 X391.199
G1 Y224.016
G1 X387.901
G1 Y230.616
G1 X391.199
G1 Y237.216
G1 X387.901
G1 Y243.817
G1 X391.199
G1 Y250.416
G1 X387.901
G1 Y257.016
G1 X391.199
G1 Y263.616
G1 X387.901
G1 Y270.216
G1 X391.199
G1 Y276.817
G1 X387.901
G1 Y283.416
G1 X391.199
G1 Y290.015
G1 X387.901
G1 Y296.616
G1 X391.199
G1 Y307.016
G1 X248.79
G1 Y296.616
; Layer Trayectorias_de_corte_1 Pass 8 of 9
G1 X252.09
G1 Y290.015
G1 X248.79
G1 Y283.416
G1 X252.09
G1 Y276.817
G1 X248.79
G1 Y270.216
G1 X252.09
G1 Y263.616
G1 X248.79
G1 Y257.016
G1 X252.09
G1 Y250.416
G1 X248.79
G1 Y243.817
G1 X252.09
G1 Y237.216
G1 X248.79
G1 Y230.617
G1 X252.09
G1 Y224.016
G1 X248.79
G1 Y213.616
G1 X252.09
G1 X263.894
G1 Y210.317
G1 X270.495
G1 Y213.616
G1 X277.094
G1 Y210.317
G1 X283.695
G1 Y213.616
G1 X290.295
G1 Y210.317
G1 X296.895
G1 Y213.616
G1 X303.495
G1 Y210.317
G1 X310.094
G1 Y213.616
G1 X316.695
G1 Y210.317
G1 X323.295
G1 Y213.616
G1 X329.897
G1 Y210.317
G1 X336.494
G1 Y213.616
G1 X343.095
G1 Y210.317
G1 X349.695
G1 Y213.616
G1 X356.295
G1 Y210.317
G1 X362.896
G1 Y213.616
G1 X369.496
G1 Y210.317
G1 X376.097
G1 Y213.616
G1 X391.199
G1 Y224.016
G1 X387.901
G1 Y230.616
G1 X391.199
G1 Y237.216
G1 X387.901
G1 Y243.817
G1 X391.199
G1 Y250.416
G1 X387.901
G1 Y257.016
G1 X391.199
G1 Y263.616
G1 X387.901
G1 Y270.216
G1 X391.199
G1 Y276.817
G1 X387.901
G1 Y283.416
G1 X391.199
G1 Y290.015
G1 X387.901
G1 Y296.616
G1 X391.199
G1 Y307.016
G1 X248.79
G1 Y296.616
; Layer Trayectorias_de_corte_1 Pass 9 of 9
G1 X252.09
G1 Y290.015
G1 X248.79
G1 Y283.416
G1 X252.09
G1 Y276.817
G1 X248.79
G1 Y270.216
G1 X252.09
G1 Y263.616
G1 X248.79
G1 Y257.016
G1 X252.09
G1 Y250.416
G1 X248.79
G1 Y243.817
G1 X252.09
G1 Y237.216
G1 X248.79
G1 Y230.617
G1 X252.09
G1 Y224.016
G1 X248.79
G1 Y213.616
G1 X252.09
G1 X263.894
G1 Y210.317
G1 X270.495
G1 Y213.616
G1 X277.094
G1 Y210.317
G1 X283.695
G1 Y213.616
G1 X290.295
G1 Y210.317
G1 X296.895
G1 Y213.616
G1 X303.495
G1 Y210.317
G1 X310.094
G1 Y213.616
G1 X316.695
G1 Y210.317
G1 X323.295
G1 Y213.616
G1 X329.897
G1 Y210.317
G1 X336.494
G1 Y213.616
G1 X343.095
G1 Y210.317
G1 X349.695
G1 Y213.616
G1 X356.295
G1 Y210.317
G1 X362.896
G1 Y213.616
G1 X369.496
G1 Y210.317
G1 X376.097
G1 Y213.616
G1 X391.199
G1 Y224.016
G1 X387.901
G1 Y230.616
G1 X391.199
G1 Y237.216
G1 X387.901
G1 Y243.817
G1 X391.199
G1 Y250.416
G1 X387.901
G1 Y257.016
G1 X391.199
G1 Y263.616
G1 X387.901
G1 Y270.216
G1 X391.199
G1 Y276.817
G1 X387.901
G1 Y283.416
G1 X391.199
G1 Y290.015
G1 X387.901
G1 Y296.616
G1 X391.199
G1 Y307.016
G1 X248.79
G1 Y296.616
G0 X260.098Y313.795
; Layer Trayectorias_de_corte_1 Pass 1 of 9
G1 Y317.094
G1 X266.699
G1 Y313.795
G1 X263.398
G1 X260.098
; Layer Trayectorias_de_corte_1 Pass 2 of 9
G1 Y317.094
G1 X266.699
G1 Y313.795
G1 X263.398
G1 X260.098
; Layer Trayectorias_de_corte_1 Pass 3 of 9
G1 Y317.094
G1 X266.699
G1 Y313.795
G1 X263.398
G1 X260.098
; Layer Trayectorias_de_corte_1 Pass 4 of 9
G1 Y317.094
G1 X266.699
G1 Y313.795
G1 X263.398
G1 X260.098
; Layer Trayectorias_de_corte_1 Pass 5 of 9
G1 Y317.094
G1 X266.699
G1 Y313.795
G1 X263.398
G1 X260.098
; Layer Trayectorias_de_corte_1 Pass 6 of 9
G1 Y317.094
G1 X266.699
G1 Y313.795
G1 X263.398
G1 X260.098
; Layer Trayectorias_de_corte_1 Pass 7 of 9
G1 Y317.094
G1 X266.699
G1 Y313.795
G1 X263.398
G1 X260.098
; Layer Trayectorias_de_corte_1 Pass 8 of 9
G1 Y317.094
G1 X266.699
G1 Y313.795
G1 X263.398
G1 X260.098
; Layer Trayectorias_de_corte_1 Pass 9 of 9
G1 Y317.094
G1 X266.699
G1 Y313.795
G1 X263.398
G1 X260.098
G0 X273.298Y313.795
; Layer Trayectorias_de_corte_1 Pass 1 of 9
G1 Y317.094
G1 X279.899
G1 Y313.795
G1 X276.598
G1 X273.298
; Layer Trayectorias_de_corte_1 Pass 2 of 9
G1 Y317.094
G1 X279.899
G1 Y313.795
G1 X276.598
G1 X273.298
; Layer Trayectorias_de_corte_1 Pass 3 of 9
G1 Y317.094
G1 X279.899
G1 Y313.795
G1 X276.598
G1 X273.298
; Layer Trayectorias_de_corte_1 Pass 4 of 9
G1 Y317.094
G1 X279.899
G1 Y313.795
G1 X276.598
G1 X273.298
; Layer Trayectorias_de_corte_1 Pass 5 of 9
G1 Y317.094
G1 X279.899
G1 Y313.795
G1 X276.598
G1 X273.298
; Layer Trayectorias_de_corte_1 Pass 6 of 9
G1 Y317.094
G1 X279.899
G1 Y313.795
G1 X276.598
G1 X273.298
; Layer Trayectorias_de_corte_1 Pass 7 of 9
G1 Y317.094
G1 X279.899
G1 Y313.795
G1 X276.598
G1 X273.298
; Layer Trayectorias_de_corte_1 Pass 8 of 9
G1 Y317.094
G1 X279.899
G1 Y313.795
G1 X276.598
G1 X273.298
; Layer Trayectorias_de_corte_1 Pass 9 of 9
G1 Y317.094
G1 X279.899
G1 Y313.795
G1 X276.598
G1 X273.298
G0 X286.498Y313.795
; Layer Trayectorias_de_corte_1 Pass 1 of 9
G1 Y317.094
G1 X293.098
G1 Y313.795
G1 X289.798
G1 X286.498
; Layer Trayectorias_de_corte_1 Pass 2 of 9
G1 Y317.094
G1 X293.098
G1 Y313.795
G1 X289.798
G1 X286.498
; Layer Trayectorias_de_corte_1 Pass 3 of 9
G1 Y317.094
G1 X293.098
G1 Y313.795
G1 X289.798
G1 X286.498
; Layer Trayectorias_de_corte_1 Pass 4 of 9
G1 Y317.094
G1 X293.098
G1 Y313.795
G1 X289.798
G1 X286.498
; Layer Trayectorias_de_corte_1 Pass 5 of 9
G1 Y317.094
G1 X293.098
G1 Y313.795
G1 X289.798
G1 X286.498
; Layer Trayectorias_de_corte_1 Pass 6 of 9
G1 Y317.094
G1 X293.098
G1 Y313.795
G1 X289.798
G1 X286.498
; Layer Trayectorias_de_corte_1 Pass 7 of 9
G1 Y317.094
G1 X293.098
G1 Y313.795
G1 X289.798
G1 X286.498
; Layer Trayectorias_de_corte_1 Pass 8 of 9
G1 Y317.094
G1 X293.098
G1 Y313.795
G1 X289.798
G1 X286.498
; Layer Trayectorias_de_corte_1 Pass 9 of 9
G1 Y317.094
G1 X293.098
G1 Y313.795
G1 X289.798
G1 X286.498
G0 X299.698Y313.795
; Layer Trayectorias_de_corte_1 Pass 1 of 9
G1 Y317.094
G1 X306.298
G1 Y313.795
G1 X302.997
G1 X299.698
; Layer Trayectorias_de_corte_1 Pass 2 of 9
G1 Y317.094
G1 X306.298
G1 Y313.795
G1 X302.997
G1 X299.698
; Layer Trayectorias_de_corte_1 Pass 3 of 9
G1 Y317.094
G1 X306.298
G1 Y313.795
G1 X302.997
G1 X299.698
; Layer Trayectorias_de_corte_1 Pass 4 of 9
G1 Y317.094
G1 X306.298
G1 Y313.795
G1 X302.997
G1 X299.698
; Layer Trayectorias_de_corte_1 Pass 5 of 9
G1 Y317.094
G1 X306.298
G1 Y313.795
G1 X302.997
G1 X299.698
; Layer Trayectorias_de_corte_1 Pass 6 of 9
G1 Y317.094
G1 X306.298
G1 Y313.795
G1 X302.997
G1 X299.698
; Layer Trayectorias_de_corte_1 Pass 7 of 9
G1 Y317.094
G1 X306.298
G1 Y313.795
G1 X302.997
G1 X299.698
; Layer Trayectorias_de_corte_1 Pass 8 of 9
G1 Y317.094
G1 X306.298
G1 Y313.795
G1 X302.997
G1 X299.698
; Layer Trayectorias_de_corte_1 Pass 9 of 9
G1 Y317.094
G1 X306.298
G1 Y313.795
G1 X302.997
G1 X299.698
G0 X312.899Y313.795
; Layer Trayectorias_de_corte_1 Pass 1 of 9
G1 Y317.094
G1 X319.498
G1 Y313.795
G1 X316.198
G1 X312.899
; Layer Trayectorias_de_corte_1 Pass 2 of 9
G1 Y317.094
G1 X319.498
G1 Y313.795
G1 X316.198
G1 X312.899
; Layer Trayectorias_de_corte_1 Pass 3 of 9
G1 Y317.094
G1 X319.498
G1 Y313.795
G1 X316.198
G1 X312.899
; Layer Trayectorias_de_corte_1 Pass 4 of 9
G1 Y317.094
G1 X319.498
G1 Y313.795
G1 X316.198
G1 X312.899
; Layer Trayectorias_de_corte_1 Pass 5 of 9
G1 Y317.094
G1 X319.498
G1 Y313.795
G1 X316.198
G1 X312.899
; Layer Trayectorias_de_corte_1 Pass 6 of 9
G1 Y317.094
G1 X319.498
G1 Y313.795
G1 X316.198
G1 X312.899
; Layer Trayectorias_de_corte_1 Pass 7 of 9
G1 Y317.094
G1 X319.498
G1 Y313.795
G1 X316.198
G1 X312.899
; Layer Trayectorias_de_corte_1 Pass 8 of 9
G1 Y317.094
G1 X319.498
G1 Y313.795
G1 X316.198
G1 X312.899
; Layer Trayectorias_de_corte_1 Pass 9 of 9
G1 Y317.094
G1 X319.498
G1 Y313.795
G1 X316.198
G1 X312.899
G0 X326.098Y313.795
; Layer Trayectorias_de_corte_1 Pass 1 of 9
G1 Y317.094
G1 X332.699
G1 Y313.795
G1 X329.398
G1 X326.098
; Layer Trayectorias_de_corte_1 Pass 2 of 9
G1 Y317.094
G1 X332.699
G1 Y313.795
G1 X329.398
G1 X326.098
; Layer Trayectorias_de_corte_1 Pass 3 of 9
G1 Y317.094
G1 X332.699
G1 Y313.795
G1 X329.398
G1 X326.098
; Layer Trayectorias_de_corte_1 Pass 4 of 9
G1 Y317.094
G1 X332.699
G1 Y313.795
G1 X329.398
G1 X326.098
; Layer Trayectorias_de_corte_1 Pass 5 of 9
G1 Y317.094
G1 X332.699
G1 Y313.795
G1 X329.398
G1 X326.098
; Layer Trayectorias_de_corte_1 Pass 6 of 9
G1 Y317.094
G1 X332.699
G1 Y313.795
G1 X329.398
G1 X326.098
; Layer Trayectorias_de_corte_1 Pass 7 of 9
G1 Y317.094
G1 X332.699
G1 Y313.795
G1 X329.398
G1 X326.098
; Layer Trayectorias_de_corte_1 Pass 8 of 9
G1 Y317.094
G1 X332.699
G1 Y313.795
G1 X329.398
G1 X326.098
; Layer Trayectorias_de_corte_1 Pass 9 of 9
G1 Y317.094
G1 X332.699
G1 Y313.795
G1 X329.398
G1 X326.098
G0 X339.298Y313.795
; Layer Trayectorias_de_corte_1 Pass 1 of 9
G1 Y317.094
G1 X345.899
G1 Y313.795
G1 X342.598
G1 X339.298
; Layer Trayectorias_de_corte_1 Pass 2 of 9
G1 Y317.094
G1 X345.899
G1 Y313.795
G1 X342.598
G1 X339.298
; Layer Trayectorias_de_corte_1 Pass 3 of 9
G1 Y317.094
G1 X345.899
G1 Y313.795
G1 X342.598
G1 X339.298
; Layer Trayectorias_de_corte_1 Pass 4 of 9
G1 Y317.094
G1 X345.899
G1 Y313.795
G1 X342.598
G1 X339.298
; Layer Trayectorias_de_corte_1 Pass 5 of 9
G1 Y317.094
G1 X345.899
G1 Y313.795
G1 X342.598
G1 X339.298
; Layer Trayectorias_de_corte_1 Pass 6 of 9
G1 Y317.094
G1 X345.899
G1 Y313.795
G1 X342.598
G1 X339.298
; Layer Trayectorias_de_corte_1 Pass 7 of 9
G1 Y317.094
G1 X345.899
G1 Y313.795
G1 X342.598
G1 X339.298
; Layer Trayectorias_de_corte_1 Pass 8 of 9
G1 Y317.094
G1 X345.899
G1 Y313.795
G1 X342.598
G1 X339.298
; Layer Trayectorias_de_corte_1 Pass 9 of 9
G1 Y317.094
G1 X345.899
G1 Y313.795
G1 X342.598
G1 X339.298
G0 X352.498Y313.795
; Layer Trayectorias_de_corte_1 Pass 1 of 9
G1 Y317.094
G1 X359.099
G1 Y313.795
G1 X355.798
G1 X352.498
; Layer Trayectorias_de_corte_1 Pass 2 of 9
G1 Y317.094
G1 X359.099
G1 Y313.795
G1 X355.798
G1 X352.498
; Layer Trayectorias_de_corte_1 Pass 3 of 9
G1 Y317.094
G1 X359.099
G1 Y313.795
G1 X355.798
G1 X352.498
; Layer Trayectorias_de_corte_1 Pass 4 of 9
G1 Y317.094
G1 X359.099
G1 Y313.795
G1 X355.798
G1 X352.498
; Layer Trayectorias_de_corte_1 Pass 5 of 9
G1 Y317.094
G1 X359.099
G1 Y313.795
G1 X355.798
G1 X352.498
; Layer Trayectorias_de_corte_1 Pass 6 of 9
G1 Y317.094
G1 X359.099
G1 Y313.795
G1 X355.798
G1 X352.498
; Layer Trayectorias_de_corte_1 Pass 7 of 9
G1 Y317.094
G1 X359.099
G1 Y313.795
G1 X355.798
G1 X352.498
; Layer Trayectorias_de_corte_1 Pass 8 of 9
G1 Y317.094
G1 X359.099
G1 Y313.795
G1 X355.798
G1 X352.498
; Layer Trayectorias_de_corte_1 Pass 9 of 9
G1 Y317.094
G1 X359.099
G1 Y313.795
G1 X355.798
G1 X352.498
G0 X365.698Y313.795
; Layer Trayectorias_de_corte_1 Pass 1 of 9
G1 Y317.094
G1 X372.298
G1 Y313.795
G1 X368.999
G1 X365.698
; Layer Trayectorias_de_corte_1 Pass 2 of 9
G1 Y317.094
G1 X372.298
G1 Y313.795
G1 X368.999
G1 X365.698
; Layer Trayectorias_de_corte_1 Pass 3 of 9
G1 Y317.094
G1 X372.298
G1 Y313.795
G1 X368.999
G1 X365.698
; Layer Trayectorias_de_corte_1 Pass 4 of 9
G1 Y317.094
G1 X372.298
G1 Y313.795
G1 X368.999
G1 X365.698
; Layer Trayectorias_de_corte_1 Pass 5 of 9
G1 Y317.094
G1 X372.298
G1 Y313.795
G1 X368.999
G1 X365.698
; Layer Trayectorias_de_corte_1 Pass 6 of 9
G1 Y317.094
G1 X372.298
G1 Y313.795
G1 X368.999
G1 X365.698
; Layer Trayectorias_de_corte_1 Pass 7 of 9
G1 Y317.094
G1 X372.298
G1 Y313.795
G1 X368.999
G1 X365.698
; Layer Trayectorias_de_corte_1 Pass 8 of 9
G1 Y317.094
G1 X372.298
G1 Y313.795
G1 X368.999
G1 X365.698
; Layer Trayectorias_de_corte_1 Pass 9 of 9
G1 Y317.094
G1 X372.298
G1 Y313.795
G1 X368.999
G1 X365.698
G0 X384.103Y327.1
; Layer Trayectorias_de_corte_1 Pass 1 of 9
G1 Y333.7
G1 X387.402
G1 Y330.4
G1 Y327.1
G1 X384.103
; Layer Trayectorias_de_corte_1 Pass 2 of 9
G1 Y333.7
G1 X387.402
G1 Y330.4
G1 Y327.1
G1 X384.103
; Layer Trayectorias_de_corte_1 Pass 3 of 9
G1 Y333.7
G1 X387.402
G1 Y330.4
G1 Y327.1
G1 X384.103
; Layer Trayectorias_de_corte_1 Pass 4 of 9
G1 Y333.7
G1 X387.402
G1 Y330.4
G1 Y327.1
G1 X384.103
; Layer Trayectorias_de_corte_1 Pass 5 of 9
G1 Y333.7
G1 X387.402
G1 Y330.4
G1 Y327.1
G1 X384.103
; Layer Trayectorias_de_corte_1 Pass 6 of 9
G1 Y333.7
G1 X387.402
G1 Y330.4
G1 Y327.1
G1 X384.103
; Layer Trayectorias_de_corte_1 Pass 7 of 9
G1 Y333.7
G1 X387.402
G1 Y330.4
G1 Y327.1
G1 X384.103
; Layer Trayectorias_de_corte_1 Pass 8 of 9
G1 Y333.7
G1 X387.402
G1 Y330.4
G1 Y327.1
G1 X384.103
; Layer Trayectorias_de_corte_1 Pass 9 of 9
G1 Y333.7
G1 X387.402
G1 Y330.4
G1 Y327.1
G1 X384.103
G0 X384.103Y340.299
; Layer Trayectorias_de_corte_1 Pass 1 of 9
G1 Y346.9
G1 X387.402
G1 Y343.6
G1 Y340.299
G1 X384.103
; Layer Trayectorias_de_corte_1 Pass 2 of 9
G1 Y346.9
G1 X387.402
G1 Y343.6
G1 Y340.299
G1 X384.103
; Layer Trayectorias_de_corte_1 Pass 3 of 9
G1 Y346.9
G1 X387.402
G1 Y343.6
G1 Y340.299
G1 X384.103
; Layer Trayectorias_de_corte_1 Pass 4 of 9
G1 Y346.9
G1 X387.402
G1 Y343.6
G1 Y340.299
G1 X384.103
; Layer Trayectorias_de_corte_1 Pass 5 of 9
G1 Y346.9
G1 X387.402
G1 Y343.6
G1 Y340.299
G1 X384.103
; Layer Trayectorias_de_corte_1 Pass 6 of 9
G1 Y346.9
G1 X387.402
G1 Y343.6
G1 Y340.299
G1 X384.103
; Layer Trayectorias_de_corte_1 Pass 7 of 9
G1 Y346.9
G1 X387.402
G1 Y343.6
G1 Y340.299
G1 X384.103
; Layer Trayectorias_de_corte_1 Pass 8 of 9
G1 Y346.9
G1 X387.402
G1 Y343.6
G1 Y340.299
G1 X384.103
; Layer Trayectorias_de_corte_1 Pass 9 of 9
G1 Y346.9
G1 X387.402
G1 Y343.6
G1 Y340.299
G1 X384.103
G0 X384.103Y353.499
; Layer Trayectorias_de_corte_1 Pass 1 of 9
G1 Y360.1
G1 X387.402
G1 Y356.8
G1 Y353.499
G1 X384.103
; Layer Trayectorias_de_corte_1 Pass 2 of 9
G1 Y360.1
G1 X387.402
G1 Y356.8
G1 Y353.499
G1 X384.103
; Layer Trayectorias_de_corte_1 Pass 3 of 9
G1 Y360.1
G1 X387.402
G1 Y356.8
G1 Y353.499
G1 X384.103
; Layer Trayectorias_de_corte_1 Pass 4 of 9
G1 Y360.1
G1 X387.402
G1 Y356.8
G1 Y353.499
G1 X384.103
; Layer Trayectorias_de_corte_1 Pass 5 of 9
G1 Y360.1
G1 X387.402
G1 Y356.8
G1 Y353.499
G1 X384.103
; Layer Trayectorias_de_corte_1 Pass 6 of 9
G1 Y360.1
G1 X387.402
G1 Y356.8
G1 Y353.499
G1 X384.103
; Layer Trayectorias_de_corte_1 Pass 7 of 9
G1 Y360.1
G1 X387.402
G1 Y356.8
G1 Y353.499
G1 X384.103
; Layer Trayectorias_de_corte_1 Pass 8 of 9
G1 Y360.1
G1 X387.402
G1 Y356.8
G1 Y353.499
G1 X384.103
; Layer Trayectorias_de_corte_1 Pass 9 of 9
G1 Y360.1
G1 X387.402
G1 Y356.8
G1 Y353.499
G1 X384.103
G0 X384.103Y366.7
; Layer Trayectorias_de_corte_1 Pass 1 of 9
G1 Y373.3
G1 X387.402
G1 Y370
G1 Y366.7
G1 X384.103
; Layer Trayectorias_de_corte_1 Pass 2 of 9
G1 Y373.3
G1 X387.402
G1 Y370
G1 Y366.7
G1 X384.103
; Layer Trayectorias_de_corte_1 Pass 3 of 9
G1 Y373.3
G1 X387.402
G1 Y370
G1 Y366.7
G1 X384.103
; Layer Trayectorias_de_corte_1 Pass 4 of 9
G1 Y373.3
G1 X387.402
G1 Y370
G1 Y366.7
G1 X384.103
; Layer Trayectorias_de_corte_1 Pass 5 of 9
G1 Y373.3
G1 X387.402
G1 Y370
G1 Y366.7
G1 X384.103
; Layer Trayectorias_de_corte_1 Pass 6 of 9
G1 Y373.3
G1 X387.402
G1 Y370
G1 Y366.7
G1 X384.103
; Layer Trayectorias_de_corte_1 Pass 7 of 9
G1 Y373.3
G1 X387.402
G1 Y370
G1 Y366.7
G1 X384.103
; Layer Trayectorias_de_corte_1 Pass 8 of 9
G1 Y373.3
G1 X387.402
G1 Y370
G1 Y366.7
G1 X384.103
; Layer Trayectorias_de_corte_1 Pass 9 of 9
G1 Y373.3
G1 X387.402
G1 Y370
G1 Y366.7
G1 X384.103
G0 X384.103Y379.9
; Layer Trayectorias_de_corte_1 Pass 1 of 9
G1 Y386.499
G1 X387.402
G1 Y383.2
G1 Y379.9
G1 X384.103
; Layer Trayectorias_de_corte_1 Pass 2 of 9
G1 Y386.499
G1 X387.402
G1 Y383.2
G1 Y379.9
G1 X384.103
; Layer Trayectorias_de_corte_1 Pass 3 of 9
G1 Y386.499
G1 X387.402
G1 Y383.2
G1 Y379.9
G1 X384.103
; Layer Trayectorias_de_corte_1 Pass 4 of 9
G1 Y386.499
G1 X387.402
G1 Y383.2
G1 Y379.9
G1 X384.103
; Layer Trayectorias_de_corte_1 Pass 5 of 9
G1 Y386.499
G1 X387.402
G1 Y383.2
G1 Y379.9
G1 X384.103
; Layer Trayectorias_de_corte_1 Pass 6 of 9
G1 Y386.499
G1 X387.402
G1 Y383.2
G1 Y379.9
G1 X384.103
; Layer Trayectorias_de_corte_1 Pass 7 of 9
G1 Y386.499
G1 X387.402
G1 Y383.2
G1 Y379.9
G1 X384.103
; Layer Trayectorias_de_corte_1 Pass 8 of 9
G1 Y386.499
G1 X387.402
G1 Y383.2
G1 Y379.9
G1 X384.103
; Layer Trayectorias_de_corte_1 Pass 9 of 9
G1 Y386.499
G1 X387.402
G1 Y383.2
G1 Y379.9
G1 X384.103
G0 X384.103Y393.1
; Layer Trayectorias_de_corte_1 Pass 1 of 9
G1 Y399.7
G1 X387.402
G1 Y396.4
G1 Y393.1
G1 X384.103
; Layer Trayectorias_de_corte_1 Pass 2 of 9
G1 Y399.7
G1 X387.402
G1 Y396.4
G1 Y393.1
G1 X384.103
; Layer Trayectorias_de_corte_1 Pass 3 of 9
G1 Y399.7
G1 X387.402
G1 Y396.4
G1 Y393.1
G1 X384.103
; Layer Trayectorias_de_corte_1 Pass 4 of 9
G1 Y399.7
G1 X387.402
G1 Y396.4
G1 Y393.1
G1 X384.103
; Layer Trayectorias_de_corte_1 Pass 5 of 9
G1 Y399.7
G1 X387.402
G1 Y396.4
G1 Y393.1
G1 X384.103
; Layer Trayectorias_de_corte_1 Pass 6 of 9
G1 Y399.7
G1 X387.402
G1 Y396.4
G1 Y393.1
G1 X384.103
; Layer Trayectorias_de_corte_1 Pass 7 of 9
G1 Y399.7
G1 X387.402
G1 Y396.4
G1 Y393.1
G1 X384.103
; Layer Trayectorias_de_corte_1 Pass 8 of 9
G1 Y399.7
G1 X387.402
G1 Y396.4
G1 Y393.1
G1 X384.103
; Layer Trayectorias_de_corte_1 Pass 9 of 9
G1 Y399.7
G1 X387.402
G1 Y396.4
G1 Y393.1
G1 X384.103
G0 X384.103Y406.3
; Layer Trayectorias_de_corte_1 Pass 1 of 9
G1 Y412.9
G1 X387.402
G1 Y409.6
G1 Y406.3
G1 X384.103
; Layer Trayectorias_de_corte_1 Pass 2 of 9
G1 Y412.9
G1 X387.402
G1 Y409.6
G1 Y406.3
G1 X384.103
; Layer Trayectorias_de_corte_1 Pass 3 of 9
G1 Y412.9
G1 X387.402
G1 Y409.6
G1 Y406.3
G1 X384.103
; Layer Trayectorias_de_corte_1 Pass 4 of 9
G1 Y412.9
G1 X387.402
G1 Y409.6
G1 Y406.3
G1 X384.103
; Layer Trayectorias_de_corte_1 Pass 5 of 9
G1 Y412.9
G1 X387.402
G1 Y409.6
G1 Y406.3
G1 X384.103
; Layer Trayectorias_de_corte_1 Pass 6 of 9
G1 Y412.9
G1 X387.402
G1 Y409.6
G1 Y406.3
G1 X384.103
; Layer Trayectorias_de_corte_1 Pass 7 of 9
G1 Y412.9
G1 X387.402
G1 Y409.6
G1 Y406.3
G1 X384.103
; Layer Trayectorias_de_corte_1 Pass 8 of 9
G1 Y412.9
G1 X387.402
G1 Y409.6
G1 Y406.3
G1 X384.103
; Layer Trayectorias_de_corte_1 Pass 9 of 9
G1 Y412.9
G1 X387.402
G1 Y409.6
G1 Y406.3
G1 X384.103
G0 X372.298Y422.904
; Layer Trayectorias_de_corte_1 Pass 1 of 9
G1 X365.698
G1 Y426.205
G1 X368.999
G1 X372.298
G1 Y422.904
; Layer Trayectorias_de_corte_1 Pass 2 of 9
G1 X365.698
G1 Y426.205
G1 X368.999
G1 X372.298
G1 Y422.904
; Layer Trayectorias_de_corte_1 Pass 3 of 9
G1 X365.698
G1 Y426.205
G1 X368.999
G1 X372.298
G1 Y422.904
; Layer Trayectorias_de_corte_1 Pass 4 of 9
G1 X365.698
G1 Y426.205
G1 X368.999
G1 X372.298
G1 Y422.904
; Layer Trayectorias_de_corte_1 Pass 5 of 9
G1 X365.698
G1 Y426.205
G1 X368.999
G1 X372.298
G1 Y422.904
; Layer Trayectorias_de_corte_1 Pass 6 of 9
G1 X365.698
G1 Y426.205
G1 X368.999
G1 X372.298
G1 Y422.904
; Layer Trayectorias_de_corte_1 Pass 7 of 9
G1 X365.698
G1 Y426.205
G1 X368.999
G1 X372.298
G1 Y422.904
; Layer Trayectorias_de_corte_1 Pass 8 of 9
G1 X365.698
G1 Y426.205
G1 X368.999
G1 X372.298
G1 Y422.904
; Layer Trayectorias_de_corte_1 Pass 9 of 9
G1 X365.698
G1 Y426.205
G1 X368.999
G1 X372.298
G1 Y422.904
G0 X359.099Y422.904
; Layer Trayectorias_de_corte_1 Pass 1 of 9
G1 X352.498
G1 Y426.205
G1 X355.798
G1 X359.099
G1 Y422.904
; Layer Trayectorias_de_corte_1 Pass 2 of 9
G1 X352.498
G1 Y426.205
G1 X355.798
G1 X359.099
G1 Y422.904
; Layer Trayectorias_de_corte_1 Pass 3 of 9
G1 X352.498
G1 Y426.205
G1 X355.798
G1 X359.099
G1 Y422.904
; Layer Trayectorias_de_corte_1 Pass 4 of 9
G1 X352.498
G1 Y426.205
G1 X355.798
G1 X359.099
G1 Y422.904
; Layer Trayectorias_de_corte_1 Pass 5 of 9
G1 X352.498
G1 Y426.205
G1 X355.798
G1 X359.099
G1 Y422.904
; Layer Trayectorias_de_corte_1 Pass 6 of 9
G1 X352.498
G1 Y426.205
G1 X355.798
G1 X359.099
G1 Y422.904
; Layer Trayectorias_de_corte_1 Pass 7 of 9
G1 X352.498
G1 Y426.205
G1 X355.798
G1 X359.099
G1 Y422.904
; Layer Trayectorias_de_corte_1 Pass 8 of 9
G1 X352.498
G1 Y426.205
G1 X355.798
G1 X359.099
G1 Y422.904
; Layer Trayectorias_de_corte_1 Pass 9 of 9
G1 X352.498
G1 Y426.205
G1 X355.798
G1 X359.099
G1 Y422.904
G0 X345.899Y422.904
; Layer Trayectorias_de_corte_1 Pass 1 of 9
G1 X339.298
G1 Y426.205
G1 X342.598
G1 X345.899
G1 Y422.904
; Layer Trayectorias_de_corte_1 Pass 2 of 9
G1 X339.298
G1 Y426.205
G1 X342.598
G1 X345.899
G1 Y422.904
; Layer Trayectorias_de_corte_1 Pass 3 of 9
G1 X339.298
G1 Y426.205
G1 X342.598
G1 X345.899
G1 Y422.904
; Layer Trayectorias_de_corte_1 Pass 4 of 9
G1 X339.298
G1 Y426.205
G1 X342.598
G1 X345.899
G1 Y422.904
; Layer Trayectorias_de_corte_1 Pass 5 of 9
G1 X339.298
G1 Y426.205
G1 X342.598
G1 X345.899
G1 Y422.904
; Layer Trayectorias_de_corte_1 Pass 6 of 9
G1 X339.298
G1 Y426.205
G1 X342.598
G1 X345.899
G1 Y422.904
; Layer Trayectorias_de_corte_1 Pass 7 of 9
G1 X339.298
G1 Y426.205
G1 X342.598
G1 X345.899
G1 Y422.904
; Layer Trayectorias_de_corte_1 Pass 8 of 9
G1 X339.298
G1 Y426.205
G1 X342.598
G1 X345.899
G1 Y422.904
; Layer Trayectorias_de_corte_1 Pass 9 of 9
G1 X339.298
G1 Y426.205
G1 X342.598
G1 X345.899
G1 Y422.904
G0 X332.699Y422.904
; Layer Trayectorias_de_corte_1 Pass 1 of 9
G1 X326.098
G1 Y426.205
G1 X329.398
G1 X332.699
G1 Y422.904
; Layer Trayectorias_de_corte_1 Pass 2 of 9
G1 X326.098
G1 Y426.205
G1 X329.398
G1 X332.699
G1 Y422.904
; Layer Trayectorias_de_corte_1 Pass 3 of 9
G1 X326.098
G1 Y426.205
G1 X329.398
G1 X332.699
G1 Y422.904
; Layer Trayectorias_de_corte_1 Pass 4 of 9
G1 X326.098
G1 Y426.205
G1 X329.398
G1 X332.699
G1 Y422.904
; Layer Trayectorias_de_corte_1 Pass 5 of 9
G1 X326.098
G1 Y426.205
G1 X329.398
G1 X332.699
G1 Y422.904
; Layer Trayectorias_de_corte_1 Pass 6 of 9
G1 X326.098
G1 Y426.205
G1 X329.398
G1 X332.699
G1 Y422.904
; Layer Trayectorias_de_corte_1 Pass 7 of 9
G1 X326.098
G1 Y426.205
G1 X329.398
G1 X332.699
G1 Y422.904
; Layer Trayectorias_de_corte_1 Pass 8 of 9
G1 X326.098
G1 Y426.205
G1 X329.398
G1 X332.699
G1 Y422.904
; Layer Trayectorias_de_corte_1 Pass 9 of 9
G1 X326.098
G1 Y426.205
G1 X329.398
G1 X332.699
G1 Y422.904
G0 X319.498Y422.904
; Layer Trayectorias_de_corte_1 Pass 1 of 9
G1 X312.899
G1 Y426.205
G1 X316.198
G1 X319.498
G1 Y422.904
; Layer Trayectorias_de_corte_1 Pass 2 of 9
G1 X312.899
G1 Y426.205
G1 X316.198
G1 X319.498
G1 Y422.904
; Layer Trayectorias_de_corte_1 Pass 3 of 9
G1 X312.899
G1 Y426.205
G1 X316.198
G1 X319.498
G1 Y422.904
; Layer Trayectorias_de_corte_1 Pass 4 of 9
G1 X312.899
G1 Y426.205
G1 X316.198
G1 X319.498
G1 Y422.904
; Layer Trayectorias_de_corte_1 Pass 5 of 9
G1 X312.899
G1 Y426.205
G1 X316.198
G1 X319.498
G1 Y422.904
; Layer Trayectorias_de_corte_1 Pass 6 of 9
G1 X312.899
G1 Y426.205
G1 X316.198
G1 X319.498
G1 Y422.904
; Layer Trayectorias_de_corte_1 Pass 7 of 9
G1 X312.899
G1 Y426.205
G1 X316.198
G1 X319.498
G1 Y422.904
; Layer Trayectorias_de_corte_1 Pass 8 of 9
G1 X312.899
G1 Y426.205
G1 X316.198
G1 X319.498
G1 Y422.904
; Layer Trayectorias_de_corte_1 Pass 9 of 9
G1 X312.899
G1 Y426.205
G1 X316.198
G1 X319.498
G1 Y422.904
G0 X306.298Y422.904
; Layer Trayectorias_de_corte_1 Pass 1 of 9
G1 X299.698
G1 Y426.205
G1 X302.997
G1 X306.298
G1 Y422.904
; Layer Trayectorias_de_corte_1 Pass 2 of 9
G1 X299.698
G1 Y426.205
G1 X302.997
G1 X306.298
G1 Y422.904
; Layer Trayectorias_de_corte_1 Pass 3 of 9
G1 X299.698
G1 Y426.205
G1 X302.997
G1 X306.298
G1 Y422.904
; Layer Trayectorias_de_corte_1 Pass 4 of 9
G1 X299.698
G1 Y426.205
G1 X302.997
G1 X306.298
G1 Y422.904
; Layer Trayectorias_de_corte_1 Pass 5 of 9
G1 X299.698
G1 Y426.205
G1 X302.997
G1 X306.298
G1 Y422.904
; Layer Trayectorias_de_corte_1 Pass 6 of 9
G1 X299.698
G1 Y426.205
G1 X302.997
G1 X306.298
G1 Y422.904
; Layer Trayectorias_de_corte_1 Pass 7 of 9
G1 X299.698
G1 Y426.205
G1 X302.997
G1 X306.298
G1 Y422.904
; Layer Trayectorias_de_corte_1 Pass 8 of 9
G1 X299.698
G1 Y426.205
G1 X302.997
G1 X306.298
G1 Y422.904
; Layer Trayectorias_de_corte_1 Pass 9 of 9
G1 X299.698
G1 Y426.205
G1 X302.997
G1 X306.298
G1 Y422.904
G0 X293.098Y422.904
; Layer Trayectorias_de_corte_1 Pass 1 of 9
G1 X286.498
G1 Y426.205
G1 X289.798
G1 X293.098
G1 Y422.904
; Layer Trayectorias_de_corte_1 Pass 2 of 9
G1 X286.498
G1 Y426.205
G1 X289.798
G1 X293.098
G1 Y422.904
; Layer Trayectorias_de_corte_1 Pass 3 of 9
G1 X286.498
G1 Y426.205
G1 X289.798
G1 X293.098
G1 Y422.904
; Layer Trayectorias_de_corte_1 Pass 4 of 9
G1 X286.498
G1 Y426.205
G1 X289.798
G1 X293.098
G1 Y422.904
; Layer Trayectorias_de_corte_1 Pass 5 of 9
G1 X286.498
G1 Y426.205
G1 X289.798
G1 X293.098
G1 Y422.904
; Layer Trayectorias_de_corte_1 Pass 6 of 9
G1 X286.498
G1 Y426.205
G1 X289.798
G1 X293.098
G1 Y422.904
; Layer Trayectorias_de_corte_1 Pass 7 of 9
G1 X286.498
G1 Y426.205
G1 X289.798
G1 X293.098
G1 Y422.904
; Layer Trayectorias_de_corte_1 Pass 8 of 9
G1 X286.498
G1 Y426.205
G1 X289.798
G1 X293.098
G1 Y422.904
; Layer Trayectorias_de_corte_1 Pass 9 of 9
G1 X286.498
G1 Y426.205
G1 X289.798
G1 X293.098
G1 Y422.904
G0 X279.899Y422.904
; Layer Trayectorias_de_corte_1 Pass 1 of 9
G1 X273.298
G1 Y426.205
G1 X276.598
G1 X279.899
G1 Y422.904
; Layer Trayectorias_de_corte_1 Pass 2 of 9
G1 X273.298
G1 Y426.205
G1 X276.598
G1 X279.899
G1 Y422.904
; Layer Trayectorias_de_corte_1 Pass 3 of 9
G1 X273.298
G1 Y426.205
G1 X276.598
G1 X279.899
G1 Y422.904
; Layer Trayectorias_de_corte_1 Pass 4 of 9
G1 X273.298
G1 Y426.205
G1 X276.598
G1 X279.899
G1 Y422.904
; Layer Trayectorias_de_corte_1 Pass 5 of 9
G1 X273.298
G1 Y426.205
G1 X276.598
G1 X279.899
G1 Y422.904
; Layer Trayectorias_de_corte_1 Pass 6 of 9
G1 X273.298
G1 Y426.205
G1 X276.598
G1 X279.899
G1 Y422.904
; Layer Trayectorias_de_corte_1 Pass 7 of 9
G1 X273.298
G1 Y426.205
G1 X276.598
G1 X279.899
G1 Y422.904
; Layer Trayectorias_de_corte_1 Pass 8 of 9
G1 X273.298
G1 Y426.205
G1 X276.598
G1 X279.899
G1 Y422.904
; Layer Trayectorias_de_corte_1 Pass 9 of 9
G1 X273.298
G1 Y426.205
G1 X276.598
G1 X279.899
G1 Y422.904
G0 X266.699Y422.904
; Layer Trayectorias_de_corte_1 Pass 1 of 9
G1 X260.098
G1 Y426.205
G1 X263.398
G1 X266.699
G1 Y422.904
; Layer Trayectorias_de_corte_1 Pass 2 of 9
G1 X260.098
G1 Y426.205
G1 X263.398
G1 X266.699
G1 Y422.904
; Layer Trayectorias_de_corte_1 Pass 3 of 9
G1 X260.098
G1 Y426.205
G1 X263.398
G1 X266.699
G1 Y422.904
; Layer Trayectorias_de_corte_1 Pass 4 of 9
G1 X260.098
G1 Y426.205
G1 X263.398
G1 X266.699
G1 Y422.904
; Layer Trayectorias_de_corte_1 Pass 5 of 9
G1 X260.098
G1 Y426.205
G1 X263.398
G1 X266.699
G1 Y422.904
; Layer Trayectorias_de_corte_1 Pass 6 of 9
G1 X260.098
G1 Y426.205
G1 X263.398
G1 X266.699
G1 Y422.904
; Layer Trayectorias_de_corte_1 Pass 7 of 9
G1 X260.098
G1 Y426.205
G1 X263.398
G1 X266.699
G1 Y422.904
; Layer Trayectorias_de_corte_1 Pass 8 of 9
G1 X260.098
G1 Y426.205
G1 X263.398
G1 X266.699
G1 Y422.904
; Layer Trayectorias_de_corte_1 Pass 9 of 9
G1 X260.098
G1 Y426.205
G1 X263.398
G1 X266.699
G1 Y422.904
G0 X248.293Y412.9
; Layer Trayectorias_de_corte_1 Pass 1 of 9
G1 Y406.3
G1 X244.993
G1 Y409.6
G1 Y412.9
G1 X248.293
; Layer Trayectorias_de_corte_1 Pass 2 of 9
G1 Y406.3
G1 X244.993
G1 Y409.6
G1 Y412.9
G1 X248.293
; Layer Trayectorias_de_corte_1 Pass 3 of 9
G1 Y406.3
G1 X244.993
G1 Y409.6
G1 Y412.9
G1 X248.293
; Layer Trayectorias_de_corte_1 Pass 4 of 9
G1 Y406.3
G1 X244.993
G1 Y409.6
G1 Y412.9
G1 X248.293
; Layer Trayectorias_de_corte_1 Pass 5 of 9
G1 Y406.3
G1 X244.993
G1 Y409.6
G1 Y412.9
G1 X248.293
; Layer Trayectorias_de_corte_1 Pass 6 of 9
G1 Y406.3
G1 X244.993
G1 Y409.6
G1 Y412.9
G1 X248.293
; Layer Trayectorias_de_corte_1 Pass 7 of 9
G1 Y406.3
G1 X244.993
G1 Y409.6
G1 Y412.9
G1 X248.293
; Layer Trayectorias_de_corte_1 Pass 8 of 9
G1 Y406.3
G1 X244.993
G1 Y409.6
G1 Y412.9
G1 X248.293
; Layer Trayectorias_de_corte_1 Pass 9 of 9
G1 Y406.3
G1 X244.993
G1 Y409.6
G1 Y412.9
G1 X248.293
G0 X248.293Y399.7
; Layer Trayectorias_de_corte_1 Pass 1 of 9
G1 Y393.1
G1 X244.993
G1 Y396.4
G1 Y399.7
G1 X248.293
; Layer Trayectorias_de_corte_1 Pass 2 of 9
G1 Y393.1
G1 X244.993
G1 Y396.4
G1 Y399.7
G1 X248.293
; Layer Trayectorias_de_corte_1 Pass 3 of 9
G1 Y393.1
G1 X244.993
G1 Y396.4
G1 Y399.7
G1 X248.293
; Layer Trayectorias_de_corte_1 Pass 4 of 9
G1 Y393.1
G1 X244.993
G1 Y396.4
G1 Y399.7
G1 X248.293
; Layer Trayectorias_de_corte_1 Pass 5 of 9
G1 Y393.1
G1 X244.993
G1 Y396.4
G1 Y399.7
G1 X248.293
; Layer Trayectorias_de_corte_1 Pass 6 of 9
G1 Y393.1
G1 X244.993
G1 Y396.4
G1 Y399.7
G1 X248.293
; Layer Trayectorias_de_corte_1 Pass 7 of 9
G1 Y393.1
G1 X244.993
G1 Y396.4
G1 Y399.7
G1 X248.293
; Layer Trayectorias_de_corte_1 Pass 8 of 9
G1 Y393.1
G1 X244.993
G1 Y396.4
G1 Y399.7
G1 X248.293
; Layer Trayectorias_de_corte_1 Pass 9 of 9
G1 Y393.1
G1 X244.993
G1 Y396.4
G1 Y399.7
G1 X248.293
G0 X248.293Y386.499
; Layer Trayectorias_de_corte_1 Pass 1 of 9
G1 Y379.9
G1 X244.993
G1 Y383.2
G1 Y386.499
G1 X248.293
; Layer Trayectorias_de_corte_1 Pass 2 of 9
G1 Y379.9
G1 X244.993
G1 Y383.2
G1 Y386.499
G1 X248.293
; Layer Trayectorias_de_corte_1 Pass 3 of 9
G1 Y379.9
G1 X244.993
G1 Y383.2
G1 Y386.499
G1 X248.293
; Layer Trayectorias_de_corte_1 Pass 4 of 9
G1 Y379.9
G1 X244.993
G1 Y383.2
G1 Y386.499
G1 X248.293
; Layer Trayectorias_de_corte_1 Pass 5 of 9
G1 Y379.9
G1 X244.993
G1 Y383.2
G1 Y386.499
G1 X248.293
; Layer Trayectorias_de_corte_1 Pass 6 of 9
G1 Y379.9
G1 X244.993
G1 Y383.2
G1 Y386.499
G1 X248.293
; Layer Trayectorias_de_corte_1 Pass 7 of 9
G1 Y379.9
G1 X244.993
G1 Y383.2
G1 Y386.499
G1 X248.293
; Layer Trayectorias_de_corte_1 Pass 8 of 9
G1 Y379.9
G1 X244.993
G1 Y383.2
G1 Y386.499
G1 X248.293
; Layer Trayectorias_de_corte_1 Pass 9 of 9
G1 Y379.9
G1 X244.993
G1 Y383.2
G1 Y386.499
G1 X248.293
G0 X248.293Y373.3
; Layer Trayectorias_de_corte_1 Pass 1 of 9
G1 Y366.7
G1 X244.993
G1 Y370
G1 Y373.3
G1 X248.293
; Layer Trayectorias_de_corte_1 Pass 2 of 9
G1 Y366.7
G1 X244.993
G1 Y370
