; LightBurn 1.3.01
; GRBL device profile, absolute coords
; Bounds: X10 Y15.53 to X770.61 Y459.26
G00 G17 G40 G21 G54
G90
M4
; Cut @ 2500.002 mm/min, 100% power
M8
G0 X479.967Y96.801
; Layer C01
G1 X480.039Y96.838S1000F2500
G1 X480.156Y96.87
G1 X480.315Y96.897
G1 X480.514Y96.92
G1 X480.749Y96.938
G1 X481.018Y96.952
G1 X481.318
G1 X482.001Y96.968
G1 X482.776
G1 X483.62Y96.936
G1 X484.513Y96.9
G1 X486.356Y96.791
G1 X488.129Y96.64
G1 X488.935Y96.552
G1 X489.658Y96.457
G1 X489.981Y96.407
G1 X490.276Y96.355
G1 X490.539Y96.302
G1 X490.767Y96.248
G1 X491.749Y95.968
G1 X492.742Y95.636
G1 X493.737Y95.26
G1 X494.721Y94.846
G1 X495.684Y94.401
G1 X496.613Y93.933
G1 X497.498Y93.448
G1 X498.326Y92.955
G1 X499.087Y92.459
G1 X499.769Y91.969
G1 X500.077Y91.728
G1 X500.36Y91.49
G1 X500.619Y91.258
G1 X500.85Y91.031
G1 X501.053Y90.811
G1 X501.226Y90.599
G1 X501.368Y90.395
G1 X501.478Y90.2
G1 X501.553Y90.015
G1 X501.593Y89.841
G1 Y89.68
G1 X501.561Y89.531
G1 X501.417Y89.229
G1 X501.241Y89.011
G1 X501.133Y88.934
G1 X501.01Y88.877
G1 X500.869Y88.84
G1 X500.707Y88.824
G1 X500.521
G1 X500.31Y88.853
G1 X500.071Y88.898
G1 X499.8Y88.963
G1 X499.497Y89.048
G1 X499.158Y89.154
G1 X498.781Y89.279
G1 X497.874Y89.593
G1 X497.446Y89.735
G1 X497.078Y89.848
G1 X496.77Y89.93
G1 X496.521Y89.982
G1 X496.33Y90.001
G1 X496.196Y89.987
G1 X496.119Y89.939
G1 X496.098Y89.855
G1 X496.131Y89.735
G1 X496.219Y89.578
G1 X496.361Y89.383
G1 X496.555Y89.149
G1 X496.802Y88.874
G1 X497.099Y88.557
G1 X497.743Y87.896
G1 X498.002Y87.626
G1 X498.228Y87.384
G1 X498.42Y87.169
G1 X498.581Y86.978
G1 X498.71Y86.808
G1 X498.811Y86.656
G1 X498.884Y86.519
G1 X498.929Y86.395
G1 X498.949Y86.281
G1 Y86.175
G1 X498.917Y86.072
G1 X498.798Y85.87
G1 X498.601Y85.653
G1 X498.389Y85.455
G1 X498.195Y85.312
G1 X498Y85.224
G1 X497.789Y85.191
G1 X497.545Y85.211
G1 X497.25Y85.286
G1 X496.888Y85.413
G1 X495.959Y85.788
G1 X495.529Y85.947
G1 X495.152Y86.071
G1 X494.829Y86.159
G1 X494.561Y86.212
G1 X494.347Y86.23
G1 X494.188Y86.213
G1 X494.084Y86.162
G1 X494.035Y86.076
G1 Y85.955
G1 X494.103Y85.801
G1 X494.221Y85.613
G1 X494.395Y85.392
G1 X494.626Y85.137
G1 X494.913Y84.849
G1 X495.595Y84.214
G1 X495.897Y83.913
G1 X496.164Y83.625
G1 X496.396Y83.351
G1 X496.593Y83.09
G1 X496.755Y82.844
G1 X496.881Y82.612
G1 X496.972Y82.395
G1 X497.028Y82.193
G1 X497.048Y82.006
G1 X497.032Y81.834
G1 X496.98Y81.678
G1 X496.893Y81.538
G1 X496.769Y81.414
G1 X496.609Y81.307
G1 X496.414Y81.216
G1 X496.3Y81.188
G1 X496.161
G1 X495.998
G1 X495.811Y81.219
G1 X495.374Y81.328
G1 X494.862Y81.501
G1 X494.286Y81.731
G1 X493.658Y82.012
G1 X492.989Y82.339
G1 X492.29Y82.705
G1 X490.849Y83.529
G1 X489.425Y84.435
G1 X488.748Y84.904
G1 X488.11Y85.375
G1 X487.522Y85.842
G1 X486.995Y86.299
G1 X486.027Y87.239
G1 X485.069Y88.272
G1 X484.14Y89.374
G1 X483.261Y90.516
G1 X482.45Y91.672
G1 X481.727Y92.817
G1 X481.405Y93.376
G1 X481.113Y93.922
G1 X480.852Y94.452
G1 X480.625Y94.962
G1 X480.488Y95.294
G1 X480.36Y95.61
G1 X480.244Y95.902
G1 X480.143Y96.164
G1 X480.059Y96.388
G1 X479.996Y96.567
G1 X479.956Y96.693
G1 X479.942Y96.759
G1 X479.967Y96.801
G0 X486.284Y82.772
G1 X486.312
G1 X486.368Y82.74
G1 X486.45Y82.699
G1 X486.557Y82.643
G1 X486.839Y82.488
G1 X487.203Y82.282
G1 X487.635Y82.032
G1 X488.125Y81.745
G1 X488.66Y81.428
G1 X489.227Y81.087
G1 X490.484Y80.374
G1 X491.828Y79.685
G1 X492.482Y79.375
G1 X493.097Y79.1
G1 X493.653Y78.871
G1 X494.13Y78.697
G1 X494.432Y78.594
G1 X494.705Y78.496
G1 X494.951Y78.402
G1 X495.17Y78.31
G1 X495.535Y78.129
G1 X495.81Y77.946
G1 X496.005Y77.752
G1 X496.132Y77.539
G1 X496.201Y77.299
G1 X496.221Y77.023
G1 X496.198Y76.742
G1 X496.12Y76.495
G1 X495.974Y76.27
G1 X495.746Y76.059
G1 X495.598Y75.955
G1 X495.424Y75.851
G1 X495.224Y75.745
G1 X494.994Y75.636
G1 X494.735Y75.522
G1 X494.443Y75.404
G1 X494.118Y75.278
G1 X493.758Y75.144
G1 X493.216Y74.934
G1 X492.62Y74.68
G1 X491.988Y74.392
G1 X491.341Y74.081
G1 X490.698Y73.755
G1 X490.079Y73.425
G1 X489.503Y73.1
G1 X488.989Y72.789
G1 X488.615Y72.554
G1 X488.277Y72.348
G1 X487.971Y72.167
G1 X487.693Y72.013
G1 X487.438Y71.882
G1 X487.202Y71.775
G1 X486.981Y71.69
G1 X486.769Y71.626
G1 X486.36Y71.555
G1 X485.938
G1 X485.47Y71.614
G1 X484.919Y71.726
G1 X484.469Y71.835
G1 X483.997Y71.968
G1 X483.505Y72.124
G1 X482.996Y72.3
G1 X481.94Y72.71
G1 X480.853Y73.186
G1 X479.759Y73.718
G1 X478.681Y74.295
G1 X477.645Y74.906
G1 X476.673Y75.539
G1 X474.662Y76.923
G1 X475.68Y77.746
G1 X476.429Y78.314
G1 X477.271Y78.882
G1 X478.188Y79.44
G1 X479.167Y79.981
G1 X480.19Y80.497
G1 X481.242Y80.979
G1 X482.307Y81.419
G1 X483.369Y81.808
G1 X483.931Y82
G1 X484.946Y82.342
G1 X485.734Y82.603
G1 X486.12Y82.726
G1 X486.257Y82.766
G1 X486.284
G0 X499.826Y80.853
G1 X500.018Y81.477
G1 X500.262Y82.118
G1 X500.564Y82.803
G1 X500.919Y83.527
G1 X501.303Y84.222
G1 X501.715Y84.89
G1 X502.152Y85.528
G1 X502.614Y86.137
G1 X503.1Y86.717
G1 X503.609Y87.266
G1 X504.139Y87.785
G1 X504.69Y88.274
G1 X505.26Y88.731
G1 X505.849Y89.156
G1 X506.455Y89.55
G1 X507.077Y89.911
G1 X507.714Y90.239
G1 X508.365Y90.533
G1 X509.029Y90.795
G1 X509.704Y91.022
G1 X510.39Y91.214
G1 X511.085Y91.372
G1 X511.789Y91.495
G1 X512.5Y91.582
G1 X513.218Y91.633
G1 X513.94Y91.647
G1 X514.666Y91.624
G1 X515.396Y91.564
G1 X516.126Y91.467
G1 X516.858Y91.331
G1 X517.589Y91.157
G1 X518.319Y90.944
G1 X519.046Y90.692
G1 X519.769Y90.4
G1 X520.487Y90.068
G1 X521.059Y89.772
G1 X521.613Y89.455
G1 X522.147Y89.118
G1 X522.663Y88.761
G1 X523.16Y88.383
G1 X523.639Y87.985
G1 X524.099Y87.566
G1 X524.541Y87.126
G1 X524.965Y86.664
G1 X525.371Y86.182
G1 X525.759Y85.678
G1 X526.129Y85.153
G1 X526.482Y84.606
G1 X526.818Y84.038
G1 X527.135Y83.447
G1 X527.436Y82.835
G1 X527.75Y82.133
G1 X528.003Y81.485
G1 X528.2Y80.861
G1 X528.348Y80.229
G1 X528.452Y79.557
G1 X528.519Y78.815
G1 X528.54Y78.407
G1 X528.555Y77.97
G1 Y77.499
G1 X528.565Y76.991
G1 Y76.451
G1 Y75.958
G1 X528.541Y75.506
G1 X528.519Y75.089
G1 X528.446Y74.338
G1 X528.326Y73.657
G1 X528.149Y73.002
G1 X527.904Y72.324
G1 X527.753Y71.963
G1 X527.581Y71.578
G1 X527.387Y71.166
G1 X527.169Y70.718
G1 X526.856Y70.111
G1 X526.526Y69.528
G1 X526.179Y68.968
G1 X525.814Y68.431
G1 X525.43Y67.916
G1 X525.027Y67.422
G1 X524.605Y66.95
G1 X524.162Y66.498
G1 X523.699Y66.067
G1 X523.215Y65.655
G1 X522.709Y65.261
G1 X522.181Y64.887
G1 X521.63Y64.53
G1 X521.056Y64.191
G1 X520.457Y63.869
G1 X519.835Y63.564
G1 X519.176Y63.281
G1 X518.489Y63.036
G1 X517.777Y62.828
G1 X517.046Y62.659
G1 X516.299Y62.527
G1 X515.539Y62.432
G1 X514.771Y62.376
G1 X514Y62.357
G1 X513.228Y62.376
G1 X512.461Y62.432
G1 X511.701Y62.527
G1 X510.954Y62.659
G1 X510.222Y62.828
G1 X509.511Y63.036
G1 X508.824Y63.281
G1 X508.165Y63.564
G1 X507.542Y63.869
G1 X506.944Y64.192
G1 X506.37Y64.531
G1 X505.819Y64.887
G1 X505.29Y65.262
G1 X504.784Y65.655
G1 X504.3Y66.067
G1 X503.837Y66.498
G1 X503.395Y66.95
G1 X502.972Y67.423
G1 X502.57Y67.916
G1 X502.186Y68.431
G1 X501.821Y68.969
G1 X501.474Y69.529
G1 X501.144Y70.112
G1 X500.831Y70.72
G1 X500.612Y71.169
G1 X500.417Y71.583
G1 X500.245Y71.968
G1 X500.094Y72.329
G1 X499.849Y73.005
G1 X499.673Y73.659
G1 X499.556Y74.336
G1 X499.486Y75.086
G1 X499.466Y75.503
G1 X499.454Y75.956
G1 Y76.45
G1 Y76.992
G1 Y77.492
G1 X499.464Y77.957
G1 X499.481Y78.391
G1 X499.504Y78.797
G1 X499.574Y79.541
G1 X499.679Y80.217
G1 X499.826Y80.853
G0 X496.322Y72.75
G1 X496.501Y72.697
G1 X496.651Y72.611
G1 X496.774Y72.493
G1 X496.872Y72.342
G1 X496.947Y72.159
G1 X497.001Y71.943
G1 Y71.745
G1 X496.934Y71.509
G1 X496.804Y71.238
G1 X496.612Y70.936
G1 X496.363Y70.608
G1 X496.058Y70.257
G1 X495.7Y69.887
G1 X495.292Y69.503
G1 X494.942Y69.177
G1 X494.65Y68.884
G1 X494.414Y68.625
G1 X494.235Y68.4
G1 X494.113Y68.209
G1 X494.047Y68.052
G1 Y67.93
G1 X494.084Y67.842
G1 X494.186Y67.788
G1 X494.344Y67.77
G1 X494.557Y67.787
G1 X494.825Y67.84
G1 X495.148Y67.928
G1 X495.525Y68.051
G1 X495.957Y68.211
G1 X496.888Y68.587
G1 X497.25Y68.715
G1 X497.545Y68.789
G1 X497.789Y68.809
G1 X498Y68.776
G1 X498.195Y68.688
G1 X498.389Y68.545
G1 X498.601Y68.347
G1 X498.798Y68.13
G1 X498.917Y67.928
G1 X498.945Y67.825
G1 Y67.719
G1 X498.929Y67.605
G1 X498.884Y67.481
G1 X498.811Y67.344
G1 X498.71Y67.192
G1 X498.581Y67.022
G1 X498.42Y66.831
G1 X498.228Y66.616
G1 X498.002Y66.374
G1 X497.743Y66.104
G1 X497.099Y65.443
G1 X496.802Y65.126
G1 X496.555Y64.852
G1 X496.361Y64.617
G1 X496.219Y64.422
G1 X496.131Y64.265
G1 X496.098Y64.145
G1 X496.119Y64.062
G1 X496.196Y64.013
G1 X496.33Y63.999
G1 X496.521Y64.019
G1 X496.77Y64.07
G1 X497.078Y64.152
G1 X497.446Y64.265
G1 X497.874Y64.407
G1 X498.781Y64.721
G1 X499.158Y64.847
G1 X499.497Y64.952
G1 X499.8Y65.037
G1 X500.071Y65.102
G1 X500.31Y65.147
G1 X500.521Y65.172
G1 X500.707
G1 X500.869Y65.16
G1 X501.01Y65.124
G1 X501.133Y65.066
G1 X501.241Y64.989
G1 X501.417Y64.771
G1 X501.561Y64.469
G1 X501.596Y64.32
G1 Y64.159
G1 X501.553Y63.985
G1 X501.478Y63.8
G1 X501.368Y63.606
G1 X501.226Y63.401
G1 X501.053Y63.189
G1 X500.85Y62.969
G1 X500.619Y62.742
G1 X500.36Y62.51
G1 X500.077Y62.273
G1 X499.769Y62.031
G1 X499.087Y61.541
G1 X498.326Y61.045
G1 X497.498Y60.552
G1 X496.613Y60.067
G1 X495.684Y59.599
G1 X494.721Y59.155
G1 X493.737Y58.74
G1 X492.742Y58.364
G1 X491.749Y58.032
G1 X490.767Y57.752
G1 X490.517Y57.692
G1 X490.235Y57.635
G1 X489.924Y57.579
G1 X489.587Y57.526
G1 X488.843Y57.427
G1 X488.025Y57.338
G1 X486.247Y57.192
G1 X484.42Y57.097
G1 X483.54Y57.07
G1 X482.71Y57.057
G1 X481.951
G1 X481.283Y57.08
G1 X480.99Y57.096
G1 X480.728Y57.117
G1 X480.498Y57.142
G1 X480.305Y57.172
G1 X480.15Y57.206
G1 X480.036Y57.245
G1 X479.966Y57.289
G1 X479.942Y57.339
G1 X479.967Y57.474
G1 X480.037Y57.684
G1 X480.149Y57.958
G1 X480.297Y58.29
G1 X480.479Y58.67
G1 X480.688Y59.091
G1 X480.92Y59.543
G1 X481.172Y60.019
G1 X481.715Y61.008
G1 X482.28Y61.99
G1 X482.56Y62.458
G1 X482.832Y62.9
G1 X483.092Y63.307
G1 X483.335Y63.67
G1 X483.724Y64.208
G1 X484.151Y64.752
G1 X484.615Y65.299
G1 X485.111Y65.845
G1 X486.189Y66.927
G1 X487.359Y67.977
G1 X488.596Y68.972
G1 X489.876Y69.892
G1 X490.523Y70.317
G1 X491.171Y70.715
G1 X491.817Y71.083
G1 X492.457Y71.418
G1 X493.045Y71.707
G1 X493.582Y71.961
G1 X494.072Y72.18
G1 X494.515Y72.364
G1 X494.913Y72.514
G1 X495.271Y72.629
G1 X495.588Y72.71
G1 X495.867Y72.757
G1 X496.111Y72.77
G1 X496.322Y72.75
G0 X504.666Y61.879
G1 X504.89Y61.939
G1 X505.042
G1 X505.115Y61.888
G1 X505.18Y61.812
G1 X505.238Y61.703
G1 X505.288Y61.558
G1 X505.331Y61.374
G1 X505.367Y61.149
G1 X505.395Y60.881
G1 X505.416Y60.566
G1 X505.43Y60.202
G1 Y59.788
G1 Y59.319
G1 Y58.794
G1 Y58.211
G1 X505.402Y57.566
G1 X505.377Y56.857
G1 X505.347Y56.082
G1 X505.267Y54.23
G1 X505.229Y53.474
G1 X505.19Y52.816
G1 X505.146Y52.248
G1 X505.097Y51.76
G1 X505.039Y51.34
G1 X504.971Y50.979
G1 X504.89Y50.667
G1 X504.793Y50.394
G1 X504.68Y50.149
G1 X504.546Y49.924
G1 X504.391Y49.706
G1 X504.212Y49.487
G1 X504.007Y49.256
G1 X503.773Y49.004
G1 X503.331Y48.561
G1 X502.812Y48.09
G1 X502.226Y47.599
G1 X501.587Y47.096
G1 X500.197Y46.086
G1 X498.74Y45.119
G1 X498.016Y44.673
G1 X497.313Y44.26
G1 X496.641Y43.89
G1 X496.015Y43.569
G1 X495.444Y43.307
G1 X494.943Y43.109
G1 X494.722Y43.038
G1 X494.523Y42.985
G1 X494.347Y42.953
G1 X494.196Y42.942
G1 X494.161Y42.971
G1 X494.132Y43.056
G1 X494.109Y43.193
G1 X494.091Y43.379
G1 X494.078Y43.61
G1 Y43.884
G1 X494.066Y44.196
G1 Y44.544
G1 Y44.923
G1 X494.082Y45.331
G1 X494.095Y45.764
G1 X494.112Y46.218
G1 X494.156Y47.179
G1 X494.212Y48.186
G1 X494.279Y49.211
G1 X494.354Y50.227
G1 X494.437Y51.208
G1 X494.526Y52.126
G1 X494.571Y52.552
G1 X494.618Y52.953
G1 X494.665Y53.324
G1 X494.713Y53.663
G1 X494.76Y53.965
G1 X494.808Y54.228
G1 X494.856Y54.447
G1 X494.903Y54.621
G1 X495.066Y55.085
G1 X495.255Y55.486
G1 X495.485Y55.841
G1 X495.773Y56.165
G1 X496.137Y56.476
G1 X496.593Y56.79
G1 X496.861Y56.953
G1 X497.158Y57.122
G1 X497.487Y57.301
G1 X497.849Y57.491
G1 X498.383Y57.778
G1 X498.964Y58.113
G1 X499.573Y58.484
G1 X500.192Y58.878
G1 X500.803Y59.283
G1 X501.387Y59.687
G1 X501.924Y60.078
G1 X502.831Y60.78
G1 X503.257Y61.086
G1 X503.664Y61.355
G1 X504.042Y61.58
G1 X504.38Y61.757
G1 X504.666Y61.879
G0 X508.788Y59.878
G1 X508.914Y59.978
G1 X509.057Y60.035
G1 X509.219Y60.053
G1 X509.403Y60.037
G1 X509.611Y59.989
G1 X509.846Y59.915
G1 X510.109Y59.818
G1 X510.246Y59.747
G1 X510.375Y59.645
G1 X510.493Y59.516
G1 X510.598Y59.365
G1 X510.754Y59.017
G1 X510.82Y58.64
G1 X510.837Y58.421
G1 X510.875Y58.148
G1 X510.93Y57.834
G1 X511.001Y57.488
G1 X511.178Y56.746
G1 X511.389Y56.008
G1 X511.925Y54.295
G1 X512.495Y56.758
G1 X512.582Y57.127
G1 X512.665Y57.459
G1 X512.745Y57.755
G1 X512.822Y58.017
G1 X512.898Y58.248
G1 X512.975Y58.448
G1 X513.052Y58.62
G1 X513.133Y58.767
G1 X513.305Y58.988
G1 X513.501Y59.128
G1 X513.729Y59.201
G1 X514Y59.221
G1 X514.271Y59.201
G1 X514.499Y59.128
G1 X514.695Y58.988
G1 X514.867Y58.767
G1 X514.948Y58.62
G1 X515.025Y58.448
G1 X515.102Y58.248
G1 X515.178Y58.017
G1 X515.255Y57.755
G1 X515.335Y57.459
G1 X515.418Y57.127
G1 X515.505Y56.758
G1 X516.075Y54.295
G1 X516.611Y56.008
G1 X516.822Y56.748
G1 X516.999Y57.493
G1 X517.07Y57.842
G1 X517.125Y58.159
G1 X517.162Y58.434
G1 X517.18Y58.657
G1 X517.205Y58.858
G1 X517.264Y59.048
G1 X517.352Y59.226
G1 X517.465Y59.39
G1 X517.752Y59.668
G1 X518.094Y59.869
G1 X518.275Y59.936
G1 X518.458Y59.979
G1 X518.639Y59.995
G1 X518.814Y59.983
G1 X518.979Y59.942
G1 X519.129Y59.869
G1 X519.262Y59.763
G1 X519.372Y59.622
G1 X519.506Y59.351
G1 X519.624Y58.998
G1 X519.727Y58.571
G1 X519.815Y58.078
G1 X519.888Y57.527
G1 X519.944Y56.925
G1 X519.985Y56.28
G1 X520.01Y55.599
G1 Y54.163
G1 X519.945Y52.678
G1 X519.887Y51.937
G1 X519.811Y51.206
G1 X519.719Y50.494
G1 X519.608Y49.809
G1 X519.468Y49.099
G1 X519.298Y48.37
G1 X519.099Y47.626
G1 X518.875Y46.873
G1 X518.357Y45.358
G1 X517.76Y43.864
G1 X517.437Y43.137
G1 X517.101Y42.43
G1 X516.753Y41.748
G1 X516.397Y41.096
G1 X516.034Y40.479
G1 X515.665Y39.902
G1 X515.294Y39.369
G1 X514.922Y38.886
G1 X513.888Y37.614
G1 X512.137Y40.323
G1 X511.768Y40.915
G1 X511.388Y41.56
G1 X511.009Y42.238
G1 X510.642Y42.928
G1 X510.297Y43.608
G1 X509.986Y44.259
G1 X509.718Y44.859
G1 X509.505Y45.387
G1 X509.296Y45.985
G1 X509.098Y46.625
G1 X508.911Y47.303
G1 X508.738Y48.01
G1 X508.434Y49.486
G1 X508.193Y51.002
G1 X508.098Y51.758
G1 X508.022Y52.504
G1 X507.965Y53.233
G1 X507.928Y53.938
G1 X507.913Y54.614
G1 Y55.252
G1 X507.948Y55.847
G1 X508.002Y56.393
G1 X508.088Y57.058
G1 X508.168Y57.644
G1 X508.246Y58.156
G1 X508.323Y58.596
G1 X508.402Y58.97
G1 X508.486Y59.282
G1 X508.576Y59.534
G1 X508.676Y59.731
G1 X508.788Y59.878
G0 X522.566Y59.713
G1 Y60.133
G1 X522.585Y60.504
G1 X522.604Y60.828
G1 X522.63Y61.107
G1 X522.662Y61.342
G1 X522.701Y61.536
G1 X522.746Y61.689
G1 X522.798Y61.804
G1 X522.856Y61.882
G1 X522.922Y61.924
G1 X523.117Y61.986
G1 X523.302Y62.003
G1 X523.402Y61.989
G1 X523.513Y61.955
G1 X523.639Y61.9
G1 X523.785Y61.821
G1 X523.955Y61.714
G1 X524.154Y61.578
G1 X524.387Y61.41
G1 X524.657Y61.207
G1 X524.97Y60.966
G1 X525.33Y60.685
G1 X526.209Y59.991
G1 X526.642Y59.662
G1 X527.134Y59.311
G1 X527.667Y58.948
G1 X528.225Y58.586
G1 X528.791Y58.233
G1 X529.348Y57.902
G1 X529.878Y57.603
G1 X530.365Y57.348
G1 X530.691Y57.181
G1 X530.989Y57.022
G1 X531.258Y56.869
G1 X531.502Y56.721
G1 X531.921Y56.43
G1 X532.26Y56.134
G1 X532.532Y55.82
G1 X532.753Y55.473
G1 X532.936Y55.077
G1 X533.098Y54.62
G1 X533.145Y54.446
G1 X533.192Y54.227
G1 X533.24Y53.964
G1 X533.287Y53.662
G1 X533.335Y53.323
G1 X533.382Y52.952
G1 X533.429Y52.552
G1 X533.474Y52.125
G1 X533.563Y51.207
G1 X533.646Y50.227
G1 X533.721Y49.21
G1 X533.788Y48.185
G1 X533.844Y47.179
G1 X533.888Y46.218
G1 X533.905Y45.764
G1 X533.918Y45.331
G1 Y44.923
G1 X533.933Y44.543
G1 Y44.196
G1 Y43.884
G1 X533.922Y43.61
G1 X533.909Y43.379
G1 X533.891Y43.193
G1 X533.868Y43.056
G1 X533.839Y42.971
G1 X533.804Y42.942
G1 X533.653Y42.953
G1 X533.477Y42.985
G1 X533.278Y43.038
G1 X533.057Y43.109
G1 X532.556Y43.307
G1 X531.985Y43.569
G1 X531.358Y43.89
G1 X530.687Y44.26
G1 X529.984Y44.673
G1 X529.26Y45.119
G1 X527.803Y46.086
G1 X526.413Y47.096
G1 X525.774Y47.599
G1 X525.188Y48.09
G1 X524.668Y48.561
G1 X524.227Y49.004
G1 X523.993Y49.256
G1 X523.787Y49.487
G1 X523.608Y49.706
G1 X523.453Y49.924
G1 X523.32Y50.15
G1 X523.206Y50.394
G1 X523.11Y50.668
G1 X523.029Y50.98
G1 X522.96Y51.341
G1 X522.903Y51.761
G1 X522.853Y52.251
G1 X522.81Y52.82
G1 X522.77Y53.478
G1 X522.733Y54.236
G1 X522.714Y54.655
G1 X522.624Y56.834
G1 X522.6Y57.52
G1 X522.583Y58.149
G1 X522.571Y58.723
G1 Y59.244
G1 Y59.713
G0 X527.639Y62.51
G1 X527.381Y62.742
G1 X527.15Y62.969
G1 X526.947Y63.189
G1 X526.774Y63.401
G1 X526.632Y63.606
G1 X526.522Y63.8
G1 X526.447Y63.985
G1 X526.407Y64.159
G1 Y64.32
G1 X526.439Y64.469
G1 X526.583Y64.771
G1 X526.759Y64.989
G1 X526.867Y65.066
G1 X526.99Y65.124
G1 X527.131Y65.16
G1 X527.293Y65.176
G1 X527.479
G1 X527.69Y65.147
G1 X527.929Y65.102
G1 X528.199Y65.037
G1 X528.503Y64.952
G1 X528.842Y64.847
G1 X529.219Y64.721
G1 X530.126Y64.407
G1 X530.554Y64.265
G1 X530.922Y64.152
G1 X531.23Y64.07
G1 X531.479Y64.019
G1 X531.67Y63.999
G1 X531.804Y64.013
G1 X531.881Y64.062
G1 X531.902Y64.145
G1 X531.869Y64.265
G1 X531.781Y64.422
G1 X531.639Y64.617
G1 X531.445Y64.852
G1 X531.198Y65.126
G1 X530.901Y65.443
G1 X530.257Y66.104
G1 X529.998Y66.374
G1 X529.772Y66.616
G1 X529.58Y66.831
G1 X529.419Y67.022
G1 X529.289Y67.192
G1 X529.189Y67.344
G1 X529.116Y67.481
G1 X529.071Y67.605
G1 X529.051Y67.719
G1 Y67.825
G1 X529.083Y67.928
G1 X529.202Y68.13
G1 X529.399Y68.347
G1 X529.611Y68.545
G1 X529.805Y68.688
G1 X530Y68.776
G1 X530.211Y68.809
G1 X530.455Y68.789
G1 X530.75Y68.715
G1 X531.111Y68.587
G1 X532.041Y68.212
G1 X532.471Y68.053
G1 X532.848Y67.929
G1 X533.171Y67.841
G1 X533.439Y67.788
G1 X533.653Y67.77
G1 X533.812Y67.787
G1 X533.916Y67.839
G1 X533.965Y67.925
G1 Y68.045
G1 X533.897Y68.199
G1 X533.779Y68.387
G1 X533.605Y68.608
G1 X533.374Y68.863
G1 X533.087Y69.151
G1 X532.435Y69.756
G1 X532.156Y70.028
G1 X531.907Y70.286
G1 X531.686Y70.532
G1 X531.494Y70.765
G1 X531.33Y70.987
G1 X531.194Y71.198
G1 X531.086Y71.397
G1 X531.006Y71.586
G1 X530.954Y71.764
G1 X530.929Y71.933
G1 Y72.093
G1 X530.96Y72.243
G1 X531.016Y72.385
G1 X531.098Y72.519
G1 X531.207Y72.645
G1 X531.417Y72.804
G1 X531.674Y72.887
G1 X531.828Y72.897
G1 X532.003Y72.887
G1 X532.202Y72.854
G1 X532.427Y72.797
G1 X532.683Y72.717
G1 X532.972Y72.611
G1 X533.297Y72.48
G1 X533.662Y72.321
G1 X534.068Y72.136
G1 X534.52Y71.921
G1 X535.02Y71.677
G1 X535.572Y71.404
G1 X536.208Y71.07
G1 X536.849Y70.704
G1 X537.494Y70.308
G1 X538.139Y69.884
G1 X539.413Y68.966
G1 X540.648Y67.971
G1 X541.816Y66.922
G1 X542.892Y65.841
G1 X543.388Y65.295
G1 X543.85Y64.75
G1 X544.277Y64.207
G1 X544.665Y63.67
G1 X544.908Y63.307
G1 X545.168Y62.9
G1 X545.44Y62.458
G1 X545.72Y61.99
G1 X546.285Y61.008
G1 X546.828Y60.019
G1 X547.079Y59.543
G1 X547.312Y59.091
G1 X547.521Y58.67
G1 X547.703Y58.29
G1 X547.851Y57.958
G1 X547.963Y57.684
G1 X548.033Y57.474
G1 X548.058Y57.339
G1 X548.034Y57.289
G1 X547.964Y57.245
G1 X547.85Y57.206
G1 X547.695Y57.172
G1 X547.501Y57.142
G1 X547.272Y57.117
G1 X547.01Y57.096
G1 X546.717Y57.08
G1 X546.049Y57.06
G1 X545.289
G1 X544.459
G1 X543.579Y57.097
G1 X541.752Y57.192
G1 X539.975Y57.338
G1 X539.157Y57.427
G1 X538.413Y57.526
G1 X538.076Y57.579
G1 X537.765Y57.635
G1 X537.483Y57.692
G1 X537.232Y57.752
G1 X536.251Y58.032
G1 X535.257Y58.364
G1 X534.263Y58.74
G1 X533.278Y59.155
G1 X532.316Y59.599
G1 X531.386Y60.067
G1 X530.502Y60.552
G1 X529.673Y61.045
G1 X528.913Y61.541
G1 X528.231Y62.031
G1 X527.923Y62.273
G1 X527.639Y62.51
G0 X505.063Y92.076
G1 X504.997Y92.066
G1 X504.907
G1 X504.795Y92.104
G1 X504.661Y92.15
G1 X504.339Y92.293
G1 X503.953Y92.498
G1 X503.514Y92.758
G1 X503.036Y93.064
G1 X502.531Y93.412
G1 X502.011Y93.792
G1 X500.867Y94.617
G1 X499.624Y95.448
G1 X499.013Y95.835
G1 X498.433Y96.187
G1 X497.903Y96.493
G1 X496.884Y97.036
G1 X496.418Y97.318
G1 X496.032Y97.598
G1 X495.715Y97.887
G1 X495.455Y98.198
G1 X495.241Y98.542
G1 X495.06Y98.932
G1 X494.902Y99.38
G1 X494.849Y99.573
G1 X494.797Y99.81
G1 X494.745Y100.087
G1 X494.694Y100.401
G1 X494.644Y100.75
G1 X494.595Y101.13
G1 X494.548Y101.537
G1 X494.502Y101.968
G1 X494.415Y102.89
G1 X494.336Y103.87
G1 X494.267Y104.881
G1 X494.208Y105.897
G1 X494.162Y106.892
G1 X494.129Y107.84
G1 X494.118Y108.288
G1 Y108.714
G1 Y109.115
G1 Y109.488
G1 Y109.829
G1 Y110.135
G1 X494.141Y110.403
G1 X494.161Y110.63
G1 X494.186Y110.812
G1 X494.216Y110.947
G1 X494.252Y111.029
G1 X494.293Y111.058
G1 X494.398Y111.036
G1 X494.578Y110.974
G1 X494.825Y110.876
G1 X495.129Y110.746
G1 X495.479Y110.589
G1 X495.866Y110.409
G1 X496.28Y110.21
G1 X496.71Y109.997
G1 X497.764Y109.443
G1 X498.786Y108.856
G1 X499.767Y108.243
G1 X500.7Y107.61
G1 X501.576Y106.962
G1 X502.385Y106.307
G1 X503.121Y105.648
G1 X503.773Y104.994
G1 X504.007Y104.742
G1 X504.212Y104.512
G1 X504.391Y104.293
G1 X504.547Y104.076
G1 X504.68Y103.85
G1 X504.793Y103.606
G1 X504.89Y103.333
G1 X504.971Y103.021
G1 X505.039Y102.66
G1 X505.097Y102.241
G1 X505.146Y101.752
G1 X505.19Y101.184
G1 X505.229Y100.527
G1 X505.267Y99.77
G1 X505.286Y99.351
G1 X505.377Y97.162
G1 X505.4Y96.467
G1 X505.418Y95.832
G1 X505.43Y95.254
G1 Y94.731
G1 Y94.263
G1 Y93.845
G1 X505.415Y93.477
G1 X505.395Y93.157
G1 X505.368Y92.882
G1 X505.334Y92.65
G1 X505.294Y92.461
G1 X505.247Y92.31
G1 X505.193Y92.197
G1 X505.131Y92.12
G1 X505.063Y92.076
G0 X508.853Y94.185
G1 X508.739Y94.313
G1 X508.636Y94.481
G1 X508.542Y94.692
G1 X508.457Y94.946
G1 X508.379Y95.248
G1 X508.307Y95.6
G1 X508.24Y96.004
G1 X508.175Y96.462
G1 X508.113Y96.977
G1 X508.051Y97.552
G1 X507.97Y98.574
G1 X507.936Y99.603
G1 X507.949Y100.635
G1 X508.007Y101.671
G1 X508.112Y102.708
G1 X508.261Y103.744
G1 X508.455Y104.777
G1 X508.693Y105.807
G1 X508.975Y106.83
G1 X509.3Y107.845
G1 X509.668Y108.851
G1 X510.079Y109.846
G1 X510.532Y110.828
G1 X511.026Y111.795
G1 X511.561Y112.745
G1 X512.137Y113.677
G1 X513.888Y116.386
G1 X514.922Y115.114
G1 X515.036Y114.969
G1 X515.161Y114.797
G1 X515.297Y114.601
G1 X515.443Y114.383
G1 X515.757Y113.888
G1 X516.094Y113.332
G1 X516.794Y112.101
G1 X517.46Y110.832
G1 X517.8Y110.111
G1 X518.121Y109.356
G1 X518.42Y108.573
G1 X518.697Y107.765
G1 X518.951Y106.936
G1 X519.181Y106.092
G1 X519.386Y105.236
G1 X519.566Y104.373
G1 X519.719Y103.507
G1 X519.846Y102.643
G1 X519.944Y101.786
G1 X520.013Y100.939
G1 X520.052Y100.106
G1 Y99.294
G1 X520.038Y98.505
G1 X519.983Y97.744
G1 X519.921Y97.167
G1 X519.85Y96.607
G1 X519.773Y96.078
G1 X519.691Y95.593
G1 X519.608Y95.167
G1 X519.525Y94.814
G1 X519.485Y94.668
G1 X519.446Y94.546
G1 X519.408Y94.449
G1 X519.372Y94.378
G1 X519.262Y94.237
G1 X519.129Y94.131
G1 X518.979Y94.058
G1 X518.814Y94.017
G1 X518.639Y94.005
G1 X518.458Y94.021
G1 X518.275Y94.064
G1 X518.094Y94.131
G1 X517.752Y94.332
G1 X517.465Y94.61
G1 X517.352Y94.774
G1 X517.264Y94.952
G1 X517.205Y95.142
G1 X517.18Y95.343
G1 X517.162Y95.566
G1 X517.125Y95.841
G1 X517.07Y96.159
G1 X516.999Y96.507
G1 X516.822Y97.253
G1 X516.611Y97.992
G1 X516.075Y99.705
G1 X515.505Y97.242
G1 X515.418Y96.873
G1 X515.335Y96.541
G1 X515.255Y96.245
G1 X515.178Y95.983
G1 X515.102Y95.753
G1 X515.025Y95.552
G1 X514.948Y95.38
G1 X514.867Y95.233
G1 X514.695Y95.012
G1 X514.499Y94.872
G1 X514.271Y94.8
G1 X514Y94.779
G1 X513.729Y94.799
G1 X513.502Y94.87
G1 X513.308Y95.007
G1 X513.138Y95.225
G1 X513.06Y95.368
G1 X512.984Y95.537
G1 X512.91Y95.734
G1 X512.836Y95.96
G1 X512.762Y96.218
G1 X512.686Y96.508
G1 X512.607Y96.833
G1 X512.524Y97.196
G1 X512.412Y97.672
G1 X512.302Y98.079
G1 X512.195Y98.416
G1 X512.091Y98.683
G1 X511.989Y98.881
G1 X511.89Y99.008
G1 X511.792Y99.066
G1 X511.697Y99.053
G1 X511.604Y98.971
G1 X511.513Y98.818
G1 X511.423Y98.595
G1 X511.334Y98.302
G1 X511.247Y97.938
G1 X511.161Y97.503
G1 X511.076Y96.998
G1 X510.992Y96.422
G1 X510.908Y95.892
G1 X510.815Y95.444
G1 X510.707Y95.072
G1 X510.582Y94.769
G1 X510.436Y94.527
G1 X510.266Y94.341
G1 X510.068Y94.203
G1 X509.839Y94.107
G1 X509.632Y94.05
G1 X509.444Y94.017
G1 X509.273
G1 X509.119Y94.037
G1 X508.979Y94.093
G1 X508.853Y94.185
G0 X522.562Y94.213
G1 Y94.681
G1 Y95.206
G1 X522.58Y95.789
G1 X522.598Y96.434
G1 X522.622Y97.143
G1 X522.653Y97.918
G1 X522.733Y99.77
G1 X522.771Y100.527
G1 X522.81Y101.184
G1 X522.853Y101.752
G1 X522.903Y102.241
G1 X522.961Y102.66
G1 X523.029Y103.021
G1 X523.11Y103.333
G1 X523.207Y103.606
G1 X523.32Y103.85
G1 X523.453Y104.076
G1 X523.608Y104.293
G1 X523.787Y104.512
G1 X523.993Y104.742
G1 X524.227Y104.994
G1 X524.649Y105.417
G1 X525.152Y105.871
G1 X525.724Y106.349
G1 X526.351Y106.843
G1 X527.722Y107.845
G1 X529.165Y108.813
G1 X529.881Y109.263
G1 X530.579Y109.681
G1 X531.244Y110.058
G1 X531.864Y110.386
G1 X532.427Y110.657
G1 X532.919Y110.863
G1 X533.135Y110.939
G1 X533.329Y110.996
G1 X533.5Y111.032
G1 X533.644Y111.047
G1 X533.681Y111.022
G1 X533.714Y110.946
G1 X533.744Y110.823
G1 X533.771Y110.654
G1 X533.794Y110.442
G1 X533.814Y110.19
G1 X533.83Y109.901
G1 X533.843Y109.576
G1 Y109.219
G1 X533.858Y108.832
G1 Y108.417
G1 Y107.978
G1 X533.84Y107.035
G1 X533.806Y106.024
G1 X533.779Y105.381
G1 X533.751Y104.772
G1 X533.722Y104.197
G1 X533.691Y103.655
G1 X533.658Y103.143
G1 X533.622Y102.661
G1 X533.582Y102.208
G1 X533.539Y101.782
G1 X533.44Y101.007
G1 X533.321Y100.326
G1 X533.177Y99.729
G1 X533.004Y99.207
G1 X532.8Y98.749
G1 X532.56Y98.345
G1 X532.28Y97.986
G1 X531.956Y97.662
G1 X531.585Y97.362
G1 X531.163Y97.076
G1 X530.687Y96.795
G1 X530.151Y96.509
G1 X529.617Y96.222
G1 X529.036Y95.887
G1 X528.427Y95.516
G1 X527.807Y95.123
G1 X527.197Y94.717
G1 X526.613Y94.313
G1 X526.076Y93.922
G1 X525.169Y93.22
G1 X524.743Y92.914
G1 X524.335Y92.645
G1 X523.958Y92.42
G1 X523.62Y92.243
G1 X523.334Y92.121
G1 X523.109Y92.061
G1 X522.958
G1 X522.885Y92.112
G1 X522.819Y92.188
G1 X522.762Y92.297
G1 X522.712Y92.442
G1 X522.669Y92.626
G1 X522.633Y92.851
G1 X522.605Y93.119
G1 X522.584Y93.434
G1 X522.57Y93.798
G1 Y94.213
G0 X527.513Y91.398
G1 X528.056Y91.853
G1 X528.686Y92.321
G1 X529.393Y92.796
G1 X530.169Y93.272
G1 X531.003Y93.742
G1 X531.886Y94.201
G1 X532.809Y94.642
G1 X533.762Y95.06
G1 X534.735Y95.448
G1 X535.719Y95.8
G1 X536.705Y96.11
G1 X536.936Y96.171
G1 X537.203Y96.231
G1 X537.505Y96.29
G1 X537.839Y96.348
G1 X538.588Y96.459
G1 X539.428Y96.562
G1 X541.286Y96.743
G1 X543.225Y96.878
G1 X544.167Y96.926
G1 X545.059Y96.958
G1 X545.878Y96.974
G1 X546.6
G1 X546.918
G1 X547.203Y96.951
G1 X547.452Y96.933
G1 X547.662Y96.909
G1 X547.831Y96.88
G1 X547.955Y96.846
G1 X548.032Y96.805
G1 X548.058Y96.759
G1 X548.044Y96.693
G1 X548.004Y96.567
G1 X547.941Y96.388
G1 X547.857Y96.164
G1 X547.756Y95.902
G1 X547.64Y95.61
G1 X547.512Y95.294
G1 X547.375Y94.962
G1 X547.148Y94.452
G1 X546.887Y93.922
G1 X546.595Y93.376
G1 X546.273Y92.817
G1 X545.55Y91.672
G1 X544.739Y90.516
G1 X543.86Y89.374
G1 X542.931Y88.272
G1 X541.973Y87.239
G1 X541.005Y86.299
G1 X540.478Y85.842
G1 X539.89Y85.375
G1 X539.252Y84.904
G1 X538.575Y84.435
G1 X537.151Y83.529
G1 X535.71Y82.705
G1 X535.011Y82.339
G1 X534.342Y82.012
G1 X533.713Y81.731
G1 X533.138Y81.501
G1 X532.626Y81.328
G1 X532.189Y81.219
G1 X532.002Y81.19
G1 X531.839Y81.18
G1 X531.699
G1 X531.586Y81.216
G1 X531.39Y81.307
G1 X531.231Y81.414
G1 X531.107Y81.538
G1 X531.02Y81.678
G1 X530.968Y81.834
G1 X530.952Y82.006
G1 X530.972Y82.193
G1 X531.027Y82.395
G1 X531.118Y82.612
G1 X531.245Y82.844
G1 X531.406Y83.09
G1 X531.604Y83.351
G1 X531.836Y83.625
G1 X532.103Y83.913
G1 X532.405Y84.214
G1 X533.087Y84.849
G1 X533.374Y85.137
G1 X533.605Y85.392
G1 X533.779Y85.613
G1 X533.897Y85.801
G1 X533.959Y85.955
G1 Y86.076
G1 X533.916Y86.162
G1 X533.812Y86.213
G1 X533.653Y86.23
G1 X533.439Y86.212
G1 X533.171Y86.159
G1 X532.848Y86.071
G1 X532.471Y85.947
G1 X532.041Y85.788
G1 X531.111Y85.413
G1 X530.75Y85.286
G1 X530.455Y85.211
G1 X530.211Y85.191
G1 X530Y85.224
G1 X529.805Y85.312
G1 X529.611Y85.455
G1 X529.399Y85.653
G1 X529.202Y85.87
G1 X529.083Y86.072
G1 X529.055Y86.175
G1 Y86.281
G1 X529.071Y86.395
G1 X529.116Y86.519
G1 X529.189Y86.656
G1 X529.289Y86.808
G1 X529.419Y86.978
G1 X529.58Y87.169
G1 X529.772Y87.384
G1 X529.998Y87.626
G1 X530.257Y87.896
G1 X530.901Y88.557
G1 X531.198Y88.874
G1 X531.445Y89.149
G1 X531.639Y89.383
G1 X531.781Y89.578
G1 X531.869Y89.735
G1 X531.902Y89.855
G1 X531.881Y89.939
G1 X531.804Y89.987
G1 X531.67Y90.001
G1 X531.479Y89.982
G1 X531.23Y89.93
G1 X530.922Y89.848
G1 X530.554Y89.735
G1 X530.126Y89.593
G1 X529.219Y89.279
G1 X528.842Y89.154
G1 X528.503Y89.048
G1 X528.199Y88.963
G1 X527.929Y88.898
G1 X527.69Y88.853
G1 X527.479Y88.828
G1 X527.293
G1 X527.131Y88.84
G1 X526.99Y88.877
G1 X526.867Y88.934
G1 X526.759Y89.011
G1 X526.583Y89.229
G1 X526.439Y89.531
G1 X526.404Y89.674
G1 Y89.829
G1 X526.437Y89.996
G1 X526.502Y90.172
G1 X526.599Y90.357
G1 X526.727Y90.551
G1 X526.883Y90.753
G1 X527.067Y90.962
G1 X527.513Y91.398
G0 X539.921Y81.778
G1 X540.291Y81.988
G1 X540.632Y82.16
G1 X540.955Y82.295
G1 X541.267Y82.394
G1 X541.578Y82.457
G1 X541.896Y82.483
G1 X542.23
G1 X542.589Y82.429
G1 X542.982Y82.349
G1 X543.418Y82.233
G1 X543.905Y82.083
G1 X544.453Y81.898
G1 X545.069Y81.678
G1 X545.764Y81.424
G1 X546.262Y81.225
G1 X546.834Y80.971
G1 X547.458Y80.671
G1 X548.117Y80.337
G1 X548.788Y79.979
G1 X549.452Y79.606
G1 X550.088Y79.231
G1 X550.677Y78.863
G1 X553.386Y77.112
G1 X552.114Y76.078
G1 X551.749Y75.8
G1 X551.313Y75.502
G1 X550.816Y75.187
G1 X550.268Y74.862
G1 X549.054Y74.194
G1 X547.747Y73.535
G1 X546.42Y72.921
G1 X545.151Y72.389
G1 X544.56Y72.164
G1 X544.012Y71.973
G1 X543.516Y71.821
G1 X543.081Y71.712
G1 X542.532Y71.606
G1 X542.064Y71.55
G1 X541.641
G1 X541.23Y71.627
G1 X541.017Y71.692
G1 X540.795Y71.778
G1 X540.558Y71.885
G1 X540.303Y72.016
G1 X540.025Y72.17
G1 X539.72Y72.35
G1 X539.383Y72.555
G1 X539.011Y72.789
G1 X538.497Y73.1
G1 X537.921Y73.425
G1 X537.302Y73.755
G1 X536.659Y74.081
G1 X536.012Y74.392
G1 X535.38Y74.68
G1 X534.784Y74.934
G1 X534.242Y75.144
G1 X533.885Y75.277
G1 X533.563Y75.401
G1 X533.274Y75.52
G1 X533.016Y75.633
G1 X532.787Y75.741
G1 X532.586Y75.847
G1 X532.412Y75.951
G1 X532.262Y76.055
G1 X532.032Y76.265
G1 X531.883Y76.486
G1 X531.803Y76.728
G1 X531.779Y77
G1 X531.803Y77.272
G1 X531.883Y77.514
G1 X532.032Y77.735
G1 X532.262Y77.945
G1 X532.412Y78.049
G1 X532.586Y78.153
G1 X532.787Y78.259
G1 X533.016Y78.368
G1 X533.274Y78.481
G1 X533.563Y78.599
G1 X533.885Y78.724
G1 X534.242Y78.856
G1 X534.785Y79.067
G1 X535.384Y79.323
G1 X536.02Y79.614
G1 X536.674Y79.93
G1 X537.324Y80.261
G1 X537.952Y80.597
G1 X538.538Y80.93
G1 X539.061Y81.248
G1 X539.514Y81.532
G1 X539.921Y81.778
G0 X683.036Y208.245
G1 X682.966Y208.289
G1 X682.942Y208.338
G1 X682.967Y208.474
G1 X683.037Y208.684
G1 X683.149Y208.958
G1 X683.297Y209.29
G1 X683.479Y209.67
G1 X683.688Y210.091
G1 X683.92Y210.543
G1 X684.172Y211.019
G1 X684.715Y212.007
G1 X685.28Y212.99
G1 X685.56Y213.458
G1 X685.832Y213.9
G1 X686.092Y214.307
G1 X686.335Y214.67
G1 X686.724Y215.208
G1 X687.151Y215.752
G1 X687.615Y216.298
G1 X688.111Y216.845
G1 X689.189Y217.927
G1 X690.359Y218.977
G1 X691.596Y219.972
G1 X692.876Y220.892
G1 X693.523Y221.317
G1 X694.171Y221.715
G1 X694.817Y222.083
G1 X695.457Y222.418
G1 X696.045Y222.707
G1 X696.582Y222.961
G1 X697.071Y223.18
G1 X697.514Y223.364
G1 X697.914Y223.513
G1 X698.271Y223.629
G1 X698.588Y223.709
G1 X698.867Y223.757
G1 X699.111Y223.77
G1 X699.322Y223.75
G1 X699.501Y223.697
G1 X699.651Y223.611
G1 X699.774Y223.493
G1 X699.872Y223.342
G1 X699.947Y223.158
G1 X700.001Y222.943
G1 Y222.745
G1 X699.934Y222.509
G1 X699.804Y222.238
G1 X699.612Y221.936
G1 X699.363Y221.608
G1 X699.058Y221.257
G1 X698.7Y220.887
G1 X698.292Y220.503
G1 X697.942Y220.177
G1 X697.65Y219.884
G1 X697.414Y219.625
G1 X697.235Y219.4
G1 X697.113Y219.209
G1 X697.047Y219.052
G1 Y218.929
G1 X697.084Y218.841
G1 X697.186Y218.788
G1 X697.344Y218.77
G1 X697.557Y218.787
G1 X697.825Y218.839
G1 X698.148Y218.928
G1 X698.525Y219.051
G1 X698.957Y219.211
G1 X699.888Y219.587
G1 X700.25Y219.715
G1 X700.545Y219.789
G1 X700.789Y219.809
G1 X701Y219.776
G1 X701.194Y219.688
G1 X701.389Y219.545
G1 X701.601Y219.347
G1 X701.798Y219.13
G1 X701.917Y218.928
G1 X701.945Y218.825
G1 Y218.719
G1 X701.929Y218.605
G1 X701.884Y218.481
G1 X701.811Y218.344
G1 X701.71Y218.192
G1 X701.581Y218.022
G1 X701.42Y217.831
G1 X701.228Y217.616
G1 X701.002Y217.374
G1 X700.743Y217.104
G1 X700.099Y216.443
G1 X699.802Y216.126
G1 X699.555Y215.851
G1 X699.361Y215.617
G1 X699.219Y215.422
G1 X699.131Y215.265
G1 X699.098Y215.145
G1 X699.119Y215.062
G1 X699.196Y215.013
G1 X699.33Y214.999
G1 X699.521Y215.018
G1 X699.77Y215.07
G1 X700.078Y215.152
G1 X700.446Y215.265
G1 X700.874Y215.407
G1 X701.781Y215.721
G1 X702.158Y215.846
G1 X702.497Y215.952
G1 X702.8Y216.037
G1 X703.071Y216.102
G1 X703.31Y216.147
G1 X703.521Y216.172
G1 X703.707
G1 X703.869Y216.16
G1 X704.01Y216.123
G1 X704.133Y216.066
G1 X704.241Y215.989
G1 X704.417Y215.771
G1 X704.561Y215.469
G1 X704.596Y215.32
G1 Y215.159
G1 X704.553Y214.985
G1 X704.478Y214.8
G1 X704.368Y214.605
G1 X704.226Y214.401
G1 X704.053Y214.189
G1 X703.85Y213.969
G1 X703.619Y213.742
G1 X703.36Y213.51
G1 X703.077Y213.273
G1 X702.769Y213.031
G1 X702.087Y212.541
G1 X701.326Y212.045
G1 X700.498Y211.552
G1 X699.613Y211.067
G1 X698.684Y210.599
G1 X697.722Y210.154
G1 X696.737Y209.74
G1 X695.742Y209.364
G1 X694.749Y209.032
G1 X693.767Y208.752
G1 X693.517Y208.692
G1 X693.235Y208.635
G1 X692.924Y208.579
G1 X692.587Y208.526
G1 X691.843Y208.427
G1 X691.025Y208.338
G1 X689.247Y208.192
G1 X687.421Y208.097
G1 X686.541Y208.069
G1 X685.71Y208.057
G1 X684.951
G1 X684.283Y208.08
G1 X683.99Y208.096
G1 X683.728Y208.117
G1 X683.498Y208.142
G1 X683.305Y208.172
G1 X683.15Y208.206
G1 X683.036Y208.245
G0 X698.066Y206.085
G1 X698.255Y206.486
G1 X698.485Y206.841
G1 X698.773Y207.165
G1 X699.137Y207.476
G1 X699.593Y207.79
G1 X699.861Y207.952
G1 X700.158Y208.122
G1 X700.487Y208.301
G1 X700.849Y208.491
G1 X701.383Y208.778
G1 X701.964Y209.113
G1 X702.573Y209.484
G1 X703.192Y209.877
G1 X703.803Y210.283
G1 X704.387Y210.687
G1 X704.924Y211.078
G1 X705.831Y211.78
G1 X706.257Y212.086
G1 X706.664Y212.355
G1 X707.042Y212.58
G1 X707.38Y212.757
G1 X707.666Y212.879
G1 X707.89Y212.939
G1 X708.042
G1 X708.115Y212.888
G1 X708.18Y212.812
G1 X708.238Y212.703
G1 X708.288Y212.558
G1 X708.331Y212.374
G1 X708.367Y212.149
G1 X708.395Y211.881
G1 X708.416Y211.566
G1 X708.43Y211.202
G1 Y210.788
G1 Y210.319
G1 Y209.794
G1 Y209.211
G1 X708.402Y208.566
G1 X708.377Y207.857
G1 X708.347Y207.082
G1 X708.267Y205.23
G1 X708.229Y204.474
G1 X708.19Y203.816
G1 X708.146Y203.248
G1 X708.097Y202.759
G1 X708.039Y202.34
G1 X707.971Y201.979
G1 X707.89Y201.667
G1 X707.793Y201.394
G1 X707.68Y201.149
G1 X707.547Y200.923
G1 X707.391Y200.706
G1 X707.212Y200.487
G1 X707.007Y200.256
G1 X706.773Y200.004
G1 X706.331Y199.561
G1 X705.812Y199.09
G1 X705.226Y198.599
G1 X704.587Y198.096
G1 X703.197Y197.086
G1 X701.74Y196.119
G1 X701.016Y195.672
G1 X700.313Y195.26
G1 X699.641Y194.89
G1 X699.015Y194.569
G1 X698.444Y194.307
G1 X697.943Y194.109
G1 X697.722Y194.038
G1 X697.523Y193.985
G1 X697.347Y193.953
G1 X697.196Y193.942
G1 X697.161Y193.971
G1 X697.132Y194.056
G1 X697.109Y194.193
G1 X697.091Y194.379
G1 X697.078Y194.61
G1 Y194.884
G1 X697.066Y195.196
G1 Y195.543
G1 Y195.923
G1 X697.082Y196.331
G1 X697.095Y196.764
G1 X697.112Y197.218
G1 X697.156Y198.179
G1 X697.212Y199.185
G1 X697.279Y200.211
G1 X697.354Y201.227
G1 X697.437Y202.208
G1 X697.526Y203.125
G1 X697.571Y203.552
G1 X697.618Y203.953
G1 X697.665Y204.324
G1 X697.713Y204.663
G1 X697.76Y204.965
G1 X697.808Y205.228
G1 X697.856Y205.447
G1 X697.903Y205.621
G1 X698.066Y206.085
G0 X710.919Y206.252
G1 X710.948Y206.847
G1 X711.002Y207.393
G1 X711.088Y208.058
G1 X711.168Y208.644
G1 X711.246Y209.156
G1 X711.323Y209.596
G1 X711.402Y209.97
G1 X711.486Y210.281
G1 X711.576Y210.534
G1 X711.676Y210.731
G1 X711.788Y210.878
G1 X711.914Y210.978
G1 X712.057Y211.035
G1 X712.219Y211.053
G1 X712.403Y211.037
G1 X712.611Y210.989
G1 X712.846Y210.915
G1 X713.109Y210.818
G1 X713.246Y210.747
G1 X713.375Y210.645
G1 X713.493Y210.516
G1 X713.598Y210.365
G1 X713.754Y210.017
G1 X713.82Y209.64
G1 X713.837Y209.421
G1 X713.875Y209.148
G1 X713.93Y208.834
G1 X714Y208.488
G1 X714.178Y207.746
G1 X714.389Y207.008
G1 X714.925Y205.295
G1 X715.495Y207.758
G1 X715.582Y208.127
G1 X715.665Y208.459
G1 X715.745Y208.755
G1 X715.822Y209.017
G1 X715.898Y209.247
G1 X715.975Y209.448
G1 X716.052Y209.62
G1 X716.133Y209.767
G1 X716.305Y209.988
G1 X716.501Y210.128
G1 X716.729Y210.201
G1 X717Y210.221
G1 X717.271Y210.201
G1 X717.499Y210.128
G1 X717.695Y209.988
G1 X717.867Y209.767
G1 X717.948Y209.62
G1 X718.025Y209.448
G1 X718.102Y209.247
G1 X718.178Y209.017
G1 X718.255Y208.755
G1 X718.335Y208.459
G1 X718.418Y208.127
G1 X718.505Y207.758
G1 X719.075Y205.295
G1 X719.611Y207.008
G1 X719.822Y207.748
G1 X719.999Y208.493
G1 X720.07Y208.841
G1 X720.125Y209.159
G1 X720.162Y209.434
G1 X720.18Y209.657
G1 X720.205Y209.858
G1 X720.264Y210.048
G1 X720.352Y210.226
G1 X720.465Y210.39
G1 X720.752Y210.668
G1 X721.094Y210.869
G1 X721.275Y210.936
G1 X721.458Y210.979
G1 X721.639Y210.995
G1 X721.814Y210.983
G1 X721.979Y210.942
G1 X722.129Y210.869
G1 X722.262Y210.763
G1 X722.372Y210.622
G1 X722.506Y210.351
G1 X722.624Y209.998
G1 X722.727Y209.571
G1 X722.815Y209.078
G1 X722.888Y208.527
G1 X722.944Y207.925
G1 X722.985Y207.28
G1 X723.01Y206.599
G1 Y205.163
G1 X722.945Y203.678
G1 X722.887Y202.937
G1 X722.811Y202.206
G1 X722.719Y201.494
G1 X722.608Y200.809
G1 X722.468Y200.099
G1 X722.298Y199.37
G1 X722.099Y198.626
G1 X721.875Y197.873
G1 X721.357Y196.358
G1 X720.76Y194.864
G1 X720.437Y194.137
G1 X720.101Y193.43
G1 X719.753Y192.748
G1 X719.397Y192.096
G1 X719.034Y191.479
G1 X718.665Y190.902
G1 X718.294Y190.369
G1 X717.922Y189.886
G1 X716.888Y188.614
G1 X715.137Y191.323
G1 X714.768Y191.915
G1 X714.388Y192.56
G1 X714.009Y193.238
G1 X713.642Y193.928
G1 X713.297Y194.608
G1 X712.986Y195.259
G1 X712.718Y195.858
G1 X712.505Y196.387
G1 X712.296Y196.985
G1 X712.098Y197.625
G1 X711.911Y198.303
G1 X711.738Y199.01
G1 X711.434Y200.486
G1 X711.193Y202.002
G1 X711.098Y202.758
G1 X711.022Y203.504
G1 X710.965Y204.232
G1 X710.928Y204.938
G1 X710.912Y205.613
G1 Y206.252
G0 X690.693Y223.013
G1 X690.438Y222.882
G1 X690.202Y222.775
G1 X689.981Y222.69
G1 X689.769Y222.626
G1 X689.36Y222.555
G1 X688.938
G1 X688.47Y222.614
G1 X687.919Y222.725
G1 X687.469Y222.835
G1 X686.997Y222.968
G1 X686.505Y223.124
G1 X685.996Y223.3
G1 X684.94Y223.71
G1 X683.853Y224.186
G1 X682.759Y224.718
G1 X681.681Y225.295
G1 X680.645Y225.906
G1 X679.673Y226.539
G1 X677.662Y227.923
G1 X678.68Y228.746
G1 X679.429Y229.314
G1 X680.271Y229.881
G1 X681.188Y230.44
G1 X682.167Y230.981
G1 X683.19Y231.497
G1 X684.242Y231.979
G1 X685.307Y232.419
G1 X686.369Y232.808
G1 X686.931Y233
G1 X687.946Y233.342
G1 X688.734Y233.603
G1 X689.12Y233.726
G1 X689.257Y233.766
G1 X689.284
G1 X689.312
G1 X689.368Y233.74
G1 X689.45Y233.699
G1 X689.557Y233.643
G1 X689.839Y233.488
G1 X690.203Y233.282
G1 X690.635Y233.032
G1 X691.125Y232.745
G1 X691.66Y232.428
G1 X692.227Y232.087
G1 X693.484Y231.374
G1 X694.828Y230.685
G1 X695.481Y230.375
G1 X696.097Y230.1
G1 X696.653Y229.871
G1 X697.13Y229.697
G1 X697.432Y229.594
G1 X697.705Y229.496
G1 X697.951Y229.402
G1 X698.17Y229.31
G1 X698.535Y229.129
G1 X698.81Y228.946
G1 X699.005Y228.752
G1 X699.132Y228.539
G1 X699.201Y228.299
G1 X699.221Y228.023
G1 X699.198Y227.742
G1 X699.12Y227.495
G1 X698.974Y227.27
G1 X698.746Y227.059
G1 X698.598Y226.955
G1 X698.424Y226.851
G1 X698.224Y226.745
G1 X697.994Y226.636
G1 X697.735Y226.522
G1 X697.443Y226.404
G1 X697.118Y226.278
G1 X696.758Y226.144
G1 X696.216Y225.934
G1 X695.62Y225.68
G1 X694.988Y225.392
G1 X694.341Y225.081
G1 X693.698Y224.755
G1 X693.079Y224.425
G1 X692.503Y224.099
G1 X691.989Y223.789
G1 X691.615Y223.554
G1 X691.277Y223.348
G1 X690.971Y223.167
G1 X690.693Y223.013
G0 X702.673Y224.658
G1 X702.556Y225.336
G1 X702.487Y226.086
G1 X702.466Y226.503
G1 X702.454Y226.956
G1 Y227.45
G1 Y227.992
G1 Y228.492
G1 X702.464Y228.957
G1 X702.481Y229.391
G1 X702.504Y229.797
G1 X702.574Y230.541
G1 X702.679Y231.217
G1 X702.826Y231.853
G1 X703.018Y232.477
G1 X703.262Y233.118
G1 X703.564Y233.803
G1 X703.919Y234.527
G1 X704.303Y235.222
G1 X704.715Y235.89
G1 X705.152Y236.528
G1 X705.614Y237.137
G1 X706.1Y237.717
G1 X706.609Y238.266
G1 X707.139Y238.785
G1 X707.69Y239.274
G1 X708.26Y239.731
G1 X708.849Y240.156
G1 X709.455Y240.55
G1 X710.077Y240.911
G1 X710.714Y241.239
G1 X711.365Y241.533
G1 X712.029Y241.795
G1 X712.704Y242.022
G1 X713.39Y242.214
G1 X714.085Y242.372
G1 X714.789Y242.495
G1 X715.5Y242.582
G1 X716.218Y242.632
G1 X716.94Y242.647
G1 X717.666Y242.624
G1 X718.396Y242.564
G1 X719.126Y242.467
G1 X719.858Y242.331
G1 X720.589Y242.157
G1 X721.319Y241.944
G1 X722.046Y241.692
G1 X722.769Y241.4
G1 X723.487Y241.068
G1 X724.059Y240.772
G1 X724.613Y240.455
G1 X725.147Y240.118
G1 X725.663Y239.761
G1 X726.16Y239.383
G1 X726.639Y238.985
G1 X727.099Y238.566
G1 X727.541Y238.125
G1 X727.965Y237.664
G1 X728.371Y237.182
G1 X728.759Y236.678
G1 X729.129Y236.153
G1 X729.482Y235.606
G1 X729.818Y235.038
G1 X730.135Y234.447
G1 X730.436Y233.835
G1 X730.75Y233.133
G1 X731.003Y232.485
G1 X731.2Y231.861
G1 X731.348Y231.229
G1 X731.452Y230.557
G1 X731.519Y229.815
G1 X731.54Y229.407
G1 X731.555Y228.97
G1 Y228.499
G1 X731.565Y227.991
G1 Y227.451
G1 Y226.958
G1 X731.541Y226.506
G1 X731.519Y226.089
G1 X731.446Y225.338
G1 X731.326Y224.657
G1 X731.149Y224.002
G1 X730.904Y223.324
G1 X730.753Y222.963
G1 X730.581Y222.578
G1 X730.387Y222.165
G1 X730.169Y221.718
G1 X729.856Y221.111
G1 X729.526Y220.528
G1 X729.179Y219.968
G1 X728.814Y219.431
G1 X728.43Y218.916
G1 X728.027Y218.422
G1 X727.605Y217.95
G1 X727.162Y217.498
G1 X726.699Y217.066
G1 X726.215Y216.654
G1 X725.709Y216.261
G1 X725.181Y215.887
G1 X724.63Y215.53
G1 X724.056Y215.191
G1 X723.457Y214.869
G1 X722.835Y214.564
G1 X722.176Y214.281
G1 X721.489Y214.036
G1 X720.777Y213.828
G1 X720.046Y213.659
G1 X719.299Y213.527
G1 X718.539Y213.432
G1 X717.771Y213.376
G1 X717Y213.357
G1 X716.228Y213.376
G1 X715.461Y213.432
G1 X714.701Y213.527
G1 X713.954Y213.659
G1 X713.222Y213.828
G1 X712.511Y214.036
G1 X711.824Y214.281
G1 X711.165Y214.564
G1 X710.542Y214.869
G1 X709.944Y215.192
G1 X709.37Y215.531
G1 X708.819Y215.887
G1 X708.29Y216.262
G1 X707.784Y216.655
G1 X707.3Y217.067
G1 X706.837Y217.498
G1 X706.395Y217.95
G1 X705.972Y218.423
G1 X705.57Y218.916
G1 X705.186Y219.431
G1 X704.821Y219.969
G1 X704.474Y220.529
G1 X704.144Y221.112
G1 X703.831Y221.719
G1 X703.612Y222.169
G1 X703.417Y222.583
G1 X703.245Y222.968
G1 X703.094Y223.329
G1 X702.849Y224.005
G1 X702.673Y224.658
G0 X699.3Y232.188
G1 X699.161
G1 X698.998
G1 X698.811Y232.219
G1 X698.374Y232.328
G1 X697.862Y232.501
G1 X697.286Y232.731
G1 X696.658Y233.012
G1 X695.989Y233.339
G1 X695.29Y233.705
G1 X693.849Y234.529
G1 X692.425Y235.435
G1 X691.748Y235.904
G1 X691.11Y236.375
G1 X690.522Y236.842
G1 X689.995Y237.299
G1 X689.027Y238.239
G1 X688.069Y239.272
G1 X687.14Y240.374
G1 X686.261Y241.516
G1 X685.45Y242.672
G1 X684.727Y243.817
G1 X684.405Y244.376
G1 X684.113Y244.922
G1 X683.852Y245.452
G1 X683.625Y245.962
G1 X683.488Y246.294
G1 X683.36Y246.61
G1 X683.244Y246.902
G1 X683.143Y247.164
G1 X683.059Y247.388
G1 X682.996Y247.567
G1 X682.956Y247.693
G1 X682.942Y247.759
G1 X682.967Y247.801
G1 X683.039Y247.838
G1 X683.156Y247.87
G1 X683.315Y247.897
G1 X683.514Y247.92
G1 X683.749Y247.938
G1 X684.018Y247.952
G1 X684.318
G1 X685.001Y247.968
G1 X685.776
G1 X686.62Y247.936
G1 X687.513Y247.9
G1 X689.356Y247.791
G1 X691.129Y247.64
G1 X691.935Y247.552
G1 X692.658Y247.457
G1 X692.981Y247.406
G1 X693.276Y247.355
G1 X693.539Y247.302
G1 X693.767Y247.248
G1 X694.749Y246.968
G1 X695.742Y246.636
G1 X696.737Y246.26
G1 X697.722Y245.846
G1 X698.684Y245.401
G1 X699.613Y244.933
G1 X700.498Y244.448
G1 X701.326Y243.955
G1 X702.087Y243.459
G1 X702.769Y242.969
G1 X703.077Y242.727
G1 X703.36Y242.49
G1 X703.619Y242.258
G1 X703.85Y242.031
G1 X704.053Y241.811
G1 X704.226Y241.599
G1 X704.368Y241.395
G1 X704.478Y241.2
G1 X704.553Y241.015
G1 X704.593Y240.841
G1 Y240.68
G1 X704.561Y240.531
G1 X704.417Y240.229
G1 X704.241Y240.011
G1 X704.133Y239.934
G1 X704.01Y239.877
G1 X703.869Y239.84
G1 X703.707Y239.824
G1 X703.521
G1 X703.31Y239.853
G1 X703.071Y239.898
G1 X702.8Y239.963
G1 X702.497Y240.048
G1 X702.158Y240.154
G1 X701.781Y240.279
G1 X700.874Y240.593
G1 X700.446Y240.735
G1 X700.078Y240.848
G1 X699.77Y240.93
G1 X699.521Y240.982
G1 X699.33Y241.001
G1 X699.196Y240.987
G1 X699.119Y240.938
G1 X699.098Y240.855
G1 X699.131Y240.735
G1 X699.219Y240.578
G1 X699.361Y240.383
G1 X699.555Y240.149
G1 X699.802Y239.874
G1 X700.099Y239.557
G1 X700.743Y238.896
G1 X701.002Y238.626
G1 X701.228Y238.384
G1 X701.42Y238.169
G1 X701.581Y237.978
G1 X701.71Y237.808
G1 X701.811Y237.656
G1 X701.884Y237.519
G1 X701.929Y237.395
G1 X701.949Y237.281
G1 Y237.175
G1 X701.917Y237.072
G1 X701.798Y236.87
G1 X701.601Y236.653
G1 X701.389Y236.455
G1 X701.194Y236.312
G1 X701Y236.224
G1 X700.789Y236.191
G1 X700.545Y236.211
G1 X700.25Y236.285
G1 X699.888Y236.413
G1 X698.959Y236.788
G1 X698.529Y236.947
G1 X698.152Y237.071
G1 X697.829Y237.159
G1 X697.561Y237.212
G1 X697.347Y237.23
G1 X697.188Y237.213
G1 X697.083Y237.161
G1 X697.034Y237.076
G1 Y236.955
G1 X697.103Y236.801
G1 X697.221Y236.613
G1 X697.395Y236.392
G1 X697.626Y236.137
G1 X697.913Y235.849
G1 X698.595Y235.214
G1 X698.897Y234.913
G1 X699.164Y234.625
G1 X699.396Y234.351
G1 X699.593Y234.09
G1 X699.755Y233.844
G1 X699.882Y233.612
G1 X699.972Y233.395
G1 X700.028Y233.193
G1 X700.048Y233.006
G1 X700.032Y232.834
G1 X699.98Y232.678
G1 X699.893Y232.538
G1 X699.769Y232.414
G1 X699.609Y232.307
G1 X699.414Y232.216
G1 X699.3Y232.188
G0 X707.795Y243.103
G1 X707.661Y243.15
G1 X707.339Y243.293
G1 X706.953Y243.498
G1 X706.514Y243.757
G1 X706.036Y244.064
G1 X705.531Y244.412
G1 X705.011Y244.792
G1 X703.867Y245.617
G1 X702.624Y246.448
G1 X702.013Y246.835
G1 X701.433Y247.187
G1 X700.903Y247.493
G1 X699.884Y248.036
G1 X699.418Y248.318
G1 X699.032Y248.598
G1 X698.715Y248.887
G1 X698.455Y249.198
G1 X698.241Y249.542
G1 X698.06Y249.932
G1 X697.902Y250.38
G1 X697.849Y250.573
G1 X697.797Y250.81
G1 X697.745Y251.087
G1 X697.694Y251.401
G1 X697.644Y251.75
G1 X697.595Y252.129
G1 X697.548Y252.536
G1 X697.502Y252.968
G1 X697.415Y253.89
G1 X697.336Y254.87
G1 X697.267Y255.881
G1 X697.208Y256.897
G1 X697.162Y257.892
G1 X697.129Y258.84
G1 X697.118Y259.288
G1 Y259.714
G1 Y260.115
G1 Y260.487
G1 Y260.829
G1 Y261.135
G1 X697.141Y261.403
G1 X697.161Y261.63
G1 X697.186Y261.812
G1 X697.216Y261.947
G1 X697.252Y262.029
G1 X697.293Y262.058
G1 X697.398Y262.036
G1 X697.578Y261.974
G1 X697.825Y261.876
G1 X698.129Y261.746
G1 X698.479Y261.589
G1 X698.866Y261.409
G1 X699.28Y261.21
G1 X699.71Y260.997
G1 X700.764Y260.443
G1 X701.786Y259.856
G1 X702.767Y259.243
G1 X703.7Y258.61
G1 X704.576Y257.962
G1 X705.385Y257.307
G1 X706.121Y256.648
G1 X706.773Y255.994
G1 X707.007Y255.742
G1 X707.212Y255.511
G1 X707.391Y255.293
G1 X707.547Y255.076
G1 X707.68Y254.85
G1 X707.793Y254.606
G1 X707.89Y254.333
G1 X707.971Y254.021
G1 X708.039Y253.66
G1 X708.097Y253.241
G1 X708.146Y252.752
G1 X708.19Y252.184
G1 X708.229Y251.526
G1 X708.267Y250.77
G1 X708.286Y250.351
G1 X708.376Y248.162
G1 X708.4Y247.467
G1 X708.418Y246.832
G1 X708.43Y246.254
G1 Y245.731
G1 Y245.263
G1 Y244.845
G1 X708.415Y244.477
G1 X708.395Y244.157
G1 X708.368Y243.882
G1 X708.334Y243.65
G1 X708.294Y243.46
G1 X708.247Y243.31
G1 X708.193Y243.197
G1 X708.131Y243.12
G1 X708.063Y243.076
G1 X707.997Y243.066
G1 X707.907
G1 X707.795Y243.103
G0 X711.853Y245.185
G1 X711.739Y245.313
G1 X711.636Y245.481
G1 X711.542Y245.691
G1 X711.457Y245.946
G1 X711.379Y246.248
G1 X711.307Y246.6
G1 X711.24Y247.004
G1 X711.175Y247.462
G1 X711.113Y247.977
G1 X711.051Y248.552
G1 X710.97Y249.574
G1 X710.936Y250.602
G1 X710.949Y251.635
G1 X711.007Y252.671
G1 X711.112Y253.708
G1 X711.261Y254.744
G1 X711.455Y255.777
G1 X711.693Y256.806
G1 X711.975Y257.83
G1 X712.3Y258.845
G1 X712.669Y259.851
G1 X713.079Y260.846
G1 X713.532Y261.828
G1 X714.026Y262.795
G1 X714.561Y263.745
G1 X715.137Y264.677
G1 X716.888Y267.386
G1 X717.922Y266.114
G1 X718.036Y265.969
G1 X718.161Y265.797
G1 X718.297Y265.601
G1 X718.443Y265.383
G1 X718.757Y264.888
G1 X719.094Y264.332
G1 X719.794Y263.101
G1 X720.46Y261.832
G1 X720.8Y261.111
G1 X721.121Y260.356
G1 X721.42Y259.573
G1 X721.697Y258.765
G1 X721.951Y257.936
G1 X722.181Y257.092
G1 X722.386Y256.236
G1 X722.566Y255.373
G1 X722.719Y254.507
G1 X722.846Y253.643
G1 X722.944Y252.786
G1 X723.013Y251.938
G1 X723.052Y251.106
G1 Y250.294
G1 X723.038Y249.505
G1 X722.983Y248.744
G1 X722.921Y248.167
G1 X722.85Y247.607
G1 X722.773Y247.078
G1 X722.691Y246.593
G1 X722.608Y246.167
G1 X722.525Y245.814
G1 X722.485Y245.668
G1 X722.446Y245.546
G1 X722.408Y245.449
G1 X722.372Y245.378
G1 X722.262Y245.237
G1 X722.129Y245.131
G1 X721.979Y245.058
G1 X721.814Y245.017
G1 X721.639Y245.005
G1 X721.458Y245.021
G1 X721.275Y245.064
G1 X721.094Y245.131
G1 X720.752Y245.332
G1 X720.465Y245.61
G1 X720.352Y245.774
G1 X720.264Y245.952
G1 X720.205Y246.142
G1 X720.18Y246.343
G1 X720.162Y246.566
G1 X720.125Y246.841
G1 X720.07Y247.159
G1 X719.999Y247.507
G1 X719.822Y248.252
G1 X719.611Y248.992
G1 X719.075Y250.705
G1 X718.505Y248.242
G1 X718.418Y247.873
G1 X718.335Y247.541
G1 X718.255Y247.245
G1 X718.178Y246.983
G1 X718.102Y246.753
G1 X718.025Y246.552
G1 X717.948Y246.38
G1 X717.867Y246.233
G1 X717.695Y246.012
G1 X717.499Y245.872
G1 X717.271Y245.799
G1 X717Y245.779
G1 X716.729Y245.799
G1 X716.502Y245.87
G1 X716.308Y246.007
G1 X716.138Y246.225
G1 X716.06Y246.368
G1 X715.984Y246.537
G1 X715.91Y246.734
G1 X715.836Y246.96
G1 X715.762Y247.217
G1 X715.686Y247.508
G1 X715.607Y247.833
G1 X715.524Y248.195
G1 X715.412Y248.672
G1 X715.302Y249.079
G1 X715.195Y249.416
G1 X715.091Y249.683
G1 X714.989Y249.88
G1 X714.89Y250.008
G1 X714.792Y250.066
G1 X714.697Y250.053
G1 X714.604Y249.971
G1 X714.513Y249.818
G1 X714.423Y249.595
G1 X714.334Y249.302
G1 X714.247Y248.938
G1 X714.161Y248.503
G1 X714.076Y247.998
G1 X713.992Y247.422
G1 X713.908Y246.892
G1 X713.815Y246.444
G1 X713.707Y246.072
G1 X713.582Y245.769
G1 X713.436Y245.527
G1 X713.266Y245.341
G1 X713.068Y245.203
G1 X712.839Y245.107
G1 X712.632Y245.05
G1 X712.444Y245.017
G1 X712.273
G1 X712.119Y245.037
G1 X711.979Y245.093
G1 X711.853Y245.185
G0 X725.562Y245.212
G1 Y245.681
G1 Y246.206
G1 X725.58Y246.789
G1 X725.598Y247.434
G1 X725.622Y248.143
G1 X725.653Y248.918
G1 X725.733Y250.77
G1 X725.771Y251.526
G1 X725.81Y252.184
G1 X725.853Y252.752
G1 X725.903Y253.241
G1 X725.961Y253.66
G1 X726.029Y254.021
G1 X726.11Y254.333
G1 X726.207Y254.606
G1 X726.32Y254.85
G1 X726.453Y255.076
G1 X726.608Y255.293
G1 X726.787Y255.511
G1 X726.993Y255.742
G1 X727.227Y255.994
G1 X727.649Y256.417
G1 X728.152Y256.871
G1 X728.724Y257.349
G1 X729.351Y257.843
G1 X730.722Y258.845
G1 X732.165Y259.813
G1 X732.881Y260.263
G1 X733.579Y260.681
G1 X734.244Y261.058
G1 X734.864Y261.386
G1 X735.427Y261.657
G1 X735.919Y261.863
G1 X736.135Y261.939
G1 X736.329Y261.996
G1 X736.5Y262.032
G1 X736.644Y262.047
G1 X736.681Y262.022
G1 X736.714Y261.946
G1 X736.744Y261.823
G1 X736.771Y261.654
G1 X736.794Y261.442
G1 X736.814Y261.19
G1 X736.83Y260.901
G1 X736.843Y260.576
G1 Y260.219
G1 X736.858Y259.832
G1 Y259.417
G1 Y258.978
G1 X736.84Y258.035
G1 X736.806Y257.024
G1 X736.779Y256.381
G1 X736.751Y255.772
G1 X736.722Y255.197
G1 X736.691Y254.655
G1 X736.658Y254.143
G1 X736.622Y253.661
G1 X736.582Y253.208
G1 X736.539Y252.782
G1 X736.44Y252.007
G1 X736.321Y251.326
G1 X736.177Y250.729
G1 X736.004Y250.207
G1 X735.8Y249.749
G1 X735.56Y249.345
G1 X735.28Y248.986
G1 X734.956Y248.662
G1 X734.585Y248.362
G1 X734.163Y248.076
G1 X733.687Y247.795
G1 X733.151Y247.509
G1 X732.617Y247.222
G1 X732.036Y246.887
G1 X731.427Y246.516
G1 X730.807Y246.122
G1 X730.197Y245.717
G1 X729.613Y245.313
G1 X729.076Y244.922
G1 X728.169Y244.22
G1 X727.743Y243.914
G1 X727.335Y243.645
G1 X726.958Y243.42
G1 X726.62Y243.243
G1 X726.334Y243.121
G1 X726.109Y243.061
G1 X725.958
G1 X725.885Y243.112
G1 X725.819Y243.188
G1 X725.762Y243.297
G1 X725.712Y243.442
G1 X725.669Y243.626
G1 X725.633Y243.851
G1 X725.605Y244.119
G1 X725.584Y244.434
G1 X725.57Y244.798
G1 Y245.212
G0 X730.513Y242.398
G1 X731.056Y242.853
G1 X731.686Y243.321
G1 X732.393Y243.796
G1 X733.169Y244.272
G1 X734.003Y244.742
G1 X734.886Y245.201
G1 X735.809Y245.642
G1 X736.762Y246.06
G1 X737.735Y246.448
G1 X738.719Y246.8
G1 X739.705Y247.109
G1 X739.936Y247.171
G1 X740.203Y247.231
G1 X740.505Y247.29
G1 X740.839Y247.348
G1 X741.588Y247.458
G1 X742.428Y247.562
G1 X744.286Y247.743
G1 X746.225Y247.878
G1 X747.167Y247.926
G1 X748.059Y247.958
G1 X748.878Y247.974
G1 X749.6
G1 X749.918
G1 X750.203Y247.951
G1 X750.452Y247.933
G1 X750.662Y247.909
G1 X750.831Y247.88
G1 X750.955Y247.846
G1 X751.032Y247.805
G1 X751.058Y247.759
G1 X751.044Y247.693
G1 X751.004Y247.567
G1 X750.941Y247.388
G1 X750.857Y247.164
G1 X750.756Y246.902
G1 X750.64Y246.61
G1 X750.512Y246.294
G1 X750.375Y245.962
G1 X750.148Y245.452
G1 X749.887Y244.922
G1 X749.595Y244.376
G1 X749.273Y243.817
G1 X748.55Y242.672
G1 X747.739Y241.516
G1 X746.86Y240.374
G1 X745.931Y239.272
G1 X744.973Y238.239
G1 X744.005Y237.299
G1 X743.478Y236.842
G1 X742.89Y236.375
G1 X742.252Y235.904
G1 X741.575Y235.435
G1 X740.151Y234.529
G1 X738.71Y233.705
G1 X738.011Y233.339
G1 X737.342Y233.012
G1 X736.713Y232.731
G1 X736.138Y232.501
G1 X735.626Y232.328
G1 X735.189Y232.219
G1 X735.002Y232.19
G1 X734.839Y232.18
G1 X734.699
G1 X734.586Y232.216
G1 X734.39Y232.307
G1 X734.231Y232.414
G1 X734.107Y232.538
G1 X734.02Y232.678
G1 X733.968Y232.834
G1 X733.952Y233.006
G1 X733.972Y233.193
G1 X734.027Y233.395
G1 X734.118Y233.612
G1 X734.245Y233.844
G1 X734.406Y234.09
G1 X734.604Y234.351
G1 X734.836Y234.625
G1 X735.103Y234.913
G1 X735.405Y235.214
G1 X736.087Y235.849
G1 X736.374Y236.137
G1 X736.605Y236.392
G1 X736.779Y236.613
G1 X736.897Y236.801
G1 X736.959Y236.955
G1 Y237.076
G1 X736.916Y237.161
G1 X736.812Y237.213
G1 X736.653Y237.23
G1 X736.439Y237.212
G1 X736.171Y237.159
G1 X735.848Y237.071
G1 X735.471Y236.947
G1 X735.041Y236.788
G1 X734.111Y236.413
G1 X733.75Y236.285
G1 X733.455Y236.211
G1 X733.211Y236.191
G1 X733Y236.224
G1 X732.805Y236.312
G1 X732.611Y236.455
G1 X732.399Y236.653
G1 X732.202Y236.87
G1 X732.083Y237.072
G1 X732.055Y237.175
G1 Y237.281
G1 X732.071Y237.395
G1 X732.116Y237.519
G1 X732.189Y237.656
G1 X732.289Y237.808
G1 X732.419Y237.978
G1 X732.58Y238.169
G1 X732.772Y238.384
G1 X732.998Y238.626
G1 X733.257Y238.896
G1 X733.901Y239.557
G1 X734.198Y239.874
G1 X734.445Y240.149
G1 X734.639Y240.383
G1 X734.781Y240.578
G1 X734.869Y240.735
G1 X734.902Y240.855
G1 X734.881Y240.938
G1 X734.804Y240.987
G1 X734.67Y241.001
G1 X734.479Y240.982
G1 X734.23Y240.93
G1 X733.922Y240.848
G1 X733.554Y240.735
G1 X733.126Y240.593
G1 X732.219Y240.279
G1 X731.842Y240.154
G1 X731.503Y240.048
G1 X731.199Y239.963
G1 X730.929Y239.898
G1 X730.69Y239.853
G1 X730.479Y239.828
G1 X730.293
G1 X730.131Y239.84
G1 X729.99Y239.877
G1 X729.867Y239.934
G1 X729.759Y240.011
G1 X729.583Y240.229
G1 X729.439Y240.531
G1 X729.404Y240.674
G1 Y240.829
G1 X729.437Y240.995
G1 X729.502Y241.172
G1 X729.599Y241.357
G1 X729.727Y241.551
G1 X729.883Y241.753
G1 X730.067Y241.962
G1 X730.513Y242.398
G0 X734.674Y223.886
G1 X734.828Y223.897
G1 X735.003Y223.887
G1 X735.202Y223.854
G1 X735.427Y223.797
G1 X735.683Y223.717
G1 X735.972Y223.611
G1 X736.297Y223.48
G1 X736.662Y223.321
G1 X737.068Y223.135
G1 X737.52Y222.921
G1 X738.02Y222.677
G1 X738.572Y222.403
G1 X739.208Y222.07
G1 X739.849Y221.704
G1 X740.494Y221.308
G1 X741.139Y220.884
G1 X742.413Y219.966
G1 X743.648Y218.971
G1 X744.816Y217.922
G1 X745.892Y216.841
G1 X746.388Y216.295
G1 X746.85Y215.75
G1 X747.277Y215.207
G1 X747.665Y214.67
G1 X747.908Y214.307
G1 X748.168Y213.9
G1 X748.44Y213.458
G1 X748.72Y212.99
G1 X749.285Y212.007
G1 X749.828Y211.019
G1 X750.079Y210.543
G1 X750.312Y210.091
G1 X750.521Y209.67
G1 X750.703Y209.29
G1 X750.851Y208.958
G1 X750.963Y208.684
G1 X751.033Y208.474
G1 X751.058Y208.338
G1 X751.034Y208.289
G1 X750.964Y208.245
G1 X750.85Y208.206
G1 X750.695Y208.172
G1 X750.501Y208.142
G1 X750.272Y208.117
G1 X750.01Y208.096
G1 X749.717Y208.08
G1 X749.049Y208.06
G1 X748.289
G1 X747.459
G1 X746.579Y208.097
G1 X744.752Y208.192
G1 X742.975Y208.338
G1 X742.157Y208.427
G1 X741.413Y208.526
G1 X741.076Y208.579
G1 X740.765Y208.635
G1 X740.483Y208.692
G1 X740.232Y208.752
G1 X739.251Y209.032
G1 X738.257Y209.364
G1 X737.263Y209.74
G1 X736.278Y210.154
G1 X735.316Y210.599
G1 X734.386Y211.067
G1 X733.502Y211.552
G1 X732.673Y212.045
G1 X731.913Y212.541
G1 X731.231Y213.031
G1 X730.923Y213.273
G1 X730.639Y213.51
G1 X730.381Y213.742
G1 X730.15Y213.969
G1 X729.947Y214.189
G1 X729.774Y214.401
G1 X729.632Y214.605
G1 X729.522Y214.8
G1 X729.447Y214.985
G1 X729.407Y215.159
G1 Y215.32
G1 X729.439Y215.469
G1 X729.583Y215.771
G1 X729.759Y215.989
G1 X729.867Y216.066
G1 X729.99Y216.123
G1 X730.131Y216.16
G1 X730.293Y216.176
G1 X730.479
G1 X730.69Y216.147
G1 X730.929Y216.102
G1 X731.199Y216.037
G1 X731.503Y215.952
G1 X731.842Y215.846
G1 X732.219Y215.721
G1 X733.126Y215.407
G1 X733.554Y215.265
G1 X733.922Y215.152
G1 X734.23Y215.07
G1 X734.479Y215.018
G1 X734.67Y214.999
G1 X734.804Y215.013
G1 X734.881Y215.062
G1 X734.902Y215.145
G1 X734.869Y215.265
G1 X734.781Y215.422
G1 X734.639Y215.617
G1 X734.445Y215.851
G1 X734.198Y216.126
G1 X733.901Y216.443
G1 X733.257Y217.104
G1 X732.998Y217.374
G1 X732.772Y217.616
G1 X732.58Y217.831
G1 X732.419Y218.022
G1 X732.289Y218.192
G1 X732.189Y218.344
G1 X732.116Y218.481
G1 X732.071Y218.605
G1 X732.051Y218.719
G1 Y218.825
G1 X732.083Y218.928
G1 X732.202Y219.13
G1 X732.399Y219.347
G1 X732.611Y219.545
G1 X732.805Y219.688
G1 X733Y219.776
G1 X733.211Y219.809
G1 X733.455Y219.789
G1 X733.75Y219.715
G1 X734.111Y219.587
G1 X735.041Y219.212
G1 X735.471Y219.053
G1 X735.848Y218.929
G1 X736.171Y218.841
G1 X736.439Y218.788
G1 X736.653Y218.77
G1 X736.812Y218.787
G1 X736.916Y218.839
G1 X736.965Y218.924
G1 Y219.045
G1 X736.897Y219.199
G1 X736.779Y219.387
G1 X736.605Y219.608
G1 X736.374Y219.863
G1 X736.087Y220.151
G1 X735.435Y220.756
G1 X735.156Y221.028
G1 X734.907Y221.286
G1 X734.686Y221.532
G1 X734.494Y221.765
G1 X734.33Y221.987
G1 X734.194Y222.198
G1 X734.086Y222.397
G1 X734.006Y222.586
G1 X733.954Y222.764
G1 X733.929Y222.933
G1 Y223.093
G1 X733.96Y223.243
G1 X734.016Y223.385
G1 X734.098Y223.519
G1 X734.207Y223.645
G1 X734.417Y223.803
G1 X734.674Y223.886
G0 X736.885Y226.276
G1 X736.563Y226.401
G1 X736.274Y226.52
G1 X736.016Y226.632
G1 X735.787Y226.741
G1 X735.586Y226.847
G1 X735.412Y226.951
G1 X735.262Y227.055
G1 X735.032Y227.265
G1 X734.883Y227.486
G1 X734.803Y227.728
G1 X734.779Y228
G1 X734.803Y228.272
G1 X734.883Y228.514
G1 X735.032Y228.735
G1 X735.262Y228.945
G1 X735.412Y229.049
G1 X735.586Y229.153
G1 X735.787Y229.259
G1 X736.016Y229.367
G1 X736.274Y229.48
G1 X736.563Y229.599
G1 X736.885Y229.724
G1 X737.242Y229.856
G1 X737.785Y230.067
G1 X738.384Y230.323
G1 X739.02Y230.614
G1 X739.674Y230.93
G1 X740.324Y231.261
G1 X740.952Y231.597
G1 X741.538Y231.93
G1 X742.061Y232.248
G1 X742.514Y232.532
G1 X742.921Y232.778
G1 X743.291Y232.988
G1 X743.632Y233.16
G1 X743.955Y233.295
G1 X744.267Y233.394
G1 X744.578Y233.457
G1 X744.896Y233.483
G1 X745.23
G1 X745.589Y233.429
G1 X745.982Y233.349
G1 X746.418Y233.233
G1 X746.905Y233.083
G1 X747.453Y232.897
G1 X748.069Y232.678
G1 X748.764Y232.424
G1 X749.262Y232.225
G1 X749.834Y231.971
G1 X750.458Y231.671
G1 X751.117Y231.337
G1 X751.788Y230.979
G1 X752.452Y230.606
G1 X753.088Y230.231
G1 X753.677Y229.862
G1 X756.386Y228.112
G1 X755.114Y227.078
G1 X754.749Y226.8
G1 X754.313Y226.502
G1 X753.816Y226.187
G1 X753.268Y225.862
G1 X752.054Y225.194
G1 X750.747Y224.535
G1 X749.42Y223.921
G1 X748.151Y223.389
G1 X747.56Y223.164
G1 X747.012Y222.973
G1 X746.516Y222.821
G1 X746.081Y222.712
G1 X745.532Y222.605
G1 X745.064Y222.55
G1 X744.641
G1 X744.23Y222.627
G1 X744.017Y222.692
G1 X743.795Y222.778
G1 X743.558Y222.885
G1 X743.303Y223.016
G1 X743.025Y223.17
G1 X742.72Y223.35
G1 X742.383Y223.555
G1 X742.011Y223.789
G1 X741.497Y224.099
G1 X740.921Y224.425
G1 X740.302Y224.755
G1 X739.659Y225.081
G1 X739.012Y225.392
G1 X738.38Y225.68
G1 X737.784Y225.934
G1 X737.242Y226.144
G1 X736.885Y226.276
G0 X726.513Y212.955
G1 X726.639Y212.9
G1 X726.785Y212.821
G1 X726.955Y212.714
G1 X727.154Y212.578
G1 X727.387Y212.41
G1 X727.657Y212.207
G1 X727.97Y211.966
G1 X728.33Y211.685
G1 X729.209Y210.991
G1 X729.642Y210.662
G1 X730.134Y210.311
G1 X730.667Y209.948
G1 X731.225Y209.585
G1 X731.791Y209.233
G1 X732.348Y208.902
G1 X732.878Y208.603
G1 X733.365Y208.348
G1 X733.691Y208.181
G1 X733.989Y208.022
G1 X734.258Y207.869
G1 X734.502Y207.721
G1 X734.921Y207.43
G1 X735.26Y207.134
G1 X735.532Y206.82
G1 X735.753Y206.473
G1 X735.936Y206.077
G1 X736.098Y205.62
G1 X736.145Y205.446
G1 X736.192Y205.227
G1 X736.24Y204.964
G1 X736.287Y204.662
G1 X736.335Y204.323
G1 X736.382Y203.952
G1 X736.429Y203.551
G1 X736.474Y203.125
G1 X736.563Y202.207
G1 X736.646Y201.227
G1 X736.721Y200.21
G1 X736.788Y199.185
G1 X736.844Y198.179
G1 X736.888Y197.218
G1 X736.905Y196.764
G1 X736.918Y196.331
G1 Y195.923
G1 X736.933Y195.543
G1 Y195.196
G1 Y194.884
G1 X736.922Y194.61
G1 X736.909Y194.379
G1 X736.891Y194.193
G1 X736.868Y194.056
G1 X736.839Y193.971
G1 X736.804Y193.942
G1 X736.653Y193.953
G1 X736.477Y193.985
G1 X736.278Y194.038
G1 X736.057Y194.109
G1 X735.556Y194.307
G1 X734.985Y194.569
G1 X734.358Y194.89
G1 X733.687Y195.26
G1 X732.984Y195.672
G1 X732.26Y196.119
G1 X730.803Y197.086
G1 X729.413Y198.096
G1 X728.774Y198.599
G1 X728.188Y199.09
G1 X727.668Y199.561
G1 X727.227Y200.004
G1 X726.993Y200.256
G1 X726.787Y200.487
G1 X726.608Y200.706
G1 X726.453Y200.924
G1 X726.32Y201.15
G1 X726.206Y201.394
G1 X726.11Y201.667
G1 X726.029Y201.98
G1 X725.96Y202.341
G1 X725.903Y202.761
G1 X725.853Y203.251
G1 X725.81Y203.82
G1 X725.77Y204.478
G1 X725.733Y205.236
G1 X725.714Y205.655
G1 X725.624Y207.834
G1 X725.6Y208.52
G1 X725.583Y209.149
G1 X725.571Y209.723
G1 Y210.244
G1 Y210.713
G1 Y211.132
G1 X725.585Y211.504
G1 X725.604Y211.828
G1 X725.63Y212.107
G1 X725.662Y212.342
G1 X725.701Y212.536
G1 X725.746Y212.689
G1 X725.798Y212.804
G1 X725.856Y212.882
G1 X725.922Y212.924
G1 X726.117Y212.985
G1 X726.302Y213.003
G1 X726.402Y212.989
G1 X726.513Y212.955
; Cut @ 600 mm/min, 95% power
M8
G0 X10.103Y367.489
; Layer WorkSpace Pass 1 of 10
G1 X10.026Y367.032S950F600
G1 X10Y366.559
G1 X10.025Y366.065
G1 X10.101Y365.546
G1 X10.228Y364.995
G1 X10.405Y364.408
G1 X10.634Y363.779
G1 X10.914Y363.102
G1 X11.244Y362.374
G1 X11.626Y361.588
G1 X11.951Y360.968
G1 X12.319Y360.327
G1 X12.733Y359.662
G1 X13.194Y358.974
G1 X13.704Y358.258
G1 X14.266Y357.513
G1 X14.882Y356.738
G1 X15.553Y355.93
G1 X16.282Y355.087
G1 X17.071Y354.207
G1 X17.923Y353.288
G1 X18.838Y352.329
G1 X19.82Y351.327
G1 X20.869Y350.28
G1 X21.99Y349.186
G1 X23.182Y348.044
G1 X24.45Y346.851
G1 X25.794Y345.606
G1 X27.217Y344.305
G1 X28.72Y342.948
G1 X29.503Y342.248
G1 X30.307Y341.533
G1 X31.132Y340.802
G1 X31.979Y340.056
G1 X32.847Y339.295
G1 X33.738Y338.518
G1 X34.651Y337.724
G1 X35.586Y336.914
G1 X36.544Y336.087
G1 X37.526Y335.244
G1 X38.53Y334.383
G1 X39.559Y333.505
G1 X40.611Y332.61
G1 X42.788Y330.764
G1 X45.064Y328.845
G1 X47.441Y326.851
G1 X49.92Y324.779
G1 X52.504Y322.627
G1 X60.368Y316.1
G1 X68.434Y309.391
G1 X71.209Y307.059
G1 X64.495Y280.067
G1 X62.79Y273.186
G1 X61.593Y268.314
G1 X60.786Y264.999
G1 X60.053Y261.955
G1 X59.604Y260.067
G1 X59.185Y258.285
G1 X58.795Y256.604
G1 X58.432Y255.019
G1 X58.096Y253.523
G1 X57.785Y252.111
G1 X57.499Y250.779
G1 X57.236Y249.519
G1 X56.995Y248.327
G1 X56.775Y247.197
G1 X56.575Y246.124
G1 X56.394Y245.102
G1 X56.23Y244.126
G1 X56.082Y243.189
G1 X55.949Y242.287
G1 X55.831Y241.414
G1 X55.632Y239.733
G1 X55.476Y238.101
G1 X55.353Y236.474
G1 X55.255Y234.808
G1 X55.214Y233.967
G1 X55.181Y233.162
G1 X55.155Y232.392
G1 X55.138Y231.656
G1 Y230.953
G1 Y230.283
G1 Y229.643
G1 X55.156Y229.034
G1 X55.183Y228.454
G1 X55.22Y227.903
G1 X55.267Y227.379
G1 X55.324Y226.882
G1 X55.392Y226.411
G1 X55.47Y225.964
G1 X55.559Y225.542
G1 X55.659Y225.142
G1 X55.895Y224.408
G1 X56.178Y223.755
G1 X56.51Y223.175
G1 X56.895Y222.662
G1 X57.333Y222.208
G1 X57.827Y221.804
G1 X58.379Y221.446
G1 X58.991Y221.123
G1 X59.393Y220.935
G1 X59.761Y220.772
G1 X60.103Y220.634
G1 X60.428Y220.522
G1 X60.745Y220.435
G1 X61.06Y220.374
G1 X61.382Y220.337
G1 X61.719Y220.327
G1 X62.08Y220.342
G1 X62.472Y220.382
G1 X62.904Y220.448
G1 X63.383Y220.54
G1 X63.918Y220.658
G1 X64.517Y220.802
G1 X65.188Y220.971
G1 X65.94Y221.166
G1 X66.732Y221.385
G1 X67.55Y221.631
G1 X68.395Y221.907
G1 X69.271Y222.215
G1 X70.181Y222.555
G1 X71.126Y222.929
G1 X72.109Y223.338
G1 X73.134Y223.784
G1 X74.203Y224.269
G1 X75.317Y224.794
G1 X76.481Y225.36
G1 X77.696Y225.968
G1 X78.966Y226.621
G1 X80.292Y227.32
G1 X81.678Y228.065
G1 X83.126Y228.86
G1 X84.639Y229.704
G1 X86.219Y230.6
G1 X87.869Y231.549
G1 X89.592Y232.552
G1 X91.39Y233.611
G1 X93.266Y234.727
G1 X94.234Y235.307
G1 X95.223Y235.902
G1 X96.232Y236.512
G1 X97.262Y237.137
G1 X99.388Y238.434
G1 X101.601Y239.794
G1 X103.906Y241.219
G1 X106.305Y242.709
G1 X108.799Y244.268
G1 X111.393Y245.895
G1 X114.088Y247.592
G1 X118.627Y250.459
G1 X120.328Y251.526
G1 X121.982Y252.556
G1 X123.579Y253.545
G1 X125.11Y254.487
G1 X126.566Y255.375
G1 X127.262Y255.798
G1 X128.588Y256.597
G1 X129.815Y257.329
G1 X130.935Y257.989
G1 X131.452Y258.29
G1 X131.938Y258.571
G1 X132.393Y258.831
G1 X132.815Y259.07
G1 X133.203Y259.286
G1 X133.556Y259.48
G1 X133.873Y259.65
G1 X134.152Y259.796
G1 X134.394Y259.917
G1 X134.595Y260.012
G1 X134.756Y260.081
G1 X134.875Y260.123
G1 X134.95Y260.137
G1 X135.026Y260.123
G1 X135.145Y260.081
G1 X135.306Y260.012
G1 X135.507Y259.917
G1 X135.748Y259.796
G1 X136.028Y259.65
G1 X136.345Y259.48
G1 X136.698Y259.286
G1 X137.086Y259.07
G1 X137.508Y258.831
G1 X137.963Y258.571
G1 X138.449Y258.29
G1 X138.966Y257.989
G1 X139.512Y257.668
G1 X140.686Y256.971
G1 X141.964Y256.205
G1 X143.335Y255.375
G1 X144.791Y254.487
G1 X146.322Y253.545
G1 X147.919Y252.556
G1 X149.573Y251.526
G1 X151.274Y250.459
G1 X154.414Y248.475
G1 X157.146Y246.753
G1 X159.786Y245.095
G1 X162.335Y243.503
G1 X164.795Y241.974
G1 X167.169Y240.507
G1 X169.458Y239.102
G1 X170.571Y238.422
G1 X171.663Y237.757
G1 X172.735Y237.107
G1 X174.819Y235.851
G1 X176.825Y234.653
G1 X178.754Y233.512
G1 X180.608Y232.426
G1 X182.389Y231.396
G1 X184.099Y230.419
G1 X185.739Y229.496
G1 X187.312Y228.624
G1 X188.819Y227.803
G1 X190.263Y227.032
G1 X191.644Y226.31
G1 X192.965Y225.635
G1 X194.228Y225.008
G1 X195.435Y224.426
G1 X196.587Y223.888
G1 X197.686Y223.395
G1 X198.734Y222.945
G1 X199.733Y222.536
G1 X200.684Y222.168
G1 X201.591Y221.839
G1 X202.453Y221.549
G1 X203.274Y221.297
G1 X204.055Y221.082
G1 X204.798Y220.903
G1 X205.39Y220.773
G1 X205.93Y220.662
G1 X206.424Y220.569
G1 X206.876Y220.495
G1 X207.292Y220.441
G1 X207.677Y220.405
G1 X208.036Y220.389
G1 X208.375
G1 X209.012Y220.46
G1 X209.631Y220.609
G1 X209.946Y220.714
G1 X210.273Y220.84
G1 X210.616Y220.988
G1 X210.98Y221.157
G1 X211.578Y221.473
G1 X212.118Y221.828
G1 X212.602Y222.229
G1 X213.032Y222.683
G1 X213.409Y223.197
G1 X213.736Y223.777
G1 X214.015Y224.432
G1 X214.246Y225.167
G1 X214.345Y225.568
G1 X214.433Y225.991
G1 X214.51Y226.438
G1 X214.577Y226.909
G1 X214.634Y227.406
G1 X214.68Y227.93
G1 X214.717Y228.48
G1 X214.744Y229.059
G1 X214.762Y229.667
G1 Y230.305
G1 Y230.973
G1 Y231.673
G1 X214.744Y232.406
G1 X214.719Y233.172
G1 X214.686Y233.973
G1 X214.645Y234.808
G1 X214.547Y236.474
G1 X214.425Y238.102
G1 X214.269Y239.734
G1 X214.07Y241.416
G1 X213.951Y242.289
G1 X213.819Y243.191
G1 X213.671Y244.128
G1 X213.507Y245.105
G1 X213.325Y246.128
G1 X213.125Y247.202
G1 X212.904Y248.332
G1 X212.663Y249.525
G1 X212.4Y250.785
G1 X212.113Y252.119
G1 X211.803Y253.532
G1 X211.466Y255.03
G1 X211.103Y256.617
G1 X210.712Y258.3
G1 X210.506Y259.179
G1 X210.071Y261.015
G1 X209.606Y262.961
G1 X208.848Y266.097
G1 X208.015Y269.511
G1 X206.78Y274.525
G1 X204.379Y284.205
G1 X203.45Y287.974
G1 X202.578Y291.54
G1 X201.775Y294.856
G1 X201.05Y297.88
G1 X200.414Y300.567
G1 X200.045Y302.149
G1 X199.723Y303.547
G1 X199.452Y304.749
G1 X199.234Y305.742
G1 X199.147Y306.156
G1 X199.074Y306.512
G1 X199.015Y306.81
G1 X198.973Y307.046
G1 X198.946Y307.221
G1 X198.935Y307.332
G1 Y307.377
G1 X213.087Y318.981
G1 X214.767Y320.363
G1 X216.411Y321.719
G1 X218.019Y323.049
G1 X219.59Y324.353
G1 X221.126Y325.631
G1 X222.626Y326.883
G1 X224.092Y328.111
G1 X225.523Y329.313
G1 X226.919Y330.492
G1 X228.281Y331.646
G1 X229.609Y332.776
G1 X230.904Y333.883
G1 X232.166Y334.967
G1 X233.395Y336.028
G1 X234.592Y337.066
G1 X235.756Y338.083
G1 X236.888Y339.077
G1 X237.989Y340.05
G1 X239.059Y341.002
G1 X240.097Y341.932
G1 X241.105Y342.843
G1 X242.083Y343.733
G1 X243.031Y344.602
G1 X243.949Y345.453
G1 X244.838Y346.284
G1 X245.698Y347.096
G1 X246.529Y347.889
G1 X247.331Y348.664
G1 X248.106Y349.421
G1 X248.853Y350.16
G1 X249.572Y350.882
G1 X250.265Y351.587
G1 X250.93Y352.275
G1 X251.569Y352.947
G1 X252.182Y353.603
G1 X252.769Y354.242
G1 X253.33Y354.867
G1 X253.866Y355.476
G1 X254.378Y356.07
G1 X254.864Y356.65
G1 X255.327Y357.216
G1 X255.765Y357.767
G1 X256.18Y358.306
G1 X256.572Y358.831
G1 X256.94Y359.343
G1 X257.286Y359.842
G1 X257.609Y360.33
G1 X258.19Y361.269
G1 X258.686Y362.163
G1 X259.098Y363.014
G1 X259.43Y363.825
G1 X259.683Y364.598
G1 X259.861Y365.337
G1 X259.966Y366.043
G1 X260Y366.719
G1 X259.954Y367.213
G1 X259.819Y367.725
G1 X259.6Y368.249
G1 X259.303Y368.782
G1 X258.933Y369.318
G1 X258.495Y369.853
G1 X257.996Y370.382
G1 X257.439Y370.901
G1 X256.832Y371.405
G1 X256.178Y371.888
G1 X255.483Y372.347
G1 X254.753Y372.777
G1 X253.994Y373.172
G1 X253.209Y373.529
G1 X252.406Y373.842
G1 X251.588Y374.106
G1 X250.698Y374.357
G1 X249.77Y374.602
G1 X248.802Y374.842
G1 X247.792Y375.077
G1 X246.738Y375.307
G1 X245.637Y375.532
G1 X244.488Y375.753
G1 X243.287Y375.971
G1 X242.033Y376.184
G1 X240.724Y376.394
G1 X239.356Y376.6
G1 X237.929Y376.804
G1 X236.44Y377.004
G1 X234.887Y377.202
G1 X233.267Y377.398
G1 X231.578Y377.592
G1 X229.818Y377.784
G1 X227.985Y377.974
G1 X226.076Y378.163
G1 X224.09Y378.351
G1 X222.023Y378.538
G1 X219.875Y378.725
G1 X217.642Y378.911
G1 X215.323Y379.097
G1 X212.915Y379.284
G1 X210.416Y379.47
G1 X207.823Y379.658
G1 X205.135Y379.846
G1 X202.35Y380.036
G1 X199.464Y380.227
G1 X197.983Y380.323
G1 X194.944Y380.516
G1 X174.358Y381.797
G1 X164.876Y405.418
G1 X162.896Y410.329
G1 X160.903Y415.232
G1 X159.919Y417.639
G1 X158.951Y419.996
G1 X158.008Y422.285
G1 X157.094Y424.491
G1 X155.797Y427.608
G1 X154.99Y429.534
G1 X154.236Y431.319
G1 X153.544Y432.948
G1 X152.92Y434.404
G1 X152.37Y435.67
G1 X152.125Y436.227
G1 X151.901Y436.731
G1 X151.699Y437.179
G1 X151.125Y438.426
G1 X150.549Y439.645
G1 X149.972Y440.834
G1 X149.393Y441.992
G1 X148.814Y443.12
G1 X148.236Y444.215
G1 X147.657Y445.278
G1 X147.081Y446.308
G1 X146.505Y447.303
G1 X145.932Y448.265
G1 X145.362Y449.19
G1 X144.795Y450.08
G1 X144.232Y450.934
G1 X143.673Y451.75
G1 X143.119Y452.527
G1 X142.57Y453.267
G1 X142.028Y453.966
G1 X141.491Y454.626
G1 X140.962Y455.245
G1 X140.44Y455.822
G1 X139.926Y456.357
G1 X139.421Y456.849
G1 X138.924Y457.298
G1 X138.437Y457.702
G1 X137.961Y458.061
G1 X137.495Y458.375
G1 X137.04Y458.642
G1 X136.596Y458.862
G1 X136.165Y459.035
G1 X135.747Y459.159
G1 X135.342Y459.234
G1 X134.95Y459.259
G1 X134.664Y459.227
G1 X134.304Y459.135
G1 X133.885Y458.989
G1 X133.421Y458.796
G1 X132.926Y458.563
G1 X132.416Y458.296
G1 X131.904Y458.001
G1 X131.406Y457.684
G1 X130.866Y457.301
G1 X130.323Y456.87
G1 X129.778Y456.388
G1 X129.227Y455.851
G1 X128.669Y455.256
G1 X128.103Y454.6
G1 X127.527Y453.88
G1 X126.939Y453.093
G1 X126.338Y452.234
G1 X125.722Y451.301
G1 X125.089Y450.291
G1 X124.438Y449.2
G1 X123.767Y448.026
G1 X123.074Y446.764
G1 X122.358Y445.411
G1 X121.616Y443.965
G1 X121.236Y443.206
G1 X120.849Y442.422
G1 X120.455Y441.613
G1 X120.053Y440.779
G1 X119.644Y439.919
G1 X119.227Y439.032
G1 X118.803Y438.119
G1 X118.37Y437.179
G1 X117.929Y436.211
G1 X117.48Y435.215
G1 X117.022Y434.191
G1 X116.555Y433.138
G1 X116.078Y432.056
G1 X115.593Y430.944
G1 X115.098Y429.803
G1 X114.593Y428.631
G1 X114.079Y427.428
G1 X113.554Y426.195
G1 X113.019Y424.929
G1 X112.473Y423.632
G1 X111.916Y422.302
G1 X111.349Y420.939
G1 X110.77Y419.543
G1 X110.18Y418.114
G1 X109.579Y416.65
G1 X108.965Y415.152
G1 X108.34Y413.619
G1 X107.052Y410.447
G1 X105.714Y407.131
G1 X95.547Y381.797
G1 X84.72Y381.151
G1 X82.211Y380.998
G1 X79.76Y380.846
G1 X77.364Y380.696
G1 X75.024Y380.547
G1 X72.739Y380.399
G1 X70.508Y380.252
G1 X68.331Y380.105
G1 X66.206Y379.959
G1 X64.134Y379.814
G1 X62.113Y379.67
G1 X60.144Y379.525
G1 X58.224Y379.381
G1 X56.354Y379.238
G1 X54.534Y379.094
G1 X52.761Y378.951
G1 X51.036Y378.807
G1 X49.358Y378.663
G1 X47.727Y378.519
G1 X46.141Y378.375
G1 X44.6Y378.23
G1 X43.104Y378.084
G1 X41.651Y377.938
G1 X40.241Y377.791
G1 X38.874Y377.644
G1 X37.549Y377.495
G1 X36.264Y377.346
G1 X35.02Y377.195
G1 X33.816Y377.043
G1 X32.651Y376.89
G1 X31.524Y376.735
G1 X30.436Y376.579
G1 X29.384Y376.421
G1 X28.369Y376.261
G1 X27.39Y376.1
G1 X26.445Y375.937
G1 X25.536Y375.771
G1 X24.66Y375.604
G1 X23.818Y375.435
G1 X23.008Y375.263
G1 X22.23Y375.089
G1 X21.483Y374.912
G1 X20.767Y374.733
G1 X20.081Y374.551
G1 X19.424Y374.366
G1 X18.796Y374.179
G1 X18.195Y373.988
G1 X17.622Y373.795
G1 X17.076Y373.598
G1 X16.556Y373.398
G1 X16.061Y373.195
G1 X15.591Y372.988
G1 X14.722Y372.564
G1 X13.943Y372.125
G1 X13.251Y371.671
G1 X12.639Y371.199
G1 X12.102Y370.711
G1 X11.635Y370.205
G1 X11.252Y369.729
G1 X10.92Y369.27
G1 X10.64Y368.822
G1 X10.41Y368.379
G1 X10.231Y367.937
G1 X10.103Y367.489
; Layer WorkSpace Pass 2 of 10
G1 X10.026Y367.032
G1 X10Y366.559
G1 X10.025Y366.065
G1 X10.101Y365.546
G1 X10.228Y364.995
G1 X10.405Y364.408
G1 X10.634Y363.779
G1 X10.914Y363.102
G1 X11.244Y362.374
G1 X11.626Y361.588
G1 X11.951Y360.968
G1 X12.319Y360.327
G1 X12.733Y359.662
G1 X13.194Y358.974
G1 X13.704Y358.258
G1 X14.266Y357.513
G1 X14.882Y356.738
G1 X15.553Y355.93
G1 X16.282Y355.087
G1 X17.071Y354.207
G1 X17.923Y353.288
G1 X18.838Y352.329
G1 X19.82Y351.327
G1 X20.869Y350.28
G1 X21.99Y349.186
G1 X23.182Y348.044
G1 X24.45Y346.851
G1 X25.794Y345.606
G1 X27.217Y344.305
G1 X28.72Y342.948
G1 X29.503Y342.248
G1 X30.307Y341.533
G1 X31.132Y340.802
G1 X31.979Y340.056
G1 X32.847Y339.295
G1 X33.738Y338.518
G1 X34.651Y337.724
G1 X35.586Y336.914
G1 X36.544Y336.087
G1 X37.526Y335.244
G1 X38.53Y334.383
G1 X39.559Y333.505
G1 X40.611Y332.61
G1 X42.788Y330.764
G1 X45.064Y328.845
G1 X47.441Y326.851
G1 X49.92Y324.779
G1 X52.504Y322.627
G1 X60.368Y316.1
G1 X68.434Y309.391
G1 X71.209Y307.059
G1 X64.495Y280.067
G1 X62.79Y273.186
G1 X61.593Y268.314
G1 X60.786Y264.999
G1 X60.053Y261.955
G1 X59.604Y260.067
G1 X59.185Y258.285
G1 X58.795Y256.604
G1 X58.432Y255.019
G1 X58.096Y253.523
G1 X57.785Y252.111
G1 X57.499Y250.779
G1 X57.236Y249.519
G1 X56.995Y248.327
G1 X56.775Y247.197
G1 X56.575Y246.124
G1 X56.394Y245.102
G1 X56.23Y244.126
G1 X56.082Y243.189
G1 X55.949Y242.287
G1 X55.831Y241.414
G1 X55.632Y239.733
G1 X55.476Y238.101
G1 X55.353Y236.474
G1 X55.255Y234.808
G1 X55.214Y233.967
G1 X55.181Y233.162
G1 X55.155Y232.392
G1 X55.138Y231.656
G1 Y230.953
G1 Y230.283
G1 Y229.643
G1 X55.156Y229.034
G1 X55.183Y228.454
G1 X55.22Y227.903
G1 X55.267Y227.379
G1 X55.324Y226.882
G1 X55.392Y226.411
G1 X55.47Y225.964
G1 X55.559Y225.542
G1 X55.659Y225.142
G1 X55.895Y224.408
G1 X56.178Y223.755
G1 X56.51Y223.175
G1 X56.895Y222.662
G1 X57.333Y222.208
G1 X57.827Y221.804
G1 X58.379Y221.446
G1 X58.991Y221.123
G1 X59.393Y220.935
G1 X59.761Y220.772
G1 X60.103Y220.634
G1 X60.428Y220.522
G1 X60.745Y220.435
G1 X61.06Y220.374
G1 X61.382Y220.337
G1 X61.719Y220.327
G1 X62.08Y220.342
G1 X62.472Y220.382
G1 X62.904Y220.448
G1 X63.383Y220.54
G1 X63.918Y220.658
G1 X64.517Y220.802
G1 X65.188Y220.971
G1 X65.94Y221.166
G1 X66.732Y221.385
G1 X67.55Y221.631
G1 X68.395Y221.907
G1 X69.271Y222.215
G1 X70.181Y222.555
G1 X71.126Y222.929
G1 X72.109Y223.338
G1 X73.134Y223.784
G1 X74.203Y224.269
G1 X75.317Y224.794
G1 X76.481Y225.36
G1 X77.696Y225.968
G1 X78.966Y226.621
G1 X80.292Y227.32
G1 X81.678Y228.065
G1 X83.126Y228.86
G1 X84.639Y229.704
G1 X86.219Y230.6
G1 X87.869Y231.549
G1 X89.592Y232.552
G1 X91.39Y233.611
G1 X93.266Y234.727
G1 X94.234Y235.307
G1 X95.223Y235.902
G1 X96.232Y236.512
G1 X97.262Y237.137
G1 X99.388Y238.434
G1 X101.601Y239.794
G1 X103.906Y241.219
G1 X106.305Y242.709
G1 X108.799Y244.268
G1 X111.393Y245.895
G1 X114.088Y247.592
G1 X118.627Y250.459
G1 X120.328Y251.526
G1 X121.982Y252.556
G1 X123.579Y253.545
G1 X125.11Y254.487
G1 X126.566Y255.375
G1 X127.262Y255.798
G1 X128.588Y256.597
G1 X129.815Y257.329
G1 X130.935Y257.989
G1 X131.452Y258.29
G1 X131.938Y258.571
G1 X132.393Y258.831
G1 X132.815Y259.07
G1 X133.203Y259.286
G1 X133.556Y259.48
G1 X133.873Y259.65
G1 X134.152Y259.796
G1 X134.394Y259.917
G1 X134.595Y260.012
G1 X134.756Y260.081
G1 X134.875Y260.123
G1 X134.95Y260.137
G1 X135.026Y260.123
G1 X135.145Y260.081
G1 X135.306Y260.012
G1 X135.507Y259.917
G1 X135.748Y259.796
G1 X136.028Y259.65
G1 X136.345Y259.48
G1 X136.698Y259.286
G1 X137.086Y259.07
G1 X137.508Y258.831
G1 X137.963Y258.571
G1 X138.449Y258.29
G1 X138.966Y257.989
G1 X139.512Y257.668
G1 X140.686Y256.971
G1 X141.964Y256.205
G1 X143.335Y255.375
G1 X144.791Y254.487
G1 X146.322Y253.545
G1 X147.919Y252.556
G1 X149.573Y251.526
G1 X151.274Y250.459
G1 X154.414Y248.475
G1 X157.146Y246.753
G1 X159.786Y245.095
G1 X162.335Y243.503
G1 X164.795Y241.974
G1 X167.169Y240.507
G1 X169.458Y239.102
G1 X170.571Y238.422
G1 X171.663Y237.757
G1 X172.735Y237.107
G1 X174.819Y235.851
G1 X176.825Y234.653
G1 X178.754Y233.512
G1 X180.608Y232.426
G1 X182.389Y231.396
G1 X184.099Y230.419
G1 X185.739Y229.496
G1 X187.312Y228.624
G1 X188.819Y227.803
G1 X190.263Y227.032
G1 X191.644Y226.31
G1 X192.965Y225.635
G1 X194.228Y225.008
G1 X195.435Y224.426
G1 X196.587Y223.888
G1 X197.686Y223.395
G1 X198.734Y222.945
G1 X199.733Y222.536
G1 X200.684Y222.168
G1 X201.591Y221.839
G1 X202.453Y221.549
G1 X203.274Y221.297
G1 X204.055Y221.082
G1 X204.798Y220.903
G1 X205.39Y220.773
G1 X205.93Y220.662
G1 X206.424Y220.569
G1 X206.876Y220.495
G1 X207.292Y220.441
G1 X207.677Y220.405
G1 X208.036Y220.389
G1 X208.375
G1 X209.012Y220.46
G1 X209.631Y220.609
G1 X209.946Y220.714
G1 X210.273Y220.84
G1 X210.616Y220.988
G1 X210.98Y221.157
G1 X211.578Y221.473
G1 X212.118Y221.828
G1 X212.602Y222.229
G1 X213.032Y222.683
G1 X213.409Y223.197
G1 X213.736Y223.777
G1 X214.015Y224.432
G1 X214.246Y225.167
G1 X214.345Y225.568
G1 X214.433Y225.991
G1 X214.51Y226.438
G1 X214.577Y226.909
G1 X214.634Y227.406
G1 X214.68Y227.93
G1 X214.717Y228.48
G1 X214.744Y229.059
G1 X214.762Y229.667
G1 Y230.305
G1 Y230.973
G1 Y231.673
G1 X214.744Y232.406
G1 X214.719Y233.172
G1 X214.686Y233.973
G1 X214.645Y234.808
G1 X214.547Y236.474
G1 X214.425Y238.102
G1 X214.269Y239.734
G1 X214.07Y241.416
G1 X213.951Y242.289
G1 X213.819Y243.191
G1 X213.671Y244.128
G1 X213.507Y245.105
G1 X213.325Y246.128
G1 X213.125Y247.202
G1 X212.904Y248.332
G1 X212.663Y249.525
G1 X212.4Y250.785
G1 X212.113Y252.119
G1 X211.803Y253.532
G1 X211.466Y255.03
G1 X211.103Y256.617
G1 X210.712Y258.3
G1 X210.506Y259.179
G1 X210.071Y261.015
G1 X209.606Y262.961
G1 X208.848Y266.097
G1 X208.015Y269.511
G1 X206.78Y274.525
G1 X204.379Y284.205
G1 X203.45Y287.974
G1 X202.578Y291.54
G1 X201.775Y294.856
G1 X201.05Y297.88
G1 X200.414Y300.567
G1 X200.045Y302.149
G1 X199.723Y303.547
G1 X199.452Y304.749
G1 X199.234Y305.742
G1 X199.147Y306.156
G1 X199.074Y306.512
G1 X199.015Y306.81
G1 X198.973Y307.046
G1 X198.946Y307.221
G1 X198.935Y307.332
G1 Y307.377
G1 X213.087Y318.981
G1 X214.767Y320.363
G1 X216.411Y321.719
G1 X218.019Y323.049
G1 X219.59Y324.353
G1 X221.126Y325.631
G1 X222.626Y326.883
G1 X224.092Y328.111
G1 X225.523Y329.313
G1 X226.919Y330.492
G1 X228.281Y331.646
G1 X229.609Y332.776
G1 X230.904Y333.883
G1 X232.166Y334.967
G1 X233.395Y336.028
G1 X234.592Y337.066
G1 X235.756Y338.083
G1 X236.888Y339.077
G1 X237.989Y340.05
G1 X239.059Y341.002
G1 X240.097Y341.932
G1 X241.105Y342.843
G1 X242.083Y343.733
G1 X243.031Y344.602
G1 X243.949Y345.453
G1 X244.838Y346.284
G1 X245.698Y347.096
G1 X246.529Y347.889
G1 X247.331Y348.664
G1 X248.106Y349.421
G1 X248.853Y350.16
G1 X249.572Y350.882
G1 X250.265Y351.587
G1 X250.93Y352.275
G1 X251.569Y352.947
G1 X252.182Y353.603
G1 X252.769Y354.242
G1 X253.33Y354.867
G1 X253.866Y355.476
G1 X254.378Y356.07
G1 X254.864Y356.65
G1 X255.327Y357.216
G1 X255.765Y357.767
G1 X256.18Y358.306
G1 X256.572Y358.831
G1 X256.94Y359.343
G1 X257.286Y359.842
G1 X257.609Y360.33
G1 X258.19Y361.269
G1 X258.686Y362.163
G1 X259.098Y363.014
G1 X259.43Y363.825
G1 X259.683Y364.598
G1 X259.861Y365.337
G1 X259.966Y366.043
G1 X260Y366.719
G1 X259.954Y367.213
G1 X259.819Y367.725
G1 X259.6Y368.249
G1 X259.303Y368.782
G1 X258.933Y369.318
G1 X258.495Y369.853
G1 X257.996Y370.382
G1 X257.439Y370.901
G1 X256.832Y371.405
G1 X256.178Y371.888
G1 X255.483Y372.347
G1 X254.753Y372.777
G1 X253.994Y373.172
G1 X253.209Y373.529
G1 X252.406Y373.842
G1 X251.588Y374.106
G1 X250.698Y374.357
G1 X249.77Y374.602
G1 X248.802Y374.842
G1 X247.792Y375.077
G1 X246.738Y375.307
G1 X245.637Y375.532
G1 X244.488Y375.753
G1 X243.287Y375.971
G1 X242.033Y376.184
G1 X240.724Y376.394
G1 X239.356Y376.6
G1 X237.929Y376.804
G1 X236.44Y377.004
G1 X234.887Y377.202
G1 X233.267Y377.398
G1 X231.578Y377.592
G1 X229.818Y377.784
G1 X227.985Y377.974
G1 X226.076Y378.163
G1 X224.09Y378.351
G1 X222.023Y378.538
G1 X219.875Y378.725
G1 X217.642Y378.911
G1 X215.323Y379.097
G1 X212.915Y379.284
G1 X210.416Y379.47
G1 X207.823Y379.658
G1 X205.135Y379.846
G1 X202.35Y380.036
G1 X199.464Y380.227
G1 X197.983Y380.323
G1 X194.944Y380.516
G1 X174.358Y381.797
G1 X164.876Y405.418
G1 X162.896Y410.329
G1 X160.903Y415.232
G1 X159.919Y417.639
G1 X158.951Y419.996
G1 X158.008Y422.285
G1 X157.094Y424.491
G1 X155.797Y427.608
G1 X154.99Y429.534
G1 X154.236Y431.319
G1 X153.544Y432.948
G1 X152.92Y434.404
G1 X152.37Y435.67
G1 X152.125Y436.227
G1 X151.901Y436.731
G1 X151.699Y437.179
G1 X151.125Y438.426
G1 X150.549Y439.645
G1 X149.972Y440.834
G1 X149.393Y441.992
G1 X148.814Y443.12
G1 X148.236Y444.215
G1 X147.657Y445.278
G1 X147.081Y446.308
G1 X146.505Y447.303
G1 X145.932Y448.265
G1 X145.362Y449.19
G1 X144.795Y450.08
G1 X144.232Y450.934
G1 X143.673Y451.75
G1 X143.119Y452.527
G1 X142.57Y453.267
G1 X142.028Y453.966
G1 X141.491Y454.626
G1 X140.962Y455.245
G1 X140.44Y455.822
G1 X139.926Y456.357
G1 X139.421Y456.849
G1 X138.924Y457.298
G1 X138.437Y457.702
G1 X137.961Y458.061
G1 X137.495Y458.375
G1 X137.04Y458.642
G1 X136.596Y458.862
G1 X136.165Y459.035
G1 X135.747Y459.159
G1 X135.342Y459.234
G1 X134.95Y459.259
G1 X134.664Y459.227
G1 X134.304Y459.135
G1 X133.885Y458.989
G1 X133.421Y458.796
G1 X132.926Y458.563
G1 X132.416Y458.296
G1 X131.904Y458.001
G1 X131.406Y457.684
G1 X130.866Y457.301
G1 X130.323Y456.87
G1 X129.778Y456.388
G1 X129.227Y455.851
G1 X128.669Y455.256
G1 X128.103Y454.6
G1 X127.527Y453.88
G1 X126.939Y453.093
G1 X126.338Y452.234
G1 X125.722Y451.301
G1 X125.089Y450.291
G1 X124.438Y449.2
G1 X123.767Y448.026
G1 X123.074Y446.764
G1 X122.358Y445.411
G1 X121.616Y443.965
G1 X121.236Y443.206
G1 X120.849Y442.422
G1 X120.455Y441.613
G1 X120.053Y440.779
G1 X119.644Y439.919
G1 X119.227Y439.032
G1 X118.803Y438.119
G1 X118.37Y437.179
G1 X117.929Y436.211
G1 X117.48Y435.215
G1 X117.022Y434.191
G1 X116.555Y433.138
G1 X116.078Y432.056
G1 X115.593Y430.944
G1 X115.098Y429.803
G1 X114.593Y428.631
G1 X114.079Y427.428
G1 X113.554Y426.195
G1 X113.019Y424.929
G1 X112.473Y423.632
G1 X111.916Y422.302
G1 X111.349Y420.939
G1 X110.77Y419.543
G1 X110.18Y418.114
G1 X109.579Y416.65
G1 X108.965Y415.152
G1 X108.34Y413.619
G1 X107.052Y410.447
G1 X105.714Y407.131
G1 X95.547Y381.797
G1 X84.72Y381.151
G1 X82.211Y380.998
G1 X79.76Y380.846
G1 X77.364Y380.696
G1 X75.024Y380.547
G1 X72.739Y380.399
G1 X70.508Y380.252
G1 X68.331Y380.105
G1 X66.206Y379.959
G1 X64.134Y379.814
G1 X62.113Y379.67
G1 X60.144Y379.525
G1 X58.224Y379.381
G1 X56.354Y379.238
G1 X54.534Y379.094
G1 X52.761Y378.951
G1 X51.036Y378.807
G1 X49.358Y378.663
G1 X47.727Y378.519
G1 X46.141Y378.375
G1 X44.6Y378.23
G1 X43.104Y378.084
G1 X41.651Y377.938
G1 X40.241Y377.791
G1 X38.874Y377.644
G1 X37.549Y377.495
G1 X36.264Y377.346
G1 X35.02Y377.195
G1 X33.816Y377.043
G1 X32.651Y376.89
G1 X31.524Y376.735
G1 X30.436Y376.579
G1 X29.384Y376.421
G1 X28.369Y376.261
G1 X27.39Y376.1
G1 X26.445Y375.937
G1 X25.536Y375.771
G1 X24.66Y375.604
G1 X23.818Y375.435
G1 X23.008Y375.263
G1 X22.23Y375.089
G1 X21.483Y374.912
G1 X20.767Y374.733
G1 X20.081Y374.551
G1 X19.424Y374.366
G1 X18.796Y374.179
G1 X18.195Y373.988
G1 X17.622Y373.795
G1 X17.076Y373.598
G1 X16.556Y373.398
G1 X16.061Y373.195
G1 X15.591Y372.988
G1 X14.722Y372.564
G1 X13.943Y372.125
G1 X13.251Y371.671
G1 X12.639Y371.199
G1 X12.102Y370.711
G1 X11.635Y370.205
G1 X11.252Y369.729
G1 X10.92Y369.27
G1 X10.64Y368.822
G1 X10.41Y368.379
G1 X10.231Y367.937
G1 X10.103Y367.489
; Layer WorkSpace Pass 3 of 10
G1 X10.026Y367.032
G1 X10Y366.559
G1 X10.025Y366.065
G1 X10.101Y365.546
G1 X10.228Y364.995
G1 X10.405Y364.408
G1 X10.634Y363.779
G1 X10.914Y363.102
G1 X11.244Y362.374
G1 X11.626Y361.588
G1 X11.951Y360.968
G1 X12.319Y360.327
G1 X12.733Y359.662
G1 X13.194Y358.974
G1 X13.704Y358.258
G1 X14.266Y357.513
G1 X14.882Y356.738
G1 X15.553Y355.93
G1 X16.282Y355.087
G1 X17.071Y354.207
G1 X17.923Y353.288
G1 X18.838Y352.329
G1 X19.82Y351.327
G1 X20.869Y350.28
G1 X21.99Y349.186
G1 X23.182Y348.044
G1 X24.45Y346.851
G1 X25.794Y345.606
G1 X27.217Y344.305
G1 X28.72Y342.948
G1 X29.503Y342.248
G1 X30.307Y341.533
G1 X31.132Y340.802
G1 X31.979Y340.056
G1 X32.847Y339.295
G1 X33.738Y338.518
G1 X34.651Y337.724
G1 X35.586Y336.914
G1 X36.544Y336.087
G1 X37.526Y335.244
G1 X38.53Y334.383
G1 X39.559Y333.505
G1 X40.611Y332.61
G1 X42.788Y330.764
G1 X45.064Y328.845
G1 X47.441Y326.851
G1 X49.92Y324.779
G1 X52.504Y322.627
G1 X60.368Y316.1
G1 X68.434Y309.391
G1 X71.209Y307.059
G1 X64.495Y280.067
G1 X62.79Y273.186
G1 X61.593Y268.314
G1 X60.786Y264.999
G1 X60.053Y261.955
G1 X59.604Y260.067
G1 X59.185Y258.285
G1 X58.795Y256.604
G1 X58.432Y255.019
G1 X58.096Y253.523
G1 X57.785Y252.111
G1 X57.499Y250.779
G1 X57.236Y249.519
G1 X56.995Y248.327
G1 X56.775Y247.197
G1 X56.575Y246.124
G1 X56.394Y245.102
G1 X56.23Y244.126
G1 X56.082Y243.189
G1 X55.949Y242.287
G1 X55.831Y241.414
G1 X55.632Y239.733
G1 X55.476Y238.101
G1 X55.353Y236.474
G1 X55.255Y234.808
G1 X55.214Y233.967
G1 X55.181Y233.162
G1 X55.155Y232.392
G1 X55.138Y231.656
G1 Y230.953
G1 Y230.283
G1 Y229.643
G1 X55.156Y229.034
G1 X55.183Y228.454
G1 X55.22Y227.903
G1 X55.267Y227.379
G1 X55.324Y226.882
G1 X55.392Y226.411
G1 X55.47Y225.964
G1 X55.559Y225.542
G1 X55.659Y225.142
G1 X55.895Y224.408
G1 X56.178Y223.755
G1 X56.51Y223.175
G1 X56.895Y222.662
G1 X57.333Y222.208
G1 X57.827Y221.804
G1 X58.379Y221.446
G1 X58.991Y221.123
G1 X59.393Y220.935
G1 X59.761Y220.772
G1 X60.103Y220.634
G1 X60.428Y220.522
G1 X60.745Y220.435
G1 X61.06Y220.374
G1 X61.382Y220.337
G1 X61.719Y220.327
G1 X62.08Y220.342
G1 X62.472Y220.382
G1 X62.904Y220.448
G1 X63.383Y220.54
G1 X63.918Y220.658
G1 X64.517Y220.802
G1 X65.188Y220.971
G1 X65.94Y221.166
G1 X66.732Y221.385
G1 X67.55Y221.631
G1 X68.395Y221.907
G1 X69.271Y222.215
G1 X70.181Y222.555
G1 X71.126Y222.929
G1 X72.109Y223.338
G1 X73.134Y223.784
G1 X74.203Y224.269
G1 X75.317Y224.794
G1 X76.481Y225.36
G1 X77.696Y225.968
G1 X78.966Y226.621
G1 X80.292Y227.32
G1 X81.678Y228.065
G1 X83.126Y228.86
G1 X84.639Y229.704
G1 X86.219Y230.6
G1 X87.869Y231.549
G1 X89.592Y232.552
G1 X91.39Y233.611
G1 X93.266Y234.727
G1 X94.234Y235.307
G1 X95.223Y235.902
G1 X96.232Y236.512
G1 X97.262Y237.137
G1 X99.388Y238.434
G1 X101.601Y239.794
G1 X103.906Y241.219
G1 X106.305Y242.709
G1 X108.799Y244.268
G1 X111.393Y245.895
G1 X114.088Y247.592
G1 X118.627Y250.459
G1 X120.328Y251.526
G1 X121.982Y252.556
G1 X123.579Y253.545
G1 X125.11Y254.487
G1 X126.566Y255.375
G1 X127.262Y255.798
G1 X128.588Y256.597
G1 X129.815Y257.329
G1 X130.935Y257.989
G1 X131.452Y258.29
G1 X131.938Y258.571
G1 X132.393Y258.831
G1 X132.815Y259.07
G1 X133.203Y259.286
G1 X133.556Y259.48
G1 X133.873Y259.65
G1 X134.152Y259.796
G1 X134.394Y259.917
G1 X134.595Y260.012
G1 X134.756Y260.081
G1 X134.875Y260.123
G1 X134.95Y260.137
G1 X135.026Y260.123
G1 X135.145Y260.081
G1 X135.306Y260.012
G1 X135.507Y259.917
G1 X135.748Y259.796
G1 X136.028Y259.65
G1 X136.345Y259.48
G1 X136.698Y259.286
G1 X137.086Y259.07
G1 X137.508Y258.831
G1 X137.963Y258.571
G1 X138.449Y258.29
G1 X138.966Y257.989
G1 X139.512Y257.668
G1 X140.686Y256.971
G1 X141.964Y256.205
G1 X143.335Y255.375
G1 X144.791Y254.487
G1 X146.322Y253.545
G1 X147.919Y252.556
G1 X149.573Y251.526
G1 X151.274Y250.459
G1 X154.414Y248.475
G1 X157.146Y246.753
G1 X159.786Y245.095
G1 X162.335Y243.503
G1 X164.795Y241.974
G1 X167.169Y240.507
G1 X169.458Y239.102
G1 X170.571Y238.422
G1 X171.663Y237.757
G1 X172.735Y237.107
G1 X174.819Y235.851
G1 X176.825Y234.653
G1 X178.754Y233.512
G1 X180.608Y232.426
G1 X182.389Y231.396
G1 X184.099Y230.419
G1 X185.739Y229.496
G1 X187.312Y228.624
G1 X188.819Y227.803
G1 X190.263Y227.032
G1 X191.644Y226.31
G1 X192.965Y225.635
G1 X194.228Y225.008
G1 X195.435Y224.426
G1 X196.587Y223.888
G1 X197.686Y223.395
G1 X198.734Y222.945
G1 X199.733Y222.536
G1 X200.684Y222.168
G1 X201.591Y221.839
G1 X202.453Y221.549
G1 X203.274Y221.297
G1 X204.055Y221.082
G1 X204.798Y220.903
G1 X205.39Y220.773
G1 X205.93Y220.662
G1 X206.424Y220.569
G1 X206.876Y220.495
G1 X207.292Y220.441
G1 X207.677Y220.405
G1 X208.036Y220.389
G1 X208.375
G1 X209.012Y220.46
G1 X209.631Y220.609
G1 X209.946Y220.714
G1 X210.273Y220.84
G1 X210.616Y220.988
G1 X210.98Y221.157
G1 X211.578Y221.473
G1 X212.118Y221.828
G1 X212.602Y222.229
G1 X213.032Y222.683
G1 X213.409Y223.197
G1 X213.736Y223.777
G1 X214.015Y224.432
G1 X214.246Y225.167
G1 X214.345Y225.568
G1 X214.433Y225.991
G1 X214.51Y226.438
G1 X214.577Y226.909
G1 X214.634Y227.406
G1 X214.68Y227.93
G1 X214.717Y228.48
G1 X214.744Y229.059
G1 X214.762Y229.667
G1 Y230.305
G1 Y230.973
G1 Y231.673
G1 X214.744Y232.406
G1 X214.719Y233.172
G1 X214.686Y233.973
G1 X214.645Y234.808
G1 X214.547Y236.474
G1 X214.425Y238.102
G1 X214.269Y239.734
G1 X214.07Y241.416
G1 X213.951Y242.289
G1 X213.819Y243.191
G1 X213.671Y244.128
G1 X213.507Y245.105
G1 X213.325Y246.128
G1 X213.125Y247.202
G1 X212.904Y248.332
G1 X212.663Y249.525
G1 X212.4Y250.785
G1 X212.113Y252.119
G1 X211.803Y253.532
G1 X211.466Y255.03
G1 X211.103Y256.617
G1 X210.712Y258.3
G1 X210.506Y259.179
G1 X210.071Y261.015
G1 X209.606Y262.961
G1 X208.848Y266.097
G1 X208.015Y269.511
G1 X206.78Y274.525
G1 X204.379Y284.205
G1 X203.45Y287.974
G1 X202.578Y291.54
G1 X201.775Y294.856
G1 X201.05Y297.88
G1 X200.414Y300.567
G1 X200.045Y302.149
G1 X199.723Y303.547
G1 X199.452Y304.749
G1 X199.234Y305.742
G1 X199.147Y306.156
G1 X199.074Y306.512
G1 X199.015Y306.81
G1 X198.973Y307.046
G1 X198.946Y307.221
G1 X198.935Y307.332
G1 Y307.377
G1 X213.087Y318.981
G1 X214.767Y320.363
G1 X216.411Y321.719
G1 X218.019Y323.049
G1 X219.59Y324.353
G1 X221.126Y325.631
G1 X222.626Y326.883
G1 X224.092Y328.111
G1 X225.523Y329.313
G1 X226.919Y330.492
G1 X228.281Y331.646
G1 X229.609Y332.776
G1 X230.904Y333.883
G1 X232.166Y334.967
G1 X233.395Y336.028
G1 X234.592Y337.066
G1 X235.756Y338.083
G1 X236.888Y339.077
G1 X237.989Y340.05
G1 X239.059Y341.002
G1 X240.097Y341.932
G1 X241.105Y342.843
G1 X242.083Y343.733
G1 X243.031Y344.602
G1 X243.949Y345.453
G1 X244.838Y346.284
G1 X245.698Y347.096
G1 X246.529Y347.889
G1 X247.331Y348.664
G1 X248.106Y349.421
G1 X248.853Y350.16
G1 X249.572Y350.882
G1 X250.265Y351.587
G1 X250.93Y352.275
G1 X251.569Y352.947
G1 X252.182Y353.603
G1 X252.769Y354.242
G1 X253.33Y354.867
G1 X253.866Y355.476
G1 X254.378Y356.07
G1 X254.864Y356.65
G1 X255.327Y357.216
G1 X255.765Y357.767
G1 X256.18Y358.306
G1 X256.572Y358.831
G1 X256.94Y359.343
G1 X257.286Y359.842
G1 X257.609Y360.33
G1 X258.19Y361.269
G1 X258.686Y362.163
G1 X259.098Y363.014
G1 X259.43Y363.825
G1 X259.683Y364.598
G1 X259.861Y365.337
G1 X259.966Y366.043
G1 X260Y366.719
G1 X259.954Y367.213
G1 X259.819Y367.725
G1 X259.6Y368.249
G1 X259.303Y368.782
G1 X258.933Y369.318
G1 X258.495Y369.853
G1 X257.996Y370.382
G1 X257.439Y370.901
G1 X256.832Y371.405
G1 X256.178Y371.888
G1 X255.483Y372.347
G1 X254.753Y372.777
G1 X253.994Y373.172
G1 X253.209Y373.529
G1 X252.406Y373.842
G1 X251.588Y374.106
G1 X250.698Y374.357
G1 X249.77Y374.602
G1 X248.802Y374.842
G1 X247.792Y375.077
G1 X246.738Y375.307
G1 X245.637Y375.532
G1 X244.488Y375.753
G1 X243.287Y375.971
G1 X242.033Y376.184
G1 X240.724Y376.394
G1 X239.356Y376.6
G1 X237.929Y376.804
G1 X236.44Y377.004
G1 X234.887Y377.202
G1 X233.267Y377.398
G1 X231.578Y377.592
G1 X229.818Y377.784
G1 X227.985Y377.974
G1 X226.076Y378.163
G1 X224.09Y378.351
G1 X222.023Y378.538
G1 X219.875Y378.725
G1 X217.642Y378.911
G1 X215.323Y379.097
G1 X212.915Y379.284
G1 X210.416Y379.47
G1 X207.823Y379.658
G1 X205.135Y379.846
G1 X202.35Y380.036
G1 X199.464Y380.227
G1 X197.983Y380.323
G1 X194.944Y380.516
G1 X174.358Y381.797
G1 X164.876Y405.418
G1 X162.896Y410.329
G1 X160.903Y415.232
G1 X159.919Y417.639
G1 X158.951Y419.996
G1 X158.008Y422.285
G1 X157.094Y424.491
G1 X155.797Y427.608
G1 X154.99Y429.534
G1 X154.236Y431.319
G1 X153.544Y432.948
G1 X152.92Y434.404
G1 X152.37Y435.67
G1 X152.125Y436.227
G1 X151.901Y436.731
G1 X151.699Y437.179
G1 X151.125Y438.426
G1 X150.549Y439.645
G1 X149.972Y440.834
G1 X149.393Y441.992
G1 X148.814Y443.12
G1 X148.236Y444.215
G1 X147.657Y445.278
G1 X147.081Y446.308
G1 X146.505Y447.303
G1 X145.932Y448.265
G1 X145.362Y449.19
G1 X144.795Y450.08
G1 X144.232Y450.934
G1 X143.673Y451.75
G1 X143.119Y452.527
G1 X142.57Y453.267
G1 X142.028Y453.966
G1 X141.491Y454.626
G1 X140.962Y455.245
G1 X140.44Y455.822
G1 X139.926Y456.357
G1 X139.421Y456.849
G1 X138.924Y457.298
G1 X138.437Y457.702
G1 X137.961Y458.061
G1 X137.495Y458.375
G1 X137.04Y458.642
G1 X136.596Y458.862
G1 X136.165Y459.035
G1 X135.747Y459.159
G1 X135.342Y459.234
G1 X134.95Y459.259
G1 X134.664Y459.227
G1 X134.304Y459.135
G1 X133.885Y458.989
G1 X133.421Y458.796
G1 X132.926Y458.563
G1 X132.416Y458.296
G1 X131.904Y458.001
G1 X131.406Y457.684
G1 X130.866Y457.301
G1 X130.323Y456.87
G1 X129.778Y456.388
G1 X129.227Y455.851
G1 X128.669Y455.256
G1 X128.103Y454.6
G1 X127.527Y453.88
G1 X126.939Y453.093
G1 X126.338Y452.234
G1 X125.722Y451.301
G1 X125.089Y450.291
G1 X124.438Y449.2
G1 X123.767Y448.026
G1 X123.074Y446.764
G1 X122.358Y445.411
G1 X121.616Y443.965
G1 X121.236Y443.206
G1 X120.849Y442.422
G1 X120.455Y441.613
G1 X120.053Y440.779
G1 X119.644Y439.919
G1 X119.227Y439.032
G1 X118.803Y438.119
G1 X118.37Y437.179
G1 X117.929Y436.211
G1 X117.48Y435.215
G1 X117.022Y434.191
G1 X116.555Y433.138
G1 X116.078Y432.056
G1 X115.593Y430.944
G1 X115.098Y429.803
G1 X114.593Y428.631
G1 X114.079Y427.428
G1 X113.554Y426.195
G1 X113.019Y424.929
G1 X112.473Y423.632
G1 X111.916Y422.302
G1 X111.349Y420.939
G1 X110.77Y419.543
G1 X110.18Y418.114
G1 X109.579Y416.65
G1 X108.965Y415.152
G1 X108.34Y413.619
G1 X107.052Y410.447
G1 X105.714Y407.131
G1 X95.547Y381.797
G1 X84.72Y381.151
G1 X82.211Y380.998
G1 X79.76Y380.846
G1 X77.364Y380.696
G1 X75.024Y380.547
G1 X72.739Y380.399
G1 X70.508Y380.252
G1 X68.331Y380.105
G1 X66.206Y379.959
G1 X64.134Y379.814
G1 X62.113Y379.67
G1 X60.144Y379.525
G1 X58.224Y379.381
G1 X56.354Y379.238
G1 X54.534Y379.094
G1 X52.761Y378.951
G1 X51.036Y378.807
G1 X49.358Y378.663
G1 X47.727Y378.519
G1 X46.141Y378.375
G1 X44.6Y378.23
G1 X43.104Y378.084
G1 X41.651Y377.938
G1 X40.241Y377.791
G1 X38.874Y377.644
G1 X37.549Y377.495
G1 X36.264Y377.346
G1 X35.02Y377.195
G1 X33.816Y377.043
G1 X32.651Y376.89
G1 X31.524Y376.735
G1 X30.436Y376.579
G1 X29.384Y376.421
G1 X28.369Y376.261
G1 X27.39Y376.1
G1 X26.445Y375.937
G1 X25.536Y375.771
G1 X24.66Y375.604
G1 X23.818Y375.435
G1 X23.008Y375.263
G1 X22.23Y375.089
G1 X21.483Y374.912
G1 X20.767Y374.733
G1 X20.081Y374.551
G1 X19.424Y374.366
G1 X18.796Y374.179
G1 X18.195Y373.988
G1 X17.622Y373.795
G1 X17.076Y373.598
G1 X16.556Y373.398
G1 X16.061Y373.195
G1 X15.591Y372.988
G1 X14.722Y372.564
G1 X13.943Y372.125
G1 X13.251Y371.671
G1 X12.639Y371.199
G1 X12.102Y370.711
G1 X11.635Y370.205
G1 X11.252Y369.729
G1 X10.92Y369.27
G1 X10.64Y368.822
G1 X10.41Y368.379
G1 X10.231Y367.937
G1 X10.103Y367.489
; Layer WorkSpace Pass 4 of 10
G1 X10.026Y367.032
G1 X10Y366.559
G1 X10.025Y366.065
G1 X10.101Y365.546
G1 X10.228Y364.995
G1 X10.405Y364.408
G1 X10.634Y363.779
G1 X10.914Y363.102
G1 X11.244Y362.374
G1 X11.626Y361.588
G1 X11.951Y360.968
G1 X12.319Y360.327
G1 X12.733Y359.662
G1 X13.194Y358.974
G1 X13.704Y358.258
G1 X14.266Y357.513
G1 X14.882Y356.738
G1 X15.553Y355.93
G1 X16.282Y355.087
G1 X17.071Y354.207
G1 X17.923Y353.288
G1 X18.838Y352.329
G1 X19.82Y351.327
G1 X20.869Y350.28
G1 X21.99Y349.186
G1 X23.182Y348.044
G1 X24.45Y346.851
G1 X25.794Y345.606
G1 X27.217Y344.305
G1 X28.72Y342.948
G1 X29.503Y342.248
G1 X30.307Y341.533
G1 X31.132Y340.802
G1 X31.979Y340.056
G1 X32.847Y339.295
G1 X33.738Y338.518
G1 X34.651Y337.724
G1 X35.586Y336.914
G1 X36.544Y336.087
G1 X37.526Y335.244
G1 X38.53Y334.383
G1 X39.559Y333.505
G1 X40.611Y332.61
G1 X42.788Y330.764
G1 X45.064Y328.845
G1 X47.441Y326.851
G1 X49.92Y324.779
G1 X52.504Y322.627
G1 X60.368Y316.1
G1 X68.434Y309.391
G1 X71.209Y307.059
G1 X64.495Y280.067
G1 X62.79Y273.186
G1 X61.593Y268.314
G1 X60.786Y264.999
G1 X60.053Y261.955
G1 X59.604Y260.067
G1 X59.185Y258.285
G1 X58.795Y256.604
G1 X58.432Y255.019
G1 X58.096Y253.523
G1 X57.785Y252.111
G1 X57.499Y250.779
G1 X57.236Y249.519
G1 X56.995Y248.327
G1 X56.775Y247.197
G1 X56.575Y246.124
G1 X56.394Y245.102
G1 X56.23Y244.126
G1 X56.082Y243.189
G1 X55.949Y242.287
G1 X55.831Y241.414
G1 X55.632Y239.733
G1 X55.476Y238.101
G1 X55.353Y236.474
G1 X55.255Y234.808
G1 X55.214Y233.967
G1 X55.181Y233.162
G1 X55.155Y232.392
G1 X55.138Y231.656
G1 Y230.953
G1 Y230.283
G1 Y229.643
G1 X55.156Y229.034
G1 X55.183Y228.454
G1 X55.22Y227.903
G1 X55.267Y227.379
G1 X55.324Y226.882
G1 X55.392Y226.411
G1 X55.47Y225.964
G1 X55.559Y225.542
G1 X55.659Y225.142
G1 X55.895Y224.408
G1 X56.178Y223.755
G1 X56.51Y223.175
G1 X56.895Y222.662
G1 X57.333Y222.208
G1 X57.827Y221.804
G1 X58.379Y221.446
G1 X58.991Y221.123
G1 X59.393Y220.935
G1 X59.761Y220.772
G1 X60.103Y220.634
G1 X60.428Y220.522
G1 X60.745Y220.435
G1 X61.06Y220.374
G1 X61.382Y220.337
G1 X61.719Y220.327
G1 X62.08Y220.342
G1 X62.472Y220.382
G1 X62.904Y220.448
G1 X63.383Y220.54
G1 X63.918Y220.658
G1 X64.517Y220.802
G1 X65.188Y220.971
G1 X65.94Y221.166
G1 X66.732Y221.385
G1 X67.55Y221.631
G1 X68.395Y221.907
G1 X69.271Y222.215
G1 X70.181Y222.555
G1 X71.126Y222.929
G1 X72.109Y223.338
G1 X73.134Y223.784
G1 X74.203Y224.269
G1 X75.317Y224.794
G1 X76.481Y225.36
G1 X77.696Y225.968
G1 X78.966Y226.621
G1 X80.292Y227.32
G1 X81.678Y228.065
G1 X83.126Y228.86
G1 X84.639Y229.704
G1 X86.219Y230.6
G1 X87.869Y231.549
G1 X89.592Y232.552
G1 X91.39Y233.611
G1 X93.266Y234.727
G1 X94.234Y235.307
G1 X95.223Y235.902
G1 X96.232Y236.512
G1 X97.262Y237.137
G1 X99.388Y238.434
G1 X101.601Y239.794
G1 X103.906Y241.219
G1 X106.305Y242.709
G1 X108.799Y244.268
G1 X111.393Y245.895
G1 X114.088Y247.592
G1 X118.627Y250.459
G1 X120.328Y251.526
G1 X121.982Y252.556
G1 X123.579Y253.545
G1 X125.11Y254.487
G1 X126.566Y255.375
G1 X127.262Y255.798
G1 X128.588Y256.597
G1 X129.815Y257.329
G1 X130.935Y257.989
G1 X131.452Y258.29
G1 X131.938Y258.571
G1 X132.393Y258.831
G1 X132.815Y259.07
G1 X133.203Y259.286
G1 X133.556Y259.48
G1 X133.873Y259.65
G1 X134.152Y259.796
G1 X134.394Y259.917
G1 X134.595Y260.012
G1 X134.756Y260.081
G1 X134.875Y260.123
G1 X134.95Y260.137
G1 X135.026Y260.123
G1 X135.145Y260.081
G1 X135.306Y260.012
G1 X135.507Y259.917
G1 X135.748Y259.796
G1 X136.028Y259.65
G1 X136.345Y259.48
G1 X136.698Y259.286
G1 X137.086Y259.07
G1 X137.508Y258.831
G1 X137.963Y258.571
G1 X138.449Y258.29
G1 X138.966Y257.989
G1 X139.512Y257.668
G1 X140.686Y256.971
G1 X141.964Y256.205
G1 X143.335Y255.375
G1 X144.791Y254.487
G1 X146.322Y253.545
G1 X147.919Y252.556
G1 X149.573Y251.526
G1 X151.274Y250.459
G1 X154.414Y248.475
G1 X157.146Y246.753
G1 X159.786Y245.095
G1 X162.335Y243.503
G1 X164.795Y241.974
G1 X167.169Y240.507
G1 X169.458Y239.102
G1 X170.571Y238.422
G1 X171.663Y237.757
G1 X172.735Y237.107
G1 X174.819Y235.851
G1 X176.825Y234.653
G1 X178.754Y233.512
G1 X180.608Y232.426
G1 X182.389Y231.396
G1 X184.099Y230.419
G1 X185.739Y229.496
G1 X187.312Y228.624
G1 X188.819Y227.803
G1 X190.263Y227.032
G1 X191.644Y226.31
G1 X192.965Y225.635
G1 X194.228Y225.008
G1 X195.435Y224.426
G1 X196.587Y223.888
G1 X197.686Y223.395
G1 X198.734Y222.945
G1 X199.733Y222.536
G1 X200.684Y222.168
G1 X201.591Y221.839
G1 X202.453Y221.549
G1 X203.274Y221.297
G1 X204.055Y221.082
G1 X204.798Y220.903
G1 X205.39Y220.773
G1 X205.93Y220.662
G1 X206.424Y220.569
G1 X206.876Y220.495
G1 X207.292Y220.441
G1 X207.677Y220.405
G1 X208.036Y220.389
G1 X208.375
G1 X209.012Y220.46
G1 X209.631Y220.609
G1 X209.946Y220.714
G1 X210.273Y220.84
G1 X210.616Y220.988
G1 X210.98Y221.157
G1 X211.578Y221.473
G1 X212.118Y221.828
G1 X212.602Y222.229
G1 X213.032Y222.683
G1 X213.409Y223.197
G1 X213.736Y223.777
G1 X214.015Y224.432
G1 X214.246Y225.167
G1 X214.345Y225.568
G1 X214.433Y225.991
G1 X214.51Y226.438
G1 X214.577Y226.909
G1 X214.634Y227.406
G1 X214.68Y227.93
