; LightBurn 1.3.01
; GRBL device profile, absolute coords
; Bounds: X10 Y10 to X610 Y320
G00 G17 G40 G21 G54
G90
M4
; Cut @ 600 mm/min, 95% power
M8
G0 X10Y320
; Layer Corte Pass 1 of 10
G1 Y171.744S950F600
G1 X10.08
G1 X10.021Y169.732
G1 X10Y167.72
G1 Y160.576
G1 X11.312Y161.072
G1 X11.52Y161.16
G1 X11.992Y161.392
G1 X12.464Y161.64
G1 X12.72Y161.792
G1 X13.544Y162.336
G1 X14.245Y162.833
G1 X14.936Y163.344
G1 X15.52Y163.816
G1 X16.104Y164.312
G1 X16.688Y164.84
G1 X17.824Y165.912
G1 X18.368Y166.464
G1 X18.888Y167.024
G1 X19.376Y167.584
G1 X19.84Y168.136
G1 X20.545Y169.02
G1 X21.271Y169.888
G1 X21.848Y170.552
G1 X21.968Y170.688
G1 X22.096Y170.816
G1 X22.136Y170.848
G1 X22.149Y170.829
G1 X22.16Y170.808
G1 X22.138Y170.592
G1 X22.112Y170.376
G1 X22.056Y169.976
G1 X21.968Y169.44
G1 X21.888Y168.904
G1 X21.72Y167.92
G1 X21.592Y167.2
G1 X21.344Y165.68
G1 X21.225Y164.776
G1 X21.112Y163.872
G1 X21.021Y162.969
G1 X20.944Y162.064
G1 Y161.072
G1 X20.92Y160.08
G1 X31.184
G1 X32.195Y162.102
G1 X33.172Y164.14
G1 X34.115Y166.194
G1 X35.024Y168.264
G1 X35.344Y165.712
G1 X35.534Y164.3
G1 X35.742Y162.89
G1 X35.97Y161.483
G1 X36.216Y160.08
G1 X41.568
G1 X43.6
G1 X44.352
G1 X44.88Y160.112
G1 X45.408Y160.144
G1 X45.68Y160.184
G1 X45.928Y160.232
G1 X46.16Y160.288
G1 X46.36Y160.368
G1 X46.544Y160.456
G1 X46.704Y160.56
G1 X46.848Y160.688
G1 X46.976Y160.832
G1 X47.088Y161
G1 X47.192Y161.192
G1 X47.271Y161.4
G1 X47.344Y161.64
G1 X47.408Y161.904
G1 X47.464Y162.192
G1 X47.56Y162.928
G1 X47.632Y163.664
G1 X47.872Y167.02
G1 X48.104Y170.376
G1 X49.944Y166.696
G1 X50.36Y165.912
G1 X50.791Y165.162
G1 X51.243Y164.426
G1 X51.716Y163.702
G1 X52.208Y162.992
G1 X52.44Y162.688
G1 X52.88Y162.144
G1 X53.271Y161.728
G1 X53.736Y161.324
G1 X54.208Y160.928
G1 X54.432Y160.776
G1 X54.664Y160.624
G1 X55.112Y160.408
G1 X55.352Y160.328
G1 X55.6Y160.256
G1 X55.872Y160.2
G1 X56.16Y160.16
G1 X56.479Y160.128
G1 X57.068Y160.1
G1 X57.656Y160.08
G1 X59.024Y160.096
G1 X59.768Y160.128
G1 X60.08Y160.168
G1 X60.49Y160.237
G1 X60.896Y160.336
G1 X61.176Y160.456
G1 X61.416Y160.6
G1 X61.624Y160.776
G1 X61.808Y160.992
G1 X61.96Y161.248
G1 X62.088Y161.536
G1 X62.296Y162.264
G1 X62.384Y162.728
G1 X62.464Y163.192
G1 X62.488Y163.368
G1 X62.504Y163.552
G1 Y164.28
G1 X62.464Y164.872
G1 X62.336Y166.112
G1 X62.251Y166.796
G1 X62.16Y167.48
G1 X61.99Y168.58
G1 X61.799Y169.676
G1 X61.586Y170.768
G1 X61.352Y171.856
G1 X61.16Y172.72
G1 X60.96Y173.56
G1 X60.754Y174.329
G1 X60.536Y175.096
G1 X60.512Y175.288
G1 X60.536Y175.336
G1 X60.584Y175.36
G1 X60.76Y175.312
G1 X60.888Y175.24
G1 X61.04Y175.144
G1 X61.216Y175.016
G1 X61.69Y174.614
G1 X62.16Y174.208
G1 X62.88Y173.536
G1 X63.592Y172.856
G1 X64.048Y172.44
G1 X64.504Y172.04
G1 X64.96Y171.656
G1 X65.411Y171.306
G1 X65.864Y170.96
G1 X66.312Y170.632
G1 X66.752Y170.336
G1 X67.2Y170.048
G1 X67.632Y169.784
G1 X68.496Y169.32
G1 X68.92Y169.12
G1 X69.336Y168.936
G1 X69.744Y168.776
G1 X70.152Y168.632
G1 X70.544Y168.512
G1 X70.936Y168.416
G1 X71.312Y168.336
G1 X71.688Y168.28
G1 X72.048Y168.24
G1 X72.4
G1 X72.744
G1 X73.072Y168.264
G1 X73.392Y168.32
G1 X73.704Y168.392
G1 X73.992Y168.496
G1 X74.28Y168.608
G1 X74.552Y168.752
G1 X74.816Y168.92
G1 X75.056Y169.112
G1 X75.288Y169.312
G1 X75.496Y169.536
G1 X75.664Y169.784
G1 X75.832Y170.04
G1 X75.976Y170.312
G1 X76.096Y170.6
G1 X76.192Y170.896
G1 X76.271Y171.216
G1 X76.328Y171.544
G1 X76.368Y171.88
G1 X76.384Y172.232
G1 X76.352Y172.976
G1 X76.312Y173.36
G1 X76.248Y173.752
G1 X76.16Y174.16
G1 X76.056Y174.568
G1 X75.936Y174.992
G1 X75.792Y175.416
G1 X75.456Y176.296
G1 X75.256Y176.736
G1 X75.04Y177.192
G1 X74.8Y177.648
G1 X74.552Y178.104
G1 X73.992Y179.032
G1 X73.68Y179.504
G1 X73.352Y179.976
G1 X73.016Y180.44
G1 X72.28Y181.384
G1 X71.624Y182.16
G1 X71.015Y182.934
G1 X70.432Y183.728
G1 X70.312Y183.928
G1 X70.288Y183.984
G1 Y184.024
G1 Y184.048
G1 X70.328Y184.064
G1 X70.376
G1 X70.44Y184.048
G1 X70.528Y184.032
G1 X70.744Y183.952
G1 X71.176Y183.76
G1 X71.352Y183.672
G1 X71.52Y183.584
G1 X72.376Y183.12
G1 X73.224Y182.648
G1 X74.168Y182.192
G1 X75.12Y181.76
G1 X75.592Y181.568
G1 X76.317Y181.306
G1 X77.048Y181.064
G1 X78.016Y180.768
G1 X78.496Y180.64
G1 X79.432Y180.432
G1 X79.896Y180.344
G1 X80.808Y180.208
G1 X81.243Y180.162
G1 X81.68Y180.12
G1 X82.304Y180.101
G1 X82.928Y180.088
G1 X83.328Y180.104
G1 X83.704Y180.136
G1 X84.072Y180.184
G1 X84.432Y180.24
G1 X84.768Y180.312
G1 X85.096Y180.392
G1 X85.4Y180.496
G1 X85.696Y180.608
G1 X85.968Y180.744
G1 X86.184Y180.856
G1 X86.376Y180.968
G1 X86.552Y181.08
G1 X86.704Y181.184
G1 X86.832Y181.304
G1 X86.944Y181.424
G1 X87.04Y181.552
G1 X87.128Y181.688
G1 X87.192Y181.84
G1 X87.248Y182.008
G1 X87.288Y182.192
G1 X87.317Y182.408
G1 X87.344Y182.624
G1 X87.357Y182.892
G1 X87.368Y183.16
G1 Y183.784
G1 X87.336Y184.096
G1 X87.296Y184.416
G1 X87.24Y184.728
G1 X87.072Y185.36
G1 X86.848Y185.984
G1 X86.712Y186.304
G1 X86.56Y186.616
G1 X86.4Y186.928
G1 X86.216Y187.24
G1 X85.8Y187.864
G1 X85.44Y188.336
G1 X85.121Y188.717
G1 X84.8Y189.096
G1 X84.2Y189.704
G1 X83.888Y190.008
G1 X83.552Y190.312
G1 X83.2Y190.616
G1 X82.84Y190.912
G1 X82.464Y191.208
G1 X82.072Y191.504
G1 X81.24Y192.09
G1 X80.808Y192.376
G1 X80.352Y192.664
G1 X79.896Y192.944
G1 X79.456Y193.208
G1 X78.504Y193.768
G1 X78.099Y194.015
G1 X77.704Y194.28
G1 X77.568Y194.384
G1 X77.479Y194.464
G1 X77.432Y194.528
G1 Y194.576
G1 X77.52Y194.624
G1 X77.624
G1 X78.084Y194.566
G1 X78.544Y194.504
G1 X78.808Y194.472
G1 X79.096Y194.44
G1 X80.576Y194.304
G1 X83.286Y194.105
G1 X86Y193.976
G1 X86.768
G1 X87.544Y194
G1 X88.568Y194.08
G1 X89.584Y194.2
G1 X90.192Y194.296
G1 X90.768Y194.424
G1 X91.288Y194.56
G1 X91.8Y194.72
G1 X92.264Y194.896
G1 X92.664Y195.088
G1 X93.064Y195.296
G1 X93.408Y195.52
G1 X93.712Y195.768
G1 X93.976Y196.024
G1 X94.192Y196.296
G1 X94.376Y196.584
G1 X94.512Y196.88
G1 X94.608Y197.2
G1 X94.664Y197.528
G1 Y197.872
G1 X94.64Y198.224
G1 X94.56Y198.592
G1 X94.44Y198.968
G1 X94.271Y199.36
G1 X94.064Y199.76
G1 X93.782Y200.177
G1 X93.496Y200.592
G1 X92.744Y201.456
G1 X92.136Y202
G1 X91.776Y202.272
G1 X91.368Y202.552
G1 X90.92Y202.832
G1 X90.432Y203.104
G1 X89.904Y203.376
G1 X89.352Y203.648
G1 X88.76Y203.92
G1 X88.136Y204.192
G1 X86.8Y204.712
G1 X86.08Y204.96
G1 X85.352Y205.208
G1 X84.07Y205.602
G1 X82.784Y205.984
G1 X82.584Y206.048
G1 X82.4Y206.112
G1 X82.184Y206.2
G1 X81.976Y206.288
G1 X81.8Y206.392
G1 X81.744Y206.44
G1 X81.72Y206.488
G1 Y206.536
G1 Y206.584
G1 X81.76Y206.632
G1 X81.96Y206.728
G1 X82.168Y206.808
G1 X82.52Y206.904
G1 X82.976Y207.008
G1 X83.536Y207.112
G1 X84.576Y207.288
G1 X85.176Y207.376
G1 X85.768Y207.472
G1 X86.368Y207.576
G1 X86.96Y207.696
G1 X87.504Y207.8
G1 X88.024Y207.922
G1 X88.544Y208.048
G1 X89.274Y208.257
G1 X90Y208.48
G1 X90.694Y208.731
G1 X91.384Y208.992
G1 X92Y209.272
G1 X92.616Y209.56
G1 X92.992Y209.76
G1 X93.352Y209.968
G1 X93.704Y210.176
G1 X94.024Y210.392
G1 X94.336Y210.616
G1 X94.896Y211.064
G1 X95.144Y211.296
G1 X95.376Y211.528
G1 X95.576Y211.76
G1 X95.928Y212.24
G1 X96.176Y212.72
G1 X96.271Y212.96
G1 X96.336Y213.2
G1 X96.376Y213.448
G1 Y213.688
G1 Y213.968
G1 X96.336Y214.232
G1 X96.271Y214.496
G1 X96.176Y214.76
G1 X96.064Y215.008
G1 X95.92Y215.248
G1 X95.76Y215.48
G1 X95.568Y215.712
G1 X95.36Y215.928
G1 X95.12Y216.144
G1 X94.864Y216.344
G1 X94.584Y216.544
G1 X94.271Y216.728
G1 X93.952Y216.912
G1 X93.6Y217.08
G1 X93.232Y217.24
G1 X92.84Y217.392
G1 X92.416Y217.534
G1 X91.992Y217.672
G1 X91.544Y217.8
G1 X91.072Y217.92
G1 X90.576Y218.024
G1 X90.064Y218.12
G1 X89.529Y218.206
G1 X88.992Y218.288
G1 X88.424Y218.36
G1 X87.832Y218.416
G1 X87.232Y218.464
G1 X85.976Y218.528
G1 X85.32Y218.544
G1 X84.656
G1 X80.104
G1 X82.88Y219.68
G1 X83.584Y219.976
G1 X84.264Y220.288
G1 X84.927Y220.619
G1 X85.584Y220.96
G1 X86.208Y221.312
G1 X86.808Y221.68
G1 X87.501Y222.133
G1 X88.176Y222.61
G1 X88.833Y223.113
G1 X89.472Y223.64
G1 X89.936Y224.048
G1 X90.368Y224.464
G1 X90.768Y224.88
G1 X91.144Y225.304
G1 X91.479Y225.72
G1 X91.792Y226.136
G1 X92.072Y226.552
G1 X92.32Y226.968
G1 X92.528Y227.376
G1 X92.712Y227.776
G1 X92.883Y228.349
G1 X93.032Y228.928
G1 X93.045Y229.116
G1 X93.056Y229.304
G1 Y229.664
G1 X93Y230.008
G1 X92.904Y230.336
G1 X92.776Y230.656
G1 X92.6Y230.96
G1 X92.384Y231.24
G1 X92.12Y231.512
G1 X91.816Y231.752
G1 X91.648Y231.856
G1 X91.271Y232.056
G1 X91.072Y232.136
G1 X90.64Y232.288
G1 X90.271Y232.376
G1 X89.904Y232.448
G1 X89.64Y232.488
G1 X89.368Y232.52
G1 X88.928Y232.544
G1 X88.488Y232.56
G1 X88.176
G1 X87.52Y232.536
G1 X87.184Y232.512
G1 X86.472Y232.44
G1 X85.72Y232.336
G1 X84.944Y232.2
G1 X84.12Y232.04
G1 X82.793Y231.718
G1 X81.471Y231.37
G1 X80.157Y231
G1 X78.848Y230.608
G1 X77.112Y230.056
G1 X77.04
G1 X77.016Y230.072
G1 Y230.1
G1 Y230.128
G1 X77.136Y230.384
G1 X77.423Y230.775
G1 X77.72Y231.16
G1 X78.081Y231.586
G1 X78.448Y232.008
G1 X79.669Y233.33
G1 X80.929Y234.615
G1 X82.226Y235.863
G1 X83.56Y237.072
G1 X84.096Y237.512
G1 X84.536Y237.832
G1 X85.088Y238.168
G1 X85.456Y238.44
G1 X85.832Y238.752
G1 X86.208Y239.112
G1 X86.576Y239.512
G1 X86.936Y239.952
G1 X87.296Y240.432
G1 X87.654Y240.962
G1 X88.008Y241.496
G1 X88.552Y242.48
G1 X89.072Y243.472
G1 X89.528Y244.496
G1 X89.952Y245.528
G1 X90.248Y246.304
G1 X91.584Y250.024
G1 X91.616Y247.232
G1 Y246.696
G1 X91.648Y246.168
G1 X91.72Y245.416
G1 X91.808Y244.672
G1 X91.968Y243.736
G1 X92.136Y243.088
G1 X92.312Y242.448
G1 X92.6Y241.656
G1 X92.76Y241.28
G1 X92.936Y240.928
G1 X93.128Y240.584
G1 X93.328Y240.256
G1 X93.536Y239.944
G1 X93.76Y239.648
G1 X93.992Y239.368
G1 X94.24Y239.104
G1 X94.496Y238.848
G1 X94.76Y238.616
G1 X95.042Y238.402
G1 X95.328Y238.192
G1 X95.792Y237.936
G1 X96.264Y237.688
G1 X96.776Y237.496
G1 X97.296Y237.336
G1 X97.664Y237.256
G1 X98.032Y237.184
G1 X98.872Y237.032
G1 X99.232Y236.936
G1 X99.628Y236.799
G1 X100.016Y236.64
G1 X100.08Y236.593
G1 X100.144Y236.544
G1 X100.176Y236.504
G1 Y236.456
G1 X100.192Y236.352
G1 X100.224Y236.256
G1 X100.264Y236.152
G1 X100.432Y235.96
G1 X100.608Y235.768
G1 X100.816Y235.632
G1 X101.032Y235.496
G1 X101.2Y235.416
G1 X101.768Y235.176
G1 X102.208Y235.032
G1 X102.688Y234.896
G1 X103.208Y234.784
G1 X103.752Y234.68
G1 X104.336Y234.6
G1 X104.928Y234.536
G1 X105.552Y234.488
G1 X106.184Y234.464
G1 X106.832
G1 X107.128
G1 X107.456Y234.488
G1 X108.16Y234.544
G1 X108.944Y234.632
G1 X110.016Y234.776
G1 X110.672Y234.88
G1 X111.6Y235.032
G1 X113.457Y235.392
G1 X115.303Y235.801
G1 X117.138Y236.259
G1 X118.96Y236.768
G1 X119.696Y237.008
G1 X120.04Y237.128
G1 X120.4Y237.264
G1 X120.432
G1 X120.456
G1 Y237.24
G1 X120.472Y237.208
G1 Y237.168
G1 X120.448Y237.128
G1 X120.336Y236.936
G1 X120.224Y236.752
G1 X120.072Y236.544
G1 X119.888Y236.304
G1 X119.424Y235.744
G1 X119.128Y235.384
G1 X118.816Y235.024
G1 X118.504Y234.68
G1 X118.176Y234.344
G1 X116.735Y232.81
G1 X115.344Y231.232
G1 X114.856Y230.64
G1 X114.379Y230.041
G1 X113.904Y229.44
G1 X113.585Y228.994
G1 X113.271Y228.544
G1 X112.769Y227.757
G1 X112.296Y226.952
G1 X112.041Y226.443
G1 X111.8Y225.928
G1 X111.656Y225.592
G1 X111.304Y224.616
G1 X111.136Y223.976
G1 X111.016Y223.344
G1 X110.936Y222.72
G1 X110.904Y222.096
G1 Y221.424
G1 Y221.136
G1 X110.928Y220.864
G1 X110.96Y220.624
G1 X111Y220.4
G1 X111.056Y220.2
G1 X111.12Y220
G1 X111.192Y219.816
G1 X111.288Y219.648
G1 X111.4Y219.48
G1 X111.624Y219.224
G1 X111.848Y218.976
G1 X112.16Y218.696
G1 X112.472Y218.424
G1 X112.672Y218.264
G1 X112.88Y218.112
G1 X113.072Y217.984
G1 X113.456Y217.784
G1 X113.656Y217.712
G1 X113.872Y217.648
G1 X114.088Y217.608
G1 X114.328Y217.576
G1 X114.872Y217.544
G1 X115.904Y217.576
G1 X116.276Y217.605
G1 X116.648Y217.632
G1 X117.336Y217.728
G1 X118.056Y217.88
G1 X118.8Y218.072
G1 X119.984Y218.448
G1 X120.392Y218.592
G1 X120.808Y218.752
G1 X121.648Y219.104
G1 X122.512Y219.504
G1 X123.4Y219.944
G1 X124.65Y220.612
G1 X125.875Y221.323
G1 X127.076Y222.076
G1 X128.248Y222.872
G1 X130.092Y224.176
G1 X131.92Y225.504
G1 X132.904Y226.176
G1 X133.904Y226.832
G1 X134.048Y226.904
G1 X134.088Y226.92
G1 X134.128
G1 Y226.888
G1 X134.104Y226.816
G1 X134.064Y226.712
G1 X133.912Y226.416
G1 X133.808Y226.232
G1 X133.392Y225.512
G1 X132.438Y223.977
G1 X131.448Y222.464
G1 X130.96Y221.688
G1 X130.5Y220.901
G1 X130.056Y220.104
G1 X129.672Y219.36
G1 X129.312Y218.624
G1 X128.984Y217.896
G1 X128.68Y217.184
G1 X128.416Y216.48
G1 X128.176Y215.784
G1 X127.968Y215.088
G1 X127.802Y214.409
G1 X127.648Y213.728
G1 X127.52Y213.048
G1 X127.416Y212.368
G1 X127.36Y211.728
G1 X127.32Y211.12
G1 X127.304Y210.512
G1 Y209.952
G1 X127.336Y209.432
G1 X127.402Y208.964
G1 X127.472Y208.496
G1 X127.576Y208.072
G1 X127.712Y207.68
G1 X127.864Y207.32
G1 X128.048Y206.992
G1 X128.256Y206.688
G1 X128.488Y206.424
G1 X128.744Y206.176
G1 X129.032Y205.968
G1 X129.336Y205.776
G1 X129.68Y205.616
G1 X129.976Y205.512
G1 X130.28Y205.424
G1 X130.592Y205.36
G1 X130.912Y205.32
G1 X131.248Y205.304
G1 X131.592
G1 X131.944Y205.336
G1 X132.304Y205.384
G1 X132.68Y205.464
G1 X133.056Y205.552
G1 X133.84Y205.808
G1 X134.248Y205.968
G1 X134.664Y206.152
G1 X135.088Y206.36
G1 X135.512Y206.584
G1 X135.952Y206.832
G1 X136.856Y207.392
G1 X137.312Y207.704
G1 X137.784Y208.04
G1 X138.256Y208.392
G1 X138.744Y208.768
G1 X139.232Y209.168
G1 X139.728Y209.584
G1 X140.232Y210.024
G1 X140.752Y210.496
G1 X141.264Y210.976
G1 X141.784Y211.472
G1 X142.312Y211.992
G1 X142.848Y212.536
G1 X143.384Y213.104
G1 X144.337Y214.095
G1 X145.312Y215.064
G1 X146.168Y215.888
G1 X146.672Y216.344
G1 X147.025Y216.619
G1 X147.384Y216.888
G1 X147.472Y216.904
G1 X147.497Y216.824
G1 X147.52Y216.744
G1 Y216.664
G1 Y216.428
G1 X147.496Y216.192
G1 X147.448Y215.888
G1 X147.384Y215.552
G1 X147.304Y215.2
G1 X147.056Y214.216
G1 X146.912Y213.552
G1 X146.784Y212.824
G1 X146.68Y212.064
G1 X146.588Y211.256
G1 X146.504Y210.448
G1 X146.44Y209.616
G1 X146.392Y208.792
G1 X146.352Y207.6
G1 Y206.4
G1 X146.376Y205.696
G1 X146.416Y204.992
G1 X146.448Y204.68
G1 X146.481Y204.388
G1 X146.52Y204.096
G1 X146.664Y203.376
G1 X146.808Y202.936
G1 X146.984Y202.464
G1 X147.2Y201.984
G1 X147.44Y201.504
G1 X147.704Y201.04
G1 X147.976Y200.6
G1 X148.112Y200.4
G1 X148.256Y200.208
G1 X148.392Y200.032
G1 X148.528Y199.872
G1 X148.752Y199.64
G1 X148.976Y199.432
G1 X149.224Y199.24
G1 X149.472Y199.064
G1 X149.728Y198.912
G1 X149.992Y198.776
G1 X150.264Y198.656
G1 X150.544Y198.56
G1 X150.832Y198.48
G1 X151.424Y198.384
G1 X151.728Y198.36
G1 X152.04
G1 X152.352Y198.376
G1 X152.664Y198.408
G1 X152.984Y198.456
G1 X153.471Y198.579
G1 X153.952Y198.72
G1 X154.446Y198.931
G1 X154.936Y199.152
G1 X155.264Y199.328
G1 X155.584Y199.52
G1 X155.909Y199.739
G1 X156.232Y199.96
G1 X156.872Y200.472
G1 X157.184Y200.752
G1 X157.496Y201.048
G1 X157.8Y201.368
G1 X158.048Y201.64
G1 X158.288Y201.92
G1 X158.479Y202.16
G1 X158.864Y202.68
G1 X159.256Y203.264
G1 X159.656Y203.904
G1 X160.048Y204.584
G1 X160.44Y205.304
G1 X160.824Y206.064
G1 X161.2Y206.856
G1 X161.568Y207.664
G1 X161.917Y208.498
G1 X162.256Y209.336
G1 X162.565Y210.178
G1 X162.864Y211.024
G1 X163.312Y212.504
G1 X163.52Y213.248
G1 X163.776Y214.264
G1 X164.04Y215.28
G1 X164.248Y215.952
G1 X164.344Y216.256
G1 X164.44Y216.52
G1 X164.68Y217.096
G1 X164.76Y217.24
G1 X164.904Y217.4
G1 X165.024Y217.432
G1 X165.08Y217.384
G1 X165.136Y217.328
G1 X165.232Y217.088
G1 X165.312Y216.72
G1 X165.344Y216.488
G1 X165.376Y216.216
G1 X165.4Y215.92
G1 X165.424Y215.584
G1 X165.472Y214.384
G1 X165.496Y212.88
G1 Y212.152
G1 X165.52Y211.424
G1 X165.56Y210.72
G1 X165.614Y210.032
G1 X165.664Y209.344
G1 X165.824Y208.024
G1 X165.955Y207.248
G1 X166.088Y206.472
G1 X166.224Y205.816
G1 X166.384Y205.168
G1 X166.564Y204.527
G1 X166.752Y203.888
G1 X167.028Y203.135
G1 X167.312Y202.384
G1 X167.76Y201.44
G1 X167.992Y201
G1 X168.232Y200.592
G1 X168.491Y200.203
G1 X168.752Y199.816
G1 X169.024Y199.464
G1 X169.304Y199.128
G1 X169.6Y198.816
G1 X169.904Y198.536
G1 X170.216Y198.256
G1 X170.536Y198.008
G1 X170.864Y197.784
G1 X171.552Y197.4
G1 X172.112Y197.144
G1 X172.344Y197.048
G1 X172.568Y196.96
G1 X173.144Y196.832
G1 X173.432Y196.848
G1 X173.72Y196.88
G1 X174.16Y197.008
G1 X174.768Y197.256
G1 X175.376Y197.512
G1 X175.72Y197.672
G1 X176.056Y197.848
G1 X176.375Y198.043
G1 X176.688Y198.248
G1 X176.992Y198.472
G1 X177.28Y198.712
G1 X177.552Y198.968
G1 X177.816Y199.24
G1 X178.072Y199.528
G1 X178.552Y200.152
G1 X178.776Y200.496
G1 X179.192Y201.232
G1 X179.384Y201.624
G1 X179.736Y202.464
G1 X179.904Y202.92
G1 X180.056Y203.392
G1 X180.2Y203.88
G1 X180.336Y204.392
G1 X180.456Y204.928
G1 X180.576Y205.48
G1 X180.68Y206.056
G1 X180.776Y206.648
G1 X180.864Y207.272
G1 X181.024Y208.576
G1 X181.088Y209.264
G1 X181.136Y209.968
G1 X181.184Y210.704
G1 X181.224Y211.464
G1 X181.256Y212.12
G1 X181.296Y212.736
G1 X181.336Y213.32
G1 X181.416Y214.352
G1 X181.504Y215.208
G1 X181.552Y215.6
G1 X181.656Y216.216
G1 X181.712Y216.456
G1 X181.768Y216.656
G1 X181.832Y216.816
G1 X181.888Y216.928
G1 X181.952Y216.992
G1 X182.008Y217.008
G1 X182.152Y216.928
G1 X182.248Y216.824
G1 X182.36Y216.688
G1 X182.488Y216.528
G1 X182.624Y216.328
G1 X182.768Y216.104
G1 X183.096Y215.568
G1 X183.557Y214.735
G1 X184.008Y213.896
G1 X184.432Y213.048
G1 X184.848Y212.192
G1 X185.352Y211.303
G1 X185.888Y210.432
G1 X186.465Y209.588
G1 X187.056Y208.752
G1 X187.672Y207.944
G1 X188.312Y207.184
G1 X188.96Y206.464
G1 X189.288Y206.12
G1 X189.616Y205.792
G1 X189.944Y205.472
G1 X190.271Y205.176
G1 X190.6Y204.888
G1 X190.936Y204.608
G1 X191.264Y204.344
G1 X192.224Y203.672
G1 X192.536Y203.48
G1 X192.84Y203.312
G1 X193.144Y203.16
G1 X193.44Y203.032
G1 X193.728Y202.928
G1 X194.008Y202.84
G1 X194.808Y202.664
G1 X195.568Y202.584
G1 X195.92
G1 X196.271Y202.6
G1 X196.608Y202.64
G1 X196.928Y202.704
G1 X197.24Y202.784
G1 X197.536Y202.896
G1 X197.824Y203.032
G1 X198.096Y203.184
G1 X198.296Y203.32
G1 X198.479Y203.464
G1 X198.664Y203.616
G1 X198.84Y203.784
G1 X199.271Y204.296
G1 X199.464Y204.584
G1 X199.648Y204.896
G1 X199.816Y205.232
G1 X199.976Y205.584
G1 X200.12Y205.96
G1 X200.248Y206.36
G1 X200.36Y206.776
G1 X200.464Y207.216
G1 X200.552Y207.68
G1 X200.632Y208.16
G1 X200.696Y208.672
G1 X200.744Y209.192
G1 X200.776Y209.744
G1 X200.8Y210.312
G1 Y211.192
G1 X200.776Y211.84
G1 X200.728Y212.544
G1 X200.696Y212.92
G1 X200.616Y213.704
G1 X200.464Y215.008
G1 X200.284Y216.249
G1 X200.088Y217.488
G1 X199.775Y219.197
G1 X199.419Y220.898
G1 X199.022Y222.59
G1 X198.584Y224.272
G1 Y224.368
G1 X198.6Y224.4
G1 X198.64Y224.416
G1 X198.688Y224.432
G1 X198.772Y224.405
G1 X198.856Y224.376
G1 X198.928Y224.336
G1 X199.008Y224.28
G1 X199.2Y224.152
G1 X199.304Y224.064
G1 X199.416Y223.976
G1 X199.74Y223.705
G1 X200.056Y223.424
G1 X201.817Y221.701
G1 X203.568Y219.968
G1 X204.208Y219.4
G1 X204.84Y218.824
G1 X205.664Y218.136
G1 X206.472Y217.496
G1 X207.271Y216.92
G1 X207.664Y216.648
G1 X208.44Y216.16
G1 X209.192Y215.736
G1 X209.96Y215.336
G1 X210.511Y215.098
G1 X211.064Y214.864
G1 X211.432Y214.736
G1 X211.792Y214.624
G1 X212.152Y214.52
G1 X212.504Y214.432
G1 X212.856Y214.36
G1 X213.208Y214.296
G1 X213.896Y214.216
G1 X214.44Y214.204
G1 X214.984
G1 X215.368Y214.232
G1 X216.104Y214.344
G1 X216.776Y214.536
G1 X217.096Y214.664
G1 X217.392Y214.8
G1 X217.68Y214.96
G1 X217.952Y215.128
G1 X218.208Y215.32
G1 X218.672Y215.752
G1 X218.88Y215.984
G1 X219.072Y216.24
G1 X219.24Y216.512
G1 X219.4Y216.784
G1 X219.536Y217.08
G1 X219.664Y217.392
G1 X219.768Y217.712
G1 X219.856Y218.048
G1 X219.935Y218.583
G1 X220.008Y219.12
G1 X220.024Y219.496
G1 Y219.888
G1 X220Y220.296
G1 X219.96Y220.704
G1 X219.896Y221.128
G1 X219.816Y221.56
G1 X219.592Y222.448
G1 X219.208Y223.504
G1 X218.936Y224.112
G1 X218.784Y224.432
G1 X218.616Y224.768
G1 X218.44Y225.112
G1 X218.256Y225.464
G1 X217.841Y226.205
G1 X217.424Y226.944
G1 X216.702Y228.126
G1 X215.96Y229.296
G1 X215.191Y230.436
G1 X214.39Y231.554
G1 X213.558Y232.648
G1 X212.696Y233.72
G1 X211.24Y235.44
G1 X214.216Y233.864
G1 X215.344Y233.304
G1 X215.92Y233.04
G1 X216.512Y232.784
G1 X217.112Y232.536
G1 X217.712Y232.304
G1 X218.328Y232.088
G1 X219.248Y231.784
G1 X220.168Y231.504
G1 X220.792Y231.328
G1 X222.024Y231.024
G1 X222.936Y230.84
G1 X223.696Y230.704
G1 X224.659Y230.562
G1 X225.624Y230.44
G1 X226.744Y230.36
G1 X227.28Y230.344
G1 X227.824
G1 X228.368
G1 X228.88Y230.376
G1 X229.368Y230.416
G1 X229.832Y230.472
G1 X230.28Y230.552
G1 X230.72Y230.64
G1 X231.52Y230.864
G1 X231.88Y231
G1 X232.271Y231.192
G1 X232.64Y231.424
G1 X232.968Y231.688
G1 X233.264Y231.984
G1 X233.528Y232.304
G1 X233.752Y232.656
G1 X233.944Y233.032
G1 X234.096Y233.432
G1 X234.216Y233.848
G1 X234.296Y234.28
G1 X234.326Y234.731
G1 Y235.184
G1 X234.28Y235.648
G1 X234.192Y236.112
G1 X234.064Y236.584
G1 X233.79Y237.305
G1 X233.512Y238.024
G1 X233.432Y238.352
G1 X233.416Y238.48
G1 Y238.592
G1 X233.456Y238.696
G1 X233.504Y238.784
G1 X233.664Y238.944
G1 X233.776Y239.016
G1 X234.656Y239.472
G1 X235.16Y239.792
G1 X235.536Y240.048
G1 X236.32Y240.64
G1 X237.44Y241.584
G1 X238.072Y242.072
G1 X238.208Y242.16
G1 X238.664Y242.416
G1 X238.752Y242.448
G1 X238.832Y242.472
G1 X238.904Y242.488
G1 X238.96
G1 X239.016
G1 X239.056Y242.456
G1 X239.088Y242.424
G1 X239.104Y242.384
G1 Y242.328
G1 X239.08Y242.128
G1 X238.984Y241.88
G1 X238.872Y241.64
G1 X238.592Y241.184
G1 X238.072Y240.406
G1 X237.56Y239.624
G1 X237.264Y239.088
G1 X236.984Y238.544
G1 X236.72Y237.992
G1 X236.408Y237.256
G1 X236.144Y236.52
G1 X235.912Y235.792
G1 X235.728Y235.072
G1 X235.656Y234.72
G1 X235.568Y234.208
G1 X235.496Y233.688
G1 X235.464Y233.352
G1 X235.448Y233.024
G1 Y232.4
G1 X235.504Y231.824
G1 X235.592Y231.256
G1 X235.664Y231
G1 X235.744Y230.752
G1 X235.84Y230.52
G1 X236.064Y230.112
G1 X236.224Y229.96
G1 X236.392Y229.808
G1 X236.6Y229.688
G1 X236.832Y229.584
G1 X237.08Y229.504
G1 X237.352Y229.44
G1 X237.648Y229.4
G1 X237.96Y229.384
G1 X238.28
G1 X238.624Y229.408
G1 X238.976Y229.456
G1 X239.336Y229.528
G1 X239.712Y229.616
G1 X240.088Y229.728
G1 X240.472Y229.864
G1 X240.616Y229.928
G1 X240.792Y230.032
G1 X241Y230.16
G1 X241.224Y230.312
G1 X241.479Y230.496
G1 X242.04Y230.936
G1 X242.52Y231.328
G1 X242.992Y231.728
G1 X243.328Y232.032
G1 X243.672Y232.336
G1 X244.368Y232.992
G1 X245.04Y233.632
G1 X245.696Y234.288
G1 X246.328Y234.904
G1 X246.704Y235.256
G1 X247.085Y235.598
G1 X247.472Y235.936
G1 X247.872Y236.256
G1 X248.056Y236.376
G1 X248.112Y236.4
G1 X248.136Y236.384
G1 Y236.336
G1 X248.064Y236.16
G1 X247.976Y235.856
G1 X247.896Y235.552
G1 X247.792Y235.08
G1 X247.712Y234.576
G1 X247.64Y234.032
G1 X247.576Y233.48
G1 X247.528Y232.68
G1 X247.496Y231.88
G1 X247.479Y231.144
G1 X247.496Y230.576
G1 X247.52Y230.032
G1 X247.568Y229.512
G1 X247.624Y229.032
G1 X247.664Y228.8
G1 X247.792Y228.2
G1 X248.04Y227.392
G1 X248.216Y226.944
G1 X248.4Y226.504
G1 X248.688Y225.96
G1 X248.794Y225.811
G1 X248.904Y225.664
G1 X249.128Y225.408
G1 X249.36Y225.2
G1 X249.624Y225.04
G1 X249.896Y224.92
G1 X250.192Y224.84
G1 X250.512Y224.808
G1 X250.848
G1 X251.216Y224.848
G1 X251.616Y224.928
G1 X252.032Y225.04
G1 X252.232Y225.104
G1 X252.44Y225.184
G1 X252.656Y225.28
G1 X252.864Y225.376
G1 X253.736Y225.88
G1 X254.144Y226.184
G1 X254.528Y226.486
G1 X254.896Y226.808
G1 X255.259Y227.234
G1 X255.608Y227.672
G1 X255.752Y227.888
G1 X256.224Y228.616
G1 X256.72Y229.448
G1 X257.048Y230.04
G1 X257.448Y230.792
G1 X257.832Y231.544
G1 X258.28Y232.456
G1 X258.557Y233.09
G1 X258.824Y233.728
G1 X259.088Y234.44
G1 X259.192Y234.8
G1 X259.248Y235.144
G1 X259.271Y235.128
G1 X259.296Y235.08
G1 X259.328Y235
G1 X259.448Y234.576
G1 X259.544Y234.152
G1 X259.777Y232.972
G1 X260.008Y231.792
G1 X260.128Y231.232
G1 X260.256Y230.696
G1 X260.392Y230.168
G1 X260.536Y229.672
G1 X260.776Y228.984
G1 X261.024Y228.296
G1 X261.2Y227.872
G1 X261.376Y227.472
G1 X261.568Y227.104
G1 X261.768Y226.736
G1 X261.968Y226.408
G1 X262.176Y226.096
G1 X262.392Y225.808
G1 X262.608Y225.544
G1 X262.832Y225.296
G1 X263.064Y225.08
G1 X263.296Y224.888
G1 X263.536Y224.712
G1 X263.776Y224.568
G1 X264.024Y224.448
G1 X264.271Y224.352
G1 X264.528Y224.28
G1 X264.784Y224.232
G1 X265.048Y224.208
G1 X265.312
G1 X265.576Y224.248
G1 X265.84Y224.312
G1 X266.112Y224.392
G1 X266.384Y224.504
G1 X266.656Y224.648
G1 X266.984Y224.856
G1 X267.296Y225.104
G1 X267.592Y225.4
G1 X267.88Y225.728
G1 X268.16Y226.096
G1 X268.424Y226.512
G1 X268.672Y226.96
G1 X268.904Y227.448
G1 X269.128Y227.976
G1 X269.336Y228.536
G1 X269.536Y229.144
G1 X269.712Y229.784
G1 X269.88Y230.456
G1 X270.032Y231.176
G1 X270.168Y231.92
G1 X270.288Y232.704
G1 X270.824Y236.456
G1 X271.373Y235.154
G1 X271.912Y233.848
G1 X272.096Y233.464
G1 X272.296Y233.088
G1 X272.504Y232.712
G1 X272.736Y232.352
G1 X272.968Y232
G1 X273.216Y231.656
G1 X273.472Y231.32
G1 X274.008Y230.704
G1 X274.568Y230.096
G1 X274.856Y229.824
G1 X275.152Y229.56
G1 X275.448Y229.32
G1 X276.048Y228.88
G1 X276.656Y228.512
G1 X276.954Y228.348
G1 X277.256Y228.192
G1 X277.693Y228.028
G1 X278.136Y227.88
G1 X278.424Y227.816
G1 X278.696Y227.768
G1 X278.968Y227.752
G1 X279.232
G1 X279.479Y227.784
G1 X279.728Y227.832
G1 X279.96Y227.92
G1 X280.184Y228.016
G1 X280.384Y228.144
G1 X280.576Y228.272
G1 X280.76Y228.432
G1 X280.928Y228.608
G1 X281.096Y228.8
G1 X281.248Y229.016
G1 X281.4Y229.24
G1 X281.536Y229.48
G1 X281.663Y229.743
G1 X281.784Y230.008
G1 X281.992Y230.592
G1 X282.08Y230.904
G1 X282.176Y231.328
G1 X282.256Y231.752
G1 X282.333Y232.363
G1 X282.392Y232.976
G1 X282.406Y233.548
G1 Y234.12
G1 X282.356Y234.925
G1 X282.28Y235.728
G1 X282.144Y236.544
G1 X281.968Y237.376
G1 X281.344Y239.536
G1 X281.184Y240.12
G1 X281.024Y240.712
G1 X281.072
G1 X281.28Y240.568
G1 X281.632Y240.272
G1 X281.784Y240.152
G1 X282.112Y239.864
G1 X282.861Y239.193
G1 X283.608Y238.52
G1 X284.096Y238.096
G1 X284.568Y237.712
G1 X285.032Y237.36
G1 X285.479Y237.04
G1 X286.36Y236.496
G1 X286.792Y236.272
G1 X287.224Y236.072
G1 X287.656Y235.904
G1 X288.088Y235.76
G1 X288.528Y235.64
G1 X288.976Y235.544
G1 X289.424Y235.472
G1 X289.896Y235.424
G1 X290.368Y235.392
G1 X290.68
G1 X291.224
G1 X291.464
G1 X291.688Y235.424
G1 X291.896Y235.456
G1 X292.08Y235.496
G1 X292.256Y235.544
G1 X292.424Y235.608
G1 X292.572Y235.691
G1 X292.72Y235.776
G1 X292.864Y235.88
G1 X293Y236
G1 X293.208Y236.216
G1 X293.408Y236.432
G1 X293.552Y236.632
G1 X293.688Y236.832
G1 X293.808Y237.048
G1 X293.92Y237.264
G1 X294.016Y237.488
G1 X294.096Y237.712
G1 X294.16Y237.952
G1 X294.208Y238.2
G1 X294.248Y238.448
G1 X294.271Y238.704
G1 Y238.968
G1 Y239.24
G1 X294.256Y239.512
G1 X294.176Y240.088
G1 X294.12Y240.384
G1 X294.04Y240.688
G1 X293.952Y241
G1 X293.848Y241.32
G1 X293.736Y241.64
G1 X293.436Y242.327
G1 X293.12Y243.008
G1 X292.936Y243.368
G1 X292.616Y243.928
G1 X292.288Y244.48
G1 X291.902Y245.07
G1 X291.512Y245.656
G1 X290.296Y247.384
G1 X290.04Y247.768
G1 X289.817Y248.122
G1 X289.6Y248.48
G1 X289.568Y248.568
G1 X289.584
G1 X289.624
G1 X289.696
G1 X289.8Y248.528
G1 X290.072Y248.424
G1 X290.479Y248.248
G1 X290.88Y248.072
G1 X291.384Y247.84
G1 X292.304Y247.392
G1 X293.224Y246.952
G1 X293.936Y246.656
G1 X294.656Y246.392
G1 X295.384Y246.16
G1 X296.112Y245.968
G1 X296.832Y245.8
G1 X297.544Y245.68
G1 X298.24Y245.584
G1 X298.824Y245.544
G1 X299.4Y245.512
G1 X299.88
G1 X300.479Y245.544
G1 X300.76Y245.576
G1 X301.304Y245.672
G1 X301.792Y245.8
G1 X302.024Y245.88
G1 X302.232Y245.976
G1 X302.432Y246.072
G1 X302.616Y246.184
G1 X302.88Y246.376
G1 X303.112Y246.584
G1 X303.312Y246.816
G1 X303.479Y247.064
G1 X303.616Y247.32
G1 X303.72Y247.6
G1 X303.8Y247.888
G1 X303.848Y248.192
G1 X303.864Y248.504
G1 Y248.832
G1 X303.816Y249.168
G1 X303.744Y249.52
G1 X303.664Y249.864
G1 X303.534Y250.229
G1 X303.4Y250.592
G1 X303.224Y250.968
G1 X303.032Y251.344
G1 X302.808Y251.72
G1 X302.568Y252.104
G1 X302.008Y252.872
G1 X301.688Y253.256
G1 X301.36Y253.64
G1 X300.784Y254.216
G1 X300.192Y254.776
G1 X299.776Y255.144
G1 X299.352Y255.496
G1 X298.416Y256.2
G1 X297.912Y256.536
G1 X297.256Y256.952
G1 X297.048Y257.096
G1 X296.944Y257.2
G1 Y257.24
G1 X296.96Y257.272
G1 X297.008Y257.296
G1 X297.088Y257.312
G1 X297.344
G1 X297.528
G1 X297.744Y257.288
G1 X297.992Y257.264
G1 X298.28Y257.232
G1 X298.608Y257.2
G1 X299.256Y257.152
G1 X299.912Y257.12
G1 X300.628
G1 X301.344Y257.144
G1 X302.464Y257.232
G1 X303.393Y257.35
G1 X304.32Y257.48
G1 X305.048Y257.616
G1 X305.752Y257.768
G1 X306.416Y257.936
G1 X307.048Y258.12
G1 X307.344Y258.216
G1 X307.632Y258.312
G1 X307.904Y258.416
G1 X308.4Y258.632
G1 X309.024Y258.976
G1 X309.792Y259.44
G1 X310.224Y259.672
G1 X310.659Y259.898
G1 X311.096Y260.12
G1 X311.72Y260.4
G1 X312.334Y260.64
G1 X312.96Y260.848
G1 X313.832Y261.152
G1 X311.728Y258.808
G1 X311.464Y258.504
G1 X311.208Y258.2
G1 X310.77Y257.605
G1 X310.336Y257.008
G1 X310.09Y256.577
G1 X309.848Y256.144
G1 X309.668Y255.742
G1 X309.496Y255.336
G1 X309.386Y254.957
G1 X309.28Y254.576
G1 X309.24Y254.336
G1 X309.216Y254.104
G1 X309.2Y253.88
G1 Y253.672
G1 X309.271Y253.272
G1 X309.32Y253.088
G1 X309.392Y252.912
G1 X309.483Y252.751
G1 X309.576Y252.592
G1 X309.696Y252.448
G1 X309.832Y252.32
G1 X310.144Y252.096
G1 X310.328Y252.008
G1 X310.688Y251.896
G1 X311.048Y251.8
G1 X311.672Y251.736
G1 X311.984
G1 X312.312Y251.768
G1 X312.656Y251.832
G1 X312.992Y251.904
G1 X313.352Y252.008
G1 X313.728Y252.136
G1 X314.12Y252.296
G1 X314.528Y252.48
G1 X314.96Y252.696
G1 X315.912Y253.208
G1 X316.915Y253.831
G1 X317.912Y254.464
G1 X318.336Y254.736
G1 X318.72Y254.96
G1 X319.152Y255.216
G1 X319.344Y255.32
G1 X319.392Y255.344
G1 X319.464Y255.36
G1 X319.4Y255.2
G1 X319.04Y254.456
G1 X318.451Y253.257
G1 X317.848Y252.064
G1 X317.504Y251.312
G1 X317.224Y250.6
G1 X317.104Y250.256
G1 X316.912Y249.6
G1 X316.832Y249.288
G1 X316.776Y248.984
G1 X316.728Y248.696
G1 X316.698Y248.42
G1 X316.672Y248.144
G1 Y247.888
G1 Y247.648
G1 X316.704Y247.408
G1 X316.744Y247.192
G1 X316.792Y246.984
G1 X316.856Y246.784
G1 X316.936Y246.608
G1 X317.144Y246.28
G1 X317.4Y246.008
G1 X317.552Y245.904
G1 X317.712Y245.8
G1 X317.888Y245.712
G1 X318.08Y245.64
G1 X318.288Y245.584
G1 X318.504Y245.544
G1 X318.736Y245.528
G1 X318.984
G1 X319.176
G1 X319.376Y245.552
G1 X319.576Y245.592
G1 X319.784Y245.656
G1 X320Y245.744
G1 X320.224Y245.848
G1 X320.456Y245.968
G1 X320.704Y246.12
G1 X320.968Y246.288
G1 X321.248Y246.488
G1 X321.536Y246.704
G1 X322.176Y247.232
G1 X322.52Y247.528
G1 X322.904Y247.88
G1 X323.288Y248.224
G1 X326.208Y250.928
G1 X326.104Y250.024
G1 X325.992Y249.12
G1 X325.897Y248.216
G1 X325.808Y247.312
G1 Y246.884
G1 Y246.456
G1 X325.84Y245.944
G1 X325.92Y245.472
G1 X326.048Y245.016
G1 X326.24Y244.552
G1 X326.421Y244.174
G1 X326.608Y243.8
G1 X326.778Y243.546
G1 X326.952Y243.296
G1 X327.136Y243.096
G1 X327.328Y242.896
G1 X327.52Y242.736
G1 X327.72Y242.6
G1 X327.928Y242.496
G1 X328.136Y242.408
G1 X328.352Y242.352
G1 X328.576Y242.312
G1 X328.8
G1 X329.024
G1 X329.256Y242.36
G1 X329.488Y242.424
G1 X329.728Y242.52
G1 X329.968Y242.632
G1 X330.2Y242.768
G1 X330.448Y242.936
G1 X330.688Y243.112
G1 X330.928Y243.32
G1 X331.168Y243.552
G1 X331.408Y243.8
G1 X331.648Y244.08
G1 X332.128Y244.704
G1 X332.36Y245.048
G1 X332.592Y245.408
G1 X332.824Y245.8
G1 X333.048Y246.208
G1 X333.271Y246.648
G1 X333.488Y247.096
G1 X334.56Y249.384
G1 X334.888Y247.464
G1 X334.976Y247.048
G1 X335.096Y246.592
G1 X335.258Y246.12
G1 X335.424Y245.648
G1 X335.636Y245.178
G1 X335.856Y244.712
G1 X336.002Y244.431
G1 X336.152Y244.152
G1 X336.352Y243.856
G1 X336.704Y243.384
G1 X336.848Y243.216
G1 X336.984Y243.072
G1 X337.128Y242.944
G1 X337.271Y242.832
G1 X337.576Y242.656
G1 X337.736Y242.592
G1 X337.904Y242.544
G1 X338.08Y242.496
G1 X338.271Y242.464
G1 X338.688Y242.432
G1 X339.168
G1 X339.592Y242.464
G1 X339.784Y242.496
G1 X339.96Y242.544
G1 X340.128Y242.6
G1 X340.288Y242.664
G1 X340.448Y242.744
G1 X340.592Y242.848
G1 X340.736Y242.96
G1 X340.958Y243.187
G1 X341.176Y243.416
G1 X341.32Y243.6
G1 X341.479Y243.808
G1 X341.64Y244.048
G1 X341.856Y244.408
G1 X342.064Y244.808
G1 X342.256Y245.24
G1 X342.416Y245.688
G1 X342.544Y246.128
G1 X342.664Y246.576
G1 X342.712Y246.952
G1 X342.752Y247.336
G1 X342.78Y247.716
G1 X342.8Y248.096
G1 X342.888Y248.832
G1 X342.944Y249.176
G1 X343Y249.48
G1 X343.032Y249.616
G1 X343.136Y249.96
G1 X343.192Y250.08
G1 X343.296Y250.272
G1 X343.352Y250.328
G1 X343.408Y250.36
G1 X343.464
G1 X343.52Y250.344
G1 X343.584Y250.296
G1 X343.656Y250.224
G1 X343.736Y250.12
G1 X343.816Y249.992
G1 X343.912Y249.824
G1 X344.616Y248.368
G1 X344.872Y247.896
G1 X345.432Y247.04
G1 X345.736Y246.656
G1 X346.048Y246.296
G1 X346.376Y245.976
G1 X346.712Y245.68
G1 X347.056Y245.424
G1 X347.408Y245.2
G1 X347.76Y245.008
G1 X348.12Y244.864
G1 X348.472Y244.752
G1 X348.832Y244.68
G1 X349.192Y244.648
G1 X349.544Y244.664
G1 X349.92Y244.712
G1 X350.264Y244.8
G1 X350.568Y244.928
G1 X350.848Y245.08
G1 X351.104Y245.28
G1 X351.32Y245.512
G1 X351.424Y245.648
G1 X351.512Y245.792
G1 X351.6Y245.944
G1 X351.68Y246.104
G1 X351.752Y246.28
G1 X351.816Y246.472
G1 X351.928Y246.88
G1 X352.005Y247.359
G1 X352.072Y247.84
G1 X352.104Y248.392
G1 Y248.688
G1 Y249.32
G1 Y249.656
G1 X351.999Y251.609
G1 X351.872Y253.56
G1 X352.922Y252.738
G1 X353.968Y251.912
G1 X354.307Y251.667
G1 X354.648Y251.424
G1 X355Y251.192
G1 X355.344Y250.984
G1 X355.688Y250.792
G1 X356.024Y250.608
G1 X356.68Y250.296
G1 X357Y250.168
G1 X357.592Y249.96
G1 X357.88Y249.888
G1 X358.144Y249.832
G1 X358.383Y249.811
G1 X358.624Y249.792
G1 X358.84Y249.808
G1 X359.048Y249.856
G1 X359.248Y249.936
G1 X359.44Y250.04
G1 X359.624Y250.176
G1 X359.808Y250.336
G1 X359.968Y250.52
G1 X360.12Y250.728
G1 X360.264Y250.952
G1 X360.392Y251.192
G1 X360.496Y251.448
G1 X360.592Y251.72
G1 X360.664Y252.008
G1 X360.72Y252.304
G1 X360.752Y252.616
G1 Y252.928
G1 Y253.256
G1 X360.696Y253.616
G1 X360.624Y254
G1 X360.52Y254.416
G1 X360.4Y254.84
G1 X360.256Y255.28
G1 X360.016Y255.912
G1 X359.752Y256.536
G1 X359.368Y257.296
G1 X359.152Y257.672
G1 X358.96Y257.976
G1 X358.664Y258.336
G1 X358.576Y258.424
G1 X358.394Y258.57
G1 X358.208Y258.712
G1 X358.102Y258.851
G1 X358Y258.992
G1 X357.952Y259.088
G1 X357.92Y259.176
G1 Y259.264
G1 Y259.296
G1 X357.96Y259.328
G1 X358.024Y259.344
G1 X358.2
G1 X358.32
G1 X358.645Y259.273
G1 X358.968Y259.2
G1 X359.392Y259.07
G1 X359.816Y258.936
G1 X360.72Y258.608
G1 X361.136Y258.464
G1 X361.536Y258.336
G1 X361.936Y258.224
G1 X362.32Y258.136
G1 X362.696Y258.048
G1 X363.064Y257.976
G1 X363.416Y257.92
G1 X363.76Y257.888
G1 X364.088Y257.864
G1 X364.408Y257.848
G1 X364.712
G1 X365Y257.872
G1 X365.288Y257.904
G1 X365.552Y257.944
G1 X365.808Y258.008
G1 X366.048Y258.08
G1 X366.28Y258.168
G1 X366.488Y258.264
G1 X366.688Y258.384
G1 X366.872Y258.512
G1 X367.048Y258.648
G1 X367.2Y258.8
G1 X367.464Y259.152
G1 X367.576Y259.344
G1 X367.664Y259.552
G1 X367.744Y259.776
G1 X367.8Y260.008
G1 X367.84Y260.256
G1 X367.872Y260.512
G1 Y260.792
G1 Y261.064
G1 X367.8Y261.36
G1 X367.704Y261.672
G1 X367.568Y261.984
G1 X367.4Y262.312
G1 X367.2Y262.648
G1 X366.968Y262.984
G1 X366.696Y263.328
G1 X366.408Y263.664
G1 X366.088Y264.008
G1 X365.744Y264.344
G1 X365.368Y264.688
G1 X364.976Y265.016
G1 X364.56Y265.336
G1 X364.12Y265.656
G1 X363.32Y266.184
G1 X363.2Y266.28
G1 X363.12Y266.36
G1 X363.08Y266.432
G1 Y266.488
G1 X363.112Y266.512
G1 X363.144Y266.536
G1 X363.195Y266.557
G1 X363.248Y266.576
G1 X363.408Y266.608
G1 X363.512Y266.624
G1 X363.624
G1 X364.072Y266.656
G1 X365.296
G1 X366.34
G1 X367.384Y266.688
G1 X368.432Y266.736
G1 X369.016Y266.8
G1 X369.52Y266.898
G1 X370.024Y267
G1 X370.237Y267.067
G1 X370.448Y267.136
G1 X370.64Y267.216
G1 X370.816Y267.296
G1 X370.984Y267.384
G1 X371.144Y267.48
G1 X371.416Y267.688
G1 X371.544Y267.8
G1 X371.752Y268.048
G1 X371.912Y268.328
G1 X372.032Y268.624
G1 X372.088Y268.88
G1 X372.136Y269.136
G1 Y269.384
G1 Y269.64
G1 X372.117Y269.776
G1 X372.088Y269.912
G1 X372.032Y270.056
G1 X371.888Y270.36
G1 X371.696Y270.672
G1 X371.456Y271
G1 X371.184Y271.32
G1 X370.872Y271.648
G1 X370.536Y271.968
G1 X370.176Y272.28
G1 X369.792Y272.568
G1 X369.408Y272.84
G1 X369.008Y273.096
G1 X368.608Y273.312
G1 X368.208Y273.496
G1 X367.824Y273.648
G1 X367.448Y273.752
G1 X367.256Y273.792
G1 X367.064Y273.84
G1 X366.736Y273.928
G1 X366.456Y274.024
G1 X366.216Y274.136
G1 X365.984Y274.256
G1 X365.88Y274.352
G1 X365.832Y274.448
G1 X365.848Y274.584
G1 X365.888Y274.632
G1 X365.928Y274.672
G1 X366.056Y274.752
G1 X366.326Y274.861
G1 X366.6Y274.96
G1 X367.233Y275.098
G1 X367.872Y275.208
G1 X368.752Y275.432
G1 X369.2Y275.568
G1 X369.649Y275.73
G1 X370.096Y275.896
G1 X370.532Y276.082
G1 X370.968Y276.272
G1 X371.784Y276.688
G1 X372.504Y277.12
G1 X372.816Y277.336
G1 X373.096Y277.552
G1 X373.336Y277.76
G1 X373.528Y277.968
G1 X373.656Y278.136
G1 X373.752Y278.304
G1 X373.824Y278.472
G1 X373.88Y278.648
G1 X373.912Y278.816
G1 Y278.992
G1 Y279.168
G1 X373.864Y279.336
G1 X373.808Y279.512
G1 X373.736Y279.68
G1 X373.64Y279.856
G1 X373.528Y280.024
G1 X373.392Y280.192
G1 X373.24Y280.36
G1 X373.072Y280.52
G1 X372.888Y280.68
G1 X372.688Y280.832
G1 X372.464Y280.984
G1 X372.232Y281.128
G1 X371.976Y281.272
G1 X371.72Y281.408
G1 X371.44Y281.544
G1 X371.152Y281.664
G1 X370.848Y281.784
G1 X370.536Y281.888
G1 X370.208Y281.992
G1 X369.864Y282.088
G1 X369.509Y282.173
G1 X369.152Y282.256
G1 X368.408Y282.384
G1 X367.608Y282.488
G1 X367.232Y282.552
G1 X366.88Y282.632
G1 X366.584Y282.712
G1 X366.448Y282.76
G1 X366.232Y282.848
G1 X366.144Y282.896
G1 X366.072Y282.944
G1 X366.024Y282.984
G1 X365.992Y283.032
G1 Y283.072
G1 Y283.16
G1 X366.016Y283.232
G1 X366.056Y283.304
G1 X366.168Y283.416
G1 X366.24Y283.456
G1 X366.312Y283.48
G1 X366.4
G1 X366.472Y283.512
G1 X366.656Y283.608
G1 X367.487Y284.221
G1 X368.296Y284.864
G1 X371.384Y287.52
G1 X371.944Y287.976
G1 X372.848Y288.632
G1 X373.048Y288.728
G1 X373.08
G1 X373.104
G1 Y288.696
G1 Y288.664
G1 X372.848Y288.28
G1 X372.656Y288.056
G1 X372.296Y287.648
G1 X372.112Y287.4
G1 X371.936Y287.136
G1 X371.776Y286.864
G1 X371.624Y286.592
G1 X371.448Y286.176
G1 X371.271Y285.752
G1 X371.192Y285.48
G1 X371.128Y285.216
G1 X371.08Y284.96
G1 X371.056Y284.728
G1 Y284.504
G1 X371.08Y284.304
G1 X371.12Y284.128
G1 X371.192Y283.984
G1 X371.288Y283.872
G1 X371.424Y283.784
G1 X371.6Y283.712
G1 X371.808Y283.648
G1 X372.048Y283.608
G1 X372.32Y283.584
G1 X372.608
G1 X372.92
G1 X373.24Y283.6
G1 X373.576Y283.64
G1 X373.92Y283.688
G1 X374.264Y283.76
G1 X374.605Y283.843
G1 X374.944Y283.936
G1 X375.928Y284.304
G1 X376.024
G1 X376.128
G1 X376.168Y284.28
G1 X376.2Y284.168
G1 Y284.08
G1 X376.056Y283.584
G1 X375.792Y282.728
G1 X375.72Y282.4
G1 X375.656Y282.064
G1 Y281.776
G1 Y281.48
G1 X375.72Y281.2
G1 X375.808Y280.936
G1 X375.928Y280.672
G1 X376.208Y280.256
G1 X376.352Y280.088
G1 X376.512Y279.96
G1 X376.672Y279.856
G1 X376.856Y279.792
G1 X377.04Y279.752
G1 X377.248
G1 X377.696Y279.832
G1 X377.936Y279.92
G1 X378.2Y280.048
G1 X378.479Y280.2
G1 X378.784Y280.384
G1 X379.104Y280.608
G1 X379.44Y280.856
G1 X380.968Y282.024
G1 X381.033Y281.228
G1 X381.096Y280.432
G1 X381.194Y279.748
G1 X381.288Y279.064
G1 X381.376Y278.56
G1 X381.456Y278.048
G1 X381.488Y277.744
G1 Y277.5
G1 Y277.256
G1 X381.44Y277.08
G1 X381.376Y276.952
G1 X381.336Y276.904
G1 X381.296Y276.872
G1 X381.24Y276.848
G1 X381.16
G1 X381.12Y276.824
G1 X381.008Y276.768
G1 X380.864Y276.68
G1 X380.696Y276.56
G1 X380.256Y276.224
G1 X379.872Y275.92
G1 X379.496Y275.6
G1 X379.128Y275.272
G1 X378.208Y274.448
G1 X377.547Y273.833
G1 X376.888Y273.216
G1 X376.243Y272.577
G1 X375.6Y271.936
G1 X374.848Y271.12
G1 X374.112Y270.288
G1 X373.632Y269.688
G1 X373.152Y269.08
G1 X372.584Y268.288
G1 X372.328Y267.896
G1 X372.088Y267.504
G1 X371.64Y266.72
G1 X371.44Y266.336
G1 X371.248Y265.944
G1 X370.92Y265.168
G1 X370.632Y264.384
G1 X370.52Y264
G1 X370.408Y263.608
G1 X370.28Y263.016
G1 X370.168Y262.416
G1 X370.112Y262.016
G1 X370.059Y261.204
G1 X370.016Y260.392
G1 Y259.8
G1 X370.04Y259.208
G1 X370.081Y258.7
G1 X370.128Y258.192
G1 X370.184Y257.944
G1 X370.248Y257.696
G1 X370.424Y257.264
G1 X370.664Y256.864
G1 X370.984Y256.456
G1 X371.392Y256.008
G1 X371.736Y255.68
G1 X372.104Y255.368
G1 X372.512Y255.072
G1 X372.944Y254.792
G1 X373.4Y254.536
G1 X373.888Y254.296
G1 X374.928Y253.88
G1 X375.479Y253.704
G1 X376.048Y253.552
G1 X376.64Y253.416
G1 X377.248Y253.312
G1 X377.864Y253.224
G1 X378.504Y253.16
G1 X379.144Y253.12
G1 X379.8
G1 X380.232
G1 X381.256Y253.08
G1 X381.504Y253.056
G1 X381.752Y253.024
G1 X382.128Y252.928
G1 X382.271Y252.872
G1 X382.504Y252.712
G1 X382.6Y252.608
G1 X382.672Y252.496
G1 X382.8Y252.208
G1 X382.88Y251.992
G1 X382.968Y251.776
G1 X383.219Y251.397
G1 X383.479Y251.024
G1 X383.848Y250.568
G1 X384.32Y250.04
G1 X384.792Y249.52
G1 X385.288Y249.008
G1 X385.784Y248.512
G1 X388.392Y246.056
G1 X386.336Y246.209
G1 X384.28Y246.368
G1 X383.808Y246.392
G1 X383.376Y246.416
G1 X382.976Y246.432
G1 X382.608
G1 X381.968Y246.416
G1 X381.688Y246.392
G1 X381.184Y246.312
G1 X380.752Y246.192
G1 X380.464Y246.056
G1 X380.184Y245.92
G1 X380Y245.808
G1 X379.768Y245.64
G1 X379.552Y245.456
G1 X379.224Y245.072
G1 X379.112Y244.864
G1 X379.008Y244.656
G1 X378.936Y244.44
G1 X378.896Y244.216
G1 Y243.984
G1 Y243.76
G1 X378.936Y243.52
G1 X379Y243.288
G1 X379.088Y243.048
G1 X379.2Y242.808
G1 X379.336Y242.568
G1 X379.504Y242.328
G1 X379.68Y242.088
G1 X379.888Y241.848
G1 X380.112Y241.608
G1 X380.368Y241.376
G1 X380.632Y241.144
G1 X380.92Y240.92
G1 X381.232Y240.696
G1 X381.568Y240.48
G1 X381.92Y240.272
G1 X382.28Y240.064
G1 X382.664Y239.872
G1 X383.072Y239.68
G1 X383.504Y239.504
G1 X383.928Y239.328
G1 X384.384Y239.168
G1 X384.848Y239.024
G1 X385.216Y238.912
G1 X385.544Y238.808
G1 X385.832Y238.712
G1 X386.088Y238.624
G1 X386.304Y238.544
G1 X386.479Y238.472
G1 X386.624Y238.4
G1 X386.704Y238.352
G1 X386.784Y238.296
G1 X386.84Y238.24
G1 Y238.2
G1 X386.816Y238.16
G1 X386.76Y238.128
G1 X386.576Y238.088
G1 X386.392Y238.056
G1 X385.352Y237.904
G1 X384.848Y237.824
G1 X384.36Y237.728
G1 X383.88Y237.624
G1 X383.416Y237.52
G1 X382.968Y237.4
G1 X382.528Y237.28
G1 X382.112Y237.152
G1 X381.696Y237.016
G1 X380.96Y236.736
G1 X380.232Y236.424
G1 X379.912Y236.264
G1 X379.608Y236.096
G1 X379.328Y235.928
G1 X379.072Y235.76
G1 X378.816Y235.584
G1 X378.4Y235.232
G1 X378.224Y235.048
G1 X378.072Y234.864
G1 X377.944Y234.68
G1 X377.832Y234.496
G1 X377.752Y234.312
G1 X377.696Y234.128
G1 X377.672Y233.936
G1 Y233.752
G1 X377.696Y233.568
G1 X377.776Y233.36
G1 X377.864Y233.16
G1 X377.984Y232.944
G1 X378.136Y232.704
G1 X378.304Y232.48
G1 X378.49Y232.283
G1 X378.68Y232.088
G1 X378.904Y231.912
G1 X379.136Y231.752
G1 X379.408Y231.608
G1 X379.696Y231.472
G1 X380.024Y231.336
G1 X380.376Y231.216
G1 X380.776Y231.096
G1 X381.208Y230.984
G1 X381.944Y230.824
G1 X382.488Y230.712
G1 X385.904Y230.08
G1 X384.688Y229.44
G1 X383.488Y228.784
G1 X383.088Y228.52
G1 X382.704Y228.24
G1 X382.328Y227.936
G1 X381.968Y227.608
G1 X381.624Y227.28
G1 X381.304Y226.928
G1 X381Y226.576
G1 X380.728Y226.216
G1 X380.479Y225.848
G1 X380.271Y225.488
G1 X380.088Y225.136
G1 X379.944Y224.792
G1 X379.832Y224.456
G1 X379.768Y224.136
G1 X379.744Y223.832
G1 X379.76Y223.648
G1 X379.8Y223.48
G1 X379.864Y223.312
G1 X379.944Y223.16
G1 X380.056Y223.016
G1 X380.192Y222.88
G1 X380.336Y222.752
G1 X380.519Y222.635
G1 X380.704Y222.52
G1 X381.171Y222.344
G1 X381.64Y222.176
G1 X382.192Y222.064
G1 X382.496Y222.024
G1 X382.8Y221.992
G1 X383.12Y221.968
G1 X383.456
G1 X383.792
G1 X384.496Y221.992
G1 X385.224Y222.064
G1 X385.968Y222.184
G1 X386.72Y222.344
G1 X387.479Y222.552
G1 X388.232Y222.808
G1 X388.696Y222.968
G1 X388.8Y222.992
G1 X388.88
G1 X388.928
G1 X388.944Y222.944
G1 Y222.888
G1 X388.84Y222.704
G1 X388.249Y221.976
G1 X387.64Y221.264
G1 X387.072Y220.568
G1 X386.744Y220.128
G1 X386.456Y219.704
G1 X386.176Y219.272
G1 X385.936Y218.856
G1 X385.72Y218.456
G1 X385.544Y218.064
G1 X385.384Y217.68
G1 X385.264Y217.312
G1 X385.168Y216.96
G1 X385.096Y216.624
G1 X385.064Y216.312
G1 X385.04Y215.992
G1 X385.056Y215.704
G1 X385.096Y215.432
G1 X385.168Y215.176
G1 X385.264Y214.944
G1 X385.384Y214.728
G1 X385.536Y214.536
G1 X385.712Y214.368
G1 X385.912Y214.216
G1 X386.144Y214.096
G1 X386.4Y213.992
G1 X386.68Y213.92
G1 X386.984Y213.864
G1 X387.32Y213.84
G1 X387.688Y213.856
G1 X388.056Y213.88
G1 X388.464Y213.944
G1 X388.896Y214.032
G1 X389.36Y214.152
G1 X390.064Y214.384
G1 X391.236Y214.854
G1 X392.392Y215.36
G1 X392.776Y215.56
G1 X393.616Y216.04
G1 X393.888Y216.184
G1 X394.12Y216.304
G1 X394.32Y216.4
G1 X394.472Y216.456
G1 X394.592Y216.496
G1 X394.672
G1 X394.72Y216.472
G1 X394.744Y216.416
G1 X394.728Y216.328
G1 X394.68Y216.208
G1 X394.608Y216.064
G1 X394.376Y215.672
G1 X394.184Y215.376
G1 X393.981Y215.038
G1 X393.784Y214.696
G1 X393.6Y214.328
G1 X393.432Y213.944
G1 X393.28Y213.56
G1 X393.104Y212.992
G1 X392.96Y212.416
G1 X392.896Y212.04
G1 X392.856Y211.672
G1 X392.832Y211.304
G1 Y210.936
G1 X392.864Y210.584
G1 X392.904Y210.24
G1 X392.976Y209.912
G1 X393.064Y209.592
G1 X393.168Y209.328
G1 X393.271Y209.08
G1 X393.384Y208.856
G1 X393.512Y208.648
G1 X393.648Y208.472
G1 X393.784Y208.304
G1 X393.936Y208.168
G1 X394.096Y208.04
G1 X394.448Y207.864
G1 X394.632Y207.808
G1 X394.824Y207.76
G1 X395.136
G1 X395.408
G1 X395.657Y207.812
G1 X395.904Y207.864
G1 X396.144Y207.944
G1 X396.384Y208.048
G1 X396.637Y208.178
G1 X396.888Y208.312
G1 X397.157Y208.482
G1 X397.424Y208.656
G1 X397.696Y208.856
G1 X398.552Y209.576
G1 X398.84Y209.856
G1 X399.448Y210.472
G1 X400.712Y211.928
G1 X401.968Y213.4
G1 X401.888Y209.984
G1 Y209.648
G1 Y209.304
G1 X401.928Y208.68
G1 X401.954Y208.388
G1 X401.984Y208.096
G1 X402.024Y207.824
G1 X402.072Y207.568
G1 X402.122Y207.323
G1 X402.176Y207.08
G1 X402.248Y206.856
G1 X402.32Y206.64
G1 X402.392Y206.44
G1 X402.479Y206.248
G1 X402.568Y206.072
G1 X402.672Y205.904
G1 X402.776Y205.744
G1 X402.888Y205.6
G1 X403.008Y205.464
G1 X403.128Y205.344
G1 X403.264Y205.232
G1 X403.408Y205.128
G1 X403.552Y205.04
G1 X403.707Y204.963
G1 X403.864Y204.888
G1 X404.032Y204.832
G1 X404.208Y204.784
G1 X404.576Y204.72
G1 X404.776Y204.704
G1 X404.976
G1 X405.152
G1 X405.52Y204.76
G1 X405.808Y204.856
G1 X406.088Y204.952
G1 X406.472Y205.144
G1 X406.856Y205.376
G1 X407.24Y205.656
G1 X407.616Y205.976
G1 X407.992Y206.328
G1 X408.344Y206.712
G1 X408.688Y207.128
G1 X409.008Y207.56
G1 X409.312Y208.024
G1 X409.584Y208.504
G1 X409.824Y209
G1 X410.04Y209.504
G1 X410.429Y210.737
G1 X410.8Y211.976
G1 X411.448Y209.408
G1 X411.592Y208.864
G1 X411.776Y208.32
G1 X411.92Y207.936
G1 X412.08Y207.552
G1 X412.25Y207.175
G1 X412.424Y206.8
G1 X412.594Y206.499
G1 X412.768Y206.2
G1 X412.88Y206.032
G1 X412.984Y205.888
G1 X413.088Y205.768
G1 X413.352Y205.512
G1 X413.624Y205.296
G1 X413.912Y205.128
G1 X414.208Y204.96
G1 X414.512Y204.848
G1 X414.816Y204.768
G1 X415.12Y204.72
G1 X415.432Y204.704
G1 X415.728Y204.728
G1 X416.024Y204.784
G1 X416.312Y204.872
G1 X416.584Y204.992
G1 X416.84Y205.152
G1 X417.08Y205.344
G1 X417.296Y205.568
G1 X417.424Y205.744
G1 X417.544Y205.92
G1 X417.664Y206.176
G1 X417.728Y206.328
G1 X417.864Y206.68
G1 X418Y207.088
G1 X418.28Y208.089
G1 X418.536Y209.096
G1 X418.656Y209.64
G1 X418.768Y210.192
G1 X418.907Y210.938
G1 X419.024Y211.688
G1 X419.079Y212.152
G1 X419.128Y212.616
G1 Y212.816
G1 X419.144Y213.016
G1 X419.168
G1 X419.2
G1 X419.256Y212.976
G1 X419.304Y212.928
G1 X419.64Y212.544
G1 X419.856Y212.248
G1 X419.976Y212.08
G1 X420.418Y211.413
G1 X420.856Y210.744
G1 X421.576Y209.776
G1 X421.936Y209.352
G1 X422.296Y208.96
G1 X422.648Y208.616
G1 X423.008Y208.296
G1 X423.352Y208.024
G1 X423.704Y207.784
G1 X424.04Y207.584
G1 X424.368Y207.416
G1 X424.696Y207.288
G1 X425.008Y207.2
G1 X425.312Y207.144
G1 X425.608Y207.128
G1 X425.888Y207.144
G1 X426.16Y207.2
G1 X426.416Y207.288
G1 X426.656Y207.416
G1 X426.872Y207.576
G1 X427.08Y207.776
G1 X427.264Y208.008
G1 X427.432Y208.272
G1 X427.584Y208.576
G1 X427.704Y208.912
G1 X427.808Y209.288
G1 X427.888Y209.696
G1 X427.944Y210.136
G1 X427.976Y210.608
G1 Y211.12
G1 X427.952Y211.672
G1 X427.896Y212.248
G1 X427.832Y212.776
G1 X427.76Y213.304
G1 X427.68Y213.808
G1 X427.608Y214.28
G1 X427.528Y214.712
G1 X427.456Y215.072
G1 X427.392Y215.368
G1 X427.36Y215.48
G1 X427.296Y215.664
G1 X427.264Y215.864
G1 X427.28Y215.896
G1 X427.304Y215.92
G1 X427.336
G1 X427.384
G1 X427.44Y215.896
G1 X427.568Y215.816
G1 X427.813Y215.629
G1 X428.056Y215.44
G1 X428.528Y215.024
G1 X428.847Y214.763
G1 X429.168Y214.504
G1 X429.808Y214.04
G1 X430.128Y213.824
G1 X430.44Y213.624
G1 X430.752Y213.44
G1 X431.672Y212.968
G1 X432.108Y212.791
G1 X432.544Y212.616
G1 X432.832Y212.528
G1 X433.104Y212.456
G1 X433.376Y212.4
G1 X433.64Y212.36
G1 X433.896Y212.328
G1 X434.152Y212.312
G1 X434.392
G1 X434.624Y212.336
G1 X434.848Y212.368
G1 X435.072Y212.408
G1 X435.271Y212.472
G1 X435.472Y212.56
G1 X435.664Y212.648
G1 X435.84Y212.752
G1 X436.008Y212.88
G1 X436.16Y213.016
G1 X436.302Y213.179
G1 X436.44Y213.344
G1 X436.624Y213.624
G1 X436.768Y213.896
G1 X436.904Y214.176
G1 X437Y214.456
G1 X437.072Y214.736
G1 X437.112Y215.032
G1 Y215.336
G1 Y215.656
G1 X437.056Y215.992
G1 X436.968Y216.352
G1 X436.856Y216.736
G1 X436.712Y217.144
G1 X436.536Y217.592
G1 X436.009Y218.72
G1 X435.464Y219.84
G1 X435.104Y220.632
G1 X435.004Y220.906
G1 X434.912Y221.184
G1 X434.888Y221.312
G1 Y221.408
G1 Y221.48
G1 X434.92Y221.536
G1 X434.976Y221.552
G1 X435.032
G1 X435.12
G1 X435.224Y221.512
G1 X435.656Y221.336
G1 X436.088Y221.168
G1 X436.56Y221.016
G1 X437.048Y220.872
G1 X438.048Y220.608
G1 X439.048Y220.392
G1 X439.544Y220.312
G1 X440.016Y220.24
G1 X440.479Y220.184
G1 X440.912Y220.144
G1 X441.688Y220.128
G1 X442Y220.152
G1 X442.304Y220.184
G1 X442.624Y220.248
G1 X442.912Y220.336
G1 X443.176Y220.432
G1 X443.424Y220.544
G1 X443.64Y220.672
G1 X443.832Y220.816
G1 X444.008Y220.968
G1 X444.28Y221.312
G1 X444.376Y221.504
G1 X444.464Y221.696
G1 X444.52Y221.912
G1 X444.552Y222.128
G1 X444.568Y222.352
G1 X444.552Y222.592
G1 X444.512Y222.84
G1 X444.464Y223.088
G1 X444.384Y223.344
G1 X444.28Y223.608
G1 X444.16Y223.88
G1 X444.016Y224.16
G1 X443.848Y224.448
G1 X443.448Y225.008
G1 X443.216Y225.304
G1 X442.808Y225.752
G1 X442.072Y226.496
G1 X441.728Y226.792
G1 X440.984Y227.392
G1 X438.904Y228.976
G1 X439.912Y228.784
G1 X440.928Y228.616
G1 X441.84Y228.584
G1 X442.336Y228.608
G1 X442.856Y228.656
G1 X443.384Y228.72
G1 X443.92Y228.8
G1 X444.448Y228.904
G1 X444.96Y229.024
G1 X445.472Y229.16
G1 X445.936Y229.304
G1 X446.392Y229.464
G1 X446.816Y229.632
G1 X447.488Y230
G1 X447.728Y230.192
G1 X447.92Y230.368
G1 X448.08Y230.552
G1 X448.216Y230.736
G1 X448.328Y230.928
G1 X448.416Y231.112
G1 X448.479Y231.304
G1 X448.528Y231.496
G1 X448.552Y231.688
G1 Y231.888
G1 X448.528Y232.08
G1 X448.479Y232.272
G1 X448.416Y232.472
G1 X448.328Y232.664
G1 X448.216Y232.856
G1 X448Y233.152
G1 X447.776Y233.432
G1 X447.376Y233.8
G1 X446.752Y234.248
G1 X446.352Y234.504
G1 X445.728Y234.84
G1 X445.032Y235.152
G1 X444.238Y235.437
G1 X443.44Y235.712
G1 X439.84Y236.688
G1 X442.968Y237.264
G1 X443.384Y237.344
G1 X444.176Y237.52
G1 X444.56Y237.616
G1 X444.92Y237.712
G1 X445.271Y237.808
G1 X445.616Y237.912
G1 X445.944Y238.024
G1 X446.256Y238.128
G1 X446.56Y238.248
G1 X446.848Y238.36
G1 X447.128Y238.48
G1 X447.392Y238.6
G1 X447.64Y238.728
G1 X448.104Y238.984
G1 X448.405Y239.183
G1 X448.704Y239.384
G1 X448.88Y239.52
G1 X449.184Y239.792
G1 X449.32Y239.936
G1 X449.448Y240.08
G1 X449.56Y240.224
G1 X449.653Y240.367
G1 X449.744Y240.512
G1 X449.832Y240.728
G1 X449.912Y240.944
G1 X449.944Y241.16
G1 X449.968Y241.376
G1 X449.944Y241.664
G1 X449.912Y241.808
G1 X449.864Y241.944
G1 X449.808Y242.088
G1 X449.736Y242.224
G1 X449.648Y242.36
G1 X449.544Y242.496
G1 X449.432Y242.632
G1 X449.312Y242.768
G1 X449.168Y242.896
G1 X449.016Y243.024
G1 X448.856Y243.152
G1 X448.68Y243.272
G1 X448.488Y243.392
G1 X448.28Y243.512
G1 X448.064Y243.632
G1 X447.832Y243.744
G1 X447.336Y243.96
G1 X446.776Y244.16
G1 X445.791Y244.437
G1 X444.792Y244.664
G1 X443.04Y244.945
G1 X441.28Y245.176
G1 X442.528Y245.808
G1 X443.776Y246.448
G1 X444.088Y246.624
G1 X444.384Y246.808
G1 X444.669Y246.994
G1 X444.952Y247.184
G1 X445.216Y247.384
G1 X445.472Y247.584
G1 X445.816Y247.888
G1 X446.152Y248.2
G1 X446.352Y248.416
G1 X446.536Y248.624
G1 X446.712Y248.84
G1 X447.016Y249.272
G1 X447.152Y249.488
G1 X447.264Y249.704
G1 X447.36Y249.912
G1 X447.456Y250.128
G1 X447.52Y250.336
G1 X447.576Y250.544
G1 X447.616Y250.752
G1 X447.632Y250.952
G1 Y251.152
G1 Y251.344
G1 X447.6Y251.536
G1 X447.488Y251.896
G1 X447.408Y252.064
G1 X447.304Y252.232
G1 X447.192Y252.392
G1 X447.048Y252.544
G1 X446.976Y252.6
G1 X446.88Y252.664
G1 X446.76Y252.72
G1 X446.624Y252.768
G1 X446.472Y252.816
G1 X446.304Y252.856
G1 X446.12Y252.896
G1 X445.92Y252.936
G1 X445.472Y253
G1 X444.464Y253.08
G1 X443.92Y253.096
G1 X443.352
G1 X442.776Y253.08
G1 X442.2Y253.048
G1 X441.632Y253.008
G1 X441.08Y252.944
G1 X440.56Y252.864
G1 X440.08Y252.768
G1 X439.632Y252.656
G1 X438.064Y252.208
G1 X440Y254.152
G1 X440.44Y254.632
G1 X440.872Y255.112
G1 X441.232Y255.608
G1 X441.576Y256.12
G1 X441.848Y256.624
G1 X442.112Y257.128
G1 X442.312Y257.64
G1 X442.512Y258.36
G1 X442.72Y259.08
G1 X442.8Y259.312
G1 X442.896Y259.52
G1 X443Y259.696
G1 X443.12Y259.856
G1 X443.264Y259.984
G1 X443.424Y260.104
G1 X443.624Y260.2
G1 X443.848Y260.296
G1 X444.424Y260.464
G1 X445.04Y260.599
G1 X445.656Y260.728
G1 X446.68Y260.96
G1 X447.704Y261.216
G1 X448.32Y261.4
G1 X448.891Y261.606
G1 X449.464Y261.808
G1 X449.992Y262.024
G1 X450.488Y262.256
G1 X450.968Y262.512
G1 X451.416Y262.776
G1 X452.256Y263.36
G1 X453.024Y264.016
G1 X453.377Y264.379
G1 X453.728Y264.744
G1 X454.24Y265.328
G1 X454.44Y265.584
G1 X454.616Y265.824
G1 X454.896Y266.272
G1 X454.992Y266.496
G1 X455.072Y266.72
G1 X455.128Y266.96
G1 X455.168Y267.216
G1 X455.184Y267.496
G1 Y268.16
G1 X455.12Y269.224
G1 X454.864Y272.384
G1 X458.968Y273.864
G1 X459.44Y272.504
G1 X459.544Y272.232
G1 X459.672Y271.992
G1 X459.816Y271.784
G1 X459.976Y271.6
G1 X460.152Y271.448
G1 X460.328Y271.328
G1 X460.52Y271.24
G1 X460.72Y271.176
G1 X460.928Y271.152
G1 X461.136
G1 X461.344Y271.192
G1 X461.552Y271.256
G1 X461.76Y271.36
G1 X461.96Y271.496
G1 X462.16Y271.664
G1 X462.528Y272.08
G1 X462.688Y272.232
G1 X462.832Y272.32
G1 X462.904Y272.344
G1 X462.976
G1 X463.12Y272.328
G1 X463.2Y272.296
G1 X463.376Y272.184
G1 X463.479Y272.104
G1 X463.793Y271.857
G1 X464.104Y271.608
G1 X464.704Y271.24
G1 X465.84Y270.624
G1 X467Y270.032
G1 X467.886Y269.61
G1 X468.781Y269.208
G1 X469.686Y268.829
G1 X470.6Y268.472
G1 X470.8Y268.408
G1 X471.128Y268.32
G1 X471.248Y268.296
G1 X471.44Y268.264
G1 X471.512Y268.24
G1 X471.536Y268.208
G1 Y268.132
G1 X471.52Y268.056
G1 X471.392Y267.848
G1 X471.088Y267.528
G1 X470.672Y267.176
G1 X470.44Y267.008
G1 X470.2Y266.848
G1 X469.968Y266.72
G1 X469.728Y266.592
G1 X469.504Y266.496
G1 X469.296Y266.432
G1 X469.12Y266.408
G1 X468.96
G1 X468.784Y266.384
G1 X468.392Y266.304
G1 X467.92Y266.168
G1 X467.456Y266.024
G1 X466.928Y265.84
G1 X466.376Y265.616
G1 X465.665Y265.302
G1 X464.96Y264.976
G1 X464.276Y264.63
G1 X463.6Y264.272
G1 X463.08Y263.968
G1 X462.576Y263.648
G1 X462.16Y263.352
G1 X461.899Y263.149
G1 X461.64Y262.944
G1 X461.256Y262.544
G1 X460.888Y262.128
G1 X460.64Y261.8
G1 X460.432Y261.472
G1 X460.264Y261.152
G1 X460.136Y260.84
G1 X460.048Y260.536
G1 X460Y260.24
G1 Y259.944
G1 X460.016Y259.656
G1 X460.088Y259.376
G1 X460.192Y259.104
G1 X460.344Y258.832
G1 X460.528Y258.576
G1 X460.752Y258.32
G1 X461.016Y258.072
G1 X461.312Y257.84
G1 X461.656Y257.608
G1 X462.032Y257.376
G1 X462.448Y257.16
G1 X462.904Y256.952
G1 X463.4Y256.752
G1 X463.928Y256.552
G1 X464.512Y256.368
G1 X465.104Y256.192
G1 X465.768Y256.016
G1 X466.432Y255.856
G1 X468.41Y255.474
G1 X470.4Y255.16
G1 X473.488Y254.744
G1 X470.816Y253.448
G1 X470.136Y253.096
G1 X469.472Y252.728
G1 X468.816Y252.336
G1 X468.184Y251.92
G1 X467.576Y251.496
G1 X466.992Y251.056
G1 X466.432Y250.608
G1 X465.912Y250.152
G1 X465.424Y249.688
G1 X464.576Y248.776
G1 X464.224Y248.32
G1 X463.912Y247.88
G1 X463.784Y247.664
G1 X463.664Y247.448
G1 X463.552Y247.24
G1 X463.464Y247.032
G1 X463.384Y246.832
G1 X463.328Y246.632
G1 X463.24Y246.24
G1 X463.16Y245.84
G1 X463.12Y245.472
G1 X463.104Y245.104
G1 X463.12Y244.76
G1 X463.168Y244.432
G1 X463.232Y244.112
G1 X463.328Y243.816
G1 X463.456Y243.536
G1 X463.608Y243.28
G1 X463.784Y243.04
G1 X463.984Y242.816
G1 X464.216Y242.616
G1 X464.472Y242.44
G1 X464.752Y242.288
G1 X465.056Y242.152
G1 X465.224Y242.096
G1 X465.424Y242.048
G1 X465.792Y241.992
G1 X466.16Y241.944
G1 X466.76Y241.912
G1 X467.44
G1 X468.176Y241.928
G1 X468.92Y241.976
G1 X469.655Y242.046
G1 X470.392Y242.112
G1 X471.128Y242.2
G1 X472.032Y242.328
G1 X472.936Y242.472
G1 X474.056Y242.672
G1 X475.168Y242.904
G1 X475.821Y243.065
G1 X476.472Y243.232
G1 X477.28Y243.464
G1 X477.376Y243.488
G1 X477.448
G1 X477.488Y243.448
G1 Y243.376
G1 Y243.304
G1 X477.36Y243.064
G1 X477.248Y242.888
G1 X477.136Y242.72
G1 X476.592Y242.04
G1 X475.798Y241.143
G1 X475Y240.248
G1 X474.528Y239.664
G1 X474.072Y239.072
G1 X473.768Y238.624
G1 X473.472Y238.176
G1 X473.019Y237.415
G1 X472.592Y236.64
G1 X472.304Y236.032
G1 X472.056Y235.432
G1 X471.84Y234.84
G1 X471.68Y234.272
G1 X471.536Y233.696
G1 X471.448Y233.152
G1 X471.4Y232.624
G1 Y232.368
G1 Y232.12
G1 Y231.88
G1 X471.479Y231.536
G1 X471.56Y231.192
G1 X471.656Y230.992
G1 X471.784Y230.792
G1 X471.928Y230.616
G1 X472.096Y230.448
G1 X472.288Y230.296
G1 X472.504Y230.16
G1 X472.736Y230.032
G1 X472.984Y229.92
G1 X473.544Y229.736
G1 X473.84Y229.664
G1 X474.16Y229.608
G1 X474.496Y229.568
G1 X474.84Y229.536
G1 X475.4
G1 X475.96
G1 X476.36Y229.56
G1 X476.768Y229.6
G1 X477.176Y229.656
G1 X477.6Y229.728
G1 X478.032Y229.808
G1 X478.464Y229.912
G1 X479.133Y230.097
G1 X479.8Y230.288
G1 X480.248Y230.448
G1 X480.704Y230.616
G1 X481.16Y230.808
G1 X481.616Y231.008
G1 X482.152Y231.248
G1 X482.664Y231.48
G1 X483.344Y231.784
G1 X483.896Y232.016
G1 X484.168Y232.128
G1 X484.432Y232.224
G1 X484.456
G1 Y232.104
G1 X484.416Y231.888
G1 X484.352Y231.648
G1 X484.168Y231.032
G1 X483.88Y230.152
G1 X483.616Y229.264
G1 X483.504Y228.736
G1 X483.408Y228.192
G1 X483.336Y227.64
G1 X483.28Y227.08
G1 X483.256Y226.52
G1 Y225.968
G1 Y225.416
G1 X483.296Y224.888
G1 X483.344Y224.376
G1 X483.424Y223.88
G1 X483.52Y223.424
G1 X483.64Y222.992
G1 X483.776Y222.592
G1 X483.936Y222.24
G1 X484.128Y221.92
G1 X484.344Y221.632
G1 X484.584Y221.368
G1 X484.848Y221.136
G1 X485.128Y220.936
G1 X485.44Y220.76
G1 X485.76Y220.616
G1 X486.112Y220.504
G1 X486.472Y220.416
G1 X486.848Y220.36
G1 X487.24Y220.328
G1 X487.64
G1 X488.056Y220.344
G1 X488.479Y220.392
G1 X488.912Y220.464
G1 X489.586Y220.646
G1 X490.256Y220.84
G1 X490.704Y221.008
G1 X491.16Y221.208
G1 X491.616Y221.432
G1 X492.072Y221.68
G1 X492.528Y221.952
G1 X492.976Y222.24
G1 X493.416Y222.552
G1 X493.848Y222.888
G1 X494.28Y223.256
G1 X494.704Y223.632
G1 X495.112Y224.032
G1 X495.504Y224.456
G1 X495.888Y224.896
G1 X496.256Y225.36
G1 X497.696Y227.24
G1 Y221.568
G1 Y220.944
G1 X497.72Y220.384
G1 X497.748Y219.872
G1 X497.784Y219.36
G1 X497.824Y218.904
G1 X497.872Y218.592
G1 X497.936Y218.312
G1 X498.016Y218.064
G1 X498.112Y217.84
G1 X498.224Y217.632
G1 X498.352Y217.432
G1 X498.496Y217.24
G1 X498.848Y216.84
G1 X499.136Y216.552
G1 X499.44Y216.304
G1 X499.752Y216.088
G1 X500.072Y215.912
G1 X500.4Y215.776
G1 X500.728Y215.672
G1 X501.072Y215.608
G1 X501.416Y215.576
G1 X501.768
G1 X502.128Y215.624
G1 X502.488Y215.704
G1 X502.856Y215.808
G1 X503.224Y215.952
G1 X503.592Y216.128
G1 X503.968Y216.344
G1 X504.344Y216.584
G1 X504.64Y216.8
G1 X505.216Y217.264
G1 X505.488Y217.512
G1 X506.24Y218.28
G1 X506.624Y218.72
G1 X507Y219.176
G1 X507.368Y219.672
G1 X507.744Y220.2
G1 X508.104Y220.752
G1 X508.472Y221.328
G1 X508.832Y221.944
G1 X509.2Y222.616
G1 X509.552Y223.296
G1 X509.896Y223.976
G1 X510.736Y225.79
G1 X511.552Y227.616
G1 X511.808Y224.472
G1 X511.872Y223.8
G1 X511.968Y223.144
G1 X512.08Y222.512
G1 X512.216Y221.896
G1 X512.376Y221.304
G1 X512.544Y220.72
G1 X512.744Y220.16
G1 X512.952Y219.632
G1 X513.184Y219.12
G1 X513.432Y218.648
G1 X513.688Y218.176
G1 X513.97Y217.755
G1 X514.256Y217.336
G1 X514.552Y216.96
G1 X514.864Y216.616
G1 X515.184Y216.296
G1 X515.512Y216.016
G1 X515.856Y215.752
G1 X516.2Y215.528
G1 X516.552Y215.336
G1 X516.912Y215.184
G1 X517.271Y215.064
G1 X517.632Y214.976
G1 X518Y214.946
G1 X518.368Y214.92
G1 X518.736Y214.952
G1 X519.104Y215.024
G1 X519.472Y215.136
G1 X519.832Y215.288
G1 X520.2Y215.48
G1 X520.552Y215.72
G1 X520.904Y216.008
G1 X521.16Y216.256
G1 X521.408Y216.544
G1 X521.656Y216.88
G1 X521.896Y217.248
G1 X522.12Y217.648
G1 X522.344Y218.08
G1 X522.56Y218.544
G1 X522.76Y219.024
G1 X522.944Y219.536
G1 X523.12Y220.064
G1 X523.28Y220.616
G1 X523.424Y221.168
G1 X523.664Y222.312
G1 X523.864Y223.879
G1 X524.048Y225.448
G1 X524.104Y225.792
G1 X524.16Y226.128
G1 X524.2Y226.312
G1 X524.256Y226.52
G1 X524.307Y226.677
G1 X524.36Y226.832
G1 X524.408Y226.912
G1 X524.456Y226.968
G1 X524.512Y227.016
G1 X524.568Y227.032
G1 X524.624
G1 X524.688
G1 X524.76Y226.992
G1 X525.08Y226.688
G1 X525.271Y226.432
G1 X525.488Y226.112
G1 X525.872Y225.528
G1 X526.176Y225.056
G1 X526.504Y224.6
G1 X526.848Y224.16
G1 X527.2Y223.728
G1 X527.952Y222.912
G1 X528.352Y222.528
G1 X528.76Y222.152
G1 X529.192Y221.792
G1 X529.632Y221.448
G1 X530.56Y220.8
G1 X531.536Y220.216
G1 X532.056Y219.944
G1 X532.632Y219.656
G1 X533.216Y219.376
G1 X533.464Y219.24
G1 X533.712Y219.096
G1 X533.92Y218.968
G1 X534.085Y218.837
G1 X534.248Y218.704
G1 X534.376Y218.568
G1 X534.479Y218.424
G1 X534.56Y218.272
G1 X534.632Y218.112
G1 X534.688Y217.936
G1 X534.725Y217.732
G1 X534.76Y217.528
G1 X534.816Y216.8
G1 X534.848Y216.584
G1 X534.904Y216.36
G1 X534.968Y216.136
G1 X535.048Y215.912
G1 X535.152Y215.688
G1 X535.256Y215.472
G1 X535.384Y215.256
G1 X535.52Y215.032
G1 X535.68Y214.816
G1 X535.848Y214.6
G1 X536.032Y214.384
G1 X536.44Y213.96
G1 X536.664Y213.752
G1 X536.912Y213.544
G1 X537.304Y213.24
G1 X537.704Y212.936
G1 X538Y212.744
G1 X538.304Y212.544
G1 X538.616Y212.352
G1 X538.953Y212.165
G1 X539.288Y211.976
G1 X540.008Y211.616
G1 X540.776Y211.272
G1 X541.552Y210.96
G1 X542.336Y210.664
G1 X543.128Y210.376
G1 X543.92Y210.104
G1 X545.4Y209.576
G1 X546.88Y209.056
G1 X546.92Y209.024
G1 Y208.984
G1 Y208.952
G1 X546.84Y208.872
G1 X546.76Y208.832
G1 X546.672Y208.792
G1 X546.56Y208.752
G1 X546.28Y208.664
G1 X545.944Y208.584
G1 X545.536Y208.504
G1 X544.288Y208.288
G1 X543.288Y208.08
G1 X542.304Y207.848
G1 X541.616Y207.656
G1 X540.928Y207.456
G1 X540.24Y207.24
G1 X539.478Y206.974
G1 X538.72Y206.696
G1 X538.127Y206.446
G1 X537.536Y206.192
G1 X536.916Y205.879
G1 X536.304Y205.552
G1 X535.8Y205.264
G1 X535.2Y204.864
G1 X534.656Y204.464
G1 X534.299Y204.149
G1 X533.944Y203.832
G1 X533.744Y203.616
G1 X533.552Y203.4
G1 X533.384Y203.184
G1 X533.192Y202.912
G1 X533Y202.632
G1 X532.912Y202.464
G1 X532.84Y202.32
G1 X532.776Y202.168
G1 X532.728Y202.024
G1 X532.704Y201.88
G1 Y201.736
G1 Y201.584
G1 X532.72Y201.432
G1 X532.8Y201.096
G1 X532.864Y200.904
G1 X533.051Y200.479
G1 X533.24Y200.056
G1 X533.36Y199.856
G1 X533.488Y199.664
G1 X533.632Y199.48
G1 X533.792Y199.296
G1 X533.96Y199.128
G1 X534.344Y198.792
G1 X534.552Y198.64
G1 X534.776Y198.496
G1 X535.008Y198.352
G1 X535.52Y198.08
G1 X536.088Y197.84
G1 X536.4Y197.728
G1 X536.712Y197.624
G1 X537.048Y197.52
G1 X537.384Y197.424
G1 X537.944Y197.288
G1 X538.504Y197.176
G1 X539.328Y197.032
G1 X539.752Y196.976
G1 X540.2Y196.92
G1 X540.92Y196.848
G1 X541.632Y196.784
G1 X544.504Y196.633
G1 X547.376Y196.496
G1 X545.544Y195.52
G1 X543.72Y194.528
G1 X543.064Y194.136
G1 X542.424Y193.72
G1 X541.808Y193.28
G1 X541.208Y192.832
G1 X540.631Y192.375
G1 X540.064Y191.904
G1 X539.55Y191.435
G1 X539.048Y190.952
G1 X538.592Y190.472
G1 X538.184Y190.008
G1 X537.816Y189.544
G1 X537.488Y189.088
G1 X537.352Y188.872
G1 X537.216Y188.648
G1 X537.024Y188.24
G1 X536.848Y187.824
G1 X536.744Y187.488
G1 X536.672Y187.144
G1 X536.632Y186.808
G1 X536.616Y186.472
G1 Y186.144
G1 X536.656Y185.816
G1 X536.712Y185.504
G1 X536.792Y185.2
G1 X536.896Y184.904
G1 X537.024Y184.624
G1 X537.168Y184.368
G1 X537.344Y184.12
G1 X537.536Y183.896
G1 X537.744Y183.696
G1 X537.976Y183.52
G1 X538.224Y183.368
G1 X538.424Y183.272
G1 X538.648Y183.192
G1 X538.896Y183.12
G1 X539.328Y183.032
G1 X539.768Y182.96
G1 X540.096Y182.928
G1 X540.816Y182.896
G1 X541.2
G1 X541.6
G1 X542.02Y182.922
G1 X542.44Y182.944
G1 X543.272Y183.025
G1 X544.102Y183.126
G1 X544.928Y183.248
G1 X545.752Y183.392
G1 X546.757Y183.598
G1 X547.76Y183.816
G1 X548.786Y184.089
G1 X549.808Y184.376
G1 X550.849Y184.723
G1 X551.888Y185.08
G1 X551.936
G1 X551.96Y185.048
G1 Y184.992
G1 X551.92Y184.92
G1 X551.856Y184.816
G1 X551.776Y184.704
G1 X551.664Y184.56
G1 X551.52Y184.392
G1 X551.368Y184.232
G1 X550.768Y183.608
G1 X550.264Y183.128
G1 X549.52Y182.432
G1 X549.088Y182.016
G1 X548.664Y181.584
G1 X548.256Y181.144
G1 X547.856Y180.696
G1 X547.488Y180.264
G1 X547.144Y179.832
G1 X546.824Y179.416
G1 X546.512Y178.992
G1 X546.112Y178.376
G1 X545.728Y177.76
G1 X545.312Y176.96
G1 X545.136Y176.576
G1 X544.848Y175.824
G1 X544.744Y175.456
G1 X544.656Y175.104
G1 X544.592Y174.76
G1 X544.552Y174.416
G1 X544.536Y174.096
G1 Y173.776
G1 X544.576Y173.472
G1 X544.632Y173.184
G1 X544.712Y172.904
G1 X544.816Y172.632
G1 X544.944Y172.384
G1 X545.088Y172.144
G1 X545.271Y171.912
G1 X545.472Y171.704
G1 X545.696Y171.504
G1 X545.928Y171.336
G1 X546.168Y171.192
G1 X546.416Y171.056
G1 X546.672Y170.936
G1 X546.944Y170.84
G1 X547.224Y170.752
G1 X547.512Y170.688
G1 X547.816Y170.648
G1 X548.136Y170.616
G1 X548.448Y170.592
G1 X548.784
G1 X549.128Y170.616
G1 X549.672Y170.688
G1 X550.216Y170.768
G1 X551Y170.96
G1 X551.416Y171.088
G1 X551.832Y171.224
G1 X552.264Y171.376
G1 X552.704Y171.552
G1 X553.152Y171.744
G1 X553.616Y171.952
G1 X554.096Y172.176
G1 X554.592Y172.424
G1 X556.112Y173.24
G1 X556.64Y173.552
G1 X557.184Y173.88
G1 X557.744Y174.224
G1 X561.6Y176.72
G1 X559.952Y174
G1 X559.568Y173.336
G1 X559.208Y172.696
G1 X558.888Y172.08
G1 X558.584Y171.488
G1 X558.312Y170.912
G1 X557.848Y169.8
G1 X557.656Y169.272
G1 X557.479Y168.744
G1 X557.336Y168.232
G1 X557.2Y167.712
G1 X557.088Y167.208
G1 X557Y166.704
G1 X556.936Y166.2
G1 X556.888Y165.688
G1 X556.856Y165.256
G1 X556.816Y164.52
G1 Y164.096
G1 X556.84Y163.672
G1 X556.872Y163.44
G1 X556.92Y163.224
G1 X556.984Y163.024
G1 X557.064Y162.84
G1 X557.271Y162.488
G1 X557.408Y162.304
G1 X557.568Y162.12
G1 X557.944Y161.728
G1 X558.32Y161.376
G1 X558.488Y161.224
G1 X558.648Y161.096
G1 X558.808Y160.984
G1 X558.96Y160.896
G1 X559.112Y160.816
G1 X559.264Y160.76
G1 X559.424Y160.704
G1 X559.584Y160.672
G1 X559.752Y160.656
G1 X559.928
G1 X560.112
G1 X560.512Y160.704
G1 X560.736Y160.744
G1 X561.184Y160.856
G1 X561.677Y161.038
G1 X561.928Y161.136
G1 X562.2Y161.256
G1 X562.472Y161.392
G1 X563.208Y161.808
G1 X563.761Y162.145
G1 X564.304Y162.496
G1 X564.832Y162.872
G1 X565.344Y163.264
G1 X565.896Y163.696
G1 X566.44Y164.144
G1 X567.08Y164.704
G1 X567.704Y165.288
G1 X568.328Y165.88
G1 X568.928Y166.504
G1 X569.512Y167.144
G1 X570.534Y168.323
G1 X571.544Y169.512
G1 X572.4Y170.488
G1 X572.728Y170.824
G1 X572.752
G1 X572.568Y169.544
G1 X572.368Y168.256
G1 X572.151Y166.967
G1 X571.928Y165.68
G1 X571.816Y164.744
G1 X571.68Y163.808
G1 X571.603Y163.048
G1 X571.536Y162.288
G1 X571.515Y161.184
G1 X571.504Y160.08
G1 X581.768
G1 X582.777Y162.102
G1 X583.753Y164.14
G1 X584.694Y166.194
G1 X585.6Y168.264
G1 X585.845Y166.499
G1 X586.048Y164.728
G1 X586.336Y162.768
G1 X586.496Y161.792
G1 X586.792Y160.08
G1 X592.144
G1 X594.184
G1 X594.592
G1 X595
G1 X595.688Y160.112
G1 X596.264Y160.184
G1 X596.512Y160.232
G1 X596.728Y160.296
G1 X596.944Y160.368
G1 X597.12Y160.456
G1 X597.288Y160.56
G1 X597.432Y160.688
G1 X597.56Y160.832
G1 X597.672Y161
G1 X597.768Y161.192
G1 X597.856Y161.4
G1 X597.928Y161.64
G1 X598.048Y162.208
G1 X598.144Y162.864
G1 X598.216Y163.68
G1 X598.248Y164.112
G1 X598.456Y167.248
G1 X598.688Y170.376
G1 X599.825Y168.103
G1 X600.968Y165.832
G1 X601.296Y165.256
G1 X601.624Y164.672
G1 X602.046Y164.004
G1 X602.479Y163.344
G1 X602.695Y163.059
G1 X602.912Y162.776
G1 X603.344Y162.264
G1 X603.56Y162.024
G1 X603.88Y161.712
G1 X604.264Y161.384
G1 X604.656Y161.072
G1 X605.112Y160.784
G1 X605.456Y160.616
G1 X605.808Y160.448
G1 X606.047Y160.363
G1 X606.288Y160.28
G1 X606.784Y160.168
G1 X607.296Y160.104
G1 X607.832Y160.08
G1 X609.944
G1 Y175.264
G1 X610
G1 Y320
G1 X10
; Layer Corte Pass 2 of 10
G1 Y171.744
G1 X10.08
G1 X10.021Y169.732
G1 X10Y167.72
G1 Y160.576
G1 X11.312Y161.072
G1 X11.52Y161.16
G1 X11.992Y161.392
G1 X12.464Y161.64
G1 X12.72Y161.792
G1 X13.544Y162.336
G1 X14.245Y162.833
G1 X14.936Y163.344
G1 X15.52Y163.816
G1 X16.104Y164.312
G1 X16.688Y164.84
G1 X17.824Y165.912
G1 X18.368Y166.464
G1 X18.888Y167.024
G1 X19.376Y167.584
G1 X19.84Y168.136
G1 X20.545Y169.02
G1 X21.271Y169.888
G1 X21.848Y170.552
G1 X21.968Y170.688
G1 X22.096Y170.816
G1 X22.136Y170.848
G1 X22.149Y170.829
G1 X22.16Y170.808
G1 X22.138Y170.592
G1 X22.112Y170.376
G1 X22.056Y169.976
G1 X21.968Y169.44
G1 X21.888Y168.904
G1 X21.72Y167.92
G1 X21.592Y167.2
G1 X21.344Y165.68
G1 X21.225Y164.776
G1 X21.112Y163.872
G1 X21.021Y162.969
G1 X20.944Y162.064
G1 Y161.072
G1 X20.92Y160.08
G1 X31.184
G1 X32.195Y162.102
G1 X33.172Y164.14
G1 X34.115Y166.194
G1 X35.024Y168.264
G1 X35.344Y165.712
G1 X35.534Y164.3
G1 X35.742Y162.89
G1 X35.97Y161.483
G1 X36.216Y160.08
G1 X41.568
G1 X43.6
G1 X44.352
G1 X44.88Y160.112
G1 X45.408Y160.144
G1 X45.68Y160.184
G1 X45.928Y160.232
G1 X46.16Y160.288
G1 X46.36Y160.368
G1 X46.544Y160.456
G1 X46.704Y160.56
G1 X46.848Y160.688
G1 X46.976Y160.832
G1 X47.088Y161
G1 X47.192Y161.192
G1 X47.271Y161.4
G1 X47.344Y161.64
G1 X47.408Y161.904
G1 X47.464Y162.192
G1 X47.56Y162.928
G1 X47.632Y163.664
G1 X47.872Y167.02
G1 X48.104Y170.376
G1 X49.944Y166.696
G1 X50.36Y165.912
G1 X50.791Y165.162
G1 X51.243Y164.426
G1 X51.716Y163.702
G1 X52.208Y162.992
G1 X52.44Y162.688
G1 X52.88Y162.144
G1 X53.271Y161.728
G1 X53.736Y161.324
G1 X54.208Y160.928
G1 X54.432Y160.776
G1 X54.664Y160.624
G1 X55.112Y160.408
G1 X55.352Y160.328
G1 X55.6Y160.256
G1 X55.872Y160.2
G1 X56.16Y160.16
G1 X56.479Y160.128
G1 X57.068Y160.1
G1 X57.656Y160.08
G1 X59.024Y160.096
G1 X59.768Y160.128
G1 X60.08Y160.168
G1 X60.49Y160.237
G1 X60.896Y160.336
G1 X61.176Y160.456
G1 X61.416Y160.6
G1 X61.624Y160.776
G1 X61.808Y160.992
G1 X61.96Y161.248
G1 X62.088Y161.536
G1 X62.296Y162.264
G1 X62.384Y162.728
G1 X62.464Y163.192
G1 X62.488Y163.368
G1 X62.504Y163.552
G1 Y164.28
G1 X62.464Y164.872
G1 X62.336Y166.112
G1 X62.251Y166.796
G1 X62.16Y167.48
G1 X61.99Y168.58
G1 X61.799Y169.676
G1 X61.586Y170.768
G1 X61.352Y171.856
G1 X61.16Y172.72
G1 X60.96Y173.56
G1 X60.754Y174.329
G1 X60.536Y175.096
G1 X60.512Y175.288
G1 X60.536Y175.336
G1 X60.584Y175.36
G1 X60.76Y175.312
G1 X60.888Y175.24
G1 X61.04Y175.144
G1 X61.216Y175.016
G1 X61.69Y174.614
G1 X62.16Y174.208
G1 X62.88Y173.536
G1 X63.592Y172.856
G1 X64.048Y172.44
G1 X64.504Y172.04
G1 X64.96Y171.656
G1 X65.411Y171.306
G1 X65.864Y170.96
G1 X66.312Y170.632
G1 X66.752Y170.336
G1 X67.2Y170.048
G1 X67.632Y169.784
G1 X68.496Y169.32
G1 X68.92Y169.12
G1 X69.336Y168.936
G1 X69.744Y168.776
G1 X70.152Y168.632
G1 X70.544Y168.512
G1 X70.936Y168.416
G1 X71.312Y168.336
G1 X71.688Y168.28
G1 X72.048Y168.24
G1 X72.4
G1 X72.744
G1 X73.072Y168.264
G1 X73.392Y168.32
G1 X73.704Y168.392
G1 X73.992Y168.496
G1 X74.28Y168.608
G1 X74.552Y168.752
G1 X74.816Y168.92
G1 X75.056Y169.112
G1 X75.288Y169.312
G1 X75.496Y169.536
G1 X75.664Y169.784
G1 X75.832Y170.04
G1 X75.976Y170.312
G1 X76.096Y170.6
G1 X76.192Y170.896
G1 X76.271Y171.216
G1 X76.328Y171.544
G1 X76.368Y171.88
G1 X76.384Y172.232
G1 X76.352Y172.976
G1 X76.312Y173.36
G1 X76.248Y173.752
G1 X76.16Y174.16
G1 X76.056Y174.568
G1 X75.936Y174.992
G1 X75.792Y175.416
G1 X75.456Y176.296
G1 X75.256Y176.736
G1 X75.04Y177.192
G1 X74.8Y177.648
G1 X74.552Y178.104
G1 X73.992Y179.032
G1 X73.68Y179.504
G1 X73.352Y179.976
G1 X73.016Y180.44
G1 X72.28Y181.384
G1 X71.624Y182.16
G1 X71.015Y182.934
G1 X70.432Y183.728
G1 X70.312Y183.928
G1 X70.288Y183.984
G1 Y184.024
G1 Y184.048
G1 X70.328Y184.064
G1 X70.376
G1 X70.44Y184.048
G1 X70.528Y184.032
G1 X70.744Y183.952
G1 X71.176Y183.76
G1 X71.352Y183.672
G1 X71.52Y183.584
G1 X72.376Y183.12
G1 X73.224Y182.648
G1 X74.168Y182.192
G1 X75.12Y181.76
G1 X75.592Y181.568
G1 X76.317Y181.306
G1 X77.048Y181.064
G1 X78.016Y180.768
G1 X78.496Y180.64
G1 X79.432Y180.432
G1 X79.896Y180.344
G1 X80.808Y180.208
G1 X81.243Y180.162
G1 X81.68Y180.12
G1 X82.304Y180.101
G1 X82.928Y180.088
G1 X83.328Y180.104
G1 X83.704Y180.136
G1 X84.072Y180.184
G1 X84.432Y180.24
G1 X84.768Y180.312
G1 X85.096Y180.392
G1 X85.4Y180.496
G1 X85.696Y180.608
G1 X85.968Y180.744
G1 X86.184Y180.856
G1 X86.376Y180.968
G1 X86.552Y181.08
G1 X86.704Y181.184
G1 X86.832Y181.304
G1 X86.944Y181.424
G1 X87.04Y181.552
G1 X87.128Y181.688
G1 X87.192Y181.84
G1 X87.248Y182.008
G1 X87.288Y182.192
G1 X87.317Y182.408
G1 X87.344Y182.624
G1 X87.357Y182.892
G1 X87.368Y183.16
G1 Y183.784
G1 X87.336Y184.096
G1 X87.296Y184.416
G1 X87.24Y184.728
G1 X87.072Y185.36
G1 X86.848Y185.984
G1 X86.712Y186.304
G1 X86.56Y186.616
G1 X86.4Y186.928
G1 X86.216Y187.24
G1 X85.8Y187.864
G1 X85.44Y188.336
G1 X85.121Y188.717
G1 X84.8Y189.096
G1 X84.2Y189.704
G1 X83.888Y190.008
G1 X83.552Y190.312
G1 X83.2Y190.616
G1 X82.84Y190.912
G1 X82.464Y191.208
G1 X82.072Y191.504
G1 X81.24Y192.09
G1 X80.808Y192.376
G1 X80.352Y192.664
G1 X79.896Y192.944
G1 X79.456Y193.208
G1 X78.504Y193.768
G1 X78.099Y194.015
G1 X77.704Y194.28
G1 X77.568Y194.384
G1 X77.479Y194.464
G1 X77.432Y194.528
G1 Y194.576
G1 X77.52Y194.624
G1 X77.624
G1 X78.084Y194.566
G1 X78.544Y194.504
G1 X78.808Y194.472
G1 X79.096Y194.44
G1 X80.576Y194.304
G1 X83.286Y194.105
G1 X86Y193.976
G1 X86.768
G1 X87.544Y194
G1 X88.568Y194.08
G1 X89.584Y194.2
G1 X90.192Y194.296
G1 X90.768Y194.424
G1 X91.288Y194.56
G1 X91.8Y194.72
G1 X92.264Y194.896
G1 X92.664Y195.088
G1 X93.064Y195.296
G1 X93.408Y195.52
G1 X93.712Y195.768
G1 X93.976Y196.024
G1 X94.192Y196.296
G1 X94.376Y196.584
G1 X94.512Y196.88
G1 X94.608Y197.2
G1 X94.664Y197.528
G1 Y197.872
G1 X94.64Y198.224
G1 X94.56Y198.592
G1 X94.44Y198.968
G1 X94.271Y199.36
G1 X94.064Y199.76
G1 X93.782Y200.177
G1 X93.496Y200.592
G1 X92.744Y201.456
G1 X92.136Y202
G1 X91.776Y202.272
G1 X91.368Y202.552
G1 X90.92Y202.832
G1 X90.432Y203.104
G1 X89.904Y203.376
G1 X89.352Y203.648
G1 X88.76Y203.92
G1 X88.136Y204.192
G1 X86.8Y204.712
G1 X86.08Y204.96
G1 X85.352Y205.208
G1 X84.07Y205.602
G1 X82.784Y205.984
G1 X82.584Y206.048
G1 X82.4Y206.112
G1 X82.184Y206.2
G1 X81.976Y206.288
G1 X81.8Y206.392
G1 X81.744Y206.44
G1 X81.72Y206.488
G1 Y206.536
G1 Y206.584
G1 X81.76Y206.632
G1 X81.96Y206.728
G1 X82.168Y206.808
G1 X82.52Y206.904
G1 X82.976Y207.008
G1 X83.536Y207.112
G1 X84.576Y207.288
G1 X85.176Y207.376
G1 X85.768Y207.472
G1 X86.368Y207.576
G1 X86.96Y207.696
G1 X87.504Y207.8
G1 X88.024Y207.922
G1 X88.544Y208.048
G1 X89.274Y208.257
G1 X90Y208.48
G1 X90.694Y208.731
G1 X91.384Y208.992
G1 X92Y209.272
G1 X92.616Y209.56
G1 X92.992Y209.76
G1 X93.352Y209.968
G1 X93.704Y210.176
G1 X94.024Y210.392
G1 X94.336Y210.616
G1 X94.896Y211.064
G1 X95.144Y211.296
G1 X95.376Y211.528
G1 X95.576Y211.76
G1 X95.928Y212.24
G1 X96.176Y212.72
G1 X96.271Y212.96
G1 X96.336Y213.2
G1 X96.376Y213.448
G1 Y213.688
G1 Y213.968
G1 X96.336Y214.232
G1 X96.271Y214.496
G1 X96.176Y214.76
G1 X96.064Y215.008
G1 X95.92Y215.248
G1 X95.76Y215.48
G1 X95.568Y215.712
G1 X95.36Y215.928
G1 X95.12Y216.144
G1 X94.864Y216.344
G1 X94.584Y216.544
G1 X94.271Y216.728
G1 X93.952Y216.912
G1 X93.6Y217.08
G1 X93.232Y217.24
G1 X92.84Y217.392
G1 X92.416Y217.534
G1 X91.992Y217.672
G1 X91.544Y217.8
G1 X91.072Y217.92
G1 X90.576Y218.024
G1 X90.064Y218.12
G1 X89.529Y218.206
G1 X88.992Y218.288
G1 X88.424Y218.36
G1 X87.832Y218.416
G1 X87.232Y218.464
G1 X85.976Y218.528
G1 X85.32Y218.544
G1 X84.656
G1 X80.104
G1 X82.88Y219.68
G1 X83.584Y219.976
G1 X84.264Y220.288
G1 X84.927Y220.619
G1 X85.584Y220.96
G1 X86.208Y221.312
G1 X86.808Y221.68
G1 X87.501Y222.133
G1 X88.176Y222.61
G1 X88.833Y223.113
G1 X89.472Y223.64
G1 X89.936Y224.048
G1 X90.368Y224.464
G1 X90.768Y224.88
G1 X91.144Y225.304
G1 X91.479Y225.72
G1 X91.792Y226.136
G1 X92.072Y226.552
G1 X92.32Y226.968
G1 X92.528Y227.376
G1 X92.712Y227.776
G1 X92.883Y228.349
G1 X93.032Y228.928
G1 X93.045Y229.116
G1 X93.056Y229.304
G1 Y229.664
G1 X93Y230.008
G1 X92.904Y230.336
G1 X92.776Y230.656
G1 X92.6Y230.96
G1 X92.384Y231.24
G1 X92.12Y231.512
G1 X91.816Y231.752
G1 X91.648Y231.856
G1 X91.271Y232.056
G1 X91.072Y232.136
G1 X90.64Y232.288
G1 X90.271Y232.376
G1 X89.904Y232.448
G1 X89.64Y232.488
G1 X89.368Y232.52
G1 X88.928Y232.544
G1 X88.488Y232.56
G1 X88.176
G1 X87.52Y232.536
G1 X87.184Y232.512
G1 X86.472Y232.44
G1 X85.72Y232.336
G1 X84.944Y232.2
G1 X84.12Y232.04
G1 X82.793Y231.718
G1 X81.471Y231.37
G1 X80.157Y231
G1 X78.848Y230.608
G1 X77.112Y230.056
G1 X77.04
G1 X77.016Y230.072
G1 Y230.1
G1 Y230.128
G1 X77.136Y230.384
G1 X77.423Y230.775
G1 X77.72Y231.16
G1 X78.081Y231.586
G1 X78.448Y232.008
G1 X79.669Y233.33
G1 X80.929Y234.615
G1 X82.226Y235.863
G1 X83.56Y237.072
G1 X84.096Y237.512
G1 X84.536Y237.832
G1 X85.088Y238.168
G1 X85.456Y238.44
G1 X85.832Y238.752
G1 X86.208Y239.112
G1 X86.576Y239.512
G1 X86.936Y239.952
G1 X87.296Y240.432
G1 X87.654Y240.962
G1 X88.008Y241.496
G1 X88.552Y242.48
G1 X89.072Y243.472
G1 X89.528Y244.496
G1 X89.952Y245.528
G1 X90.248Y246.304
G1 X91.584Y250.024
G1 X91.616Y247.232
G1 Y246.696
G1 X91.648Y246.168
G1 X91.72Y245.416
G1 X91.808Y244.672
G1 X91.968Y243.736
G1 X92.136Y243.088
G1 X92.312Y242.448
G1 X92.6Y241.656
G1 X92.76Y241.28
G1 X92.936Y240.928
G1 X93.128Y240.584
G1 X93.328Y240.256
G1 X93.536Y239.944
G1 X93.76Y239.648
G1 X93.992Y239.368
G1 X94.24Y239.104
G1 X94.496Y238.848
G1 X94.76Y238.616
G1 X95.042Y238.402
G1 X95.328Y238.192
G1 X95.792Y237.936
G1 X96.264Y237.688
G1 X96.776Y237.496
G1 X97.296Y237.336
G1 X97.664Y237.256
G1 X98.032Y237.184
G1 X98.872Y237.032
G1 X99.232Y236.936
G1 X99.628Y236.799
G1 X100.016Y236.64
G1 X100.08Y236.593
G1 X100.144Y236.544
G1 X100.176Y236.504
G1 Y236.456
G1 X100.192Y236.352
G1 X100.224Y236.256
G1 X100.264Y236.152
G1 X100.432Y235.96
G1 X100.608Y235.768
G1 X100.816Y235.632
G1 X101.032Y235.496
G1 X101.2Y235.416
G1 X101.768Y235.176
G1 X102.208Y235.032
G1 X102.688Y234.896
G1 X103.208Y234.784
G1 X103.752Y234.68
G1 X104.336Y234.6
G1 X104.928Y234.536
G1 X105.552Y234.488
G1 X106.184Y234.464
G1 X106.832
G1 X107.128
G1 X107.456Y234.488
G1 X108.16Y234.544
G1 X108.944Y234.632
G1 X110.016Y234.776
G1 X110.672Y234.88
G1 X111.6Y235.032
G1 X113.457Y235.392
G1 X115.303Y235.801
G1 X117.138Y236.259
G1 X118.96Y236.768
G1 X119.696Y237.008
G1 X120.04Y237.128
G1 X120.4Y237.264
G1 X120.432
G1 X120.456
G1 Y237.24
G1 X120.472Y237.208
G1 Y237.168
G1 X120.448Y237.128
G1 X120.336Y236.936
G1 X120.224Y236.752
G1 X120.072Y236.544
G1 X119.888Y236.304
G1 X119.424Y235.744
G1 X119.128Y235.384
G1 X118.816Y235.024
G1 X118.504Y234.68
G1 X118.176Y234.344
G1 X116.735Y232.81
G1 X115.344Y231.232
G1 X114.856Y230.64
G1 X114.379Y230.041
G1 X113.904Y229.44
G1 X113.585Y228.994
G1 X113.271Y228.544
G1 X112.769Y227.757
G1 X112.296Y226.952
G1 X112.041Y226.443
G1 X111.8Y225.928
G1 X111.656Y225.592
G1 X111.304Y224.616
G1 X111.136Y223.976
G1 X111.016Y223.344
G1 X110.936Y222.72
G1 X110.904Y222.096
G1 Y221.424
G1 Y221.136
G1 X110.928Y220.864
G1 X110.96Y220.624
G1 X111Y220.4
G1 X111.056Y220.2
G1 X111.12Y220
G1 X111.192Y219.816
G1 X111.288Y219.648
G1 X111.4Y219.48
G1 X111.624Y219.224
G1 X111.848Y218.976
G1 X112.16Y218.696
G1 X112.472Y218.424
G1 X112.672Y218.264
G1 X112.88Y218.112
G1 X113.072Y217.984
G1 X113.456Y217.784
G1 X113.656Y217.712
G1 X113.872Y217.648
G1 X114.088Y217.608
G1 X114.328Y217.576
G1 X114.872Y217.544
G1 X115.904Y217.576
G1 X116.276Y217.605
G1 X116.648Y217.632
G1 X117.336Y217.728
G1 X118.056Y217.88
G1 X118.8Y218.072
G1 X119.984Y218.448
G1 X120.392Y218.592
G1 X120.808Y218.752
G1 X121.648Y219.104
G1 X122.512Y219.504
G1 X123.4Y219.944
G1 X124.65Y220.612
G1 X125.875Y221.323
G1 X127.076Y222.076
G1 X128.248Y222.872
G1 X130.092Y224.176
G1 X131.92Y225.504
G1 X132.904Y226.176
G1 X133.904Y226.832
G1 X134.048Y226.904
G1 X134.088Y226.92
G1 X134.128
G1 Y226.888
G1 X134.104Y226.816
G1 X134.064Y226.712
G1 X133.912Y226.416
G1 X133.808Y226.232
G1 X133.392Y225.512
G1 X132.438Y223.977
G1 X131.448Y222.464
G1 X130.96Y221.688
G1 X130.5Y220.901
G1 X130.056Y220.104
G1 X129.672Y219.36
G1 X129.312Y218.624
G1 X128.984Y217.896
G1 X128.68Y217.184
G1 X128.416Y216.48
G1 X128.176Y215.784
G1 X127.968Y215.088
G1 X127.802Y214.409
G1 X127.648Y213.728
G1 X127.52Y213.048
G1 X127.416Y212.368
G1 X127.36Y211.728
G1 X127.32Y211.12
G1 X127.304Y210.512
G1 Y209.952
G1 X127.336Y209.432
G1 X127.402Y208.964
G1 X127.472Y208.496
G1 X127.576Y208.072
G1 X127.712Y207.68
G1 X127.864Y207.32
G1 X128.048Y206.992
G1 X128.256Y206.688
G1 X128.488Y206.424
G1 X128.744Y206.176
G1 X129.032Y205.968
G1 X129.336Y205.776
G1 X129.68Y205.616
G1 X129.976Y205.512
G1 X130.28Y205.424
G1 X130.592Y205.36
G1 X130.912Y205.32
G1 X131.248Y205.304
G1 X131.592
G1 X131.944Y205.336
G1 X132.304Y205.384
G1 X132.68Y205.464
G1 X133.056Y205.552
G1 X133.84Y205.808
G1 X134.248Y205.968
G1 X134.664Y206.152
G1 X135.088Y206.36
G1 X135.512Y206.584
G1 X135.952Y206.832
G1 X136.856Y207.392
G1 X137.312Y207.704
G1 X137.784Y208.04
G1 X138.256Y208.392
G1 X138.744Y208.768
G1 X139.232Y209.168
G1 X139.728Y209.584
G1 X140.232Y210.024
G1 X140.752Y210.496
G1 X141.264Y210.976
G1 X141.784Y211.472
G1 X142.312Y211.992
G1 X142.848Y212.536
G1 X143.384Y213.104
G1 X144.337Y214.095
G1 X145.312Y215.064
G1 X146.168Y215.888
G1 X146.672Y216.344
G1 X147.025Y216.619
G1 X147.384Y216.888
G1 X147.472Y216.904
G1 X147.497Y216.824
G1 X147.52Y216.744
G1 Y216.664
G1 Y216.428
G1 X147.496Y216.192
G1 X147.448Y215.888
G1 X147.384Y215.552
G1 X147.304Y215.2
G1 X147.056Y214.216
G1 X146.912Y213.552
G1 X146.784Y212.824
G1 X146.68Y212.064
G1 X146.588Y211.256
G1 X146.504Y210.448
G1 X146.44Y209.616
G1 X146.392Y208.792
G1 X146.352Y207.6
G1 Y206.4
G1 X146.376Y205.696
G1 X146.416Y204.992
G1 X146.448Y204.68
G1 X146.481Y204.388
G1 X146.52Y204.096
G1 X146.664Y203.376
G1 X146.808Y202.936
G1 X146.984Y202.464
G1 X147.2Y201.984
G1 X147.44Y201.504
G1 X147.704Y201.04
G1 X147.976Y200.6
G1 X148.112Y200.4
G1 X148.256Y200.208
G1 X148.392Y200.032
G1 X148.528Y199.872
G1 X148.752Y199.64
G1 X148.976Y199.432
G1 X149.224Y199.24
G1 X149.472Y199.064
G1 X149.728Y198.912
G1 X149.992Y198.776
G1 X150.264Y198.656
G1 X150.544Y198.56
G1 X150.832Y198.48
G1 X151.424Y198.384
G1 X151.728Y198.36
G1 X152.04
G1 X152.352Y198.376
G1 X152.664Y198.408
G1 X152.984Y198.456
G1 X153.471Y198.579
G1 X153.952Y198.72
G1 X154.446Y198.931
G1 X154.936Y199.152
G1 X155.264Y199.328
G1 X155.584Y199.52
G1 X155.909Y199.739
G1 X156.232Y199.96
G1 X156.872Y200.472
G1 X157.184Y200.752
G1 X157.496Y201.048
G1 X157.8Y201.368
G1 X158.048Y201.64
G1 X158.288Y201.92
G1 X158.479Y202.16
G1 X158.864Y202.68
G1 X159.256Y203.264
G1 X159.656Y203.904
G1 X160.048Y204.584
G1 X160.44Y205.304
G1 X160.824Y206.064
G1 X161.2Y206.856
G1 X161.568Y207.664
G1 X161.917Y208.498
G1 X162.256Y209.336
G1 X162.565Y210.178
G1 X162.864Y211.024
G1 X163.312Y212.504
G1 X163.52Y213.248
G1 X163.776Y214.264
G1 X164.04Y215.28
G1 X164.248Y215.952
G1 X164.344Y216.256
G1 X164.44Y216.52
G1 X164.68Y217.096
G1 X164.76Y217.24
G1 X164.904Y217.4
G1 X165.024Y217.432
G1 X165.08Y217.384
G1 X165.136Y217.328
G1 X165.232Y217.088
G1 X165.312Y216.72
G1 X165.344Y216.488
G1 X165.376Y216.216
G1 X165.4Y215.92
G1 X165.424Y215.584
G1 X165.472Y214.384
G1 X165.496Y212.88
G1 Y212.152
G1 X165.52Y211.424
G1 X165.56Y210.72
G1 X165.614Y210.032
G1 X165.664Y209.344
G1 X165.824Y208.024
G1 X165.955Y207.248
G1 X166.088Y206.472
G1 X166.224Y205.816
G1 X166.384Y205.168
G1 X166.564Y204.527
G1 X166.752Y203.888
G1 X167.028Y203.135
G1 X167.312Y202.384
G1 X167.76Y201.44
G1 X167.992Y201
G1 X168.232Y200.592
G1 X168.491Y200.203
G1 X168.752Y199.816
G1 X169.024Y199.464
G1 X169.304Y199.128
G1 X169.6Y198.816
G1 X169.904Y198.536
G1 X170.216Y198.256
G1 X170.536Y198.008
G1 X170.864Y197.784
G1 X171.552Y197.4
G1 X172.112Y197.144
G1 X172.344Y197.048
G1 X172.568Y196.96
G1 X173.144Y196.832
G1 X173.432Y196.848
G1 X173.72Y196.88
G1 X174.16Y197.008
G1 X174.768Y197.256
G1 X175.376Y197.512
G1 X175.72Y197.672
G1 X176.056Y197.848
G1 X176.375Y198.043
G1 X176.688Y198.248
G1 X176.992Y198.472
G1 X177.28Y198.712
G1 X177.552Y198.968
G1 X177.816Y199.24
G1 X178.072Y199.528
G1 X178.552Y200.152
G1 X178.776Y200.496
G1 X179.192Y201.232
G1 X179.384Y201.624
G1 X179.736Y202.464
G1 X179.904Y202.92
G1 X180.056Y203.392
G1 X180.2Y203.88
G1 X180.336Y204.392
G1 X180.456Y204.928
G1 X180.576Y205.48
G1 X180.68Y206.056
G1 X180.776Y206.648
G1 X180.864Y207.272
G1 X181.024Y208.576
G1 X181.088Y209.264
G1 X181.136Y209.968
G1 X181.184Y210.704
G1 X181.224Y211.464
G1 X181.256Y212.12
G1 X181.296Y212.736
G1 X181.336Y213.32
G1 X181.416Y214.352
G1 X181.504Y215.208
G1 X181.552Y215.6
G1 X181.656Y216.216
G1 X181.712Y216.456
G1 X181.768Y216.656
G1 X181.832Y216.816
G1 X181.888Y216.928
G1 X181.952Y216.992
G1 X182.008Y217.008
G1 X182.152Y216.928
G1 X182.248Y216.824
G1 X182.36Y216.688
G1 X182.488Y216.528
G1 X182.624Y216.328
G1 X182.768Y216.104
G1 X183.096Y215.568
G1 X183.557Y214.735
G1 X184.008Y213.896
G1 X184.432Y213.048
G1 X184.848Y212.192
G1 X185.352Y211.303
G1 X185.888Y210.432
G1 X186.465Y209.588
G1 X187.056Y208.752
G1 X187.672Y207.944
G1 X188.312Y207.184
G1 X188.96Y206.464
G1 X189.288Y206.12
G1 X189.616Y205.792
G1 X189.944Y205.472
G1 X190.271Y205.176
G1 X190.6Y204.888
G1 X190.936Y204.608
G1 X191.264Y204.344
G1 X192.224Y203.672
G1 X192.536Y203.48
G1 X192.84Y203.312
G1 X193.144Y203.16
G1 X193.44Y203.032
G1 X193.728Y202.928
G1 X194.008Y202.84
G1 X194.808Y202.664
G1 X195.568Y202.584
G1 X195.92
G1 X196.271Y202.6
G1 X196.608Y202.64
G1 X196.928Y202.704
G1 X197.24Y202.784
G1 X197.536Y202.896
G1 X197.824Y203.032
G1 X198.096Y203.184
G1 X198.296Y203.32
G1 X198.479Y203.464
G1 X198.664Y203.616
G1 X198.84Y203.784
G1 X199.271Y204.296
G1 X199.464Y204.584
G1 X199.648Y204.896
G1 X199.816Y205.232
G1 X199.976Y205.584
G1 X200.12Y205.96
G1 X200.248Y206.36
G1 X200.36Y206.776
G1 X200.464Y207.216
G1 X200.552Y207.68
G1 X200.632Y208.16
G1 X200.696Y208.672
G1 X200.744Y209.192
G1 X200.776Y209.744
G1 X200.8Y210.312
G1 Y211.192
G1 X200.776Y211.84
G1 X200.728Y212.544
G1 X200.696Y212.92
G1 X200.616Y213.704
G1 X200.464Y215.008
G1 X200.284Y216.249
G1 X200.088Y217.488
G1 X199.775Y219.197
G1 X199.419Y220.898
G1 X199.022Y222.59
G1 X198.584Y224.272
G1 Y224.368
G1 X198.6Y224.4
G1 X198.64Y224.416
G1 X198.688Y224.432
G1 X198.772Y224.405
G1 X198.856Y224.376
G1 X198.928Y224.336
G1 X199.008Y224.28
G1 X199.2Y224.152
G1 X199.304Y224.064
G1 X199.416Y223.976
G1 X199.74Y223.705
G1 X200.056Y223.424
G1 X201.817Y221.701
G1 X203.568Y219.968
G1 X204.208Y219.4
G1 X204.84Y218.824
G1 X205.664Y218.136
G1 X206.472Y217.496
G1 X207.271Y216.92
G1 X207.664Y216.648
G1 X208.44Y216.16
G1 X209.192Y215.736
G1 X209.96Y215.336
G1 X210.511Y215.098
G1 X211.064Y214.864
G1 X211.432Y214.736
G1 X211.792Y214.624
G1 X212.152Y214.52
G1 X212.504Y214.432
G1 X212.856Y214.36
G1 X213.208Y214.296
G1 X213.896Y214.216
G1 X214.44Y214.204
G1 X214.984
G1 X215.368Y214.232
G1 X216.104Y214.344
G1 X216.776Y214.536
G1 X217.096Y214.664
G1 X217.392Y214.8
G1 X217.68Y214.96
G1 X217.952Y215.128
G1 X218.208Y215.32
G1 X218.672Y215.752
G1 X218.88Y215.984
G1 X219.072Y216.24
G1 X219.24Y216.512
G1 X219.4Y216.784
G1 X219.536Y217.08
G1 X219.664Y217.392
G1 X219.768Y217.712
G1 X219.856Y218.048
G1 X219.935Y218.583
G1 X220.008Y219.12
G1 X220.024Y219.496
G1 Y219.888
G1 X220Y220.296
G1 X219.96Y220.704
G1 X219.896Y221.128
G1 X219.816Y221.56
G1 X219.592Y222.448
G1 X219.208Y223.504
G1 X218.936Y224.112
G1 X218.784Y224.432
G1 X218.616Y224.768
G1 X218.44Y225.112
G1 X218.256Y225.464
G1 X217.841Y226.205
G1 X217.424Y226.944
G1 X216.702Y228.126
G1 X215.96Y229.296
G1 X215.191Y230.436
G1 X214.39Y231.554
G1 X213.558Y232.648
G1 X212.696Y233.72
G1 X211.24Y235.44
G1 X214.216Y233.864
G1 X215.344Y233.304
G1 X215.92Y233.04
G1 X216.512Y232.784
G1 X217.112Y232.536
G1 X217.712Y232.304
G1 X218.328Y232.088
G1 X219.248Y231.784
G1 X220.168Y231.504
G1 X220.792Y231.328
G1 X222.024Y231.024
G1 X222.936Y230.84
G1 X223.696Y230.704
G1 X224.659Y230.562
G1 X225.624Y230.44
G1 X226.744Y230.36
G1 X227.28Y230.344
G1 X227.824
G1 X228.368
G1 X228.88Y230.376
G1 X229.368Y230.416
G1 X229.832Y230.472
G1 X230.28Y230.552
G1 X230.72Y230.64
G1 X231.52Y230.864
G1 X231.88Y231
G1 X232.271Y231.192
G1 X232.64Y231.424
G1 X232.968Y231.688
G1 X233.264Y231.984
G1 X233.528Y232.304
G1 X233.752Y232.656
G1 X233.944Y233.032
G1 X234.096Y233.432
G1 X234.216Y233.848
G1 X234.296Y234.28
G1 X234.326Y234.731
G1 Y235.184
G1 X234.28Y235.648
G1 X234.192Y236.112
G1 X234.064Y236.584
G1 X233.79Y237.305
G1 X233.512Y238.024
G1 X233.432Y238.352
G1 X233.416Y238.48
G1 Y238.592
G1 X233.456Y238.696
G1 X233.504Y238.784
G1 X233.664Y238.944
G1 X233.776Y239.016
G1 X234.656Y239.472
G1 X235.16Y239.792
G1 X235.536Y240.048
G1 X236.32Y240.64
G1 X237.44Y241.584
G1 X238.072Y242.072
G1 X238.208Y242.16
G1 X238.664Y242.416
G1 X238.752Y242.448
G1 X238.832Y242.472
G1 X238.904Y242.488
G1 X238.96
G1 X239.016
G1 X239.056Y242.456
G1 X239.088Y242.424
G1 X239.104Y242.384
G1 Y242.328
G1 X239.08Y242.128
G1 X238.984Y241.88
G1 X238.872Y241.64
G1 X238.592Y241.184
G1 X238.072Y240.406
G1 X237.56Y239.624
G1 X237.264Y239.088
G1 X236.984Y238.544
G1 X236.72Y237.992
G1 X236.408Y237.256
G1 X236.144Y236.52
G1 X235.912Y235.792
G1 X235.728Y235.072
G1 X235.656Y234.72
G1 X235.568Y234.208
G1 X235.496Y233.688
G1 X235.464Y233.352
G1 X235.448Y233.024
G1 Y232.4
G1 X235.504Y231.824
G1 X235.592Y231.256
G1 X235.664Y231
G1 X235.744Y230.752
G1 X235.84Y230.52
G1 X236.064Y230.112
G1 X236.224Y229.96
G1 X236.392Y229.808
G1 X236.6Y229.688
G1 X236.832Y229.584
G1 X237.08Y229.504
G1 X237.352Y229.44
G1 X237.648Y229.4
G1 X237.96Y229.384
G1 X238.28
G1 X238.624Y229.408
G1 X238.976Y229.456
G1 X239.336Y229.528
G1 X239.712Y229.616
G1 X240.088Y229.728
G1 X240.472Y229.864
G1 X240.616Y229.928
G1 X240.792Y230.032
G1 X241Y230.16
G1 X241.224Y230.312
G1 X241.479Y230.496
G1 X242.04Y230.936
G1 X242.52Y231.328
G1 X242.992Y231.728
G1 X243.328Y232.032
G1 X243.672Y232.336
G1 X244.368Y232.992
G1 X245.04Y233.632
G1 X245.696Y234.288
G1 X246.328Y234.904
G1 X246.704Y235.256
G1 X247.085Y235.598
G1 X247.472Y235.936
G1 X247.872Y236.256
G1 X248.056Y236.376
G1 X248.112Y236.4
G1 X248.136Y236.384
G1 Y236.336
G1 X248.064Y236.16
G1 X247.976Y235.856
G1 X247.896Y235.552
G1 X247.792Y235.08
G1 X247.712Y234.576
G1 X247.64Y234.032
G1 X247.576Y233.48
G1 X247.528Y232.68
G1 X247.496Y231.88
G1 X247.479Y231.144
G1 X247.496Y230.576
G1 X247.52Y230.032
G1 X247.568Y229.512
G1 X247.624Y229.032
G1 X247.664Y228.8
G1 X247.792Y228.2
G1 X248.04Y227.392
G1 X248.216Y226.944
G1 X248.4Y226.504
G1 X248.688Y225.96
G1 X248.794Y225.811
G1 X248.904Y225.664
G1 X249.128Y225.408
G1 X249.36Y225.2
G1 X249.624Y225.04
G1 X249.896Y224.92
G1 X250.192Y224.84
G1 X250.512Y224.808
G1 X250.848
G1 X251.216Y224.848
G1 X251.616Y224.928
G1 X252.032Y225.04
G1 X252.232Y225.104
G1 X252.44Y225.184
G1 X252.656Y225.28
G1 X252.864Y225.376
G1 X253.736Y225.88
G1 X254.144Y226.184
G1 X254.528Y226.486
G1 X254.896Y226.808
G1 X255.259Y227.234
G1 X255.608Y227.672
G1 X255.752Y227.888
G1 X256.224Y228.616
G1 X256.72Y229.448
G1 X257.048Y230.04
G1 X257.448Y230.792
G1 X257.832Y231.544
G1 X258.28Y232.456
G1 X258.557Y233.09
G1 X258.824Y233.728
G1 X259.088Y234.44
G1 X259.192Y234.8
G1 X259.248Y235.144
G1 X259.271Y235.128
G1 X259.296Y235.08
G1 X259.328Y235
G1 X259.448Y234.576
G1 X259.544Y234.152
G1 X259.777Y232.972
G1 X260.008Y231.792
G1 X260.128Y231.232
G1 X260.256Y230.696
G1 X260.392Y230.168
G1 X260.536Y229.672
G1 X260.776Y228.984
G1 X261.024Y228.296
G1 X261.2Y227.872
G1 X261.376Y227.472
G1 X261.568Y227.104
G1 X261.768Y226.736
G1 X261.968Y226.408
G1 X262.176Y226.096
G1 X262.392Y225.808
G1 X262.608Y225.544
G1 X262.832Y225.296
G1 X263.064Y225.08
G1 X263.296Y224.888
G1 X263.536Y224.712
G1 X263.776Y224.568
G1 X264.024Y224.448
G1 X264.271Y224.352
G1 X264.528Y224.28
G1 X264.784Y224.232
G1 X265.048Y224.208
G1 X265.312
G1 X265.576Y224.248
G1 X265.84Y224.312
G1 X266.112Y224.392
G1 X266.384Y224.504
G1 X266.656Y224.648
G1 X266.984Y224.856
G1 X267.296Y225.104
G1 X267.592Y225.4
G1 X267.88Y225.728
G1 X268.16Y226.096
G1 X268.424Y226.512
G1 X268.672Y226.96
G1 X268.904Y227.448
G1 X269.128Y227.976
G1 X269.336Y228.536
G1 X269.536Y229.144
G1 X269.712Y229.784
G1 X269.88Y230.456
G1 X270.032Y231.176
G1 X270.168Y231.92
G1 X270.288Y232.704
G1 X270.824Y236.456
G1 X271.373Y235.154
G1 X271.912Y233.848
G1 X272.096Y233.464
G1 X272.296Y233.088
G1 X272.504Y232.712
G1 X272.736Y232.352
G1 X272.968Y232
G1 X273.216Y231.656
G1 X273.472Y231.32
G1 X274.008Y230.704
G1 X274.568Y230.096
G1 X274.856Y229.824
G1 X275.152Y229.56
G1 X275.448Y229.32
G1 X276.048Y228.88
G1 X276.656Y228.512
G1 X276.954Y228.348
G1 X277.256Y228.192
G1 X277.693Y228.028
G1 X278.136Y227.88
G1 X278.424Y227.816
G1 X278.696Y227.768
G1 X278.968Y227.752
G1 X279.232
G1 X279.479Y227.784
G1 X279.728Y227.832
G1 X279.96Y227.92
G1 X280.184Y228.016
G1 X280.384Y228.144
G1 X280.576Y228.272
G1 X280.76Y228.432
G1 X280.928Y228.608
G1 X281.096Y228.8
G1 X281.248Y229.016
G1 X281.4Y229.24
G1 X281.536Y229.48
G1 X281.663Y229.743
G1 X281.784Y230.008
G1 X281.992Y230.592
G1 X282.08Y230.904
G1 X282.176Y231.328
G1 X282.256Y231.752
G1 X282.333Y232.363
G1 X282.392Y232.976
G1 X282.406Y233.548
G1 Y234.12
G1 X282.356Y234.925
G1 X282.28Y235.728
G1 X282.144Y236.544
G1 X281.968Y237.376
G1 X281.344Y239.536
G1 X281.184Y240.12
G1 X281.024Y240.712
G1 X281.072
G1 X281.28Y240.568
G1 X281.632Y240.272
G1 X281.784Y240.152
G1 X282.112Y239.864
G1 X282.861Y239.193
G1 X283.608Y238.52
G1 X284.096Y238.096
G1 X284.568Y237.712
G1 X285.032Y237.36
G1 X285.479Y237.04
G1 X286.36Y236.496
G1 X286.792Y236.272
G1 X287.224Y236.072
G1 X287.656Y235.904
G1 X288.088Y235.76
G1 X288.528Y235.64
G1 X288.976Y235.544
G1 X289.424Y235.472
G1 X289.896Y235.424
G1 X290.368Y235.392
G1 X290.68
G1 X291.224
G1 X291.464
G1 X291.688Y235.424
G1 X291.896Y235.456
G1 X292.08Y235.496
G1 X292.256Y235.544
G1 X292.424Y235.608
G1 X292.572Y235.691
G1 X292.72Y235.776
G1 X292.864Y235.88
G1 X293Y236
G1 X293.208Y236.216
G1 X293.408Y236.432
G1 X293.552Y236.632
G1 X293.688Y236.832
G1 X293.808Y237.048
G1 X293.92Y237.264
G1 X294.016Y237.488
G1 X294.096Y237.712
G1 X294.16Y237.952
G1 X294.208Y238.2
G1 X294.248Y238.448
G1 X294.271Y238.704
G1 Y238.968
G1 Y239.24
G1 X294.256Y239.512
G1 X294.176Y240.088
G1 X294.12Y240.384
G1 X294.04Y240.688
G1 X293.952Y241
G1 X293.848Y241.32
G1 X293.736Y241.64
G1 X293.436Y242.327
G1 X293.12Y243.008
G1 X292.936Y243.368
G1 X292.616Y243.928
G1 X292.288Y244.48
G1 X291.902Y245.07
G1 X291.512Y245.656
G1 X290.296Y247.384
G1 X290.04Y247.768
G1 X289.817Y248.122
G1 X289.6Y248.48
G1 X289.568Y248.568
G1 X289.584
G1 X289.624
G1 X289.696
G1 X289.8Y248.528
G1 X290.072Y248.424
G1 X290.479Y248.248
G1 X290.88Y248.072
G1 X291.384Y247.84
G1 X292.304Y247.392
G1 X293.224Y246.952
G1 X293.936Y246.656
G1 X294.656Y246.392
G1 X295.384Y246.16
G1 X296.112Y245.968
G1 X296.832Y245.8
G1 X297.544Y245.68
G1 X298.24Y245.584
G1 X298.824Y245.544
G1 X299.4Y245.512
G1 X299.88
G1 X300.479Y245.544
G1 X300.76Y245.576
G1 X301.304Y245.672
G1 X301.792Y245.8
G1 X302.024Y245.88
G1 X302.232Y245.976
G1 X302.432Y246.072
G1 X302.616Y246.184
G1 X302.88Y246.376
G1 X303.112Y246.584
G1 X303.312Y246.816
G1 X303.479Y247.064
G1 X303.616Y247.32
G1 X303.72Y247.6
G1 X303.8Y247.888
G1 X303.848Y248.192
G1 X303.864Y248.504
G1 Y248.832
G1 X303.816Y249.168
G1 X303.744Y249.52
G1 X303.664Y249.864
G1 X303.534Y250.229
G1 X303.4Y250.592
G1 X303.224Y250.968
G1 X303.032Y251.344
G1 X302.808Y251.72
G1 X302.568Y252.104
G1 X302.008Y252.872
G1 X301.688Y253.256
G1 X301.36Y253.64
G1 X300.784Y254.216
G1 X300.192Y254.776
G1 X299.776Y255.144
G1 X299.352Y255.496
G1 X298.416Y256.2
G1 X297.912Y256.536
G1 X297.256Y256.952
G1 X297.048Y257.096
G1 X296.944Y257.2
G1 Y257.24
G1 X296.96Y257.272
G1 X297.008Y257.296
G1 X297.088Y257.312
G1 X297.344
G1 X297.528
G1 X297.744Y257.288
G1 X297.992Y257.264
G1 X298.28Y257.232
G1 X298.608Y257.2
G1 X299.256Y257.152
G1 X299.912Y257.12
G1 X300.628
G1 X301.344Y257.144
G1 X302.464Y257.232
G1 X303.393Y257.35
G1 X304.32Y257.48
G1 X305.048Y257.616
G1 X305.752Y257.768
G1 X306.416Y257.936
G1 X307.048Y258.12
G1 X307.344Y258.216
G1 X307.632Y258.312
G1 X307.904Y258.416
G1 X308.4Y258.632
G1 X309.024Y258.976
G1 X309.792Y259.44
G1 X310.224Y259.672
G1 X310.659Y259.898
G1 X311.096Y260.12
G1 X311.72Y260.4
G1 X312.334Y260.64
G1 X312.96Y260.848
G1 X313.832Y261.152
G1 X311.728Y258.808
G1 X311.464Y258.504
G1 X311.208Y258.2
G1 X310.77Y257.605
G1 X310.336Y257.008
G1 X310.09Y256.577
G1 X309.848Y256.144
G1 X309.668Y255.742
G1 X309.496Y255.336
G1 X309.386Y254.957
G1 X309.28Y254.576
G1 X309.24Y254.336
G1 X309.216Y254.104
G1 X309.2Y253.88
G1 Y253.672
G1 X309.271Y253.272
G1 X309.32Y253.088
G1 X309.392Y252.912
G1 X309.483Y252.751
G1 X309.576Y252.592
G1 X309.696Y252.448
G1 X309.832Y252.32
G1 X310.144Y252.096
G1 X310.328Y252.008
G1 X310.688Y251.896
G1 X311.048Y251.8
G1 X311.672Y251.736
G1 X311.984
G1 X312.312Y251.768
G1 X312.656Y251.832
G1 X312.992Y251.904
G1 X313.352Y252.008
G1 X313.728Y252.136
G1 X314.12Y252.296
G1 X314.528Y252.48
G1 X314.96Y252.696
G1 X315.912Y253.208
G1 X316.915Y253.831
G1 X317.912Y254.464
G1 X318.336Y254.736
G1 X318.72Y254.96
G1 X319.152Y255.216
G1 X319.344Y255.32
G1 X319.392Y255.344
G1 X319.464Y255.36
G1 X319.4Y255.2
G1 X319.04Y254.456
G1 X318.451Y253.257
G1 X317.848Y252.064
G1 X317.504Y251.312
G1 X317.224Y250.6
G1 X317.104Y250.256
G1 X316.912Y249.6
G1 X316.832Y249.288
G1 X316.776Y248.984
G1 X316.728Y248.696
G1 X316.698Y248.42
G1 X316.672Y248.144
G1 Y247.888
G1 Y247.648
G1 X316.704Y247.408
G1 X316.744Y247.192
G1 X316.792Y246.984
G1 X316.856Y246.784
G1 X316.936Y246.608
G1 X317.144Y246.28
G1 X317.4Y246.008
G1 X317.552Y245.904
G1 X317.712Y245.8
G1 X317.888Y245.712
G1 X318.08Y245.64
G1 X318.288Y245.584
G1 X318.504Y245.544
G1 X318.736Y245.528
G1 X318.984
G1 X319.176
G1 X319.376Y245.552
G1 X319.576Y245.592
G1 X319.784Y245.656
G1 X320Y245.744
G1 X320.224Y245.848
G1 X320.456Y245.968
G1 X320.704Y246.12
G1 X320.968Y246.288
G1 X321.248Y246.488
G1 X321.536Y246.704
G1 X322.176Y247.232
G1 X322.52Y247.528
G1 X322.904Y247.88
G1 X323.288Y248.224
G1 X326.208Y250.928
G1 X326.104Y250.024
G1 X325.992Y249.12
G1 X325.897Y248.216
G1 X325.808Y247.312
G1 Y246.884
G1 Y246.456
G1 X325.84Y245.944
G1 X325.92Y245.472
G1 X326.048Y245.016
G1 X326.24Y244.552
G1 X326.421Y244.174
G1 X326.608Y243.8
G1 X326.778Y243.546
G1 X326.952Y243.296
G1 X327.136Y243.096
G1 X327.328Y242.896
G1 X327.52Y242.736
G1 X327.72Y242.6
G1 X327.928Y242.496
G1 X328.136Y242.408
G1 X328.352Y242.352
G1 X328.576Y242.312
G1 X328.8
G1 X329.024
G1 X329.256Y242.36
G1 X329.488Y242.424
G1 X329.728Y242.52
G1 X329.968Y242.632
G1 X330.2Y242.768
G1 X330.448Y242.936
G1 X330.688Y243.112
G1 X330.928Y243.32
G1 X331.168Y243.552
G1 X331.408Y243.8
G1 X331.648Y244.08
G1 X332.128Y244.704
G1 X332.36Y245.048
G1 X332.592Y245.408
G1 X332.824Y245.8
G1 X333.048Y246.208
G1 X333.271Y246.648
G1 X333.488Y247.096
G1 X334.56Y249.384
G1 X334.888Y247.464
G1 X334.976Y247.048
G1 X335.096Y246.592
G1 X335.258Y246.12
G1 X335.424Y245.648
G1 X335.636Y245.178
G1 X335.856Y244.712
G1 X336.002Y244.431
G1 X336.152Y244.152
G1 X336.352Y243.856
G1 X336.704Y243.384
G1 X336.848Y243.216
G1 X336.984Y243.072
G1 X337.128Y242.944
G1 X337.271Y242.832
G1 X337.576Y242.656
G1 X337.736Y242.592
G1 X337.904Y242.544
G1 X338.08Y242.496
G1 X338.271Y242.464
G1 X338.688Y242.432
G1 X339.168
G1 X339.592Y242.464
G1 X339.784Y242.496
G1 X339.96Y242.544
G1 X340.128Y242.6
G1 X340.288Y242.664
G1 X340.448Y242.744
G1 X340.592Y242.848
G1 X340.736Y242.96
G1 X340.958Y243.187
G1 X341.176Y243.416
G1 X341.32Y243.6
G1 X341.479Y243.808
G1 X341.64Y244.048
G1 X341.856Y244.408
G1 X342.064Y244.808
G1 X342.256Y245.24
G1 X342.416Y245.688
G1 X342.544Y246.128
G1 X342.664Y246.576
G1 X342.712Y246.952
G1 X342.752Y247.336
G1 X342.78Y247.716
G1 X342.8Y248.096
G1 X342.888Y248.832
G1 X342.944Y249.176
G1 X343Y249.48
G1 X343.032Y249.616
G1 X343.136Y249.96
G1 X343.192Y250.08
G1 X343.296Y250.272
G1 X343.352Y250.328
G1 X343.408Y250.36
G1 X343.464
G1 X343.52Y250.344
G1 X343.584Y250.296
G1 X343.656Y250.224
G1 X343.736Y250.12
G1 X343.816Y249.992
G1 X343.912Y249.824
G1 X344.616Y248.368
G1 X344.872Y247.896
G1 X345.432Y247.04
G1 X345.736Y246.656
G1 X346.048Y246.296
G1 X346.376Y245.976
G1 X346.712Y245.68
G1 X347.056Y245.424
G1 X347.408Y245.2
G1 X347.76Y245.008
G1 X348.12Y244.864
G1 X348.472Y244.752
G1 X348.832Y244.68
G1 X349.192Y244.648
G1 X349.544Y244.664
G1 X349.92Y244.712
G1 X350.264Y244.8
G1 X350.568Y244.928
G1 X350.848Y245.08
G1 X351.104Y245.28
G1 X351.32Y245.512
G1 X351.424Y245.648
G1 X351.512Y245.792
G1 X351.6Y245.944
G1 X351.68Y246.104
G1 X351.752Y246.28
G1 X351.816Y246.472
G1 X351.928Y246.88
G1 X352.005Y247.359
G1 X352.072Y247.84
G1 X352.104Y248.392
G1 Y248.688
G1 Y249.32
G1 Y249.656
G1 X351.999Y251.609
G1 X351.872Y253.56
G1 X352.922Y252.738
G1 X353.968Y251.912
G1 X354.307Y251.667
G1 X354.648Y251.424
G1 X355Y251.192
G1 X355.344Y250.984
G1 X355.688Y250.792
G1 X356.024Y250.608
G1 X356.68Y250.296
G1 X357Y250.168
G1 X357.592Y249.96
G1 X357.88Y249.888
G1 X358.144Y249.832
G1 X358.383Y249.811
G1 X358.624Y249.792
G1 X358.84Y249.808
G1 X359.048Y249.856
G1 X359.248Y249.936
G1 X359.44Y250.04
G1 X359.624Y250.176
G1 X359.808Y250.336
G1 X359.968Y250.52
G1 X360.12Y250.728
G1 X360.264Y250.952
G1 X360.392Y251.192
G1 X360.496Y251.448
G1 X360.592Y251.72
G1 X360.664Y252.008
G1 X360.72Y252.304
G1 X360.752Y252.616
G1 Y252.928
G1 Y253.256
G1 X360.696Y253.616
G1 X360.624Y254
