; LightBurn 1.3.01
; GRBL device profile, user origin
; Bounds: X0 Y0 to X353.51 Y152.5
G00 G17 G40 G21 G54
G90
G0 X0 Y0
G91
M4
; Scan @ 1500 mm/min, 100% power
M8
G0 X163.328Y82.175
; Layer Grabado_fill_2
G0 X0.625
G1 X0.053F1500S1000
G0 X0.625
G0 X0.117Y0.15
G0 X-0.625
G1 X-0.292
G0 X-0.625
G0 X-0.112Y0.15
G0 X0.625
G1 X0.511
G0 X0.625
G0 X0.092Y0.15
G0 X-0.625
G1 X-0.716
G0 X-0.625
G0 X-0.095Y0.15
G0 X0.625
G1 X0.9
G0 X0.625
G0 X0.038Y0.15
G0 X-0.625
G1 X-0.92
G0 X-0.625
G0 X0.108Y0.15
G0 X0.625
G1 X0.676
G0 X0.625
G0 X-0.11Y0.15
G0 X-0.625
G1 X-0.459
G0 X-0.625
G0 X0.075Y0.15
G0 X0.625
G1 X0.295
G0 X0.625
G0 X-0.087Y0.15
G0 X-0.625
G1 X-0.133
G0 X-0.625
G0 X-0.425Y2.1
G0 X0.625
G1 X1.055
G0 X0.625
G0 X0.445Y0.15
G0 X-0.625
G1 X-1.973
G0 X-0.625
G0 X-0.29Y0.15
G0 X0.625
G1 X2.531
G0 X0.625
G0 X0.242Y0.15
G0 X-0.625
G1 X-3.033
G1 X-5.572F5000S0
G1 X-0.028F1500S1000
G0 X-0.625
G0 X-0.799Y0.15
G0 X0.625
G1 X1.714
G1 X4.5F5000S0
G1 X3.402F1500S1000
G1 X4.564F5000S0
G1 X1.604F1500S1000
G0 X0.625
G0 X0.508Y0.15
G0 X-0.625
G1 X-2.626
G1 X-3.871F5000S0
G1 X-3.765F1500S1000
G1 X-3.934F5000S0
G1 X-2.613F1500S1000
G0 X-0.625
G0 X-0.362Y0.15
G0 X0.625
G1 X3.25
G1 X3.515F5000S0
G1 X4.041F1500S1000
G1 X3.477F5000S0
G1 X3.279F1500S1000
G0 X0.625
G0 X0.196Y0.15
G0 X-0.625
G1 X-3.671
G1 X-3.15F5000S0
G1 X-4.297F1500S1000
G1 X-3.171F5000S0
G1 X-3.659F1500S1000
G0 X-0.625
G0 X-0.025Y0.15
G0 X0.625
G1 X3.867
G1 X2.878F5000S0
G1 X4.52F1500S1000
G1 X2.88F5000S0
G1 X3.82F1500S1000
G0 X0.625
G0 X-0.095Y0.15
G0 X-0.625
G1 X-3.865
G1 X-2.648F5000S0
G1 X-4.706F1500S1000
G1 X-2.635F5000S0
G1 X-3.912F1500S1000
G0 X-0.625
G0 X0.189Y0.15
G0 X0.625
G1 X3.853
G1 X2.428F5000S0
G1 X4.874F1500S1000
G1 X2.43F5000S0
G1 X3.816F1500S1000
G0 X0.625
G0 X-0.367Y0.15
G0 X-0.625
G1 X-3.557
G1 X-2.245F5000S0
G1 X-5.018F1500S1000
G1 X-2.243F5000S0
G1 X-3.684F1500S1000
G0 X-0.625
G0 X-4.766Y0.15
G0 X0.625
G1 X0.955
G1 X4.072F5000S0
G1 X3.515F1500S1000
G1 X2.096F5000S0
G1 X5.137F1500S1000
G1 X2.079F5000S0
G1 X3.472F1500S1000
G1 X4.006F5000S0
G1 X0.926F1500S1000
G0 X0.625
G0 X0.648Y0.15
G0 X-0.625
G1 X-2.126
G1 X-3.602F5000S0
G1 X-3.407F1500S1000
G1 X-1.949F5000S0
G1 X-5.224F1500S1000
G1 X-1.964F5000S0
G1 X-3.415F1500S1000
G1 X-3.606F5000S0
G1 X-2.221F1500S1000
G0 X-0.625
G0 X-0.4Y0.15
G0 X0.625
G1 X2.998
G1 X3.383F5000S0
G1 X3.342F1500S1000
G1 X1.849F5000S0
G1 X5.298F1500S1000
G1 X1.831F5000S0
G1 X3.348F1500S1000
G1 X3.441F5000S0
G1 X2.823F1500S1000
G0 X0.625
G0 X0.269Y0.15
G0 X-0.625
G1 X-3.35
G1 X-3.289F5000S0
G1 X-3.301F1500S1000
G1 X-1.743F5000S0
G1 X-5.344F1500S1000
G1 X-1.77F5000S0
G1 X-3.288F1500S1000
G1 X-3.273F5000S0
G1 X-3.322F1500S1000
G0 X-0.625
G0 X0.017Y0.15
G0 X0.625
G1 X3.495
G1 X3.182F5000S0
G1 X3.25F1500S1000
G1 X1.702F5000S0
G1 X5.365F1500S1000
G1 X1.677F5000S0
G1 X3.247F1500S1000
G1 X3.212F5000S0
G1 X3.526F1500S1000
G0 X0.625
G0 X-0.594Y0.15
G0 X-0.625
G1 X-3.116
G1 X-3.114F5000S0
G1 X-3.193F1500S1000
G1 X-1.639F5000S0
G1 X-5.369F1500S1000
G1 X-1.659F5000S0
G1 X-3.21F1500S1000
G1 X-3.108F5000S0
G1 X-3.177F1500S1000
G0 X-0.625
G0 X0.475Y0.15
G0 X0.625
G1 X2.839
G1 X3.033F5000S0
G1 X3.181F1500S1000
G1 X1.623F5000S0
G1 X5.365F1500S1000
G1 X1.626F5000S0
G1 X3.14F1500S1000
G1 X3.044F5000S0
G1 X2.842F1500S1000
G0 X0.625
G0 X-0.313Y0.15
G0 X-0.625
G1 X-2.651
G1 X-2.98F5000S0
G1 X-3.092F1500S1000
G1 X-1.629F5000S0
G1 X-5.356F1500S1000
G1 X-1.586F5000S0
G1 X-3.157F1500S1000
G1 X-2.962F5000S0
G1 X-2.632F1500S1000
G0 X-0.625
G0 X0.216Y0.15
G0 X0.625
G1 X2.522
G1 X2.893F5000S0
G1 X3.131F1500S1000
G1 X1.59F5000S0
G1 X5.317F1500S1000
G1 X1.65F5000S0
G1 X3.049F1500S1000
G1 X2.921F5000S0
G1 X2.525F1500S1000
G0 X0.625
G0 X-0.189Y0.15
G0 X-0.625
G1 X-2.427
G1 X-2.867F5000S0
G1 X-3.013F1500S1000
G1 X-1.679F5000S0
G1 X-5.268F1500S1000
G1 X-1.604F5000S0
G1 X-3.103F1500S1000
G1 X-2.837F5000S0
G1 X-2.429F1500S1000
G0 X-0.625
G0 X0.147Y0.15
G0 X0.625
G1 X2.35
G1 X2.787F5000S0
G1 X3.089F1500S1000
G1 X1.635F5000S0
G1 X5.192F1500S1000
G1 X1.721F5000S0
G1 X2.987F1500S1000
G1 X2.821F5000S0
G1 X2.33F1500S1000
G0 X0.625
G0 X-0.12Y0.15
G0 X-0.625
G1 X-2.269
G1 X-2.779F5000S0
G1 X-2.967F1500S1000
G1 X-1.774F5000S0
G1 X-5.099F1500S1000
G1 X-1.699F5000S0
G1 X-3.054F1500S1000
G1 X-2.748F5000S0
G1 X-2.284F1500S1000
G0 X-0.625
G0 X0.111Y0.15
G0 X0.625
G1 X2.22
G1 X2.701F5000S0
G1 X3.033F1500S1000
G1 X1.774F5000S0
G1 X4.988F1500S1000
G1 X1.849F5000S0
G1 X2.938F1500S1000
G1 X2.741F5000S0
G1 X2.199F1500S1000
G1 X4.908F5000S0
G1 X0.93F1500S1000
G0 X0.625
G0 X0.517Y0.15
G0 X-0.625
G1 X-2.031
G1 X-4.406F5000S0
G1 X-2.151F1500S1000
G1 X-2.706F5000S0
G1 X-2.92F1500S1000
G1 X-1.948F5000S0
G1 X-4.84F1500S1000
G1 X-1.873F5000S0
G1 X-3.004F1500S1000
G1 X-2.664F5000S0
G1 X-2.163F1500S1000
G1 X-4.373F5000S0
G1 X-1.772F1500S1000
G0 X-0.625
G0 X-0.451Y0.15
G0 X0.625
G1 X2.58
G1 X4.099F5000S0
G1 X2.11F1500S1000
G1 X2.619F5000S0
G1 X2.971F1500S1000
G1 X1.996F5000S0
G1 X4.681F1500S1000
G1 X2.081F5000S0
G1 X2.875F1500S1000
G1 X2.676F5000S0
G1 X2.095F1500S1000
G1 X4.124F5000S0
G1 X2.707F1500S1000
G0 X0.625
G0 X0.233Y0.15
G0 X-0.625
G1 X-3.217
G1 X-3.91F5000S0
G1 X-2.051F1500S1000
G1 X-2.633F5000S0
G1 X-2.851F1500S1000
G1 X-2.212F5000S0
G1 X-4.503F1500S1000
G1 X-2.139F5000S0
G1 X-2.943F1500S1000
G1 X-2.583F5000S0
G1 X-2.058F1500S1000
G1 X-3.923F5000S0
G1 X-3.136F1500S1000
G0 X-0.625
G0 X1.389Y0.15
G0 X0.625
G1 X1.941
G1 X3.788F5000S0
G1 X2.005F1500S1000
G1 X2.545F5000S0
G1 X2.908F1500S1000
G1 X2.311F5000S0
G1 X4.287F1500S1000
G1 X2.398F5000S0
G1 X2.81F1500S1000
G1 X2.593F5000S0
G1 X2.005F1500S1000
G1 X3.759F5000S0
G1 X2.075F1500S1000
G0 X0.625
G0 X-0.506Y0.15
G0 X-0.625
G1 X-1.722
G1 X-3.658F5000S0
G1 X-1.956F1500S1000
G1 X-2.538F5000S0
G1 X-2.787F1500S1000
G1 X-2.597F5000S0
G1 X-4.046F1500S1000
G1 X-2.503F5000S0
G1 X-2.872F1500S1000
G1 X-2.509F5000S0
G1 X-1.957F1500S1000
G1 X-3.672F5000S0
G1 X-1.621F1500S1000
G0 X-0.625
G0 X0.279Y0.15
G0 X0.625
G1 X1.472
G1 X3.58F5000S0
G1 X1.906F1500S1000
G1 X2.472F5000S0
G1 X2.842F1500S1000
G1 X2.724F5000S0
G1 X3.782F1500S1000
G1 X2.806F5000S0
G1 X2.776F1500S1000
G1 X2.472F5000S0
G1 X1.92F1500S1000
G1 X3.562F5000S0
G1 X1.57F1500S1000
G0 X0.625
G0 X-0.158Y0.15
G0 X-0.625
G1 X-1.513
G1 X-3.484F5000S0
G1 X-1.889F1500S1000
G1 X-2.395F5000S0
G1 X-2.769F1500S1000
G1 X-3.068F5000S0
G1 X-3.441F1500S1000
G1 X-2.997F5000S0
G1 X-2.801F1500S1000
G1 X-2.425F5000S0
G1 X-1.871F1500S1000
G1 X-3.488F5000S0
G1 X-1.38F1500S1000
G0 X-0.625
G0 X0.17Y0.15
G0 X0.625
G1 X1.309
G1 X3.408F5000S0
G1 X1.837F1500S1000
G1 X2.371F5000S0
G1 X2.767F1500S1000
G1 X3.284F5000S0
G1 X3.081F1500S1000
G1 X3.349F5000S0
G1 X2.748F1500S1000
G1 X2.324F5000S0
G1 X1.859F1500S1000
G1 X3.426F5000S0
G1 X1.402F1500S1000
G0 X0.625
G0 X-0.199Y0.15
G0 X-0.625
G1 X-1.278
G1 X-3.343F5000S0
G1 X-1.837F1500S1000
G1 X-2.27F5000S0
G1 X-2.71F1500S1000
G1 X-3.692F5000S0
G1 X-2.642F1500S1000
G1 X-3.626F5000S0
G1 X-2.73F1500S1000
G1 X-2.306F5000S0
G1 X-1.821F1500S1000
G1 X-3.319F5000S0
G1 X-1.259F1500S1000
G0 X-0.625
G0 X0.115Y0.15
G0 X0.625
G1 X1.212
G1 X3.245F5000S0
G1 X1.797F1500S1000
G1 X2.242F5000S0
G1 X2.691F1500S1000
G1 X4.03F5000S0
G1 X2.114F1500S1000
G1 X4.09F5000S0
G1 X2.663F1500S1000
G1 X2.207F5000S0
G1 X1.814F1500S1000
G1 X3.275F5000S0
G1 X1.187F1500S1000
G0 X0.625
G0 X-0.111Y0.15
G0 X-0.625
G1 X-1.122
G1 X-3.208F5000S0
G1 X-1.79F1500S1000
G1 X-2.156F5000S0
G1 X-2.588F1500S1000
G1 X-4.624F5000S0
G1 X-1.398F1500S1000
G1 X-4.547F5000S0
G1 X-2.636F1500S1000
G1 X-2.162F5000S0
G1 X-1.795F1500S1000
G1 X-3.158F5000S0
G1 X-1.174F1500S1000
G0 X-0.625
G0 X0.08Y0.15
G0 X0.625
G1 X1.141
G1 X3.077F5000S0
G1 X1.773F1500S1000
G1 X2.095F5000S0
G1 X2.571F1500S1000
G1 X10.961F5000S0
G1 X2.48F1500S1000
G1 X2.116F5000S0
G1 X1.767F1500S1000
G1 X3.128F5000S0
G1 X1.081F1500S1000
G0 X0.625
G0 X-0.07Y0.15
G0 X-0.625
G1 X-1.042
G1 X-3.065F5000S0
G1 X-1.738F1500S1000
G1 X-2.085F5000S0
G1 X-2.322F1500S1000
G1 X-11.435F5000S0
G1 X-2.475F1500S1000
G1 X-2.034F5000S0
G1 X-1.752F1500S1000
G1 X-2.996F5000S0
G1 X-1.108F1500S1000
G0 X-0.625
G0 X0.054Y0.15
G0 X0.625
G1 X1.084
G1 X2.906F5000S0
G1 X1.74F1500S1000
G1 X2.075F5000S0
G1 X2.216F1500S1000
G1 X12.039F5000S0
G1 X2.056F1500S1000
G1 X2.121F5000S0
G1 X1.706F1500S1000
G1 X2.99F5000S0
G1 X1.009F1500S1000
G0 X0.625
G0 X-0.036Y0.15
G0 X-0.625
G1 X-0.996
G1 X-2.916F5000S0
G1 X-1.673F1500S1000
G1 X-2.3F5000S0
G1 X-1.462F1500S1000
G1 X-12.982F5000S0
G1 X-1.634F1500S1000
G1 X-2.315F5000S0
G1 X-1.697F1500S1000
G1 X-2.833F5000S0
G1 X-1.056F1500S1000
G0 X-0.625
G0 X0.033Y0.15
G0 X0.625
G1 X1.031
G1 X2.746F5000S0
G1 X1.674F1500S1000
G1 X20.912F5000S0
G1 X1.619F1500S1000
G1 X2.845F5000S0
G1 X0.977F1500S1000
G0 X0.625
G0 X-0.019Y0.15
G0 X-0.625
G1 X-0.961
G1 X-2.767F5000S0
G1 X-1.578F1500S1000
G1 X-21.154F5000S0
G1 X-1.628F1500S1000
G1 X-2.668F5000S0
G1 X-1.013F1500S1000
G0 X-0.625
G0 X0.014Y0.15
G0 X0.625
G1 X0.984
G1 X2.591F5000S0
G1 X1.589F1500S1000
G1 X21.439F5000S0
G1 X1.517F1500S1000
G1 X2.672F5000S0
G1 X0.959F1500S1000
G0 X0.625
G0 Y0.15
G0 X-0.622
G1 X-0.946
G1 X-2.584F5000S0
G1 X-1.46F1500S1000
G1 X-21.761F5000S0
G1 X-1.526F1500S1000
G1 X-2.515F5000S0
G1 X-0.972F1500S1000
G0 X-0.625
G0 X-0.009Y0.15
G0 X0.625
G1 X0.942
G1 X2.448F5000S0
G1 X1.458F1500S1000
G1 X22.133F5000S0
G1 X1.388F1500S1000
G1 X2.478F5000S0
G1 X0.938F1500S1000
G0 X0.625
G0 X0.013Y0.15
G0 X-0.625
G1 X-0.928
G1 X-2.367F5000S0
G1 X-1.297F1500S1000
G1 X-22.58F5000S0
G1 X-1.351F1500S1000
G1 X-2.372F5000S0
G1 X-0.93F1500S1000
G0 X-0.625
G0 X-0.031Y0.15
G0 X0.625
G1 X0.916
G1 X2.292F5000S0
G1 X1.218F1500S1000
G1 X23.09F5000S0
G1 X1.191F1500S1000
G1 X2.268F5000S0
G1 X0.907F1500S1000
G0 X0.625
G0 X0.036Y0.15
G0 X-0.625
G1 X-0.895
G1 X-2.211F5000S0
G1 X-1.006F1500S1000
G1 X-23.751F5000S0
G1 X-0.969F1500S1000
G1 X-2.226F5000S0
G1 X-0.891F1500S1000
G0 X-0.625
G0 X-0.042Y0.15
G0 X0.625
G1 X0.878
G1 X2.276F5000S0
G1 X0.487F1500S1000
G1 X24.609F5000S0
G1 X0.579F1500S1000
G1 X2.339F5000S0
G1 X0.858F1500S1000
G0 X0.625
G0 X0.062Y0.15
G0 X-0.625
G1 X-0.836
G1 X-30.44F5000S0
G1 X-0.865F1500S1000
G0 X-0.625
G0 X-0.054Y0.15
G0 X0.625
G1 X0.848
G1 X30.596F5000S0
G1 X0.817F1500S1000
G0 X0.625
G0 X0.078Y0.15
G0 X-0.625
G1 X-0.774
G1 X-30.808F5000S0
G1 X-0.821F1500S1000
G0 X-0.625
G0 X-0.078Y0.15
G0 X0.625
G1 X0.799
G1 X31.028F5000S0
G1 X0.766F1500S1000
G0 X0.625
G0 X0.112Y0.15
G0 X-0.625
G1 X-0.741
G1 X-31.295F5000S0
G1 X-0.768F1500S1000
G0 X-0.625
G0 X-0.115Y0.15
G0 X0.625
G1 X0.73
G1 X31.591F5000S0
G1 X0.749F1500S1000
G0 X0.625
G0 X0.197Y0.15
G0 X-0.625
G1 X-0.804
G1 X-31.919F5000S0
G1 X-0.68F1500S1000
G0 X-0.625
G0 X-0.155Y0.15
G0 X0.625
G1 X0.606
G1 X32.29F5000S0
G1 X0.835F1500S1000
G0 X0.625
G0 X0.05Y0.15
G0 X-0.625
G1 X-0.72
G1 X-32.701F5000S0
G1 X-0.499F1500S1000
G0 X-0.625
G0 X-0.12Y0.15
G0 X0.625
G1 X0.297
G1 X33.333F5000S0
G1 X0.394F1500S1000
G0 X0.625
G0 X-15.628Y0.15
G0 X-0.625
G1 X-3.501
G0 X-0.625
G0 X-1.95Y0.15
G0 X0.625
G1 X7.64
G0 X0.625
G0 X2.169Y0.15
G0 X-0.625
G1 X-11.698
G0 X-0.625
G0 X-2.415Y0.15
G0 X0.625
G1 X5.981
G1 X1.042F5000S0
G1 X2.084F1500S1000
G1 X0.82S0
G1 X6.279S1000
G0 X0.625
G0 X2.456Y0.15
G0 X-0.625
G1 X-6.443
G1 X-2.945F5000S0
G1 X-2.382F1500S1000
G1 X-3.089F5000S0
G1 X-6.065F1500S1000
G0 X-0.625
G0 X-2.235Y0.15
G0 X0.625
G1 X6.227
G1 X4.999F5000S0
G1 X2.735F1500S1000
G1 X5.103F5000S0
G1 X6.354F1500S1000
G0 X0.625
G0 X1.638Y0.15
G0 X-0.625
G1 X-5.683
G1 X-7.222F5000S0
G1 X-0.718F1500S1000
G1 X-0.176S0
G1 X-1.41S1000
G1 X-0.145S0
G1 X-0.639S1000
G1 X-6.909F5000S0
G1 X-4.48F1500S1000
G0 X-0.625
G0 X-0.13Y0.15
G0 X0.625
G1 X2.514
G1 X8.842F5000S0
G1 X0.637F1500S1000
G1 X0.28S0
G1 X1.478S1000
G1 X0.324S0
G1 X0.722S1000
G1 X9.269F5000S0
G1 X3.676F1500S1000
G0 X0.625
G0 X0.134Y0.15
G0 X-0.625
G1 X-1.48
G1 X-11.409F5000S0
G1 X-0.72F1500S1000
G1 X-0.478S0
G1 X-1.006S1000
G1 X-0.082S0
G1 X-0.458S1000
G1 X-0.416S0
G1 X-0.634S1000
G1 X-10.498F5000S0
G1 X-0.796F1500S1000
G0 X-0.625
G0 X-0.098Y0.15
G0 X0.625
G1 X0.808
G1 X10.421F5000S0
G1 X0.632F1500S1000
G1 X0.55S0
G1 X0.446S1000
G1 X0.133S0
G1 X0.472S1000
G1 X0.02S0
G1 X0.544S1000
G1 X0.631S0
G1 X0.72S1000
G1 X11.965F5000S0
G1 X0.851F1500S1000
G0 X0.625
G0 X0.118Y0.15
G0 X-0.625
G1 X-0.964
G1 X-11.779F5000S0
G1 X-0.72F1500S1000
G1 X-0.784S0
G1 X-0.495S1000
G1 X-0.142S0
G1 X-0.435S1000
G1 X-0.165S0
G1 X-0.446S1000
G1 X-0.685S0
G1 X-0.631S1000
G1 X-10.238F5000S0
G1 X-0.926F1500S1000
G0 X-0.625
G0 X-0.098Y0.15
G0 X0.625
G1 X0.531
G1 X0.047S0
G1 X0.476S1000
G1 X10.045F5000S0
G1 X0.629F1500S1000
G1 X0.819S0
G1 X0.447S1000
G1 X0.198S0
G1 X0.421S1000
G1 X0.187S0
G1 X0.5S1000
G1 X0.937S0
G1 X0.718S1000
G1 X11.564F5000S0
G1 X0.499F1500S1000
G1 X0.014S0
G1 X0.593S1000
G0 X0.625
G0 X0.118Y0.15
G0 X-0.625
G1 X-0.579
G1 X-0.177S0
G1 X-0.499S1000
G1 X-11.342F5000S0
G1 X-0.718F1500S1000
G1 X-1.089F5000S0
G1 X-0.499F1500S1000
G1 X-0.226S0
G1 X-0.419S1000
G1 X-0.232S0
G1 X-0.446S1000
G1 X-0.954S0
G1 X-0.627S1000
G1 X-9.85F5000S0
G1 X-0.45F1500S1000
G1 X-0.243S0
G1 X-0.492S1000
G0 X-0.625
G0 X-0.098Y0.15
G0 X0.625
G1 X0.493
G1 X0.369S0
G1 X0.453S1000
G1 X9.655F5000S0
G1 X0.626F1500S1000
G1 X1.087F5000S0
G1 X0.446F1500S1000
G1 X0.266S0
G1 X0.419S1000
G1 X0.263S0
G1 X0.497S1000
G1 X1.242F5000S0
G1 X0.719F1500S1000
G1 X11.118F5000S0
G1 X0.5F1500S1000
G1 X0.327S0
G1 X0.578S1000
G0 X0.625
G0 X0.117Y0.15
G0 X-0.625
G1 X-0.576
G1 X-0.477S0
G1 X-0.5S1000
G1 X-10.896F5000S0
G1 X-0.719F1500S1000
G1 X-1.394F5000S0
G1 X-0.496F1500S1000
G1 X-0.301S0
G1 X-0.418S1000
G1 X-0.3S0
G1 X-0.445S1000
G1 X-1.222F5000S0
G1 X-0.624F1500S1000
G1 X-9.461F5000S0
G1 X-0.453F1500S1000
G1 X-0.499S0
G1 X-0.493S1000
G0 X-0.625
G0 X-0.099Y0.15
G0 X0.625
G1 X0.493
G1 X0.63S0
G1 X0.453S1000
G1 X9.266F5000S0
G1 X0.624F1500S1000
G1 X1.355F5000S0
G1 X0.444F1500S1000
G1 X0.334S0
G1 X0.417S1000
G1 X0.338S0
G1 X0.496S1000
G1 X1.547F5000S0
G1 X0.719F1500S1000
G1 X10.673F5000S0
G1 X0.5F1500S1000
G1 X0.627S0
G1 X0.575S1000
G0 X0.625
G0 X0.118Y0.15
G0 X-0.625
G1 X-0.574
G1 X-0.777S0
G1 X-0.5S1000
G1 X-10.45F5000S0
G1 X-0.72F1500S1000
G1 X-1.699F5000S0
G1 X-0.495F1500S1000
G1 X-0.377S0
G1 X-0.416S1000
G1 X-0.367S0
G1 X-0.444S1000
G1 X-1.487F5000S0
G1 X-0.624F1500S1000
G1 X-9.071F5000S0
G1 X-0.453F1500S1000
G1 X-0.761S0
G1 X-0.492S1000
G0 X-0.625
G0 X-0.099Y0.15
G0 X0.625
G1 X0.492
G1 X0.891S0
G1 X0.454S1000
G1 X8.876F5000S0
G1 X0.624F1500S1000
G1 X1.62F5000S0
G1 X0.444F1500S1000
G1 X0.4S0
G1 X0.415S1000
G1 X0.415S0
G1 X0.495S1000
G1 X1.85F5000S0
G1 X0.72F1500S1000
G1 X10.227F5000S0
G1 X0.501F1500S1000
G1 X0.927S0
G1 X0.572S1000
G0 X0.625
G0 X0.118Y0.15
G0 X-0.625
G1 X-0.571
G1 X-1.077F5000S0
G1 X-0.501F1500S1000
G1 X-10.004F5000S0
G1 X-0.72F1500S1000
G1 X-2.002F5000S0
G1 X-0.495F1500S1000
G1 X-0.453S0
G1 X-0.414S1000
G1 X-0.434S0
G1 X-0.444S1000
G1 X-1.752F5000S0
G1 X-0.624F1500S1000
G1 X-8.681F5000S0
G1 X-0.454F1500S1000
G1 X-1.022F5000S0
G1 X-0.491F1500S1000
G0 X-0.625
G0 X-0.099Y0.15
G0 X0.625
G1 X0.491
G1 X1.152F5000S0
G1 X0.454F1500S1000
G1 X8.486F5000S0
G1 X0.625F1500S1000
G1 X1.885F5000S0
G1 X0.443F1500S1000
G1 X0.468S0
G1 X0.412S1000
G1 X0.491S0
G1 X0.496S1000
G1 X2.153F5000S0
G1 X0.72F1500S1000
G1 X9.782F5000S0
G1 X0.5F1500S1000
G1 X1.228F5000S0
G1 X0.57F1500S1000
G0 X0.625
G0 X0.117Y0.15
G0 X-0.625
G1 X-0.568
G1 X-1.378F5000S0
G1 X-0.501F1500S1000
G1 X-9.558F5000S0
G1 X-0.721F1500S1000
G1 X-2.304F5000S0
G1 X-0.496F1500S1000
G1 X-0.529S0
G1 X-0.411S1000
G1 X-0.502S0
G1 X-0.443S1000
G1 X-2.018F5000S0
G1 X-0.624F1500S1000
G1 X-8.291F5000S0
G1 X-0.454F1500S1000
G1 X-1.283F5000S0
G1 X-0.491F1500S1000
G0 X-0.625
G0 X-0.098Y0.15
G0 X0.625
G1 X0.49
G1 X1.413F5000S0
G1 X0.455F1500S1000
G1 X8.096F5000S0
G1 X0.624F1500S1000
G1 X2.151F5000S0
G1 X0.442F1500S1000
G1 X0.536S0
G1 X0.41S1000
G1 X0.567S0
G1 X0.496S1000
G1 X2.455F5000S0
G1 X0.722F1500S1000
G1 X9.335F5000S0
G1 X0.501F1500S1000
G1 X1.528F5000S0
G1 X0.567F1500S1000
G0 X0.625
G0 X0.118Y0.15
G0 X-0.625
G1 X-0.566
G1 X-1.678F5000S0
G1 X-0.501F1500S1000
G1 X-9.113F5000S0
G1 X-0.721F1500S1000
G1 X-2.607F5000S0
G1 X-0.496F1500S1000
G1 X-0.606S0
G1 X-0.409S1000
G1 X-0.569S0
G1 X-0.442S1000
G1 X-2.283F5000S0
G1 X-0.624F1500S1000
G1 X-7.901F5000S0
G1 X-0.455F1500S1000
G1 X-1.544F5000S0
G1 X-0.49F1500S1000
G0 X-0.625
G0 X-0.098Y0.15
G0 X0.625
G1 X0.488
G1 X1.676F5000S0
G1 X0.454F1500S1000
G1 X7.707F5000S0
G1 X0.624F1500S1000
G1 X2.416F5000S0
G1 X0.442F1500S1000
G1 X0.602S0
G1 X0.408S1000
G1 X0.643S0
G1 X0.497S1000
G1 X2.758F5000S0
G1 X0.722F1500S1000
G1 X8.89F5000S0
G1 X0.501F1500S1000
G1 X1.828F5000S0
G1 X0.564F1500S1000
G0 X0.625
G0 X0.118Y0.15
G0 X-0.625
G1 X-0.564
G1 X-1.977F5000S0
G1 X-0.502F1500S1000
G1 X-8.666F5000S0
G1 X-0.723F1500S1000
G1 X-2.91F5000S0
G1 X-0.496F1500S1000
G1 X-0.681S0
G1 X-0.407S1000
G1 X-0.636S0
G1 X-0.441S1000
G1 X-2.549F5000S0
G1 X-0.624F1500S1000
G1 X-7.512F5000S0
G1 X-0.455F1500S1000
G1 X-1.806F5000S0
G1 X-0.488F1500S1000
G0 X-0.625
G0 X-7.598Y0.15
G0 X0.625
G1 X0.371
G1 X7.129F5000S0
G1 X0.487F1500S1000
G1 X1.937F5000S0
G1 X0.455F1500S1000
G1 X7.317F5000S0
G1 X0.624F1500S1000
G1 X2.681F5000S0
G1 X0.441F1500S1000
G1 X0.67S0
G1 X0.405S1000
G1 X0.72S0
G1 X0.496S1000
G1 X3.062F5000S0
G1 X0.722F1500S1000
G1 X8.444F5000S0
G1 X0.502F1500S1000
G1 X2.127F5000S0
G1 X0.563F1500S1000
G1 X8.2F5000S0
G1 X0.15F1500S1000
G0 X0.625
G0 X0.092Y0.15
G0 X-0.625
G1 X-0.316
G1 X-8.009F5000S0
G1 X-0.561F1500S1000
G1 X-2.277F5000S0
G1 X-0.503F1500S1000
G1 X-8.22F5000S0
G1 X-0.723F1500S1000
G1 X-3.213F5000S0
G1 X-0.497F1500S1000
G1 X-0.757S0
G1 X-0.404S1000
G1 X-0.704S0
G1 X-0.44S1000
G1 X-2.814F5000S0
G1 X-0.624F1500S1000
G1 X-7.122F5000S0
G1 X-0.456F1500S1000
G1 X-2.067F5000S0
G1 X-0.487F1500S1000
G1 X-6.739F5000S0
G1 X-0.634F1500S1000
G0 X-0.625
G0 X0.262Y0.15
G0 X0.625
G1 X0.662
G1 X6.35F5000S0
G1 X0.487F1500S1000
G1 X2.198F5000S0
G1 X0.456F1500S1000
G1 X6.927F5000S0
G1 X0.623F1500S1000
G1 X2.947F5000S0
G1 X0.44F1500S1000
G1 X0.737S0
G1 X0.404S1000
G1 X0.795S0
G1 X0.497S1000
G1 X3.364F5000S0
G1 X0.724F1500S1000
G1 X7.997F5000S0
G1 X0.502F1500S1000
G1 X2.427F5000S0
G1 X0.561F1500S1000
G1 X7.962F5000S0
G1 X0.322F1500S1000
G0 X0.625
G0 X0.078Y0.15
G0 X-0.625
G1 X-0.324
G1 X-7.92F5000S0
G1 X-0.56F1500S1000
G1 X-2.577F5000S0
G1 X-0.502F1500S1000
G1 X-7.775F5000S0
G1 X-0.723F1500S1000
G1 X-3.516F5000S0
G1 X-0.497F1500S1000
G1 X-0.833S0
G1 X-0.403S1000
G1 X-0.771S0
G1 X-0.439S1000
G1 X-3.08F5000S0
G1 X-0.624F1500S1000
G1 X-6.732F5000S0
G1 X-0.456F1500S1000
G1 X-2.328F5000S0
G1 X-0.487F1500S1000
G1 X-5.961F5000S0
G1 X-0.665F1500S1000
G0 X-0.625
G0 X0.287Y0.15
G0 X0.625
G1 X0.668
G1 X5.572F5000S0
G1 X0.487F1500S1000
G1 X2.459F5000S0
G1 X0.456F1500S1000
G1 X6.537F5000S0
G1 X0.624F1500S1000
G1 X3.212F5000S0
G1 X0.439F1500S1000
G1 X0.805S0
G1 X0.402S1000
G1 X0.871S0
G1 X0.497S1000
G1 X3.669F5000S0
G1 X0.722F1500S1000
G1 X7.551F5000S0
G1 X0.503F1500S1000
G1 X2.726F5000S0
G1 X0.559F1500S1000
G1 X7.88F5000S0
G1 X0.326F1500S1000
G0 X0.625
G0 X0.078Y0.15
G0 X-0.625
G1 X-0.327
G1 X-7.839F5000S0
G1 X-0.558F1500S1000
G1 X-2.876F5000S0
G1 X-0.503F1500S1000
G1 X-7.329F5000S0
G1 X-0.72F1500S1000
G1 X-3.822F5000S0
G1 X-0.498F1500S1000
G1 X-0.907S0
G1 X-0.402S1000
G1 X-0.838S0
G1 X-0.439S1000
G1 X-3.345F5000S0
G1 X-0.624F1500S1000
G1 X-6.343F5000S0
G1 X-0.455F1500S1000
G1 X-2.59F5000S0
G1 X-0.487F1500S1000
G1 X-5.183F5000S0
G1 X-0.661F1500S1000
G0 X-0.625
G0 X0.299Y0.15
G0 X0.625
G1 X0.653
G1 X4.793F5000S0
G1 X0.487F1500S1000
G1 X2.72F5000S0
G1 X0.456F1500S1000
G1 X6.148F5000S0
G1 X0.624F1500S1000
G1 X3.478F5000S0
G1 X0.438F1500S1000
G1 X0.871S0
G1 X0.403S1000
G1 X0.944S0
G1 X0.498S1000
G1 X3.975F5000S0
G1 X0.719F1500S1000
G1 X7.105F5000S0
G1 X0.504F1500S1000
G1 X3.026F5000S0
G1 X0.557F1500S1000
G1 X7.797F5000S0
G1 X0.329F1500S1000
G0 X0.625
G0 X0.078Y0.15
G0 X-0.625
G1 X-0.33
G1 X-7.756F5000S0
G1 X-0.557F1500S1000
G1 X-3.176F5000S0
G1 X-0.503F1500S1000
G1 X-6.882F5000S0
G1 X-0.719F1500S1000
G1 X-4.127F5000S0
G1 X-0.498F1500S1000
G1 X-0.981S0
G1 X-0.404S1000
G1 X-0.904S0
G1 X-0.438S1000
G1 X-3.61F5000S0
G1 X-0.624F1500S1000
G1 X-5.954F5000S0
G1 X-0.455F1500S1000
G1 X-2.851F5000S0
G1 X-0.487F1500S1000
G1 X-4.404F5000S0
G1 X-0.662F1500S1000
G0 X-0.625
G0 X0.138Y0.15
G0 X0.625
G1 X0.814
G1 X4.015F5000S0
G1 X0.487F1500S1000
G1 X2.981F5000S0
G1 X0.455F1500S1000
G1 X5.76F5000S0
G1 X0.624F1500S1000
G1 X3.743F5000S0
G1 X0.438F1500S1000
G1 X0.936S0
G1 X0.405S1000
G1 X1.018F5000S0
G1 X0.498F1500S1000
G1 X4.28F5000S0
G1 X0.717F1500S1000
G1 X6.659F5000S0
G1 X0.504F1500S1000
G1 X3.326F5000S0
G1 X0.556F1500S1000
G1 X7.714F5000S0
G1 X0.332F1500S1000
G0 X0.625
G0 X0.078Y0.15
G0 X-0.625
G1 X-0.331
G1 X-2.236F5000S0
G1 X-0.277F1500S1000
G1 X-5.161F5000S0
G1 X-0.557F1500S1000
G1 X-3.475F5000S0
G1 X-0.504F1500S1000
G1 X-6.436F5000S0
G1 X-0.716F1500S1000
G1 X-4.433F5000S0
G1 X-0.498F1500S1000
G1 X-1.055F5000S0
G1 X-0.405F1500S1000
G1 X-0.97S0
G1 X-0.438S1000
G1 X-3.876F5000S0
G1 X-0.623F1500S1000
G1 X-5.565F5000S0
G1 X-0.455F1500S1000
G1 X-3.112F5000S0
G1 X-0.487F1500S1000
G1 X-3.626F5000S0
G1 X-1.125F1500S1000
G0 X-0.625
G0 X-0.068Y0.15
G0 X0.625
G1 X0.323
G1 X0.5S0
G1 X0.66S1000
G1 X3.237F5000S0
G1 X0.487F1500S1000
G1 X3.242F5000S0
G1 X0.455F1500S1000
G1 X5.371F5000S0
G1 X0.623F1500S1000
G1 X4.009F5000S0
G1 X0.437F1500S1000
G1 X1.003F5000S0
G1 X0.406F1500S1000
G1 X1.092F5000S0
G1 X0.498F1500S1000
G1 X4.586F5000S0
G1 X0.715F1500S1000
G1 X6.212F5000S0
G1 X0.505F1500S1000
G1 X3.624F5000S0
G1 X0.557F1500S1000
G1 X5.059F5000S0
G1 X0.338F1500S1000
G1 X2.239F5000S0
G1 X0.33F1500S1000
G0 X0.625
G0 X0.078Y0.15
G0 X-0.625
G1 X-0.329
G1 X-2.24F5000S0
G1 X-0.335F1500S1000
G1 X-5.022F5000S0
G1 X-0.558F1500S1000
G1 X-3.773F5000S0
G1 X-0.504F1500S1000
G1 X-5.99F5000S0
G1 X-0.723F1500S1000
G1 X-4.729F5000S0
G1 X-0.498F1500S1000
G1 X-1.129F5000S0
G1 X-0.407F1500S1000
G1 X-1.035F5000S0
G1 X-0.438F1500S1000
G1 X-4.122F5000S0
G1 X-0.642F1500S1000
G1 X-5.177F5000S0
G1 X-0.454F1500S1000
G1 X-3.373F5000S0
G1 X-0.487F1500S1000
G1 X-2.847F5000S0
G1 X-0.664F1500S1000
G1 X-0.864S0
G1 X-0.325S1000
G0 X-0.625
G0 X-0.079Y0.15
G0 X0.625
G1 X0.328
G1 X1.228F5000S0
G1 X0.666F1500S1000
G1 X2.458F5000S0
G1 X0.487F1500S1000
G1 X3.504F5000S0
G1 X0.453F1500S1000
G1 X4.982F5000S0
G1 X0.771F1500S1000
G1 X4.127F5000S0
G1 X0.437F1500S1000
G1 X1.069F5000S0
G1 X0.407F1500S1000
G1 X1.166F5000S0
G1 X0.497F1500S1000
G1 X4.783F5000S0
G1 X0.822F1500S1000
G1 X5.766F5000S0
G1 X0.505F1500S1000
G1 X3.922F5000S0
G1 X0.558F1500S1000
G1 X4.981F5000S0
G1 X0.337F1500S1000
G1 X2.241F5000S0
G1 X0.328F1500S1000
G0 X0.625
G0 X0.079Y0.15
G0 X-0.625
G1 X-0.328
G1 X-2.241F5000S0
G1 X-0.338F1500S1000
G1 X-4.94F5000S0
G1 X-0.56F1500S1000
G1 X-4.07F5000S0
G1 X-0.505F1500S1000
G1 X-5.543F5000S0
G1 X-1.096F1500S1000
G1 X-4.661F5000S0
G1 X-0.497F1500S1000
G1 X-1.203F5000S0
G1 X-0.408F1500S1000
G1 X-1.102F5000S0
G1 X-0.437F1500S1000
G1 X-4.002F5000S0
G1 X-1.028F1500S1000
G1 X-4.787F5000S0
G1 X-0.453F1500S1000
G1 X-3.635F5000S0
G1 X-0.487F1500S1000
G1 X-2.069F5000S0
G1 X-0.662F1500S1000
G1 X-1.597F5000S0
G1 X-0.333F1500S1000
G0 X-0.625
G0 X-0.079Y0.15
G0 X0.625
G1 X0.336
G1 X1.968F5000S0
G1 X0.583F1500S1000
G1 X1.753F5000S0
G1 X0.488F1500S1000
G1 X3.766F5000S0
G1 X0.452F1500S1000
G1 X4.593F5000S0
G1 X1.318F1500S1000
G1 X3.845F5000S0
G1 X0.437F1500S1000
G1 X1.134F5000S0
G1 X0.409F1500S1000
G1 X1.24F5000S0
G1 X0.497F1500S1000
G1 X4.475F5000S0
G1 X1.433F1500S1000
G1 X5.32F5000S0
G1 X0.506F1500S1000
G1 X4.219F5000S0
G1 X0.56F1500S1000
G1 X2.357F5000S0
G1 X0.264F1500S1000
G1 X2.278F5000S0
G1 X0.34F1500S1000
G1 X2.241F5000S0
G1 X0.327F1500S1000
G0 X0.625
G0 X0.079Y0.15
G0 X-0.625
G1 X-0.335
G1 X-2.234F5000S0
G1 X-0.341F1500S1000
G1 X-2.282F5000S0
G1 X-0.324F1500S1000
G1 X-2.252F5000S0
G1 X-0.56F1500S1000
G1 X-4.369F5000S0
G1 X-0.505F1500S1000
G1 X-5.097F5000S0
G1 X-0.716F1500S1000
G1 X-0.406S0
G1 X-0.653S1000
G1 X-4.285F5000S0
G1 X-0.497F1500S1000
G1 X-1.276F5000S0
G1 X-0.411F1500S1000
G1 X-1.167F5000S0
G1 X-0.436F1500S1000
G1 X-3.686F5000S0
G1 X-0.572F1500S1000
G1 X-0.409S0
G1 X-0.629S1000
G1 X-4.399F5000S0
G1 X-0.452F1500S1000
G1 X-3.896F5000S0
G1 X-0.488F1500S1000
G1 X-1.717F5000S0
G1 X-0.225F1500S1000
G1 X-2.339F5000S0
G1 X-0.339F1500S1000
G0 X-0.625
G0 X-0.079Y0.15
G0 X0.625
G1 X0.342
G1 X4.258F5000S0
G1 X0.488F1500S1000
G1 X4.027F5000S0
G1 X0.452F1500S1000
G1 X4.204F5000S0
G1 X0.63F1500S1000
G1 X0.7S0
G1 X0.572S1000
G1 X3.526F5000S0
G1 X0.436F1500S1000
G1 X1.201F5000S0
G1 X0.411F1500S1000
G1 X1.313F5000S0
G1 X0.497F1500S1000
G1 X4.104F5000S0
G1 X0.636F1500S1000
G1 X0.756S0
G1 X0.715S1000
G1 X4.874F5000S0
G1 X0.506F1500S1000
G1 X4.517F5000S0
G1 X0.561F1500S1000
G1 X2.208F5000S0
G1 X0.329F1500S1000
G1 X2.281F5000S0
G1 X0.34F1500S1000
G1 X2.181F5000S0
G1 X0.381F1500S1000
G0 X0.625
G0 X0.019Y0.15
G0 X-0.625
G1 X-0.532
G1 X-1.972F5000S0
G1 X-0.337F1500S1000
G1 X-2.282F5000S0
G1 X-0.331F1500S1000
G1 X-2.166F5000S0
G1 X-0.562F1500S1000
G1 X-4.666F5000S0
G1 X-0.506F1500S1000
G1 X-4.651F5000S0
G1 X-0.721F1500S1000
G1 X-1.085F5000S0
G1 X-0.635F1500S1000
G1 X-3.922F5000S0
G1 X-0.497F1500S1000
G1 X-1.35F5000S0
G1 X-0.412F1500S1000
G1 X-1.233F5000S0
G1 X-0.436F1500S1000
G1 X-3.367F5000S0
G1 X-0.572F1500S1000
G1 X-0.992S0
G1 X-0.63S1000
G1 X-4.01F5000S0
G1 X-0.451F1500S1000
G1 X-4.158F5000S0
G1 X-0.488F1500S1000
G1 X-4.234F5000S0
G1 X-0.345F1500S1000
G0 X-0.625
G0 X-0.075Y0.15
G0 X0.625
G1 X0.342
G1 X4.213F5000S0
G1 X0.487F1500S1000
G1 X4.29F5000S0
G1 X0.45F1500S1000
G1 X3.816F5000S0
G1 X0.63F1500S1000
G1 X1.284F5000S0
G1 X0.572F1500S1000
G1 X3.207F5000S0
G1 X0.436F1500S1000
G1 X1.266F5000S0
G1 X0.413F1500S1000
G1 X1.387F5000S0
G1 X0.497F1500S1000
G1 X3.737F5000S0
G1 X0.636F1500S1000
G1 X1.414F5000S0
G1 X0.728F1500S1000
G1 X4.427F5000S0
G1 X0.507F1500S1000
G1 X4.814F5000S0
G1 X0.563F1500S1000
G1 X2.126F5000S0
G1 X0.332F1500S1000
G1 X2.283F5000S0
G1 X0.333F1500S1000
G1 X1.605F5000S0
G1 X0.67F1500S1000
G0 X0.625
G0 X-0.286Y0.15
G0 X-0.625
G1 X-0.695
G1 X-1.218F5000S0
G1 X-0.329F1500S1000
G1 X-2.285F5000S0
G1 X-0.332F1500S1000
G1 X-2.086F5000S0
G1 X-0.563F1500S1000
G1 X-4.964F5000S0
G1 X-0.506F1500S1000
G1 X-4.205F5000S0
G1 X-0.727F1500S1000
G1 X-1.75F5000S0
G1 X-0.637F1500S1000
G1 X-3.552F5000S0
G1 X-0.497F1500S1000
G1 X-1.425F5000S0
G1 X-0.413F1500S1000
G1 X-1.299F5000S0
G1 X-0.435F1500S1000
G1 X-3.049F5000S0
G1 X-0.571F1500S1000
G1 X-1.575F5000S0
G1 X-0.631F1500S1000
G1 X-3.622F5000S0
G1 X-0.449F1500S1000
G1 X-4.421F5000S0
G1 X-0.487F1500S1000
G1 X-4.192F5000S0
G1 X-0.339F1500S1000
G1 X-2.301F5000S0
G1 X-0.239F1500S1000
G0 X-0.625
G0 X-0.052Y0.15
G0 X0.625
G1 X0.575
G1 X1.942F5000S0
G1 X0.336F1500S1000
G1 X4.171F5000S0
G1 X0.487F1500S1000
G1 X4.551F5000S0
G1 X0.45F1500S1000
G1 X3.427F5000S0
G1 X0.631F1500S1000
G1 X1.867F5000S0
G1 X0.571F1500S1000
G1 X2.889F5000S0
G1 X0.436F1500S1000
G1 X1.332F5000S0
G1 X0.412F1500S1000
G1 X1.463F5000S0
G1 X0.497F1500S1000
G1 X3.367F5000S0
G1 X0.638F1500S1000
G1 X2.086F5000S0
G1 X0.727F1500S1000
G1 X3.982F5000S0
G1 X0.506F1500S1000
G1 X5.113F5000S0
G1 X0.563F1500S1000
G1 X2.046F5000S0
G1 X0.333F1500S1000
G1 X2.286F5000S0
G1 X0.326F1500S1000
G1 X0.856S0
G1 X0.689S1000
G0 X0.625
G0 X-0.291Y0.15
G0 X-0.625
G1 X-0.671
G1 X-0.502S0
G1 X-0.327S1000
G1 X-2.287F5000S0
G1 X-0.334F1500S1000
G1 X-2.006F5000S0
G1 X-0.563F1500S1000
G1 X-5.262F5000S0
G1 X-0.505F1500S1000
G1 X-3.76F5000S0
G1 X-0.727F1500S1000
G1 X-2.422F5000S0
G1 X-0.639F1500S1000
G1 X-3.182F5000S0
G1 X-0.497F1500S1000
G1 X-1.501F5000S0
G1 X-0.412F1500S1000
G1 X-1.365F5000S0
G1 X-0.435F1500S1000
G1 X-2.73F5000S0
G1 X-0.571F1500S1000
G1 X-2.158F5000S0
G1 X-0.633F1500S1000
G1 X-3.232F5000S0
G1 X-0.449F1500S1000
G1 X-4.682F5000S0
G1 X-0.487F1500S1000
G1 X-4.15F5000S0
G1 X-0.333F1500S1000
G1 X-1.574F5000S0
G1 X-0.66F1500S1000
G0 X-0.625
G0 X0.289Y0.15
G0 X0.625
G1 X0.662
G1 X1.209F5000S0
G1 X0.329F1500S1000
G1 X4.129F5000S0
G1 X0.487F1500S1000
G1 X4.813F5000S0
G1 X0.448F1500S1000
G1 X3.038F5000S0
G1 X0.633F1500S1000
G1 X2.45F5000S0
G1 X0.571F1500S1000
G1 X2.571F5000S0
G1 X0.434F1500S1000
G1 X1.398F5000S0
G1 X0.412F1500S1000
G1 X1.539F5000S0
G1 X0.497F1500S1000
G1 X2.997F5000S0
G1 X0.64F1500S1000
G1 X2.758F5000S0
G1 X0.726F1500S1000
G1 X3.538F5000S0
G1 X0.505F1500S1000
G1 X5.41F5000S0
G1 X0.565F1500S1000
G1 X1.964F5000S0
G1 X0.335F1500S1000
G1 X2.275F5000S0
G1 X1.142F1500S1000
G0 X0.625
G0 X-0.291Y0.15
G0 X-0.625
G1 X-0.833
G1 X-2.217F5000S0
G1 X-0.333F1500S1000
G1 X-1.924F5000S0
G1 X-0.565F1500S1000
G1 X-5.56F5000S0
G1 X-0.504F1500S1000
G1 X-3.315F5000S0
G1 X-0.726F1500S1000
G1 X-3.094F5000S0
G1 X-0.641F1500S1000
G1 X-2.812F5000S0
G1 X-0.497F1500S1000
G1 X-1.577F5000S0
G1 X-0.412F1500S1000
G1 X-1.431F5000S0
G1 X-0.434F1500S1000
G1 X-2.411F5000S0
G1 X-0.571F1500S1000
G1 X-2.742F5000S0
G1 X-0.633F1500S1000
G1 X-2.843F5000S0
G1 X-0.448F1500S1000
G1 X-4.944F5000S0
G1 X-0.487F1500S1000
G1 X-4.109F5000S0
G1 X-0.325F1500S1000
G1 X-0.848S0
G1 X-0.658S1000
G0 X-0.625
G0 X0.29Y0.15
G0 X0.625
G1 X0.654
G1 X0.477S0
G1 X0.332S1000
G1 X4.088F5000S0
G1 X0.487F1500S1000
G1 X5.074F5000S0
G1 X0.448F1500S1000
G1 X2.649F5000S0
G1 X0.634F1500S1000
G1 X3.033F5000S0
G1 X0.571F1500S1000
G1 X2.252F5000S0
G1 X0.434F1500S1000
G1 X1.464F5000S0
G1 X0.411F1500S1000
G1 X1.614F5000S0
G1 X0.497F1500S1000
G1 X2.628F5000S0
G1 X0.643F1500S1000
G1 X3.429F5000S0
G1 X0.726F1500S1000
G1 X3.092F5000S0
G1 X0.504F1500S1000
G1 X5.709F5000S0
G1 X0.565F1500S1000
G1 X1.884F5000S0
G1 X0.332F1500S1000
G1 X2.024F5000S0
G1 X0.658F1500S1000
G0 X0.625
G0 X-0.29Y0.15
G0 X-0.625
G1 X-0.645
G1 X-1.67F5000S0
G1 X-0.331F1500S1000
G1 X-1.844F5000S0
G1 X-0.565F1500S1000
G1 X-5.858F5000S0
G1 X-0.504F1500S1000
G1 X-2.87F5000S0
G1 X-0.724F1500S1000
G1 X-3.766F5000S0
G1 X-0.644F1500S1000
G1 X-2.443F5000S0
G1 X-0.497F1500S1000
G1 X-1.652F5000S0
G1 X-0.411F1500S1000
G1 X-1.497F5000S0
G1 X-0.434F1500S1000
G1 X-2.092F5000S0
G1 X-0.571F1500S1000
G1 X-3.325F5000S0
G1 X-0.634F1500S1000
G1 X-2.455F5000S0
G1 X-0.447F1500S1000
G1 X-5.205F5000S0
G1 X-0.488F1500S1000
G1 X-4.058F5000S0
G1 X-1.104F1500S1000
G0 X-0.625
G0 X0.29Y0.15
G0 X0.625
G1 X0.789
G1 X3.981F5000S0
G1 X0.491F1500S1000
G1 X5.336F5000S0
G1 X0.445F1500S1000
G1 X2.262F5000S0
G1 X0.634F1500S1000
G1 X3.617F5000S0
G1 X0.571F1500S1000
G1 X1.933F5000S0
G1 X0.434F1500S1000
G1 X1.529F5000S0
G1 X0.411F1500S1000
G1 X1.69F5000S0
G1 X0.497F1500S1000
G1 X2.258F5000S0
G1 X0.645F1500S1000
G1 X4.102F5000S0
G1 X0.724F1500S1000
G1 X2.647F5000S0
G1 X0.504F1500S1000
G1 X6.007F5000S0
G1 X0.566F1500S1000
G1 X1.802F5000S0
G1 X0.331F1500S1000
G1 X1.292F5000S0
G1 X0.659F1500S1000
G0 X0.625
G0 X-0.287Y0.15
G0 X-0.625
G1 X-0.665
G1 X-0.922S0
G1 X-0.33S1000
G1 X-1.762F5000S0
G1 X-0.566F1500S1000
G1 X-6.157F5000S0
G1 X-0.503F1500S1000
G1 X-2.424F5000S0
G1 X-0.724F1500S1000
G1 X-4.438F5000S0
G1 X-0.646F1500S1000
G1 X-2.072F5000S0
G1 X-0.498F1500S1000
G1 X-1.728F5000S0
G1 X-0.412F1500S1000
G1 X-1.56F5000S0
G1 X-0.435F1500S1000
G1 X-1.774F5000S0
G1 X-0.571F1500S1000
G1 X-3.907F5000S0
G1 X-0.635F1500S1000
G1 X-2.068F5000S0
G1 X-0.444F1500S1000
G1 X-5.467F5000S0
G1 X-0.494F1500S1000
G1 X-3.723F5000S0
G1 X-0.655F1500S1000
G0 X-0.625
G0 X0.29Y0.15
G0 X0.625
G1 X0.66
G1 X3.326F5000S0
G1 X0.51F1500S1000
G1 X5.585F5000S0
G1 X0.443F1500S1000
G1 X1.874F5000S0
G1 X0.635F1500S1000
G1 X4.2F5000S0
G1 X0.57F1500S1000
G1 X1.615F5000S0
G1 X0.436F1500S1000
G1 X1.591F5000S0
G1 X0.412F1500S1000
G1 X1.765F5000S0
G1 X0.499F1500S1000
G1 X1.887F5000S0
G1 X0.646F1500S1000
G1 X4.775F5000S0
G1 X0.723F1500S1000
G1 X2.202F5000S0
G1 X0.503F1500S1000
G1 X6.299F5000S0
G1 X0.573F1500S1000
G1 X1.721F5000S0
G1 X0.334F1500S1000
G1 X0.557S0
G1 X0.662S1000
G0 X0.625
G0 X-0.287Y0.15
G0 X-0.625
G1 X-1.188
G1 X-1.691F5000S0
G1 X-0.645F1500S1000
G1 X-6.366F5000S0
G1 X-0.503F1500S1000
G1 X-1.979F5000S0
G1 X-0.723F1500S1000
G1 X-5.112F5000S0
G1 X-0.646F1500S1000
G1 X-1.702F5000S0
G1 X-0.499F1500S1000
G1 X-1.803F5000S0
G1 X-0.412F1500S1000
G1 X-1.623F5000S0
G1 X-0.436F1500S1000
G1 X-1.456F5000S0
G1 X-0.57F1500S1000
G1 X-4.492F5000S0
G1 X-0.636F1500S1000
G1 X-1.679F5000S0
G1 X-0.442F1500S1000
G1 X-5.508F5000S0
G1 X-0.693F1500S1000
G1 X-2.952F5000S0
G1 X-0.668F1500S1000
G0 X-0.625
G0 X0.291Y0.15
G0 X0.625
G1 X0.673
G1 X2.643F5000S0
G1 X1.213F1500S1000
G1 X5.034F5000S0
G1 X0.44F1500S1000
G1 X1.485F5000S0
G1 X0.636F1500S1000
G1 X4.784F5000S0
G1 X0.57F1500S1000
G1 X1.296F5000S0
G1 X0.438F1500S1000
G1 X1.654F5000S0
G1 X0.412F1500S1000
G1 X1.841F5000S0
G1 X0.499F1500S1000
G1 X1.517F5000S0
G1 X0.645F1500S1000
G1 X5.45F5000S0
G1 X0.722F1500S1000
G1 X1.757F5000S0
G1 X0.503F1500S1000
G1 X5.965F5000S0
G1 X1.126F1500S1000
G1 X1.719F5000S0
G1 X0.823F1500S1000
G0 X0.625
G0 X-0.287Y0.15
G0 X-0.625
G1 X-0.45
G1 X-1.826F5000S0
G1 X-1.692F1500S1000
G1 X-5.41F5000S0
G1 X-0.502F1500S1000
G1 X-1.534F5000S0
G1 X-0.722F1500S1000
G1 X-5.787F5000S0
G1 X-0.645F1500S1000
G1 X-1.331F5000S0
G1 X-0.5F1500S1000
G1 X-1.879F5000S0
G1 X-0.413F1500S1000
G1 X-1.685F5000S0
G1 X-0.438F1500S1000
G1 X-1.137F5000S0
G1 X-0.569F1500S1000
G1 X-5.077F5000S0
G1 X-0.636F1500S1000
G1 X-1.291F5000S0
G1 X-0.439F1500S1000
G1 X-4.549F5000S0
G1 X-1.687F1500S1000
G1 X-2.397F5000S0
G1 X-0.67F1500S1000
G0 X-0.625
G0 X0.291Y0.15
G0 X0.625
G1 X0.669
G1 X2.163F5000S0
G1 X2.147F1500S1000
G1 X4.065F5000S0
G1 X0.437F1500S1000
G1 X1.098F5000S0
G1 X0.635F1500S1000
G1 X5.37F5000S0
G1 X0.569F1500S1000
G1 X0.977S0
G1 X0.44S1000
G1 X1.716F5000S0
G1 X0.413F1500S1000
G1 X1.916F5000S0
G1 X0.501F1500S1000
G1 X1.146F5000S0
G1 X0.645F1500S1000
G1 X6.124F5000S0
G1 X0.722F1500S1000
G1 X1.311F5000S0
G1 X0.502F1500S1000
G1 X4.855F5000S0
G1 X2.222F1500S1000
G0 X0.625
G0 X-0.061Y0.15
G0 X-0.625
G1 X-0.522
G1 X-0.407S0
G1 X-1.821S1000
G1 X-4.297F5000S0
G1 X-0.502F1500S1000
G1 X-1.089F5000S0
G1 X-0.721F1500S1000
G1 X-6.462F5000S0
G1 X-0.644F1500S1000
G1 X-0.961S0
G1 X-0.501S1000
G1 X-1.954F5000S0
G1 X-0.413F1500S1000
G1 X-1.747F5000S0
G1 X-0.441F1500S1000
G1 X-0.818S0
G1 X-0.569S1000
G1 X-5.662F5000S0
G1 X-0.635F1500S1000
G1 X-0.904S0
G1 X-0.436S1000
G1 X-3.58F5000S0
G1 X-1.591F1500S1000
G1 X-0.568S0
G1 X-0.448S1000
G1 X-1.957F5000S0
G1 X-0.64F1500S1000
G0 X-0.625
G0 X0.291Y0.15
G0 X0.625
G1 X0.368
G1 X1.994F5000S0
G1 X0.455F1500S1000
G1 X1.02F5000S0
G1 X1.592F1500S1000
G1 X3.096F5000S0
G1 X0.434F1500S1000
G1 X0.711S0
G1 X0.635S1000
G1 X5.955F5000S0
G1 X0.567F1500S1000
G1 X0.659S0
G1 X0.445S1000
G1 X1.775F5000S0
G1 X0.414F1500S1000
G1 X1.992F5000S0
G1 X0.502F1500S1000
G1 X0.775S0
G1 X0.644S1000
G1 X6.799F5000S0
G1 X0.721F1500S1000
G1 X0.866S0
G1 X0.502S1000
G1 X3.738F5000S0
G1 X1.816F1500S1000
G1 X0.965S0
G1 X0.499S1000
G0 X0.625
G0 X-0.061Y0.15
G0 X-0.625
G1 X-0.501
G1 X-1.496F5000S0
G1 X-1.815F1500S1000
G1 X-3.177F5000S0
G1 X-0.501F1500S1000
G1 X-0.643S0
G1 X-0.721S1000
G1 X-7.136F5000S0
G1 X-0.644F1500S1000
G1 X-0.59S0
G1 X-0.502S1000
G1 X-2.03F5000S0
G1 X-0.414F1500S1000
G1 X-1.805F5000S0
G1 X-0.447F1500S1000
G1 X-0.5S0
G1 X-0.567S1000
G1 X-6.247F5000S0
G1 X-0.635F1500S1000
G1 X-0.517S0
G1 X-0.433S1000
G1 X-2.612F5000S0
G1 X-1.593F1500S1000
G1 X-1.479F5000S0
G1 X-0.454F1500S1000
G0 X-0.625
G0 X0.056Y0.15
G0 X0.625
G1 X0.454
G1 X1.938F5000S0
G1 X1.592F1500S1000
G1 X2.13F5000S0
G1 X0.429F1500S1000
G1 X0.326S0
G1 X0.635S1000
G1 X6.539F5000S0
G1 X0.567F1500S1000
G1 X0.34S0
G1 X0.45S1000
G1 X1.835F5000S0
G1 X0.414F1500S1000
G1 X2.067F5000S0
G1 X0.503F1500S1000
G1 X0.405S0
G1 X0.643S1000
G1 X7.475F5000S0
G1 X0.719F1500S1000
G1 X0.421S0
G1 X0.497S1000
G1 X2.611F5000S0
G1 X1.821F1500S1000
G1 X2.032F5000S0
G1 X0.499F1500S1000
G0 X0.625
G0 X-0.06Y0.15
G0 X-0.625
G1 X-0.499
G1 X-2.567F5000S0
G1 X-1.827F1500S1000
G1 X-2.045F5000S0
G1 X-0.514F1500S1000
G1 X-0.174S0
G1 X-0.722S1000
G1 X-7.812F5000S0
G1 X-0.65F1500S1000
G1 X-0.201S0
G1 X-0.515S1000
G1 X-2.105F5000S0
G1 X-0.415F1500S1000
G1 X-1.864F5000S0
G1 X-0.452F1500S1000
G1 X-0.181S0
G1 X-0.566S1000
G1 X-6.832F5000S0
G1 X-0.619F1500S1000
G1 X-0.136S0
G1 X-0.44S1000
G1 X-1.648F5000S0
G1 X-1.591F1500S1000
G1 X-2.397F5000S0
G1 X-0.453F1500S1000
G0 X-0.625
G0 X0.057Y0.15
G0 X0.625
G1 X0.452
G1 X2.858F5000S0
G1 X1.588F1500S1000
G1 X1.166F5000S0
G1 X1F1500S1000
G1 X7.124F5000S0
G1 X0.566F1500S1000
G1 X0.022S0
G1 X0.454S1000
G1 X1.894F5000S0
G1 X0.414F1500S1000
G1 X2.144F5000S0
G1 X1.181F1500S1000
G1 X8.149F5000S0
G1 X1.183F1500S1000
G1 X1.48F5000S0
G1 X1.832F1500S1000
G1 X3.103F5000S0
G1 X0.498F1500S1000
G0 X0.625
G0 X-0.06Y0.15
G0 X-0.625
G1 X-0.498
G1 X-3.639F5000S0
G1 X-1.837F1500S1000
G1 X-0.901S0
G1 X-0.969S1000
G1 X-8.487F5000S0
G1 X-0.995F1500S1000
G1 X-2.182F5000S0
G1 X-0.414F1500S1000
G1 X-1.923F5000S0
G1 X-0.886F1500S1000
G1 X-7.416F5000S0
G1 X-0.812F1500S1000
G1 X-0.677S0
G1 X-1.583S1000
G1 X-3.321F5000S0
G1 X-0.452F1500S1000
G0 X-0.625
G0 X0.057Y0.15
G0 X0.625
G1 X0.451
G1 X3.783F5000S0
G1 X1.614F1500S1000
G1 X0.051S0
G1 X0.725S1000
G1 X7.68F5000S0
G1 X0.746F1500S1000
G1 X1.964F5000S0
G1 X0.414F1500S1000
G1 X2.229F5000S0
G1 X0.842F1500S1000
G1 X8.784F5000S0
G1 X0.81F1500S1000
G1 X0.267S0
G1 X1.841S1000
G1 X4.177F5000S0
G1 X0.498F1500S1000
G0 X0.625
G0 X-0.06Y0.15
G0 X-0.625
G1 X-0.498
G1 X-4.714F5000S0
G1 X-2.161F1500S1000
G1 X-8.857F5000S0
G1 X-0.851F1500S1000
G1 X-2.305F5000S0
G1 X-0.414F1500S1000
G1 X-2.039F5000S0
G1 X-0.749F1500S1000
G1 X-7.728F5000S0
G1 X-1.747F1500S1000
G1 X-4.246F5000S0
G1 X-0.451F1500S1000
G0 X-0.625
G0 X0.057Y0.15
G0 X0.625
G1 X0.45
G1 X4.709F5000S0
G1 X1.313F1500S1000
G1 X7.39F5000S0
G1 X0.856F1500S1000
G1 X2.187F5000S0
G1 X0.413F1500S1000
G1 X2.464F5000S0
G1 X0.984F1500S1000
G1 X8.547F5000S0
G1 X1.582F1500S1000
G1 X5.25F5000S0
G1 X0.498F1500S1000
G0 X0.625
G0 X-0.059Y0.15
G0 X-0.625
G1 X-0.499
G1 X-5.787F5000S0
G1 X-1.261F1500S1000
G1 X-7.962F5000S0
G1 X-1.005F1500S1000
G1 X-2.751F5000S0
G1 X-0.413F1500S1000
G1 X-2.431F5000S0
G1 X-0.877F1500S1000
G1 X-6.888F5000S0
G1 X-1.052F1500S1000
G1 X-5.152F5000S0
G1 X-0.449F1500S1000
G0 X-0.625
G0 X0.056Y0.15
G0 X0.625
G1 X0.449
G1 X5.252F5000S0
G1 X1.139F1500S1000
G1 X6.38F5000S0
G1 X0.878F1500S1000
G1 X2.697F5000S0
G1 X0.413F1500S1000
G1 X3.058F5000S0
G1 X1.004F1500S1000
G1 X7.38F5000S0
G1 X1.249F1500S1000
G1 X6.013F5000S0
G1 X0.499F1500S1000
G0 X0.625
G0 X-0.06Y0.15
G0 X-0.625
G1 X-0.499
G1 X-5.965F5000S0
G1 X-1.511F1500S1000
G1 X-6.797F5000S0
G1 X-1.004F1500S1000
G1 X-3.366F5000S0
G1 X-0.412F1500S1000
G1 X-2.963F5000S0
G1 X-0.878F1500S1000
G1 X-5.872F5000S0
G1 X-1.372F1500S1000
G1 X-5.207F5000S0
G1 X-0.448F1500S1000
G0 X-0.625
G0 X0.056Y0.15
G0 X0.625
G1 X0.448
G1 X5.139F5000S0
G1 X0.445F1500S1000
G1 X0.353S0
G1 X0.829S1000
G1 X5.364F5000S0
G1 X0.879F1500S1000
G1 X3.228F5000S0
G1 X0.413F1500S1000
G1 X3.673F5000S0
G1 X1.004F1500S1000
G1 X6.213F5000S0
G1 X0.948F1500S1000
G1 X0.358S0
G1 X0.498S1000
G1 X5.887F5000S0
G1 X0.5F1500S1000
G0 X0.625
G0 X-0.06Y0.15
G0 X-0.625
G1 X-0.5
G1 X-5.809F5000S0
G1 X-0.493F1500S1000
G1 X-0.656S0
G1 X-0.947S1000
G1 X-5.631F5000S0
G1 X-1.003F1500S1000
G1 X-3.981F5000S0
G1 X-0.412F1500S1000
G1 X-3.497F5000S0
G1 X-0.876F1500S1000
G1 X-4.857F5000S0
G1 X-0.83F1500S1000
G1 X-0.61S0
G1 X-0.441S1000
G1 X-5.071F5000S0
G1 X-0.448F1500S1000
G1 X-3.492F5000S0
G1 X-0.863F1500S1000
G0 X-0.625
G0 X-0.97Y0.15
G0 X0.625
G1 X1.768
G1 X3.613F5000S0
G1 X0.448F1500S1000
G1 X5.004F5000S0
G1 X0.441F1500S1000
G1 X0.863S0
G1 X0.831S1000
G1 X4.35F5000S0
G1 X0.872F1500S1000
G1 X3.767F5000S0
G1 X0.412F1500S1000
G1 X4.289F5000S0
G1 X1.002F1500S1000
G1 X5.048F5000S0
G1 X0.946F1500S1000
G1 X0.947S0
G1 X0.495S1000
G1 X5.731F5000S0
G1 X0.5F1500S1000
G0 X0.625
G0 X-0.059Y0.15
G0 X-0.625
G1 X-0.501
G1 X-5.653F5000S0
G1 X-0.496F1500S1000
G1 X-1.238F5000S0
G1 X-0.947F1500S1000
G1 X-4.465F5000S0
G1 X-1.001F1500S1000
G1 X-4.597F5000S0
G1 X-0.411F1500S1000
G1 X-4.036F5000S0
G1 X-0.869F1500S1000
G1 X-3.842F5000S0
G1 X-0.833F1500S1000
G1 X-1.116F5000S0
G1 X-0.442F1500S1000
G1 X-4.936F5000S0
G1 X-0.447F1500S1000
G1 X-4.459F5000S0
G1 X-1.962F1500S1000
G0 X-0.625
G0 X-0.994Y0.15
G0 X0.625
G1 X2.075
G1 X5.396F5000S0
G1 X0.448F1500S1000
G1 X4.868F5000S0
G1 X0.442F1500S1000
G1 X1.37F5000S0
G1 X0.831F1500S1000
G1 X3.339F5000S0
G1 X0.878F1500S1000
G1 X4.29F5000S0
G1 X0.411F1500S1000
G1 X4.905F5000S0
G1 X0.997F1500S1000
G1 X3.887F5000S0
G1 X0.945F1500S1000
G1 X1.53F5000S0
G1 X0.498F1500S1000
G1 X5.574F5000S0
G1 X0.501F1500S1000
G0 X0.625
G0 X-0.06Y0.15
G0 X-0.625
G1 X-0.501
G1 X-5.496F5000S0
G1 X-0.5F1500S1000
G1 X-1.821F5000S0
G1 X-0.943F1500S1000
G1 X-3.308F5000S0
G1 X-1.089F1500S1000
G1 X-5.117F5000S0
G1 X-0.411F1500S1000
G1 X-4.455F5000S0
G1 X-0.976F1500S1000
G1 X-2.837F5000S0
G1 X-0.83F1500S1000
G1 X-1.623F5000S0
G1 X-0.443F1500S1000
G1 X-4.8F5000S0
G1 X-0.448F1500S1000
G1 X-5.585F5000S0
G1 X-0.316F1500S1000
G1 X-0.68S0
G1 X-1.941S1000
G0 X-0.625
G0 X-0.517Y0.15
G0 X0.625
G1 X1.447
G1 X1.673F5000S0
G1 X0.295F1500S1000
G1 X5.681F5000S0
G1 X0.447F1500S1000
G1 X4.733F5000S0
G1 X0.443F1500S1000
G1 X1.876F5000S0
G1 X0.829F1500S1000
G1 X2.334F5000S0
G1 X1.166F1500S1000
G1 X4.529F5000S0
G1 X0.41F1500S1000
G1 X5.201F5000S0
G1 X1.31F1500S1000
G1 X2.729F5000S0
G1 X0.941F1500S1000
G1 X2.113F5000S0
G1 X0.501F1500S1000
G1 X5.418F5000S0
G1 X0.502F1500S1000
G0 X0.625
G0 X-0.06Y0.15
G0 X-0.625
G1 X-0.502
G1 X-5.34F5000S0
G1 X-0.502F1500S1000
G1 X-2.406F5000S0
G1 X-0.938F1500S1000
G1 X-2.15F5000S0
G1 X-1.598F1500S1000
G1 X-5.217F5000S0
G1 X-0.41F1500S1000
G1 X-4.553F5000S0
G1 X-1.406F1500S1000
G1 X-1.831F5000S0
G1 X-0.827F1500S1000
G1 X-2.13F5000S0
G1 X-0.444F1500S1000
G1 X-4.665F5000S0
G1 X-0.447F1500S1000
G1 X-5.771F5000S0
G1 X-0.295F1500S1000
G1 X-2.399F5000S0
G1 X-0.571F1500S1000
G0 X-0.625
G0 X0.223Y0.15
G0 X0.625
G1 X0.5
G1 X2.214F5000S0
G1 X0.294F1500S1000
G1 X5.862F5000S0
G1 X0.447F1500S1000
G1 X4.597F5000S0
G1 X0.444F1500S1000
G1 X2.384F5000S0
G1 X0.825F1500S1000
G1 X1.328F5000S0
G1 X0.888F1500S1000
G1 X0.343S0
G1 X0.431S1000
G1 X4.562F5000S0
G1 X0.408F1500S1000
G1 X5.22F5000S0
G1 X0.483F1500S1000
G1 X0.393S0
G1 X1.023S1000
G1 X1.572F5000S0
G1 X0.934F1500S1000
G1 X2.699F5000S0
G1 X0.504F1500S1000
G1 X5.261F5000S0
G1 X0.503F1500S1000
G0 X0.625
G0 X-0.059Y0.15
G0 X-0.625
G1 X-0.504
G1 X-5.183F5000S0
G1 X-0.505F1500S1000
G1 X-2.992F5000S0
G1 X-0.931F1500S1000
G1 X-0.993S0
G1 X-1.044S1000
G1 X-0.677S0
G1 X-0.481S1000
G1 X-5.22F5000S0
G1 X-0.408F1500S1000
G1 X-4.563F5000S0
G1 X-0.43F1500S1000
G1 X-0.612S0
G1 X-0.884S1000
G1 X-0.825S0
G1 X-0.822S1000
G1 X-2.639F5000S0
G1 X-0.445F1500S1000
G1 X-4.529F5000S0
G1 X-0.447F1500S1000
G1 X-5.952F5000S0
G1 X-0.293F1500S1000
G1 X-1.965F5000S0
G1 X-0.501F1500S1000
G0 X-0.625
G0 X0.214Y0.15
G0 X0.625
G1 X0.503
G1 X1.714F5000S0
G1 X0.294F1500S1000
G1 X6.042F5000S0
G1 X0.447F1500S1000
G1 X4.462F5000S0
G1 X0.446F1500S1000
G1 X2.892F5000S0
G1 X0.826F1500S1000
G1 X0.311S0
G1 X0.885S1000
G1 X0.879S0
G1 X0.431S1000
G1 X4.563F5000S0
G1 X0.408F1500S1000
G1 X5.22F5000S0
G1 X0.483F1500S1000
G1 X1.005F5000S0
G1 X1.018F1500S1000
G1 X0.414S0
G1 X0.928S1000
G1 X3.285F5000S0
G1 X0.507F1500S1000
G1 X5.104F5000S0
G1 X0.504F1500S1000
G0 X0.625
G0 X4.907Y0.15
G0 X-0.625
G1 X-0.061
G1 X-4.906F5000S0
G1 X-0.504F1500S1000
G1 X-5.026F5000S0
G1 X-0.509F1500S1000
G1 X-3.578F5000S0
G1 X-1.739F1500S1000
G1 X-1.346F5000S0
G1 X-0.483F1500S1000
G1 X-5.22F5000S0
G1 X-0.408F1500S1000
G1 X-4.565F5000S0
G1 X-0.43F1500S1000
G1 X-1.15F5000S0
G1 X-1.51F1500S1000
G1 X-3.146F5000S0
G1 X-0.446F1500S1000
G1 X-4.394F5000S0
G1 X-0.447F1500S1000
G1 X-6.133F5000S0
G1 X-0.295F1500S1000
G1 X-1.462F5000S0
G1 X-0.505F1500S1000
G0 X-0.625
G0 X0.214Y0.15
G0 X0.625
G1 X0.507
G1 X1.211F5000S0
G1 X0.295F1500S1000
G1 X6.224F5000S0
G1 X0.448F1500S1000
G1 X4.326F5000S0
G1 X0.446F1500S1000
G1 X3.395F5000S0
G1 X1.023F1500S1000
G1 X1.4F5000S0
G1 X0.431F1500S1000
G1 X4.565F5000S0
G1 X0.409F1500S1000
G1 X5.22F5000S0
G1 X0.484F1500S1000
G1 X1.586F5000S0
G1 X1.23F1500S1000
G1 X3.86F5000S0
G1 X0.51F1500S1000
G1 X4.948F5000S0
G1 X0.505F1500S1000
G1 X4.858F5000S0
G1 X0.283F1500S1000
G0 X0.625
G0 X0.035Y0.15
G0 X-0.625
G1 X-0.299
G1 X-4.937F5000S0
G1 X-0.505F1500S1000
G1 X-4.87F5000S0
G1 X-0.51F1500S1000
G1 X-4.034F5000S0
G1 X-0.932F1500S1000
G1 X-1.724F5000S0
G1 X-0.485F1500S1000
G1 X-5.221F5000S0
G1 X-0.408F1500S1000
G1 X-4.566F5000S0
G1 X-0.431F1500S1000
G1 X-1.517F5000S0
G1 X-0.768F1500S1000
G1 X-3.546F5000S0
G1 X-0.445F1500S1000
G1 X-4.26F5000S0
G1 X-0.448F1500S1000
G1 X-6.316F5000S0
G1 X-0.295F1500S1000
G1 X-0.959S0
G1 X-0.508S1000
G0 X-0.625
G0 X0.214Y0.15
G0 X0.625
G1 X0.511
G1 X0.704S0
G1 X0.298S1000
G1 X6.408F5000S0
G1 X0.448F1500S1000
G1 X4.192F5000S0
G1 X0.445F1500S1000
G1 X3.551F5000S0
G1 X0.737F1500S1000
G1 X1.556F5000S0
G1 X0.43F1500S1000
G1 X4.568F5000S0
G1 X0.408F1500S1000
G1 X5.221F5000S0
G1 X0.485F1500S1000
G1 X1.8F5000S0
G1 X0.848F1500S1000
G1 X4.056F5000S0
G1 X0.511F1500S1000
G1 X4.792F5000S0
G1 X0.505F1500S1000
G1 X5.021F5000S0
G1 X0.303F1500S1000
G0 X0.625
G0 X0.026Y0.15
G0 X-0.625
G1 X-0.305
G1 X-5.104F5000S0
G1 X-0.506F1500S1000
G1 X-4.713F5000S0
G1 X-0.512F1500S1000
G1 X-4.015F5000S0
G1 X-0.869F1500S1000
G1 X-1.834F5000S0
G1 X-0.486F1500S1000
G1 X-5.221F5000S0
G1 X-0.409F1500S1000
G1 X-4.568F5000S0
G1 X-0.431F1500S1000
G1 X-1.568F5000S0
G1 X-0.781F1500S1000
G1 X-3.507F5000S0
G1 X-0.445F1500S1000
G1 X-4.124F5000S0
G1 X-0.449F1500S1000
G1 X-6.499F5000S0
G1 X-0.309F1500S1000
G1 X-0.439S0
G1 X-0.515S1000
G0 X-0.625
G0 X0.214Y0.15
G0 X0.625
G1 X1.013
G1 X6.592F5000S0
G1 X0.448F1500S1000
G1 X4.057F5000S0
G1 X0.445F1500S1000
G1 X3.451F5000S0
G1 X0.84F1500S1000
G1 X1.578F5000S0
G1 X0.431F1500S1000
G1 X4.569F5000S0
G1 X0.408F1500S1000
G1 X5.221F5000S0
G1 X0.488F1500S1000
G1 X1.84F5000S0
G1 X0.94F1500S1000
G1 X3.951F5000S0
G1 X0.513F1500S1000
G1 X4.635F5000S0
G1 X0.506F1500S1000
G1 X5.189F5000S0
G1 X0.306F1500S1000
G0 X0.625
G0 X0.026Y0.15
G0 X-0.625
G1 X-0.306
G1 X-5.275F5000S0
G1 X-0.506F1500S1000
G1 X-4.557F5000S0
G1 X-0.514F1500S1000
G1 X-3.887F5000S0
G1 X-1.037F1500S1000
G1 X-1.821F5000S0
G1 X-0.488F1500S1000
G1 X-5.221F5000S0
G1 X-0.409F1500S1000
G1 X-4.569F5000S0
G1 X-0.432F1500S1000
G1 X-1.586F5000S0
G1 X-0.9F1500S1000
G1 X-3.395F5000S0
G1 X-0.445F1500S1000
G1 X-3.989F5000S0
G1 X-0.449F1500S1000
G1 X-6.673F5000S0
G1 X-0.773F1500S1000
G0 X-0.625
G0 X0.216Y0.15
G0 X0.625
G1 X0.584
G1 X6.703F5000S0
G1 X0.449F1500S1000
G1 X3.922F5000S0
G1 X0.444F1500S1000
G1 X3.34F5000S0
G1 X0.958F1500S1000
G1 X1.596F5000S0
G1 X0.431F1500S1000
G1 X4.571F5000S0
G1 X0.409F1500S1000
G1 X5.221F5000S0
G1 X0.489F1500S1000
G1 X1.829F5000S0
G1 X0.544F1500S1000
G1 X0.023S0
G1 X0.54S1000
G1 X3.823F5000S0
G1 X0.514F1500S1000
G1 X4.479F5000S0
G1 X0.507F1500S1000
G1 X5.361F5000S0
G1 X0.305F1500S1000
G0 X0.625
G0 X0.026Y0.15
G0 X-0.625
G1 X-0.304
G1 X-5.448F5000S0
G1 X-0.507F1500S1000
G1 X-4.402F5000S0
G1 X-0.514F1500S1000
G1 X-3.759F5000S0
G1 X-0.536F1500S1000
G1 X-0.121S0
G1 X-0.516S1000
G1 X-1.84F5000S0
G1 X-0.49F1500S1000
G1 X-5.222F5000S0
G1 X-0.408F1500S1000
G1 X-4.572F5000S0
G1 X-0.432F1500S1000
G1 X-1.604F5000S0
G1 X-0.436F1500S1000
G1 X-0.111S0
G1 X-0.471S1000
G1 X-3.284F5000S0
G1 X-0.444F1500S1000
G1 X-3.855F5000S0
G1 X-0.449F1500S1000
G1 X-6.61F5000S0
G1 X-0.517F1500S1000
G0 X-0.625
G0 X0.216Y0.15
G0 X0.625
G1 X0.52
G1 X6.448F5000S0
G1 X0.449F1500S1000
G1 X3.787F5000S0
G1 X0.444F1500S1000
G1 X3.229F5000S0
G1 X0.471F1500S1000
G1 X0.17S0
G1 X0.435S1000
G1 X1.614F5000S0
G1 X0.432F1500S1000
G1 X4.572F5000S0
G1 X0.409F1500S1000
G1 X5.222F5000S0
G1 X0.49F1500S1000
G1 X1.852F5000S0
G1 X0.495F1500S1000
G1 X0.208S0
G1 X0.537S1000
G1 X3.695F5000S0
G1 X0.514F1500S1000
G1 X4.323F5000S0
G1 X0.508F1500S1000
G1 X5.535F5000S0
G1 X0.303F1500S1000
G0 X0.625
G0 X0.025Y0.15
G0 X-0.625
G1 X-0.301
G1 X-5.622F5000S0
G1 X-0.508F1500S1000
G1 X-4.245F5000S0
G1 X-0.515F1500S1000
G1 X-3.631F5000S0
G1 X-0.537F1500S1000
G1 X-0.281S0
G1 X-0.489S1000
G1 X-1.862F5000S0
G1 X-0.491F1500S1000
G1 X-5.222F5000S0
G1 X-0.409F1500S1000
G1 X-4.573F5000S0
G1 X-0.432F1500S1000
G1 X-1.623F5000S0
G1 X-0.436F1500S1000
G1 X-0.228S0
G1 X-0.472S1000
G1 X-3.173F5000S0
G1 X-0.444F1500S1000
G1 X-3.719F5000S0
G1 X-0.45F1500S1000
G1 X-6.285F5000S0
G1 X-0.524F1500S1000
G0 X-0.625
G0 X0.216Y0.15
G0 X0.625
G1 X0.525
G1 X6.125F5000S0
G1 X0.449F1500S1000
G1 X3.652F5000S0
G1 X0.444F1500S1000
G1 X3.117F5000S0
G1 X0.472F1500S1000
G1 X0.287S0
G1 X0.436S1000
G1 X1.633F5000S0
G1 X0.431F1500S1000
G1 X4.574F5000S0
G1 X0.409F1500S1000
G1 X5.222F5000S0
G1 X0.493F1500S1000
G1 X1.873F5000S0
G1 X0.489F1500S1000
G1 X0.347S0
G1 X0.538S1000
G1 X3.567F5000S0
G1 X0.515F1500S1000
G1 X4.167F5000S0
G1 X0.509F1500S1000
G1 X5.708F5000S0
G1 X0.298F1500S1000
G0 X0.625
G0 X0.025Y0.15
G0 X-0.625
G1 X-0.296
G1 X-5.795F5000S0
G1 X-0.509F1500S1000
G1 X-4.089F5000S0
G1 X-0.515F1500S1000
G1 X-3.504F5000S0
G1 X-0.538F1500S1000
G1 X-0.408S0
G1 X-0.494S1000
G1 X-1.885F5000S0
G1 X-0.493F1500S1000
G1 X-5.222F5000S0
G1 X-0.409F1500S1000
G1 X-4.575F5000S0
G1 X-0.43F1500S1000
G1 X-1.643F5000S0
G1 X-0.437F1500S1000
G1 X-0.345S0
G1 X-0.472S1000
G1 X-3.061F5000S0
G1 X-0.444F1500S1000
G1 X-3.585F5000S0
G1 X-0.45F1500S1000
G1 X-5.964F5000S0
G1 X-0.526F1500S1000
G0 X-0.625
G0 X0.216Y0.15
G0 X0.625
G1 X0.526
G1 X5.805F5000S0
G1 X0.45F1500S1000
G1 X3.517F5000S0
G1 X0.444F1500S1000
G1 X3.005F5000S0
G1 X0.473F1500S1000
G1 X0.404S0
G1 X0.436S1000
G1 X1.653F5000S0
G1 X0.43F1500S1000
G1 X4.576F5000S0
G1 X0.409F1500S1000
G1 X5.222F5000S0
G1 X0.494F1500S1000
G1 X1.895F5000S0
G1 X0.497F1500S1000
G1 X0.472S0
G1 X0.539S1000
G1 X3.441F5000S0
G1 X0.513F1500S1000
G1 X4.012F5000S0
G1 X0.509F1500S1000
G1 X5.882F5000S0
G1 X0.294F1500S1000
G1 X4.106F5000S0
G1 X0.524F1500S1000
G0 X0.625
G0 X0.016Y0.15
G0 X-0.625
G1 X-1.427
G1 X-3.195F5000S0
G1 X-0.291F1500S1000
G1 X-5.969F5000S0
G1 X-0.509F1500S1000
G1 X-3.934F5000S0
G1 X-0.513F1500S1000
G1 X-3.378F5000S0
G1 X-0.539F1500S1000
G1 X-0.536S0
G1 X-0.499S1000
G1 X-1.906F5000S0
G1 X-0.496F1500S1000
G1 X-5.222F5000S0
G1 X-0.409F1500S1000
G1 X-4.576F5000S0
G1 X-0.43F1500S1000
G1 X-1.662F5000S0
G1 X-0.437F1500S1000
G1 X-0.462S0
G1 X-0.474S1000
G1 X-2.949F5000S0
G1 X-0.444F1500S1000
G1 X-3.45F5000S0
G1 X-0.45F1500S1000
G1 X-5.703F5000S0
G1 X-0.469F1500S1000
G0 X-0.625
G0 X0.203Y0.15
G0 X0.625
G1 X0.26
G1 X5.766F5000S0
G1 X0.45F1500S1000
G1 X3.382F5000S0
G1 X0.444F1500S1000
G1 X2.894F5000S0
G1 X0.473F1500S1000
G1 X0.521S0
G1 X0.437S1000
G1 X1.672F5000S0
G1 X0.43F1500S1000
G1 X4.577F5000S0
G1 X0.409F1500S1000
G1 X5.222F5000S0
G1 X0.496F1500S1000
G1 X1.918F5000S0
G1 X0.498F1500S1000
G1 X0.603S0
G1 X0.54S1000
G1 X3.315F5000S0
G1 X0.512F1500S1000
G1 X3.856F5000S0
G1 X0.509F1500S1000
G1 X6.056F5000S0
G1 X0.289F1500S1000
G1 X2.283F5000S0
G1 X1.833F1500S1000
G0 X0.625
G0 X-0.897Y0.15
G0 X-0.625
G1 X-1.823
G1 X-1.358F5000S0
G1 X-0.3F1500S1000
G1 X-6.142F5000S0
G1 X-0.51F1500S1000
G1 X-3.778F5000S0
G1 X-0.511F1500S1000
G1 X-3.253F5000S0
G1 X-0.54F1500S1000
G1 X-0.67S0
G1 X-0.498S1000
G1 X-1.928F5000S0
G1 X-0.498F1500S1000
G1 X-5.221F5000S0
G1 X-0.41F1500S1000
G1 X-4.576F5000S0
G1 X-0.43F1500S1000
G1 X-1.682F5000S0
G1 X-0.438F1500S1000
G1 X-0.579S0
G1 X-0.474S1000
G1 X-2.838F5000S0
G1 X-0.444F1500S1000
G1 X-3.314F5000S0
G1 X-0.45F1500S1000
G0 X-0.625
G0 X0.056Y0.15
G0 X0.625
G1 X0.45
G1 X3.248F5000S0
G1 X0.443F1500S1000
G1 X2.783F5000S0
G1 X0.474F1500S1000
G1 X0.637S0
G1 X0.438S1000
G1 X1.692F5000S0
G1 X0.431F1500S1000
G1 X4.576F5000S0
G1 X0.409F1500S1000
G1 X5.222F5000S0
G1 X0.499F1500S1000
G1 X1.939F5000S0
G1 X0.497F1500S1000
G1 X0.737S0
G1 X0.541S1000
G1 X3.19F5000S0
G1 X0.51F1500S1000
G1 X3.7F5000S0
G1 X0.51F1500S1000
G1 X6.229F5000S0
G1 X0.372F1500S1000
G1 X0.395S0
G1 X1.806S1000
G0 X0.625
G0 X-0.88Y0.15
G0 X-0.625
G1 X-1.666
G1 X-6.316F5000S0
G1 X-0.51F1500S1000
G1 X-3.622F5000S0
G1 X-0.51F1500S1000
G1 X-3.127F5000S0
G1 X-0.541F1500S1000
G1 X-0.804S0
G1 X-0.496S1000
G1 X-1.95F5000S0
G1 X-0.5F1500S1000
G1 X-5.222F5000S0
G1 X-0.409F1500S1000
G1 X-4.577F5000S0
G1 X-0.431F1500S1000
G1 X-1.701F5000S0
G1 X-0.439F1500S1000
G1 X-0.696S0
G1 X-0.474S1000
G1 X-2.727F5000S0
G1 X-0.443F1500S1000
G1 X-3.18F5000S0
G1 X-0.45F1500S1000
G0 X-0.625
G0 X0.056Y0.15
G0 X0.625
G1 X0.451
G1 X3.112F5000S0
G1 X0.443F1500S1000
G1 X2.671F5000S0
G1 X0.475F1500S1000
G1 X0.754S0
G1 X0.439S1000
G1 X1.711F5000S0
G1 X0.432F1500S1000
G1 X4.576F5000S0
G1 X0.41F1500S1000
G1 X5.221F5000S0
G1 X0.502F1500S1000
G1 X1.961F5000S0
G1 X0.495F1500S1000
G1 X0.872S0
G1 X0.541S1000
G1 X3.064F5000S0
G1 X0.508F1500S1000
G1 X3.545F5000S0
G1 X0.51F1500S1000
G1 X6.416F5000S0
G1 X0.745F1500S1000
G0 X0.625
G0 X-7.221Y0.15
G0 X-0.625
G1 X-0.51
G1 X-3.467F5000S0
G1 X-0.507F1500S1000
G1 X-3.002F5000S0
G1 X-0.541F1500S1000
G1 X-0.939S0
G1 X-0.495S1000
G1 X-1.971F5000S0
G1 X-0.503F1500S1000
G1 X-5.222F5000S0
G1 X-0.409F1500S1000
G1 X-4.576F5000S0
G1 X-0.433F1500S1000
G1 X-1.72F5000S0
G1 X-0.44F1500S1000
G1 X-0.812S0
G1 X-0.475S1000
G1 X-2.616F5000S0
G1 X-0.443F1500S1000
G1 X-3.045F5000S0
G1 X-0.45F1500S1000
G0 X-0.625
G0 X0.056Y0.15
G0 X0.625
G1 X0.451
G1 X2.977F5000S0
G1 X0.443F1500S1000
G1 X2.56F5000S0
G1 X0.476F1500S1000
G1 X0.87S0
G1 X0.44S1000
G1 X1.731F5000S0
G1 X0.432F1500S1000
G1 X4.576F5000S0
G1 X0.41F1500S1000
G1 X5.221F5000S0
G1 X0.506F1500S1000
G1 X1.981F5000S0
G1 X0.494F1500S1000
G1 X1.006F5000S0
G1 X0.541F1500S1000
G1 X2.94F5000S0
G1 X0.506F1500S1000
G1 X3.389F5000S0
G1 X0.511F1500S1000
G0 X0.625
G0 X-0.06Y0.15
G0 X-0.625
G1 X-0.512
G1 X-3.31F5000S0
G1 X-0.506F1500S1000
G1 X-2.876F5000S0
G1 X-0.542F1500S1000
G1 X-1.073F5000S0
G1 X-0.493F1500S1000
G1 X-1.993F5000S0
G1 X-0.506F1500S1000
G1 X-5.221F5000S0
G1 X-0.41F1500S1000
G1 X-4.576F5000S0
G1 X-0.433F1500S1000
G1 X-1.74F5000S0
G1 X-0.441F1500S1000
G1 X-0.929S0
G1 X-0.476S1000
G1 X-2.504F5000S0
G1 X-0.442F1500S1000
G1 X-2.91F5000S0
G1 X-0.451F1500S1000
G0 X-0.625
G0 X0.056Y0.15
G0 X0.625
G1 X0.451
G1 X2.843F5000S0
G1 X0.442F1500S1000
G1 X2.449F5000S0
G1 X0.476F1500S1000
G1 X0.987S0
G1 X0.441S1000
G1 X1.75F5000S0
G1 X0.434F1500S1000
G1 X4.575F5000S0
G1 X0.41F1500S1000
G1 X5.221F5000S0
G1 X0.508F1500S1000
G1 X2.003F5000S0
G1 X0.493F1500S1000
G1 X1.14F5000S0
G1 X0.542F1500S1000
G1 X2.814F5000S0
G1 X0.505F1500S1000
G1 X3.232F5000S0
G1 X0.512F1500S1000
G0 X0.625
G0 X-0.06Y0.15
G0 X-0.625
G1 X-0.512
G1 X-3.155F5000S0
G1 X-0.503F1500S1000
G1 X-2.751F5000S0
G1 X-0.543F1500S1000
G1 X-1.207F5000S0
G1 X-0.492F1500S1000
G1 X-2.014F5000S0
G1 X-0.509F1500S1000
G1 X-5.221F5000S0
G1 X-0.411F1500S1000
G1 X-4.575F5000S0
G1 X-0.434F1500S1000
G1 X-1.76F5000S0
G1 X-0.441F1500S1000
G1 X-1.045F5000S0
G1 X-0.477F1500S1000
G1 X-2.393F5000S0
G1 X-0.442F1500S1000
G1 X-2.775F5000S0
G1 X-0.451F1500S1000
G0 X-0.625
G0 X0.056Y0.15
G0 X0.625
G1 X0.452
G1 X2.707F5000S0
G1 X0.442F1500S1000
G1 X2.338F5000S0
G1 X0.476F1500S1000
G1 X1.104F5000S0
G1 X0.441F1500S1000
G1 X1.771F5000S0
G1 X0.434F1500S1000
G1 X4.574F5000S0
G1 X0.412F1500S1000
G1 X5.22F5000S0
G1 X0.509F1500S1000
G1 X2.026F5000S0
G1 X0.492F1500S1000
G1 X1.274F5000S0
G1 X0.543F1500S1000
G1 X2.689F5000S0
G1 X0.501F1500S1000
G1 X3.078F5000S0
G1 X0.512F1500S1000
G0 X0.625
G0 X-0.059Y0.15
G0 X-0.625
G1 X-0.513
G1 X-3F5000S0
G1 X-0.501F1500S1000
G1 X-2.625F5000S0
G1 X-0.544F1500S1000
G1 X-1.341F5000S0
G1 X-0.492F1500S1000
G1 X-2.039F5000S0
G1 X-0.507F1500S1000
G1 X-5.221F5000S0
G1 X-0.412F1500S1000
G1 X-4.573F5000S0
G1 X-0.435F1500S1000
G1 X-1.78F5000S0
G1 X-0.442F1500S1000
G1 X-1.162F5000S0
G1 X-0.477F1500S1000
G1 X-2.283F5000S0
G1 X-0.441F1500S1000
G1 X-2.64F5000S0
G1 X-0.451F1500S1000
G0 X-0.625
G0 X0.057Y0.15
G0 X0.625
G1 X0.451
G1 X2.572F5000S0
G1 X0.441F1500S1000
G1 X2.227F5000S0
G1 X0.478F1500S1000
G1 X1.219F5000S0
G1 X0.443F1500S1000
G1 X1.79F5000S0
G1 X0.435F1500S1000
G1 X4.573F5000S0
G1 X0.413F1500S1000
G1 X5.221F5000S0
G1 X0.506F1500S1000
G1 X2.052F5000S0
G1 X0.491F1500S1000
G1 X1.408F5000S0
G1 X0.544F1500S1000
G1 X2.563F5000S0
G1 X0.499F1500S1000
G1 X2.923F5000S0
G1 X0.513F1500S1000
G0 X0.625
G0 X-0.06Y0.15
G0 X-0.625
G1 X-0.513
G1 X-2.845F5000S0
G1 X-0.498F1500S1000
G1 X-2.5F5000S0
G1 X-0.545F1500S1000
G1 X-1.475F5000S0
G1 X-0.491F1500S1000
G1 X-2.064F5000S0
G1 X-0.506F1500S1000
G1 X-5.22F5000S0
G1 X-0.414F1500S1000
G1 X-4.572F5000S0
G1 X-0.436F1500S1000
G1 X-1.8F5000S0
G1 X-0.443F1500S1000
G1 X-1.277F5000S0
G1 X-0.478F1500S1000
G1 X-2.172F5000S0
G1 X-0.441F1500S1000
G1 X-2.504F5000S0
G1 X-0.452F1500S1000
G1 X-6.73F5000S0
G1 X-4.695F1500S1000
G0 X-0.625
G0 X-0.097Y0.15
G0 X0.625
G1 X4.849
G1 X6.73F5000S0
G1 X0.451F1500S1000
G1 X2.436F5000S0
G1 X0.442F1500S1000
G1 X2.116F5000S0
G1 X0.478F1500S1000
G1 X1.335F5000S0
G1 X0.444F1500S1000
G1 X1.811F5000S0
G1 X0.436F1500S1000
G1 X4.571F5000S0
G1 X0.414F1500S1000
G1 X5.221F5000S0
G1 X0.505F1500S1000
G1 X2.077F5000S0
G1 X0.489F1500S1000
G1 X1.543F5000S0
G1 X0.545F1500S1000
G1 X2.438F5000S0
G1 X0.496F1500S1000
G1 X2.767F5000S0
G1 X0.514F1500S1000
G0 X0.625
G0 X-0.059Y0.15
G0 X-0.625
G1 X-0.515
G1 X-2.689F5000S0
G1 X-0.496F1500S1000
G1 X-2.374F5000S0
G1 X-0.546F1500S1000
G1 X-1.61F5000S0
G1 X-0.489F1500S1000
G1 X-2.089F5000S0
G1 X-0.505F1500S1000
G1 X-5.22F5000S0
G1 X-0.414F1500S1000
G1 X-4.572F5000S0
G1 X-0.436F1500S1000
G1 X-1.821F5000S0
G1 X-0.445F1500S1000
G1 X-1.392F5000S0
G1 X-0.478F1500S1000
G1 X-2.061F5000S0
G1 X-0.442F1500S1000
G1 X-2.368F5000S0
G1 X-0.452F1500S1000
G1 X-8.697F5000S0
G1 X-0.545F1500S1000
G1 X-1.962F5000S0
G1 X-0.439F1500S1000
G0 X-0.625
G0 Y0.15
G0 X0.625
G1 X0.316
G1 X2.182F5000S0
G1 X0.326F1500S1000
G1 X8.876F5000S0
G1 X0.452F1500S1000
G1 X2.299F5000S0
G1 X0.443F1500S1000
G1 X2.006F5000S0
G1 X0.478F1500S1000
G1 X1.45F5000S0
G1 X0.445F1500S1000
G1 X1.831F5000S0
G1 X0.437F1500S1000
G1 X4.571F5000S0
G1 X0.415F1500S1000
G1 X5.22F5000S0
G1 X0.503F1500S1000
G1 X2.103F5000S0
G1 X0.488F1500S1000
G1 X1.677F5000S0
G1 X0.546F1500S1000
G1 X2.312F5000S0
G1 X0.494F1500S1000
G1 X2.612F5000S0
G1 X0.515F1500S1000
G0 X0.625
G0 X-0.061Y0.15
G0 X-0.625
G1 X-0.514
G1 X-2.535F5000S0
G1 X-0.493F1500S1000
G1 X-2.249F5000S0
G1 X-0.546F1500S1000
G1 X-1.744F5000S0
G1 X-0.488F1500S1000
G1 X-2.115F5000S0
G1 X-0.502F1500S1000
G1 X-5.22F5000S0
G1 X-0.416F1500S1000
G1 X-4.571F5000S0
G1 X-0.437F1500S1000
G1 X-1.841F5000S0
G1 X-0.446F1500S1000
G1 X-1.508F5000S0
G1 X-0.478F1500S1000
G1 X-1.951F5000S0
G1 X-0.442F1500S1000
G1 X-2.232F5000S0
G1 X-0.452F1500S1000
G1 X-8.944F5000S0
G1 X-0.31F1500S1000
G1 X-2.195F5000S0
G1 X-0.308F1500S1000
G0 X-0.625
G0 Y0.15
G0 X0.624
G1 X0.309
G1 X2.196F5000S0
G1 X0.306F1500S1000
G1 X9.004F5000S0
G1 X0.452F1500S1000
G1 X2.163F5000S0
G1 X0.443F1500S1000
G1 X1.896F5000S0
G1 X0.478F1500S1000
G1 X1.566F5000S0
G1 X0.447F1500S1000
G1 X1.85F5000S0
G1 X0.437F1500S1000
G1 X4.571F5000S0
G1 X0.416F1500S1000
G1 X5.221F5000S0
G1 X0.501F1500S1000
G1 X2.128F5000S0
G1 X0.486F1500S1000
G1 X1.812F5000S0
G1 X0.546F1500S1000
G1 X2.186F5000S0
G1 X0.493F1500S1000
G1 X2.456F5000S0
G1 X0.515F1500S1000
G0 X0.625
G0 X-0.06Y0.15
G0 X-0.625
G1 X-0.515
G1 X-2.379F5000S0
G1 X-0.493F1500S1000
G1 X-2.122F5000S0
G1 X-0.546F1500S1000
G1 X-1.879F5000S0
G1 X-0.486F1500S1000
G1 X-2.14F5000S0
G1 X-0.501F1500S1000
G1 X-5.22F5000S0
G1 X-0.417F1500S1000
G1 X-4.57F5000S0
G1 X-0.437F1500S1000
G1 X-1.861F5000S0
G1 X-0.448F1500S1000
G1 X-1.623F5000S0
G1 X-0.478F1500S1000
G1 X-1.841F5000S0
G1 X-0.443F1500S1000
G1 X-2.095F5000S0
G1 X-0.453F1500S1000
G1 X-9.065F5000S0
G1 X-0.304F1500S1000
G1 X-2.192F5000S0
G1 X-0.309F1500S1000
G0 X-0.625
G0 Y0.15
G0 X0.627
G1 X0.309
G1 X2.184F5000S0
G1 X0.295F1500S1000
G1 X9.137F5000S0
G1 X0.452F1500S1000
G1 X2.027F5000S0
G1 X0.444F1500S1000
G1 X1.785F5000S0
G1 X0.479F1500S1000
G1 X1.68F5000S0
G1 X0.449F1500S1000
G1 X1.871F5000S0
G1 X0.437F1500S1000
G1 X4.57F5000S0
G1 X0.418F1500S1000
G1 X5.22F5000S0
G1 X0.499F1500S1000
G1 X2.154F5000S0
G1 X0.485F1500S1000
G1 X1.946F5000S0
G1 X0.546F1500S1000
G1 X2.058F5000S0
G1 X0.494F1500S1000
G1 X2.301F5000S0
G1 X0.515F1500S1000
G0 X0.625
G0 X-0.061Y0.15
G0 X-0.625
G1 X-0.515
G1 X-2.223F5000S0
G1 X-0.493F1500S1000
G1 X-1.995F5000S0
G1 X-0.546F1500S1000
G1 X-2.014F5000S0
G1 X-0.484F1500S1000
G1 X-2.166F5000S0
G1 X-0.498F1500S1000
G1 X-5.221F5000S0
G1 X-0.418F1500S1000
G1 X-4.57F5000S0
G1 X-0.437F1500S1000
G1 X-1.881F5000S0
G1 X-0.449F1500S1000
G1 X-1.739F5000S0
G1 X-0.478F1500S1000
G1 X-1.73F5000S0
G1 X-0.444F1500S1000
G1 X-1.959F5000S0
G1 X-0.453F1500S1000
G1 X-9.204F5000S0
G1 X-0.3F1500S1000
G1 X-2.165F5000S0
G1 X-0.306F1500S1000
G0 X-0.625
G0 X0.014Y0.15
G0 X0.625
G1 X0.302
G1 X2.13F5000S0
G1 X0.346F1500S1000
G1 X9.24F5000S0
G1 X0.453F1500S1000
G1 X1.89F5000S0
G1 X0.445F1500S1000
G1 X1.675F5000S0
G1 X0.478F1500S1000
G1 X1.796F5000S0
G1 X0.45F1500S1000
G1 X1.891F5000S0
G1 X0.437F1500S1000
G1 X4.57F5000S0
G1 X0.419F1500S1000
G1 X5.221F5000S0
G1 X0.497F1500S1000
G1 X2.179F5000S0
G1 X0.483F1500S1000
G1 X2.081F5000S0
G1 X0.546F1500S1000
G1 X1.931F5000S0
G1 X0.493F1500S1000
G1 X2.146F5000S0
G1 X0.515F1500S1000
G0 X0.625
G0 X-0.06Y0.15
G0 X-0.625
G1 X-0.515
G1 X-2.068F5000S0
G1 X-0.493F1500S1000
G1 X-1.867F5000S0
G1 X-0.547F1500S1000
G1 X-2.148F5000S0
G1 X-0.484F1500S1000
G1 X-2.19F5000S0
G1 X-0.496F1500S1000
G1 X-5.221F5000S0
G1 X-0.42F1500S1000
G1 X-4.57F5000S0
G1 X-0.436F1500S1000
G1 X-1.902F5000S0
G1 X-0.45F1500S1000
G1 X-1.855F5000S0
G1 X-0.478F1500S1000
G1 X-1.62F5000S0
G1 X-0.444F1500S1000
G1 X-1.823F5000S0
G1 X-0.453F1500S1000
G1 X-9.195F5000S0
G1 X-0.485F1500S1000
G1 X-2.062F5000S0
G1 X-0.301F1500S1000
G0 X-0.625
G0 X0.042Y0.15
G0 X0.625
G1 X0.316
G1 X1.949F5000S0
G1 X0.767F1500S1000
G1 X9.026F5000S0
G1 X0.453F1500S1000
G1 X1.754F5000S0
G1 X0.445F1500S1000
G1 X1.565F5000S0
G1 X0.478F1500S1000
G1 X1.912F5000S0
G1 X0.451F1500S1000
G1 X1.912F5000S0
G1 X0.436F1500S1000
G1 X4.57F5000S0
G1 X0.42F1500S1000
G1 X5.222F5000S0
G1 X0.495F1500S1000
G1 X2.202F5000S0
G1 X0.484F1500S1000
G1 X2.215F5000S0
G1 X0.547F1500S1000
G1 X1.803F5000S0
G1 X0.493F1500S1000
G1 X1.991F5000S0
G1 X0.515F1500S1000
G0 X0.625
G0 X-0.06Y0.15
G0 X-0.625
G1 X-0.516
G1 X-1.912F5000S0
G1 X-0.493F1500S1000
G1 X-1.74F5000S0
G1 X-0.547F1500S1000
G1 X-2.282F5000S0
G1 X-0.484F1500S1000
G1 X-2.215F5000S0
G1 X-0.494F1500S1000
G1 X-5.221F5000S0
G1 X-0.421F1500S1000
G1 X-4.569F5000S0
G1 X-0.437F1500S1000
G1 X-1.921F5000S0
G1 X-0.453F1500S1000
G1 X-1.97F5000S0
G1 X-0.477F1500S1000
G1 X-1.51F5000S0
G1 X-0.445F1500S1000
G1 X-1.686F5000S0
G1 X-0.454F1500S1000
G1 X-8.83F5000S0
G1 X-0.618F1500S1000
G1 X-0.059S0
G1 X-0.426S1000
G1 X-1.779F5000S0
G1 X-0.343F1500S1000
G0 X-0.625
G0 X0.081Y0.15
G0 X0.625
G1 X0.389
G1 X1.528F5000S0
G1 X0.392F1500S1000
G1 X0.497S0
G1 X0.59S1000
G1 X8.635F5000S0
G1 X0.453F1500S1000
G1 X1.618F5000S0
G1 X0.446F1500S1000
G1 X1.454F5000S0
G1 X0.478F1500S1000
G1 X2.028F5000S0
G1 X0.453F1500S1000
G1 X1.931F5000S0
G1 X0.437F1500S1000
G1 X4.57F5000S0
G1 X0.42F1500S1000
G1 X5.222F5000S0
G1 X0.493F1500S1000
G1 X2.227F5000S0
G1 X0.484F1500S1000
G1 X2.349F5000S0
G1 X0.547F1500S1000
G1 X1.676F5000S0
G1 X0.493F1500S1000
G1 X1.835F5000S0
G1 X0.515F1500S1000
G0 X0.625
G0 X-0.06Y0.15
G0 X-0.625
G1 X-0.515
G1 X-1.758F5000S0
G1 X-0.492F1500S1000
G1 X-1.613F5000S0
G1 X-0.547F1500S1000
G1 X-2.415F5000S0
G1 X-0.486F1500S1000
G1 X-2.238F5000S0
G1 X-0.492F1500S1000
G1 X-5.223F5000S0
G1 X-0.42F1500S1000
G1 X-4.57F5000S0
G1 X-0.437F1500S1000
G1 X-1.941F5000S0
G1 X-0.454F1500S1000
G1 X-2.085F5000S0
G1 X-0.478F1500S1000
G1 X-1.399F5000S0
G1 X-0.446F1500S1000
G1 X-1.55F5000S0
G1 X-0.454F1500S1000
G1 X-8.44F5000S0
G1 X-0.592F1500S1000
G1 X-0.855S0
G1 X-0.477S1000
G1 X-1.145F5000S0
G1 X-0.474F1500S1000
G0 X-0.625
G0 X0.138Y0.15
G0 X0.625
G1 X1.808
G1 X1.254F5000S0
G1 X0.589F1500S1000
G1 X8.25F5000S0
G1 X0.454F1500S1000
G1 X1.482F5000S0
G1 X0.447F1500S1000
G1 X1.344F5000S0
G1 X0.477F1500S1000
G1 X2.144F5000S0
G1 X0.454F1500S1000
G1 X1.95F5000S0
G1 X0.438F1500S1000
G1 X4.57F5000S0
G1 X0.42F1500S1000
G1 X5.224F5000S0
G1 X0.491F1500S1000
G1 X2.25F5000S0
G1 X0.486F1500S1000
G1 X2.482F5000S0
G1 X0.547F1500S1000
G1 X1.549F5000S0
G1 X0.492F1500S1000
G1 X1.681F5000S0
G1 X0.515F1500S1000
G0 X0.625
G0 X-0.06Y0.15
G0 X-0.625
G1 X-0.516
G1 X-1.602F5000S0
G1 X-0.492F1500S1000
G1 X-1.486F5000S0
G1 X-0.548F1500S1000
G1 X-2.548F5000S0
G1 X-0.486F1500S1000
G1 X-2.261F5000S0
G1 X-0.491F1500S1000
G1 X-5.225F5000S0
G1 X-0.42F1500S1000
G1 X-4.57F5000S0
G1 X-0.439F1500S1000
G1 X-1.959F5000S0
G1 X-0.455F1500S1000
G1 X-2.201F5000S0
G1 X-0.478F1500S1000
G1 X-1.289F5000S0
G1 X-0.446F1500S1000
G1 X-1.414F5000S0
G1 X-0.454F1500S1000
G1 X-8.061F5000S0
G1 X-0.586F1500S1000
G1 X-1.717F5000S0
G1 X-1.39F1500S1000
G0 X-0.625
G0 X0.515Y0.15
G0 X0.625
G1 X0.381
G1 X2.463F5000S0
G1 X0.58F1500S1000
G1 X7.871F5000S0
G1 X0.455F1500S1000
G1 X1.345F5000S0
G1 X0.447F1500S1000
G1 X1.234F5000S0
G1 X0.477F1500S1000
G1 X2.259F5000S0
G1 X0.456F1500S1000
G1 X1.969F5000S0
G1 X0.439F1500S1000
G1 X4.57F5000S0
G1 X0.42F1500S1000
G1 X5.226F5000S0
G1 X0.49F1500S1000
G1 X2.273F5000S0
G1 X0.486F1500S1000
G1 X2.615F5000S0
G1 X0.548F1500S1000
G1 X1.422F5000S0
G1 X0.492F1500S1000
G1 X1.525F5000S0
G1 X0.515F1500S1000
G0 X0.625
G0 X-0.06Y0.15
G0 X-0.625
G1 X-0.515
G1 X-1.448F5000S0
G1 X-0.492F1500S1000
G1 X-1.358F5000S0
G1 X-0.548F1500S1000
G1 X-2.682F5000S0
G1 X-0.487F1500S1000
G1 X-2.283F5000S0
G1 X-0.491F1500S1000
G1 X-5.226F5000S0
G1 X-0.42F1500S1000
G1 X-4.569F5000S0
G1 X-0.441F1500S1000
G1 X-1.978F5000S0
G1 X-0.456F1500S1000
G1 X-2.317F5000S0
G1 X-0.477F1500S1000
G1 X-1.179F5000S0
G1 X-0.447F1500S1000
G1 X-1.278F5000S0
G1 X-0.455F1500S1000
G1 X-7.714F5000S0
G1 X-0.54F1500S1000
G0 X-0.625
G0 X0.252Y0.15
G0 X0.625
G1 X0.347
G1 X7.711F5000S0
G1 X0.456F1500S1000
G1 X1.209F5000S0
G1 X0.448F1500S1000
G1 X1.123F5000S0
G1 X0.478F1500S1000
G1 X2.374F5000S0
G1 X0.458F1500S1000
G1 X1.986F5000S0
G1 X0.442F1500S1000
G1 X4.569F5000S0
G1 X0.42F1500S1000
G1 X5.227F5000S0
G1 X0.491F1500S1000
G1 X2.294F5000S0
G1 X0.488F1500S1000
G1 X2.748F5000S0
G1 X0.548F1500S1000
G1 X1.294F5000S0
G1 X0.492F1500S1000
G1 X1.371F5000S0
G1 X0.515F1500S1000
G0 X0.625
G0 X-0.06Y0.15
G0 X-0.625
G1 X-0.516
G1 X-1.292F5000S0
G1 X-0.493F1500S1000
G1 X-1.23F5000S0
G1 X-0.548F1500S1000
G1 X-2.815F5000S0
G1 X-0.488F1500S1000
G1 X-2.305F5000S0
G1 X-0.491F1500S1000
G1 X-5.228F5000S0
G1 X-0.421F1500S1000
G1 X-4.569F5000S0
G1 X-0.442F1500S1000
G1 X-1.995F5000S0
G1 X-0.458F1500S1000
G1 X-2.433F5000S0
G1 X-0.477F1500S1000
G1 X-1.068F5000S0
G1 X-0.448F1500S1000
G1 X-1.141F5000S0
G1 X-0.456F1500S1000
G0 X-0.625
G0 X0.056Y0.15
G0 X0.625
G1 X0.456
G1 X1.073F5000S0
G1 X0.448F1500S1000
G1 X1.014F5000S0
G1 X0.477F1500S1000
G1 X2.49F5000S0
G1 X0.459F1500S1000
G1 X2.005F5000S0
G1 X0.441F1500S1000
G1 X4.57F5000S0
G1 X0.421F1500S1000
G1 X5.229F5000S0
G1 X0.49F1500S1000
G1 X2.317F5000S0
G1 X0.488F1500S1000
G1 X2.882F5000S0
G1 X0.548F1500S1000
G1 X1.166F5000S0
G1 X0.493F1500S1000
G1 X1.215F5000S0
G1 X0.516F1500S1000
G0 X0.625
G0 X10.926Y0.15
G0 X-0.625
G1 X-1.189
G1 X-9.798F5000S0
G1 X-0.515F1500S1000
G1 X-1.138F5000S0
G1 X-0.492F1500S1000
G1 X-1.103F5000S0
G1 X-0.548F1500S1000
G1 X-2.949F5000S0
G1 X-0.489F1500S1000
G1 X-2.327F5000S0
G1 X-0.491F1500S1000
G1 X-5.229F5000S0
G1 X-0.422F1500S1000
G1 X-4.57F5000S0
G1 X-0.441F1500S1000
G1 X-2.014F5000S0
G1 X-0.46F1500S1000
G1 X-2.548F5000S0
G1 X-0.477F1500S1000
G1 X-0.958S0
G1 X-0.448S1000
G1 X-1.005F5000S0
G1 X-0.457F1500S1000
G0 X-0.625
G0 X0.057Y0.15
G0 X0.625
G1 X0.457
G1 X0.936S0
G1 X0.449S1000
G1 X0.903S0
G1 X0.477S1000
G1 X2.606F5000S0
G1 X0.46F1500S1000
G1 X2.023F5000S0
G1 X0.441F1500S1000
G1 X4.57F5000S0
G1 X0.423F1500S1000
G1 X5.23F5000S0
G1 X0.491F1500S1000
G1 X2.338F5000S0
G1 X0.49F1500S1000
G1 X3.015F5000S0
G1 X0.549F1500S1000
G1 X1.038F5000S0
G1 X0.492F1500S1000
G1 X1.061F5000S0
G1 X0.515F1500S1000
G1 X9.417F5000S0
G1 X2.081F1500S1000
G0 X0.625
G0 X0.302Y0.15
G0 X-0.625
G1 X-0.807
G1 X-1.085F5000S0
G1 X-0.757F1500S1000
G1 X-9.211F5000S0
G1 X-0.516F1500S1000
G1 X-0.982S0
G1 X-0.493S1000
G1 X-0.974S0
G1 X-0.549S1000
G1 X-3.081F5000S0
G1 X-0.491F1500S1000
G1 X-2.35F5000S0
G1 X-0.491F1500S1000
G1 X-5.23F5000S0
G1 X-0.424F1500S1000
G1 X-4.571F5000S0
G1 X-0.44F1500S1000
G1 X-2.032F5000S0
G1 X-0.459F1500S1000
G1 X-2.666F5000S0
G1 X-0.477F1500S1000
G1 X-0.847S0
G1 X-0.449S1000
G1 X-0.869S0
G1 X-0.457S1000
G0 X-0.625
G0 X0.056Y0.15
G0 X0.625
G1 X0.458
G1 X0.8S0
G1 X0.45S1000
G1 X0.791S0
G1 X0.478S1000
G1 X2.724F5000S0
G1 X0.459F1500S1000
G1 X2.042F5000S0
G1 X0.439F1500S1000
G1 X4.571F5000S0
G1 X0.425F1500S1000
G1 X5.231F5000S0
G1 X0.491F1500S1000
G1 X2.36F5000S0
G1 X0.494F1500S1000
G1 X3.146F5000S0
G1 X0.549F1500S1000
G1 X0.91S0
G1 X0.493S1000
G1 X0.905S0
G1 X0.515S1000
G1 X9.062F5000S0
G1 X0.57F1500S1000
G1 X1.926F5000S0
G1 X0.569F1500S1000
G0 X0.625
G0 X0.18Y0.15
G0 X-0.625
G1 X-0.488
G1 X-2.446F5000S0
G1 X-0.479F1500S1000
G1 X-8.954F5000S0
G1 X-0.515F1500S1000
G1 X-0.828S0
G1 X-0.493S1000
G1 X-0.846S0
G1 X-0.55S1000
G1 X-3.211F5000S0
G1 X-0.495F1500S1000
G1 X-2.371F5000S0
G1 X-0.492F1500S1000
G1 X-5.231F5000S0
G1 X-0.425F1500S1000
G1 X-4.572F5000S0
G1 X-0.439F1500S1000
G1 X-2.051F5000S0
G1 X-0.458F1500S1000
G1 X-2.783F5000S0
G1 X-0.478F1500S1000
G1 X-0.736S0
G1 X-0.45S1000
G1 X-0.732S0
G1 X-0.458S1000
G0 X-0.625
G0 X0.056Y0.15
G0 X0.625
G1 X0.458
G1 X0.664S0
G1 X0.45S1000
G1 X0.681S0
G1 X0.479S1000
G1 X2.841F5000S0
G1 X0.458F1500S1000
G1 X2.06F5000S0
G1 X0.439F1500S1000
G1 X4.572F5000S0
G1 X0.426F1500S1000
G1 X5.232F5000S0
G1 X0.492F1500S1000
G1 X2.381F5000S0
G1 X0.498F1500S1000
G1 X3.276F5000S0
G1 X0.55F1500S1000
G1 X0.782S0
G1 X0.493S1000
G1 X0.751S0
G1 X0.514S1000
G1 X8.88F5000S0
G1 X0.436F1500S1000
G1 X2.827F5000S0
G1 X0.429F1500S1000
G0 X0.625
G0 X0.124Y0.15
G0 X-0.625
G1 X-0.396
G1 X-3.14F5000S0
G1 X-0.397F1500S1000
G1 X-8.823F5000S0
G1 X-0.515F1500S1000
G1 X-0.673S0
G1 X-0.493S1000
G1 X-0.718S0
G1 X-0.55S1000
G1 X-3.341F5000S0
G1 X-0.5F1500S1000
G1 X-2.393F5000S0
G1 X-0.492F1500S1000
G1 X-5.232F5000S0
G1 X-0.427F1500S1000
G1 X-4.572F5000S0
G1 X-0.439F1500S1000
G1 X-2.069F5000S0
G1 X-0.457F1500S1000
G1 X-2.9F5000S0
G1 X-0.48F1500S1000
G1 X-0.625S0
G1 X-0.45S1000
G1 X-0.596S0
G1 X-0.459S1000
G0 X-0.625
G0 X0.057Y0.15
G0 X0.625
G1 X0.459
G1 X0.527S0
G1 X0.451S1000
G1 X0.569S0
G1 X0.481S1000
G1 X2.958F5000S0
G1 X0.457F1500S1000
G1 X2.079F5000S0
G1 X0.438F1500S1000
G1 X4.572F5000S0
G1 X0.428F1500S1000
G1 X5.232F5000S0
G1 X0.493F1500S1000
G1 X2.403F5000S0
G1 X0.502F1500S1000
G1 X3.407F5000S0
G1 X0.55F1500S1000
G1 X0.654S0
G1 X0.493S1000
G1 X0.596S0
G1 X0.514S1000
G1 X8.786F5000S0
G1 X0.378F1500S1000
G1 X3.382F5000S0
G1 X0.37F1500S1000
G0 X0.625
G0 X0.094Y0.15
G0 X-0.625
G1 X-0.358
G1 X-3.595F5000S0
G1 X-0.351F1500S1000
G1 X-8.766F5000S0
G1 X-0.514F1500S1000
G1 X-0.518S0
G1 X-0.493S1000
G1 X-0.591S0
G1 X-0.55S1000
G1 X-3.472F5000S0
G1 X-0.504F1500S1000
G1 X-2.414F5000S0
G1 X-0.493F1500S1000
G1 X-5.234F5000S0
G1 X-0.427F1500S1000
G1 X-4.573F5000S0
G1 X-0.438F1500S1000
G1 X-2.088F5000S0
G1 X-0.456F1500S1000
G1 X-3.017F5000S0
G1 X-0.482F1500S1000
G1 X-0.513S0
G1 X-0.451S1000
G1 X-0.46S0
G1 X-0.459S1000
G0 X-0.625
G0 X0.056Y0.15
G0 X0.625
G1 X0.46
G1 X0.392S0
G1 X0.451S1000
G1 X0.458S0
G1 X0.482S1000
G1 X3.075F5000S0
G1 X0.456F1500S1000
G1 X2.097F5000S0
G1 X0.437F1500S1000
G1 X4.574F5000S0
G1 X0.428F1500S1000
G1 X5.234F5000S0
G1 X0.494F1500S1000
G1 X2.425F5000S0
G1 X0.506F1500S1000
G1 X3.537F5000S0
G1 X0.549F1500S1000
G1 X0.527S0
G1 X0.494S1000
G1 X0.441S0
G1 X0.513S1000
G1 X8.748F5000S0
G1 X0.352F1500S1000
G1 X3.76F5000S0
G1 X0.337F1500S1000
G0 X0.625
G0 X0.065Y0.15
G0 X-0.625
G1 X-0.334
G1 X-3.905F5000S0
G1 X-0.325F1500S1000
G1 X-8.758F5000S0
G1 X-0.511F1500S1000
G1 X-0.366S0
G1 X-0.494S1000
G1 X-0.464S0
G1 X-0.548S1000
G1 X-3.603F5000S0
G1 X-0.508F1500S1000
G1 X-2.436F5000S0
G1 X-0.493F1500S1000
G1 X-5.236F5000S0
G1 X-0.428F1500S1000
G1 X-4.574F5000S0
G1 X-0.437F1500S1000
G1 X-2.106F5000S0
G1 X-0.455F1500S1000
G1 X-3.134F5000S0
G1 X-0.483F1500S1000
G1 X-0.402S0
G1 X-0.451S1000
G1 X-0.324S0
G1 X-0.46S1000
G0 X-0.625
G0 X0.056Y0.15
G0 X0.625
G1 X0.46
G1 X0.256S0
G1 X0.451S1000
G1 X0.347S0
G1 X0.484S1000
G1 X3.192F5000S0
G1 X0.454F1500S1000
G1 X2.117F5000S0
G1 X0.436F1500S1000
G1 X4.574F5000S0
G1 X0.428F1500S1000
G1 X5.237F5000S0
G1 X0.494F1500S1000
G1 X2.447F5000S0
G1 X0.51F1500S1000
G1 X3.668F5000S0
G1 X0.547F1500S1000
G1 X0.4S0
G1 X0.495S1000
G1 X0.293S0
G1 X0.506S1000
G1 X8.77F5000S0
G1 X0.325F1500S1000
G1 X4.019F5000S0
G1 X0.317F1500S1000
G0 X0.625
G0 X0.036Y0.15
G0 X-0.625
G1 X-0.315
G1 X-4.103F5000S0
G1 X-0.327F1500S1000
G1 X-8.782F5000S0
G1 X-0.507F1500S1000
G1 X-0.215S0
G1 X-0.495S1000
G1 X-0.337S0
G1 X-0.546S1000
G1 X-3.733F5000S0
G1 X-0.513F1500S1000
G1 X-2.457F5000S0
G1 X-0.494F1500S1000
G1 X-5.239F5000S0
G1 X-0.428F1500S1000
G1 X-4.574F5000S0
G1 X-0.436F1500S1000
G1 X-2.126F5000S0
G1 X-0.453F1500S1000
G1 X-3.25F5000S0
G1 X-0.486F1500S1000
G1 X-0.291S0
G1 X-0.451S1000
G1 X-0.188S0
G1 X-0.461S1000
G1 X-8.343F5000S0
G1 X-0.602F1500S1000
G0 X-0.625
G0 X-0.565Y0.15
G0 X0.625
G1 X1.11
G1 X8.456F5000S0
G1 X0.462F1500S1000
G1 X0.12S0
G1 X0.451S1000
G1 X0.236S0
G1 X0.486S1000
G1 X3.308F5000S0
G1 X0.453F1500S1000
G1 X2.135F5000S0
G1 X0.436F1500S1000
G1 X4.575F5000S0
G1 X0.428F1500S1000
G1 X5.239F5000S0
G1 X0.496F1500S1000
G1 X2.467F5000S0
G1 X0.514F1500S1000
G1 X3.799F5000S0
G1 X0.546F1500S1000
G1 X0.273S0
G1 X0.495S1000
G1 X0.124S0
G1 X0.52S1000
G1 X8.813F5000S0
G1 X0.316F1500S1000
G1 X4.182F5000S0
G1 X0.314F1500S1000
G0 X0.625
G0 X0.016Y0.15
G0 X-0.625
G1 X-0.306
G1 X-4.233F5000S0
G1 X-0.319F1500S1000
G1 X-8.843F5000S0
G1 X-0.557F1500S1000
G1 X-0.01S0
G1 X-0.496S1000
G1 X-0.209S0
G1 X-0.542S1000
G1 X-3.867F5000S0
G1 X-0.516F1500S1000
G1 X-2.477F5000S0
G1 X-0.498F1500S1000
G1 X-5.24F5000S0
G1 X-0.428F1500S1000
G1 X-4.575F5000S0
G1 X-0.435F1500S1000
G1 X-2.145F5000S0
G1 X-0.452F1500S1000
G1 X-3.367F5000S0
G1 X-0.487F1500S1000
G1 X-0.184S0
G1 X-0.961S1000
G1 X-8.985F5000S0
G1 X-1.204F1500S1000
G0 X-0.625
G0 X-0.56Y0.15
G0 X0.625
G1 X1.204
G1 X9.601F5000S0
G1 X0.888F1500S1000
G1 X0.134S0
G1 X0.488S1000
G1 X3.425F5000S0
G1 X0.452F1500S1000
G1 X2.154F5000S0
G1 X0.436F1500S1000
G1 X4.574F5000S0
G1 X0.428F1500S1000
G1 X5.242F5000S0
G1 X0.498F1500S1000
G1 X2.487F5000S0
G1 X0.518F1500S1000
G1 X3.937F5000S0
G1 X0.537F1500S1000
G1 X0.146S0
G1 X0.985S1000
G1 X8.875F5000S0
G1 X0.322F1500S1000
G1 X4.27F5000S0
G1 X0.307F1500S1000
G0 X0.625
G0 X0.011Y0.15
G0 X-0.625
G1 X-0.307
G1 X-4.308F5000S0
G1 X-0.316F1500S1000
G1 X-8.914F5000S0
G1 X-0.909F1500S1000
G1 X-0.082S0
G1 X-0.532S1000
G1 X-4.008F5000S0
G1 X-0.518F1500S1000
G1 X-2.497F5000S0
G1 X-0.5F1500S1000
G1 X-5.243F5000S0
G1 X-0.428F1500S1000
G1 X-4.574F5000S0
G1 X-0.435F1500S1000
G1 X-2.164F5000S0
G1 X-0.451F1500S1000
G1 X-3.484F5000S0
G1 X-0.489F1500S1000
G1 X-0.088S0
G1 X-0.811S1000
G1 X-10.217F5000S0
G1 X-1.201F1500S1000
G0 X-0.625
G0 X-0.554Y0.15
G0 X0.625
G1 X1.194
G1 X10.835F5000S0
G1 X1.265F1500S1000
G1 X3.542F5000S0
G1 X0.451F1500S1000
G1 X2.173F5000S0
G1 X0.436F1500S1000
G1 X4.574F5000S0
G1 X0.428F1500S1000
G1 X5.244F5000S0
G1 X0.501F1500S1000
G1 X2.507F5000S0
G1 X0.519F1500S1000
G1 X4.08F5000S0
G1 X1.375F1500S1000
G1 X8.954F5000S0
G1 X0.311F1500S1000
G1 X4.335F5000S0
G1 X0.304F1500S1000
G0 X0.625
G0 Y0.15
G0 X-0.63
G1 X-0.305
G1 X-4.355F5000S0
G1 X-0.305F1500S1000
G1 X-8.994F5000S0
G1 X-1.228F1500S1000
G1 X-4.152F5000S0
G1 X-0.52F1500S1000
G1 X-2.518F5000S0
G1 X-0.502F1500S1000
G1 X-5.245F5000S0
G1 X-0.428F1500S1000
G1 X-4.573F5000S0
G1 X-0.436F1500S1000
G1 X-2.183F5000S0
G1 X-0.45F1500S1000
G1 X-3.601F5000S0
G1 X-1.143F1500S1000
G1 X-11.451F5000S0
G1 X-1.185F1500S1000
G0 X-0.625
G0 X-0.563Y0.15
G0 X0.625
G1 X1.204
G1 X12.051F5000S0
G1 X1.021F1500S1000
G1 X3.659F5000S0
G1 X0.45F1500S1000
G1 X2.193F5000S0
G1 X0.435F1500S1000
G1 X4.573F5000S0
G1 X0.428F1500S1000
G1 X5.247F5000S0
G1 X0.503F1500S1000
G1 X2.528F5000S0
G1 X0.521F1500S1000
G1 X4.221F5000S0
G1 X1.084F1500S1000
G1 X9.033F5000S0
G1 X0.304F1500S1000
G1 X4.355F5000S0
G1 X0.307F1500S1000
G0 X0.625
G0 X-0.024Y0.15
G0 X-0.625
G1 X-0.308
G1 X-4.307F5000S0
G1 X-0.348F1500S1000
G1 X-9.073F5000S0
G1 X-0.945F1500S1000
G1 X-4.284F5000S0
G1 X-0.522F1500S1000
G1 X-2.539F5000S0
G1 X-0.504F1500S1000
G1 X-5.248F5000S0
G1 X-0.428F1500S1000
G1 X-4.572F5000S0
G1 X-0.436F1500S1000
G1 X-2.202F5000S0
G1 X-0.45F1500S1000
G1 X-3.717F5000S0
G1 X-0.898F1500S1000
G1 X-12.613F5000S0
G1 X-0.935F1500S1000
G0 X-0.625
G0 X0.335Y0.15
G0 X0.625
G1 X0.839
G1 X12.43F5000S0
G1 X0.776F1500S1000
G1 X3.775F5000S0
G1 X0.449F1500S1000
G1 X2.213F5000S0
G1 X0.436F1500S1000
G1 X4.571F5000S0
G1 X0.429F1500S1000
G1 X5.248F5000S0
G1 X0.506F1500S1000
G1 X2.548F5000S0
G1 X0.524F1500S1000
G1 X4.348F5000S0
G1 X0.806F1500S1000
G1 X9.112F5000S0
G1 X0.835F1500S1000
G1 X3.811F5000S0
G1 X0.31F1500S1000
G0 X0.625
G0 X-0.03Y0.15
G0 X-0.625
G1 X-0.309
G1 X-2.84F5000S0
G1 X-1.741F1500S1000
G1 X-9.209F5000S0
G1 X-0.674F1500S1000
G1 X-4.405F5000S0
G1 X-0.524F1500S1000
G1 X-2.558F5000S0
G1 X-0.507F1500S1000
G1 X-5.25F5000S0
G1 X-0.428F1500S1000
G1 X-4.572F5000S0
G1 X-0.436F1500S1000
G1 X-2.222F5000S0
G1 X-0.45F1500S1000
G1 X-3.83F5000S0
G1 X-0.657F1500S1000
G1 X-12.083F5000S0
G1 X-0.853F1500S1000
G0 X-0.625
G0 X0.419Y0.15
G0 X0.625
G1 X0.836
G1 X11.72F5000S0
G1 X0.564F1500S1000
G1 X3.876F5000S0
G1 X0.45F1500S1000
G1 X2.232F5000S0
G1 X0.436F1500S1000
G1 X4.572F5000S0
G1 X0.427F1500S1000
G1 X5.251F5000S0
G1 X0.508F1500S1000
G1 X2.569F5000S0
G1 X0.525F1500S1000
G1 X4.451F5000S0
G1 X0.576F1500S1000
G1 X9.949F5000S0
G1 X1.973F1500S1000
G1 X1.88F5000S0
G1 X0.309F1500S1000
G0 X0.625
G0 X-0.022Y0.15
G0 X-0.625
G1 X-0.315
G1 X-0.931S0
G1 X-1.983S1000
G1 X-10.858F5000S0
G1 X-0.517F1500S1000
G1 X-4.497F5000S0
G1 X-0.526F1500S1000
G1 X-2.579F5000S0
G1 X-0.509F1500S1000
G1 X-5.253F5000S0
G1 X-0.425F1500S1000
G1 X-4.573F5000S0
G1 X-0.437F1500S1000
G1 X-2.241F5000S0
G1 X-0.45F1500S1000
G1 X-3.923F5000S0
G1 X-0.497F1500S1000
G1 X-11.33F5000S0
G1 X-0.829F1500S1000
G0 X-0.625
G0 X0.409Y0.15
G0 X0.625
G1 X0.827
G1 X10.909F5000S0
G1 X0.457F1500S1000
G1 X3.969F5000S0
G1 X0.45F1500S1000
G1 X2.251F5000S0
G1 X0.436F1500S1000
G1 X4.575F5000S0
G1 X0.425F1500S1000
G1 X5.252F5000S0
G1 X0.511F1500S1000
G1 X2.589F5000S0
G1 X0.527F1500S1000
G1 X4.538F5000S0
G1 X0.501F1500S1000
G1 X11.741F5000S0
G1 X2.285F1500S1000
G0 X0.625
G0 X-0.023Y0.15
G0 X-0.625
G1 X-1.331
G1 X-12.625F5000S0
G1 X-0.5F1500S1000
G1 X-4.571F5000S0
G1 X-0.528F1500S1000
G1 X-2.6F5000S0
G1 X-0.511F1500S1000
G1 X-5.245F5000S0
G1 X-0.429F1500S1000
G1 X-4.579F5000S0
G1 X-0.436F1500S1000
G1 X-2.261F5000S0
G1 X-0.45F1500S1000
G1 X-4.009F5000S0
G1 X-0.44F1500S1000
G1 X-10.47F5000S0
G1 X-0.818F1500S1000
G0 X-0.625
G0 X0.424Y0.15
G0 X0.625
G1 X0.801
G1 X10.027F5000S0
G1 X0.436F1500S1000
G1 X4.04F5000S0
G1 X0.451F1500S1000
G1 X2.27F5000S0
G1 X0.437F1500S1000
G1 X4.585F5000S0
G1 X0.424F1500S1000
G1 X5.244F5000S0
G1 X0.513F1500S1000
G1 X2.61F5000S0
G1 X0.528F1500S1000
G1 X4.605F5000S0
G1 X0.499F1500S1000
G1 X13.513F5000S0
G1 X0.299F1500S1000
G0 X0.625
G0 X-13.765Y0.15
G0 X-0.625
G1 X-0.498
G1 X-4.64F5000S0
G1 X-0.528F1500S1000
G1 X-2.619F5000S0
G1 X-0.514F1500S1000
G1 X-5.249F5000S0
G1 X-0.414F1500S1000
G1 X-4.592F5000S0
G1 X-0.436F1500S1000
G1 X-2.28F5000S0
G1 X-0.451F1500S1000
G1 X-4.071F5000S0
G1 X-0.434F1500S1000
G1 X-9.659F5000S0
G1 X-0.709F1500S1000
G0 X-0.625
G0 X0.269Y0.15
G0 X0.625
G1 X0.459
G1 X9.604F5000S0
G1 X0.431F1500S1000
G1 X4.102F5000S0
G1 X0.451F1500S1000
G1 X2.289F5000S0
G1 X0.437F1500S1000
G1 X4.597F5000S0
G1 X0.405F1500S1000
G1 X5.254F5000S0
G1 X0.514F1500S1000
G1 X2.631F5000S0
G1 X0.525F1500S1000
G1 X4.676F5000S0
G1 X0.498F1500S1000
G0 X0.625
G0 X0.047Y0.15
G0 X-0.625
G1 X-0.497
G1 X-4.712F5000S0
G1 X-0.522F1500S1000
G1 X-2.642F5000S0
G1 X-0.515F1500S1000
G1 X-5.23F5000S0
G1 X-0.436F1500S1000
G1 X-4.591F5000S0
G1 X-0.437F1500S1000
G1 X-2.3F5000S0
G1 X-0.45F1500S1000
G1 X-4.13F5000S0
G1 X-0.431F1500S1000
G1 X-9.676F5000S0
G1 X-0.366F1500S1000
G0 X-0.625
G0 X-0.114Y0.15
G0 X0.625
G1 X0.354
G1 X9.766F5000S0
G1 X0.434F1500S1000
G1 X4.155F5000S0
G1 X0.449F1500S1000
G1 X2.31F5000S0
G1 X0.437F1500S1000
G1 X4.549F5000S0
G1 X0.54F1500S1000
G1 X5.17F5000S0
G1 X0.513F1500S1000
G1 X2.655F5000S0
G1 X0.52F1500S1000
G1 X4.748F5000S0
G1 X0.496F1500S1000
G0 X0.625
G0 X0.048Y0.15
G0 X-0.625
G1 X-0.496
G1 X-4.784F5000S0
G1 X-0.517F1500S1000
G1 X-2.668F5000S0
G1 X-0.513F1500S1000
G1 X-5.056F5000S0
G1 X-0.754F1500S1000
G1 X-4.449F5000S0
G1 X-0.437F1500S1000
G1 X-2.322F5000S0
G1 X-0.447F1500S1000
G1 X-4.18F5000S0
G1 X-0.437F1500S1000
G1 X-9.856F5000S0
G1 X-0.353F1500S1000
G0 X-0.625
G0 X-0.125Y0.15
G0 X0.625
G1 X0.352
G1 X9.946F5000S0
G1 X0.44F1500S1000
G1 X4.204F5000S0
G1 X0.447F1500S1000
G1 X2.333F5000S0
G1 X0.437F1500S1000
G1 X4.284F5000S0
G1 X1.069F1500S1000
G1 X4.907F5000S0
G1 X0.512F1500S1000
G1 X2.68F5000S0
G1 X0.515F1500S1000
G1 X4.82F5000S0
G1 X0.495F1500S1000
G0 X0.625
G0 X0.047Y0.15
G0 X-0.625
G1 X-0.494
G1 X-4.856F5000S0
G1 X-0.512F1500S1000
G1 X-2.693F5000S0
G1 X-0.511F1500S1000
G1 X-4.711F5000S0
G1 X-1.452F1500S1000
G1 X-4.099F5000S0
G1 X-0.436F1500S1000
G1 X-2.345F5000S0
G1 X-0.445F1500S1000
G1 X-4.23F5000S0
G1 X-0.442F1500S1000
G1 X-10.036F5000S0
G1 X-0.352F1500S1000
G0 X-0.625
G0 X-0.125Y0.15
G0 X0.625
G1 X0.351
G1 X10.125F5000S0
G1 X0.444F1500S1000
G1 X4.257F5000S0
G1 X0.444F1500S1000
G1 X2.355F5000S0
G1 X0.437F1500S1000
G1 X3.912F5000S0
G1 X1.856F1500S1000
G1 X4.495F5000S0
G1 X0.51F1500S1000
G1 X2.706F5000S0
G1 X0.509F1500S1000
G1 X4.892F5000S0
G1 X0.493F1500S1000
G0 X0.625
G0 X0.048Y0.15
G0 X-0.625
G1 X-0.493
G1 X-4.928F5000S0
G1 X-0.507F1500S1000
G1 X-2.718F5000S0
G1 X-0.509F1500S1000
G1 X-4.279F5000S0
G1 X-2.26F1500S1000
G1 X-3.726F5000S0
G1 X-0.436F1500S1000
G1 X-2.367F5000S0
G1 X-0.442F1500S1000
G1 X-4.285F5000S0
G1 X-0.444F1500S1000
G1 X-10.213F5000S0
G1 X-0.352F1500S1000
G0 X-0.625
G0 X-0.125Y0.15
G0 X0.625
G1 X0.353
G1 X10.301F5000S0
G1 X0.445F1500S1000
G1 X4.312F5000S0
G1 X0.441F1500S1000
G1 X2.378F5000S0
G1 X0.435F1500S1000
G1 X3.54F5000S0
G1 X2.664F1500S1000
G1 X4.062F5000S0
G1 X0.508F1500S1000
G1 X2.732F5000S0
G1 X0.504F1500S1000
G1 X4.964F5000S0
G1 X0.492F1500S1000
G0 X0.625
G0 X0.047Y0.15
G0 X-0.625
G1 X-0.492
G1 X-4.999F5000S0
G1 X-0.502F1500S1000
G1 X-2.744F5000S0
G1 X-0.507F1500S1000
G1 X-3.846F5000S0
G1 X-0.814F1500S1000
G1 X-0.074S0
G1 X-0.696S1000
G1 X-0.115S0
G1 X-0.541S1000
G1 X-0.127S0
G1 X-0.701S1000
G1 X-3.353F5000S0
G1 X-0.436F1500S1000
G1 X-2.389F5000S0
G1 X-0.44F1500S1000
G1 X-4.339F5000S0
G1 X-0.445F1500S1000
G1 X-10.389F5000S0
G1 X-0.355F1500S1000
G0 X-0.625
G0 X-0.125Y0.15
G0 X0.625
G1 X0.357
G1 X10.476F5000S0
G1 X0.444F1500S1000
G1 X4.368F5000S0
G1 X0.439F1500S1000
G1 X2.4F5000S0
G1 X0.435F1500S1000
G1 X3.167F5000S0
G1 X0.703F1500S1000
G1 X0.264S0
G1 X0.525S1000
G1 X0.25S0
G1 X0.66S1000
G1 X0.255S0
G1 X0.815S1000
G1 X3.63F5000S0
G1 X0.506F1500S1000
G1 X2.757F5000S0
G1 X0.499F1500S1000
G1 X5.033F5000S0
G1 X0.493F1500S1000
G0 X0.625
G0 X0.048Y0.15
G0 X-0.625
G1 X-0.494
G1 X-5.068F5000S0
G1 X-0.496F1500S1000
G1 X-2.77F5000S0
G1 X-0.505F1500S1000
G1 X-3.415F5000S0
G1 X-0.815F1500S1000
G1 X-0.435S0
G1 X-0.633S1000
G1 X-0.368S0
G1 X-0.519S1000
G1 X-0.4S0
G1 X-0.703S1000
G1 X-2.983F5000S0
G1 X-0.434F1500S1000
G1 X-2.412F5000S0
G1 X-0.437F1500S1000
G1 X-4.397F5000S0
G1 X-0.443F1500S1000
G1 X-7.274F5000S0
G1 X-0.622F1500S1000
G1 X-2.668F5000S0
G1 X-0.357F1500S1000
G0 X-0.625
G0 X-0.125Y0.15
G0 X0.625
G1 X0.358
G1 X2.231F5000S0
G1 X1.12F1500S1000
G1 X7.301F5000S0
G1 X0.441F1500S1000
G1 X4.427F5000S0
G1 X0.435F1500S1000
G1 X2.423F5000S0
G1 X0.435F1500S1000
G1 X2.798F5000S0
G1 X0.703F1500S1000
G1 X0.536S0
G1 X0.512S1000
G1 X0.488S0
G1 X0.604S1000
G1 X0.616S0
G1 X0.816S1000
G1 X3.199F5000S0
G1 X0.504F1500S1000
G1 X2.782F5000S0
G1 X0.5F1500S1000
G1 X5.096F5000S0
G1 X0.495F1500S1000
G0 X0.625
G0 X0.047Y0.15
G0 X-0.625
G1 X-0.496
G1 X-5.124F5000S0
G1 X-0.503F1500S1000
G1 X-2.796F5000S0
G1 X-0.503F1500S1000
G1 X-2.982F5000S0
G1 X-0.817F1500S1000
G1 X-0.788S0
G1 X-0.585S1000
G1 X-0.606S0
G1 X-0.506S1000
G1 X-0.672S0
G1 X-0.703S1000
G1 X-2.614F5000S0
G1 X-0.434F1500S1000
G1 X-2.434F5000S0
G1 X-0.434F1500S1000
G1 X-4.456F5000S0
G1 X-0.44F1500S1000
G1 X-7.781F5000S0
G1 X-1.165F1500S1000
G1 X-1.792F5000S0
G1 X-0.36F1500S1000
G0 X-0.625
G0 X-0.124Y0.15
G0 X0.625
G1 X0.362
G1 X1.353F5000S0
G1 X1.17F1500S1000
G1 X8.3F5000S0
G1 X0.44F1500S1000
G1 X4.485F5000S0
G1 X0.432F1500S1000
G1 X2.446F5000S0
G1 X0.434F1500S1000
G1 X2.429F5000S0
G1 X0.703F1500S1000
G1 X0.808S0
G1 X0.5S1000
G1 X0.725S0
G1 X0.577S1000
G1 X0.948S0
G1 X0.818S1000
G1 X2.766F5000S0
G1 X0.502F1500S1000
G1 X2.808F5000S0
G1 X0.507F1500S1000
G1 X5.152F5000S0
G1 X0.498F1500S1000
G0 X0.625
G0 X0.047Y0.15
G0 X-0.625
G1 X-0.499
G1 X-5.177F5000S0
G1 X-0.514F1500S1000
G1 X-2.82F5000S0
G1 X-0.501F1500S1000
G1 X-2.55F5000S0
G1 X-0.82F1500S1000
G1 X-1.106F5000S0
G1 X-0.571F1500S1000
G1 X-0.844S0
G1 X-0.493S1000
G1 X-0.945S0
G1 X-0.702S1000
G1 X-2.245F5000S0
G1 X-0.433F1500S1000
G1 X-2.457F5000S0
G1 X-0.432F1500S1000
G1 X-4.513F5000S0
G1 X-0.439F1500S1000
G1 X-8.82F5000S0
G1 X-1.175F1500S1000
G1 X-0.914S0
G1 X-0.364S1000
G0 X-0.625
G0 X-0.125Y0.15
G0 X0.625
G1 X0.367
G1 X0.475S0
G1 X1.179S1000
G1 X9.341F5000S0
G1 X0.439F1500S1000
G1 X4.541F5000S0
G1 X0.43F1500S1000
G1 X2.468F5000S0
G1 X0.433F1500S1000
G1 X2.061F5000S0
G1 X0.702F1500S1000
G1 X1.082F5000S0
G1 X0.486F1500S1000
G1 X0.963S0
G1 X0.564S1000
G1 X1.265F5000S0
G1 X0.82F1500S1000
G1 X2.335F5000S0
G1 X0.5F1500S1000
G1 X2.836F5000S0
G1 X0.531F1500S1000
G1 X5.189F5000S0
G1 X0.499F1500S1000
G0 X0.625
G0 X0.047Y0.15
G0 X-0.625
G1 X-0.5
G1 X-5.199F5000S0
G1 X-0.549F1500S1000
G1 X-2.852F5000S0
G1 X-0.499F1500S1000
G1 X-2.12F5000S0
G1 X-0.82F1500S1000
G1 X-1.42F5000S0
G1 X-0.562F1500S1000
G1 X-1.081F5000S0
G1 X-0.48F1500S1000
G1 X-1.218F5000S0
G1 X-0.703F1500S1000
G1 X-1.875F5000S0
G1 X-0.433F1500S1000
G1 X-2.479F5000S0
G1 X-0.432F1500S1000
G1 X-4.566F5000S0
G1 X-0.439F1500S1000
G1 X-9.861F5000S0
G1 X-1.165F1500S1000
G1 X-0.055S0
G1 X-0.369S1000
G0 X-0.625
G0 X-0.124Y0.15
G0 X0.625
G1 X1.157
G1 X10.381F5000S0
G1 X0.438F1500S1000
G1 X4.586F5000S0
G1 X0.439F1500S1000
G1 X2.491F5000S0
G1 X0.432F1500S1000
G1 X1.689F5000S0
G1 X0.705F1500S1000
G1 X1.352F5000S0
G1 X0.475F1500S1000
G1 X1.201F5000S0
G1 X0.563F1500S1000
G1 X1.571F5000S0
G1 X0.82F1500S1000
G1 X1.904F5000S0
G1 X0.499F1500S1000
G1 X2.881F5000S0
G1 X0.554F1500S1000
G1 X5.209F5000S0
G1 X0.502F1500S1000
G0 X0.625
G0 X0.047Y0.15
G0 X-0.625
G1 X-0.503
G1 X-5.21F5000S0
G1 X-0.567F1500S1000
G1 X-2.912F5000S0
G1 X-0.497F1500S1000
G1 X-1.689F5000S0
G1 X-0.82F1500S1000
G1 X-1.723F5000S0
G1 X-0.563F1500S1000
G1 X-1.32F5000S0
G1 X-0.473F1500S1000
G1 X-1.484F5000S0
G1 X-0.707F1500S1000
G1 X-1.503F5000S0
G1 X-0.432F1500S1000
G1 X-2.517F5000S0
G1 X-0.452F1500S1000
G1 X-4.584F5000S0
G1 X-0.438F1500S1000
G1 X-10.901F5000S0
G1 X-0.73F1500S1000
G0 X-0.625
G0 X-0.055Y0.15
G0 X0.625
G1 X0.229
G1 X11.421F5000S0
G1 X0.438F1500S1000
G1 X4.573F5000S0
G1 X0.472F1500S1000
G1 X2.545F5000S0
G1 X0.433F1500S1000
G1 X1.317F5000S0
G1 X0.708F1500S1000
G1 X1.616F5000S0
G1 X0.471F1500S1000
G1 X1.441F5000S0
G1 X0.561F1500S1000
G1 X1.875F5000S0
G1 X0.82F1500S1000
G1 X1.474F5000S0
G1 X0.504F1500S1000
G1 X2.955F5000S0
G1 X0.565F1500S1000
G1 X5.205F5000S0
G1 X0.504F1500S1000
G0 X0.625
G0 X0.041Y0.15
G0 X-0.625
G1 X-0.498
G1 X-5.201F5000S0
G1 X-0.559F1500S1000
G1 X-2.978F5000S0
G1 X-0.535F1500S1000
G1 X-1.259F5000S0
G1 X-0.82F1500S1000
G1 X-2.033F5000S0
G1 X-0.553F1500S1000
G1 X-1.562F5000S0
G1 X-0.47F1500S1000
G1 X-1.747F5000S0
G1 X-0.71F1500S1000
G1 X-1.131F5000S0
G1 X-0.449F1500S1000
G1 X-2.56F5000S0
G1 X-0.497F1500S1000
G1 X-4.554F5000S0
G1 X-0.438F1500S1000
G0 X-0.625
G0 X-0.037Y0.15
G0 X0.625
G1 X0.439
G1 X4.535F5000S0
G1 X0.5F1500S1000
G1 X2.564F5000S0
G1 X0.498F1500S1000
G1 X0.945S0
G1 X0.712S1000
G1 X1.879F5000S0
G1 X0.468F1500S1000
G1 X1.683F5000S0
G1 X0.543F1500S1000
G1 X2.193F5000S0
G1 X0.821F1500S1000
G1 X1.043F5000S0
G1 X0.604F1500S1000
G1 X2.973F5000S0
G1 X0.545F1500S1000
G1 X5.187F5000S0
G1 X0.494F1500S1000
G1 X6.434F5000S0
G1 X0.335F1500S1000
G0 X0.625
G0 X0.265Y0.15
G0 X-0.625
G1 X-0.531
G1 X-6.494F5000S0
G1 X-0.484F1500S1000
G1 X-5.142F5000S0
G1 X-0.539F1500S1000
G1 X-2.925F5000S0
G1 X-0.719F1500S1000
G1 X-0.828S0
G1 X-0.821S1000
G1 X-2.353F5000S0
G1 X-0.534F1500S1000
G1 X-1.803F5000S0
G1 X-0.467F1500S1000
G1 X-2.01F5000S0
G1 X-0.714F1500S1000
G1 X-0.758S0
G1 X-0.588S1000
G1 X-2.528F5000S0
G1 X-0.502F1500S1000
G1 X-4.511F5000S0
G1 X-0.438F1500S1000
G0 X-0.625
G0 X-0.009Y0.15
G0 X0.625
G1 X0.437
G1 X4.466F5000S0
G1 X0.5F1500S1000
G1 X2.47F5000S0
G1 X0.704F1500S1000
G1 X0.572S0
G1 X0.715S1000
G1 X2.143F5000S0
G1 X0.465F1500S1000
G1 X1.924F5000S0
G1 X0.525F1500S1000
G1 X2.512F5000S0
G1 X0.821F1500S1000
G1 X0.612S0
G1 X0.857S1000
G1 X2.854F5000S0
G1 X0.535F1500S1000
G1 X5.069F5000S0
G1 X0.488F1500S1000
G1 X6.552F5000S0
G1 X0.742F1500S1000
G0 X0.625
G0 X0.264Y0.15
G0 X-0.625
G1 X-0.594
G1 X-0.026S0
G1 X-0.333S1000
G1 X-6.624F5000S0
G1 X-0.503F1500S1000
G1 X-4.971F5000S0
G1 X-0.529F1500S1000
G1 X-2.783F5000S0
G1 X-0.99F1500S1000
G1 X-0.402S0
G1 X-0.821S1000
G1 X-2.672F5000S0
G1 X-0.515F1500S1000
G1 X-2.045F5000S0
G1 X-0.464F1500S1000
G1 X-2.274F5000S0
G1 X-0.717F1500S1000
G1 X-0.385S0
G1 X-0.822S1000
G1 X-2.418F5000S0
G1 X-0.491F1500S1000
G1 X-4.388F5000S0
G1 X-0.442F1500S1000
G0 X-0.625
G0 X0.042Y0.15
G0 X0.625
G1 X0.451
G1 X4.282F5000S0
G1 X0.483F1500S1000
G1 X2.364F5000S0
G1 X0.943F1500S1000
G1 X0.196S0
G1 X0.719S1000
G1 X2.406F5000S0
G1 X0.462F1500S1000
G1 X2.166F5000S0
G1 X0.524F1500S1000
G1 X2.813F5000S0
G1 X0.805F1500S1000
G1 X0.184S0
G1 X1.146S1000
G1 X2.711F5000S0
G1 X0.529F1500S1000
G1 X4.853F5000S0
G1 X0.512F1500S1000
G1 X6.719F5000S0
G1 X0.317F1500S1000
G1 X0.252S0
G1 X0.595S1000
G0 X0.625
G0 X0.265Y0.15
G0 X-0.625
G1 X-0.596
G1 X-0.473S0
G1 X-0.306S1000
G1 X-6.821F5000S0
G1 X-0.517F1500S1000
G1 X-4.732F5000S0
G1 X-0.531F1500S1000
G1 X-2.637F5000S0
G1 X-0.615F1500S1000
G1 X-0.171S0
G1 X-1.271S1000
G1 X-2.925F5000S0
G1 X-0.562F1500S1000
G1 X-2.287F5000S0
G1 X-0.461F1500S1000
G1 X-2.537F5000S0
G1 X-0.72F1500S1000
G1 X-0.47
G1 X-0.062S0
G1 X-0.54S1000
G1 X-2.308F5000S0
G1 X-0.476F1500S1000
G1 X-4.177F5000S0
G1 X-0.452F1500S1000
G0 X-0.625
G0 X0.051Y0.15
G0 X0.625
G1 X0.452
G1 X4.071F5000S0
G1 X0.471F1500S1000
G1 X2.251F5000S0
G1 X0.541F1500S1000
G1 X0.187S0
G1 X0.998S1000
G1 X2.642F5000S0
G1 X0.486F1500S1000
G1 X2.4F5000S0
G1 X0.671F1500S1000
G1 X2.974F5000S0
G1 X1.059F1500S1000
G1 X0.3S0
G1 X0.621S1000
G1 X2.563F5000S0
G1 X0.533F1500S1000
G1 X4.609F5000S0
G1 X0.517F1500S1000
G1 X6.929F5000S0
G1 X0.303F1500S1000
G1 X0.686S0
G1 X0.596S1000
G0 X0.625
G0 X0.265Y0.15
G0 X-0.625
G1 X-0.597
G1 X-0.895S0
G1 X-0.304S1000
G1 X-7.036F5000S0
G1 X-0.517F1500S1000
G1 X-4.487F5000S0
G1 X-0.535F1500S1000
G1 X-2.49F5000S0
G1 X-0.622F1500S1000
G1 X-0.427S0
G1 X-2.669S1000
G1 X-0.936S0
G1 X-1.059S1000
G1 X-2.502F5000S0
G1 X-1.093F1500S1000
G1 X-2.168F5000S0
G1 X-0.807F1500S1000
G1 X-0.311S0
G1 X-0.541S1000
G1 X-2.194F5000S0
G1 X-0.467F1500S1000
G1 X-3.965F5000S0
G1 X-0.452F1500S1000
G0 X-0.625
G0 X-7.57Y0.15
G0 X0.625
G1 X1.1
G1 X6.521F5000S0
G1 X0.452F1500S1000
G1 X3.86F5000S0
G1 X0.467F1500S1000
G1 X2.131F5000S0
G1 X0.541F1500S1000
G1 X0.456S0
G1 X4.009S1000
G1 X2.562F5000S0
G1 X4.631F1500S1000
G1 X0.571S0
G1 X0.622S1000
G1 X2.417F5000S0
G1 X0.537F1500S1000
G1 X4.365F5000S0
G1 X0.516F1500S1000
G1 X7.143F5000S0
G1 X0.305F1500S1000
G1 X1.104F5000S0
G1 X0.597F1500S1000
G0 X0.625
G0 X0.264Y0.15
G0 X-0.625
G1 X-0.597
G1 X-1.314F5000S0
G1 X-0.305F1500S1000
G1 X-7.251F5000S0
G1 X-0.516F1500S1000
G1 X-4.243F5000S0
G1 X-0.536F1500S1000
G1 X-2.345F5000S0
G1 X-0.624F1500S1000
G1 X-0.735S0
G1 X-4.595S1000
G1 X-2.578F5000S0
G1 X-3.971F1500S1000
G1 X-0.605S0
G1 X-0.542S1000
G1 X-2.068F5000S0
G1 X-0.468F1500S1000
G1 X-3.754F5000S0
G1 X-0.453F1500S1000
G1 X-6.136F5000S0
G1 X-1.968F1500S1000
G0 X-0.625
G0 X-0.268Y0.15
G0 X0.625
G1 X0.796
G1 X0.922S0
G1 X0.789S1000
G1 X5.916F5000S0
G1 X0.453F1500S1000
G1 X3.648F5000S0
G1 X0.469F1500S1000
G1 X2.005F5000S0
G1 X0.543F1500S1000
G1 X0.763S0
G1 X3.174S1000
G1 X0.147S0
G1 X0.626S1000
G1 X2.559F5000S0
G1 X0.742F1500S1000
G1 X0.411S0
G1 X3.388S1000
G1 X0.93S0
G1 X0.624S1000
G1 X2.273F5000S0
G1 X0.537F1500S1000
G1 X4.121F5000S0
G1 X0.515F1500S1000
G1 X7.359F5000S0
G1 X0.306F1500S1000
G1 X1.522F5000S0
G1 X0.597F1500S1000
G0 X0.625
G0 X0.264Y0.15
G0 X-0.625
G1 X-0.601
G1 X-1.728F5000S0
G1 X-0.306F1500S1000
G1 X-7.467F5000S0
G1 X-0.514F1500S1000
G1 X-3.999F5000S0
G1 X-0.538F1500S1000
G1 X-2.201F5000S0
G1 X-0.625F1500S1000
G1 X-1.149F5000S0
G1 X-0.58F1500S1000
G1 X-3.387F5000S0
G1 X-0.521F1500S1000
G1 X-2.499F5000S0
G1 X-0.46F1500S1000
G1 X-2.926F5000S0
G1 X-0.537F1500S1000
G1 X-0.936S0
G1 X-0.543S1000
G1 X-1.943F5000S0
G1 X-0.47F1500S1000
G1 X-3.542F5000S0
G1 X-0.453F1500S1000
G1 X-5.746F5000S0
G1 X-0.569F1500S1000
G1 X-1.801F5000S0
G1 X-0.583F1500S1000
G0 X-0.625
G0 X-0.18Y0.15
G0 X0.625
G1 X0.492
G1 X2.347F5000S0
G1 X0.475F1500S1000
G1 X5.616F5000S0
G1 X0.453F1500S1000
G1 X3.437F5000S0
G1 X0.469F1500S1000
G1 X1.881F5000S0
G1 X0.543F1500S1000
G1 X1.112F5000S0
G1 X0.529F1500S1000
G1 X2.925F5000S0
G1 X0.446F1500S1000
G1 X2.432F5000S0
G1 X0.497F1500S1000
G1 X3.371F5000S0
G1 X0.555F1500S1000
G1 X1.384F5000S0
G1 X0.627F1500S1000
G1 X2.129F5000S0
G1 X0.538F1500S1000
G1 X3.876F5000S0
G1 X0.514F1500S1000
G1 X7.575F5000S0
G1 X0.307F1500S1000
G1 X1.933F5000S0
G1 X0.604F1500S1000
G0 X0.625
G0 X0.263Y0.15
G0 X-0.625
G1 X-0.606
G1 X-2.14F5000S0
G1 X-0.308F1500S1000
G1 X-7.682F5000S0
G1 X-0.513F1500S1000
G1 X-3.755F5000S0
G1 X-0.538F1500S1000
G1 X-2.057F5000S0
G1 X-0.627F1500S1000
G1 X-1.62F5000S0
G1 X-0.562F1500S1000
G1 X-3.306F5000S0
G1 X-0.498F1500S1000
G1 X-2.356F5000S0
G1 X-0.449F1500S1000
G1 X-2.873F5000S0
G1 X-0.538F1500S1000
G1 X-1.305F5000S0
G1 X-0.544F1500S1000
G1 X-1.818F5000S0
G1 X-0.47F1500S1000
G1 X-3.331F5000S0
G1 X-0.454F1500S1000
G1 X-5.513F5000S0
G1 X-0.432F1500S1000
G1 X-2.743F5000S0
G1 X-0.449F1500S1000
G0 X-0.625
G0 X-0.125Y0.15
G0 X0.625
G1 X0.394
G1 X3.1F5000S0
G1 X0.38F1500S1000
G1 X5.439F5000S0
G1 X0.454F1500S1000
G1 X3.225F5000S0
G1 X0.471F1500S1000
G1 X1.756F5000S0
G1 X0.544F1500S1000
G1 X1.498F5000S0
G1 X0.549F1500S1000
G1 X2.824F5000S0
G1 X0.447F1500S1000
G1 X2.281F5000S0
G1 X0.499F1500S1000
G1 X3.247F5000S0
G1 X0.562F1500S1000
G1 X1.855F5000S0
G1 X0.628F1500S1000
G1 X1.985F5000S0
G1 X0.539F1500S1000
G1 X3.632F5000S0
G1 X0.513F1500S1000
G1 X7.79F5000S0
G1 X0.309F1500S1000
G1 X2.348F5000S0
G1 X0.607F1500S1000
G0 X0.625
G0 X0.222Y0.15
G0 X-0.625
G1 X-0.566
G1 X-2.557F5000S0
G1 X-0.309F1500S1000
G1 X-7.897F5000S0
G1 X-0.513F1500S1000
G1 X-3.51F5000S0
G1 X-0.539F1500S1000
G1 X-1.913F5000S0
G1 X-0.63F1500S1000
G1 X-2.09F5000S0
G1 X-0.561F1500S1000
G1 X-3.189F5000S0
G1 X-0.501F1500S1000
G1 X-2.206F5000S0
G1 X-0.446F1500S1000
G1 X-2.774F5000S0
G1 X-0.541F1500S1000
G1 X-1.709F5000S0
G1 X-0.545F1500S1000
G1 X-1.693F5000S0
G1 X-0.472F1500S1000
G1 X-3.119F5000S0
G1 X-0.454F1500S1000
G1 X-5.366F5000S0
G1 X-0.381F1500S1000
G1 X-3.349F5000S0
G1 X-0.393F1500S1000
G0 X-0.625
G0 X-0.088Y0.15
G0 X0.625
G1 X0.358
G1 X3.595F5000S0
G1 X0.341F1500S1000
G1 X5.334F5000S0
G1 X0.454F1500S1000
G1 X3.014F5000S0
G1 X0.471F1500S1000
G1 X1.631F5000S0
G1 X0.545F1500S1000
G1 X1.922F5000S0
G1 X0.533F1500S1000
G1 X2.722F5000S0
G1 X0.447F1500S1000
G1 X2.13F5000S0
G1 X0.502F1500S1000
G1 X3.131F5000S0
G1 X0.561F1500S1000
G1 X2.326F5000S0
G1 X0.63F1500S1000
G1 X1.841F5000S0
G1 X0.54F1500S1000
G1 X3.388F5000S0
G1 X0.512F1500S1000
G1 X8.005F5000S0
G1 X0.31F1500S1000
G1 X2.76F5000S0
G1 X0.277F1500S1000
G0 X0.625
G0 X-2.983Y0.15
G0 X-0.625
G1 X-0.31
G1 X-8.113F5000S0
G1 X-0.512F1500S1000
G1 X-3.266F5000S0
G1 X-0.54F1500S1000
G1 X-1.769F5000S0
G1 X-0.631F1500S1000
G1 X-2.561F5000S0
G1 X-0.561F1500S1000
G1 X-3.072F5000S0
G1 X-0.503F1500S1000
G1 X-2.055F5000S0
G1 X-0.447F1500S1000
G1 X-2.671F5000S0
G1 X-0.525F1500S1000
G1 X-2.134F5000S0
G1 X-0.546F1500S1000
G1 X-1.568F5000S0
G1 X-0.472F1500S1000
G1 X-2.908F5000S0
G1 X-0.455F1500S1000
G1 X-5.301F5000S0
G1 X-0.339F1500S1000
G1 X-3.773F5000S0
G1 X-0.35F1500S1000
G0 X-0.625
G0 X-0.082Y0.15
G0 X0.625
G1 X0.35
G1 X3.936F5000S0
G1 X0.337F1500S1000
G1 X5.273F5000S0
G1 X0.455F1500S1000
G1 X2.802F5000S0
G1 X0.473F1500S1000
G1 X1.506F5000S0
G1 X0.546F1500S1000
G1 X2.347F5000S0
G1 X0.515F1500S1000
G1 X2.621F5000S0
G1 X0.447F1500S1000
G1 X1.979F5000S0
G1 X0.505F1500S1000
G1 X3.014F5000S0
G1 X0.56F1500S1000
G1 X2.797F5000S0
G1 X0.632F1500S1000
G1 X1.696F5000S0
G1 X0.541F1500S1000
G1 X3.144F5000S0
G1 X0.512F1500S1000
G1 X8.219F5000S0
G1 X0.311F1500S1000
G0 X0.625
G0 X0.055Y0.15
G0 X-0.625
G1 X-0.312
G1 X-8.326F5000S0
G1 X-0.513F1500S1000
G1 X-3.021F5000S0
G1 X-0.541F1500S1000
G1 X-1.625F5000S0
G1 X-0.633F1500S1000
G1 X-3.032F5000S0
G1 X-0.56F1500S1000
G1 X-2.955F5000S0
G1 X-0.506F1500S1000
G1 X-1.905F5000S0
G1 X-0.446F1500S1000
G1 X-2.57F5000S0
G1 X-0.508F1500S1000
G1 X-2.558F5000S0
G1 X-0.547F1500S1000
G1 X-1.443F5000S0
G1 X-0.473F1500S1000
G1 X-2.697F5000S0
G1 X-0.455F1500S1000
G1 X-5.267F5000S0
G1 X-0.328F1500S1000
G1 X-4.077F5000S0
G1 X-0.333F1500S1000
G0 X-0.625
G0 X-0.049Y0.15
G0 X0.625
G1 X0.335
G1 X4.17F5000S0
G1 X0.328F1500S1000
G1 X5.272F5000S0
G1 X0.455F1500S1000
G1 X2.591F5000S0
G1 X0.474F1500S1000
G1 X1.381F5000S0
G1 X0.546F1500S1000
G1 X2.77F5000S0
G1 X0.5F1500S1000
G1 X2.519F5000S0
G1 X0.447F1500S1000
G1 X1.829F5000S0
G1 X0.507F1500S1000
G1 X2.897F5000S0
G1 X0.56F1500S1000
G1 X3.267F5000S0
G1 X0.634F1500S1000
G1 X1.553F5000S0
G1 X0.542F1500S1000
G1 X2.899F5000S0
G1 X0.514F1500S1000
G1 X8.432F5000S0
G1 X0.312F1500S1000
G0 X0.625
G0 X0.055Y0.15
G0 X-0.625
G1 X-0.313
G1 X-8.539F5000S0
G1 X-0.514F1500S1000
G1 X-2.778F5000S0
G1 X-0.542F1500S1000
G1 X-1.481F5000S0
G1 X-0.634F1500S1000
G1 X-3.503F5000S0
G1 X-0.559F1500S1000
G1 X-2.839F5000S0
G1 X-0.508F1500S1000
G1 X-1.754F5000S0
G1 X-0.447F1500S1000
G1 X-2.468F5000S0
G1 X-0.492F1500S1000
G1 X-2.982F5000S0
G1 X-0.547F1500S1000
G1 X-1.319F5000S0
G1 X-0.474F1500S1000
G1 X-2.485F5000S0
G1 X-0.456F1500S1000
G1 X-5.282F5000S0
G1 X-0.321F1500S1000
G1 X-4.263F5000S0
G1 X-0.33F1500S1000
G0 X-0.625
G0 X-0.026Y0.15
G0 X0.625
G1 X0.322
G1 X4.322F5000S0
G1 X0.32F1500S1000
G1 X5.309F5000S0
G1 X0.456F1500S1000
G1 X2.379F5000S0
G1 X0.475F1500S1000
G1 X1.257F5000S0
G1 X0.547F1500S1000
G1 X3.193F5000S0
G1 X0.484F1500S1000
G1 X2.418F5000S0
G1 X0.446F1500S1000
G1 X1.679F5000S0
G1 X0.51F1500S1000
G1 X2.78F5000S0
G1 X0.559F1500S1000
G1 X3.738F5000S0
G1 X0.635F1500S1000
G1 X1.41F5000S0
G1 X0.542F1500S1000
G1 X2.655F5000S0
G1 X0.515F1500S1000
G1 X5.581F5000S0
G1 X0.37F1500S1000
G1 X2.695F5000S0
G1 X0.313F1500S1000
G0 X0.625
G0 X0.055Y0.15
G0 X-0.625
G1 X-0.314
G1 X-2.486F5000S0
G1 X-0.582F1500S1000
G1 X-5.685F5000S0
G1 X-0.515F1500S1000
G1 X-2.534F5000S0
G1 X-0.542F1500S1000
G1 X-1.338F5000S0
G1 X-0.636F1500S1000
G1 X-3.973F5000S0
G1 X-0.559F1500S1000
G1 X-2.721F5000S0
G1 X-0.511F1500S1000
G1 X-1.604F5000S0
G1 X-0.446F1500S1000
G1 X-2.367F5000S0
G1 X-0.486F1500S1000
G1 X-3.396F5000S0
G1 X-0.547F1500S1000
G1 X-1.194F5000S0
G1 X-0.475F1500S1000
G1 X-2.274F5000S0
G1 X-0.456F1500S1000
G1 X-5.342F5000S0
G1 X-0.323F1500S1000
G1 X-4.352F5000S0
G1 X-0.326F1500S1000
G0 X-0.625
G0 X-0.009Y0.15
G0 X0.625
G1 X0.32
G1 X4.382F5000S0
G1 X0.317F1500S1000
G1 X5.384F5000S0
G1 X0.456F1500S1000
G1 X2.168F5000S0
G1 X0.476F1500S1000
G1 X1.132F5000S0
G1 X0.546F1500S1000
G1 X3.6F5000S0
G1 X0.486F1500S1000
G1 X2.316F5000S0
G1 X0.447F1500S1000
G1 X1.529F5000S0
G1 X0.511F1500S1000
G1 X2.664F5000S0
G1 X0.559F1500S1000
G1 X4.208F5000S0
G1 X0.636F1500S1000
G1 X1.266F5000S0
G1 X0.542F1500S1000
G1 X2.412F5000S0
G1 X0.516F1500S1000
G1 X5.994F5000S0
G1 X0.589F1500S1000
G1 X2.276F5000S0
G1 X0.315F1500S1000
G0 X0.625
G0 X0.055Y0.15
G0 X-0.625
G1 X-0.316
G1 X-2.066F5000S0
G1 X-0.59F1500S1000
G1 X-6.31F5000S0
G1 X-0.516F1500S1000
G1 X-2.291F5000S0
G1 X-0.541F1500S1000
G1 X-1.195F5000S0
G1 X-0.637F1500S1000
G1 X-4.443F5000S0
G1 X-0.559F1500S1000
G1 X-2.605F5000S0
G1 X-0.512F1500S1000
G1 X-1.454F5000S0
G1 X-0.447F1500S1000
G1 X-2.265F5000S0
G1 X-0.488F1500S1000
G1 X-3.802F5000S0
G1 X-0.546F1500S1000
G1 X-1.071F5000S0
G1 X-0.476F1500S1000
G1 X-2.062F5000S0
G1 X-0.457F1500S1000
G1 X-5.437F5000S0
G1 X-0.321F1500S1000
G1 X-4.377F5000S0
G1 X-0.316F1500S1000
G0 X-0.625
G0 X0.007Y0.15
G0 X0.625
G1 X0.324
G1 X4.348F5000S0
G1 X0.328F1500S1000
G1 X5.495F5000S0
G1 X0.457F1500S1000
G1 X1.956F5000S0
G1 X0.476F1500S1000
G1 X1.009F5000S0
G1 X0.546F1500S1000
G1 X4.006F5000S0
G1 X0.488F1500S1000
G1 X2.215F5000S0
G1 X0.446F1500S1000
G1 X1.38F5000S0
G1 X0.513F1500S1000
G1 X2.546F5000S0
G1 X0.559F1500S1000
G1 X4.678F5000S0
G1 X0.638F1500S1000
G1 X1.123F5000S0
G1 X0.541F1500S1000
G1 X2.17F5000S0
G1 X0.516F1500S1000
G1 X6.625F5000S0
G1 X0.591F1500S1000
G1 X1.857F5000S0
G1 X0.316F1500S1000
G0 X0.625
G0 X0.054Y0.15
G0 X-0.625
G1 X-0.316
G1 X-1.648F5000S0
G1 X-0.592F1500S1000
G1 X-6.94F5000S0
G1 X-0.517F1500S1000
G1 X-2.048F5000S0
G1 X-0.541F1500S1000
G1 X-1.051F5000S0
G1 X-0.638F1500S1000
G1 X-4.914F5000S0
G1 X-0.558F1500S1000
G1 X-2.488F5000S0
G1 X-0.514F1500S1000
G1 X-1.305F5000S0
G1 X-0.447F1500S1000
G1 X-2.164F5000S0
G1 X-0.489F1500S1000
