; LightBurn 1.3.01
; GRBL device profile, absolute coords
; Bounds: X52.75 Y54.44 to X459.25 Y319.56
G00 G17 G40 G21 G54
G90
M4
; Cut @ 600 mm/min, 100% power
M8
G0 X52.752Y59.651
; Layer WorkSpace Pass 1 of 9
G1 X241S1000F600
; Layer WorkSpace Pass 2 of 9
G1 X52.752
; Layer WorkSpace Pass 3 of 9
G1 X241
; Layer WorkSpace Pass 4 of 9
G1 X52.752
; Layer WorkSpace Pass 5 of 9
G1 X241
; Layer WorkSpace Pass 6 of 9
G1 X52.752
; Layer WorkSpace Pass 7 of 9
G1 X241
; Layer WorkSpace Pass 8 of 9
G1 X52.752
; Layer WorkSpace Pass 9 of 9
G1 X241
G0 X241.001Y59.648
; Layer WorkSpace Pass 1 of 9
G1 Y57.437
; Layer WorkSpace Pass 2 of 9
G1 Y59.648
; Layer WorkSpace Pass 3 of 9
G1 Y57.437
; Layer WorkSpace Pass 4 of 9
G1 Y59.648
; Layer WorkSpace Pass 5 of 9
G1 Y57.437
; Layer WorkSpace Pass 6 of 9
G1 Y59.648
; Layer WorkSpace Pass 7 of 9
G1 Y57.437
; Layer WorkSpace Pass 8 of 9
G1 Y59.648
; Layer WorkSpace Pass 9 of 9
G1 Y57.437
G0 X241.001Y57.437
; Layer WorkSpace Pass 1 of 9
G1 Y57.146
; Layer WorkSpace Pass 2 of 9
G1 Y57.437
; Layer WorkSpace Pass 3 of 9
G1 Y57.146
; Layer WorkSpace Pass 4 of 9
G1 Y57.437
; Layer WorkSpace Pass 5 of 9
G1 Y57.146
; Layer WorkSpace Pass 6 of 9
G1 Y57.437
; Layer WorkSpace Pass 7 of 9
G1 Y57.146
; Layer WorkSpace Pass 8 of 9
G1 Y57.437
; Layer WorkSpace Pass 9 of 9
G1 Y57.146
G0 X241.001Y57.146
; Layer WorkSpace Pass 1 of 9
G1 X241.237Y56.272
; Layer WorkSpace Pass 2 of 9
G1 X241.001Y57.146
; Layer WorkSpace Pass 3 of 9
G1 X241.237Y56.272
; Layer WorkSpace Pass 4 of 9
G1 X241.001Y57.146
; Layer WorkSpace Pass 5 of 9
G1 X241.237Y56.272
; Layer WorkSpace Pass 6 of 9
G1 X241.001Y57.146
; Layer WorkSpace Pass 7 of 9
G1 X241.237Y56.272
; Layer WorkSpace Pass 8 of 9
G1 X241.001Y57.146
; Layer WorkSpace Pass 9 of 9
G1 X241.237Y56.272
G0 X241.237Y56.272
; Layer WorkSpace Pass 1 of 9
G1 X241.88Y55.318
; Layer WorkSpace Pass 2 of 9
G1 X241.237Y56.272
; Layer WorkSpace Pass 3 of 9
G1 X241.88Y55.318
; Layer WorkSpace Pass 4 of 9
G1 X241.237Y56.272
; Layer WorkSpace Pass 5 of 9
G1 X241.88Y55.318
; Layer WorkSpace Pass 6 of 9
G1 X241.237Y56.272
; Layer WorkSpace Pass 7 of 9
G1 X241.88Y55.318
; Layer WorkSpace Pass 8 of 9
G1 X241.237Y56.272
; Layer WorkSpace Pass 9 of 9
G1 X241.88Y55.318
G0 X241.88Y55.318
; Layer WorkSpace Pass 1 of 9
G1 X242.835Y54.674
; Layer WorkSpace Pass 2 of 9
G1 X241.88Y55.318
; Layer WorkSpace Pass 3 of 9
G1 X242.835Y54.674
; Layer WorkSpace Pass 4 of 9
G1 X241.88Y55.318
; Layer WorkSpace Pass 5 of 9
G1 X242.835Y54.674
; Layer WorkSpace Pass 6 of 9
G1 X241.88Y55.318
; Layer WorkSpace Pass 7 of 9
G1 X242.835Y54.674
; Layer WorkSpace Pass 8 of 9
G1 X241.88Y55.318
; Layer WorkSpace Pass 9 of 9
G1 X242.835Y54.674
G0 X242.835Y54.674
; Layer WorkSpace Pass 1 of 9
G1 X243.709Y54.437
; Layer WorkSpace Pass 2 of 9
G1 X242.835Y54.674
; Layer WorkSpace Pass 3 of 9
G1 X243.709Y54.437
; Layer WorkSpace Pass 4 of 9
G1 X242.835Y54.674
; Layer WorkSpace Pass 5 of 9
G1 X243.709Y54.437
; Layer WorkSpace Pass 6 of 9
G1 X242.835Y54.674
; Layer WorkSpace Pass 7 of 9
G1 X243.709Y54.437
; Layer WorkSpace Pass 8 of 9
G1 X242.835Y54.674
; Layer WorkSpace Pass 9 of 9
G1 X243.709Y54.437
G0 X243.709Y54.437
; Layer WorkSpace Pass 1 of 9
G1 X244.001
; Layer WorkSpace Pass 2 of 9
G1 X243.709
; Layer WorkSpace Pass 3 of 9
G1 X244.001
; Layer WorkSpace Pass 4 of 9
G1 X243.709
; Layer WorkSpace Pass 5 of 9
G1 X244.001
; Layer WorkSpace Pass 6 of 9
G1 X243.709
; Layer WorkSpace Pass 7 of 9
G1 X244.001
; Layer WorkSpace Pass 8 of 9
G1 X243.709
; Layer WorkSpace Pass 9 of 9
G1 X244.001
G0 X244.001Y54.437
; Layer WorkSpace Pass 1 of 9
G1 X268.001
; Layer WorkSpace Pass 2 of 9
G1 X244.001
; Layer WorkSpace Pass 3 of 9
G1 X268.001
; Layer WorkSpace Pass 4 of 9
G1 X244.001
; Layer WorkSpace Pass 5 of 9
G1 X268.001
; Layer WorkSpace Pass 6 of 9
G1 X244.001
; Layer WorkSpace Pass 7 of 9
G1 X268.001
; Layer WorkSpace Pass 8 of 9
G1 X244.001
; Layer WorkSpace Pass 9 of 9
G1 X268.001
G0 X268.001Y54.437
; Layer WorkSpace Pass 1 of 9
G1 X268.292
; Layer WorkSpace Pass 2 of 9
G1 X268.001
; Layer WorkSpace Pass 3 of 9
G1 X268.292
; Layer WorkSpace Pass 4 of 9
G1 X268.001
; Layer WorkSpace Pass 5 of 9
G1 X268.292
; Layer WorkSpace Pass 6 of 9
G1 X268.001
; Layer WorkSpace Pass 7 of 9
G1 X268.292
; Layer WorkSpace Pass 8 of 9
G1 X268.001
; Layer WorkSpace Pass 9 of 9
G1 X268.292
G0 X268.292Y54.437
; Layer WorkSpace Pass 1 of 9
G1 X269.167Y54.674
; Layer WorkSpace Pass 2 of 9
G1 X268.292Y54.437
; Layer WorkSpace Pass 3 of 9
G1 X269.167Y54.674
; Layer WorkSpace Pass 4 of 9
G1 X268.292Y54.437
; Layer WorkSpace Pass 5 of 9
G1 X269.167Y54.674
; Layer WorkSpace Pass 6 of 9
G1 X268.292Y54.437
; Layer WorkSpace Pass 7 of 9
G1 X269.167Y54.674
; Layer WorkSpace Pass 8 of 9
G1 X268.292Y54.437
; Layer WorkSpace Pass 9 of 9
G1 X269.167Y54.674
G0 X269.167Y54.674
; Layer WorkSpace Pass 1 of 9
G1 X270.12Y55.318
; Layer WorkSpace Pass 2 of 9
G1 X269.167Y54.674
; Layer WorkSpace Pass 3 of 9
G1 X270.12Y55.318
; Layer WorkSpace Pass 4 of 9
G1 X269.167Y54.674
; Layer WorkSpace Pass 5 of 9
G1 X270.12Y55.318
; Layer WorkSpace Pass 6 of 9
G1 X269.167Y54.674
; Layer WorkSpace Pass 7 of 9
G1 X270.12Y55.318
; Layer WorkSpace Pass 8 of 9
G1 X269.167Y54.674
; Layer WorkSpace Pass 9 of 9
G1 X270.12Y55.318
G0 X270.12Y55.318
; Layer WorkSpace Pass 1 of 9
G1 X270.764Y56.272
; Layer WorkSpace Pass 2 of 9
G1 X270.12Y55.318
; Layer WorkSpace Pass 3 of 9
G1 X270.764Y56.272
; Layer WorkSpace Pass 4 of 9
G1 X270.12Y55.318
; Layer WorkSpace Pass 5 of 9
G1 X270.764Y56.272
; Layer WorkSpace Pass 6 of 9
G1 X270.12Y55.318
; Layer WorkSpace Pass 7 of 9
G1 X270.764Y56.272
; Layer WorkSpace Pass 8 of 9
G1 X270.12Y55.318
; Layer WorkSpace Pass 9 of 9
G1 X270.764Y56.272
G0 X270.764Y56.272
; Layer WorkSpace Pass 1 of 9
G1 X271.001Y57.146
; Layer WorkSpace Pass 2 of 9
G1 X270.764Y56.272
; Layer WorkSpace Pass 3 of 9
G1 X271.001Y57.146
; Layer WorkSpace Pass 4 of 9
G1 X270.764Y56.272
; Layer WorkSpace Pass 5 of 9
G1 X271.001Y57.146
; Layer WorkSpace Pass 6 of 9
G1 X270.764Y56.272
; Layer WorkSpace Pass 7 of 9
G1 X271.001Y57.146
; Layer WorkSpace Pass 8 of 9
G1 X270.764Y56.272
; Layer WorkSpace Pass 9 of 9
G1 X271.001Y57.146
G0 X271.001Y57.146
; Layer WorkSpace Pass 1 of 9
G1 Y57.437
; Layer WorkSpace Pass 2 of 9
G1 Y57.146
; Layer WorkSpace Pass 3 of 9
G1 Y57.437
; Layer WorkSpace Pass 4 of 9
G1 Y57.146
; Layer WorkSpace Pass 5 of 9
G1 Y57.437
; Layer WorkSpace Pass 6 of 9
G1 Y57.146
; Layer WorkSpace Pass 7 of 9
G1 Y57.437
; Layer WorkSpace Pass 8 of 9
G1 Y57.146
; Layer WorkSpace Pass 9 of 9
G1 Y57.437
G0 X271.001Y57.437
; Layer WorkSpace Pass 1 of 9
G1 Y59.648
; Layer WorkSpace Pass 2 of 9
G1 Y57.437
; Layer WorkSpace Pass 3 of 9
G1 Y59.648
; Layer WorkSpace Pass 4 of 9
G1 Y57.437
; Layer WorkSpace Pass 5 of 9
G1 Y59.648
; Layer WorkSpace Pass 6 of 9
G1 Y57.437
; Layer WorkSpace Pass 7 of 9
G1 Y59.648
; Layer WorkSpace Pass 8 of 9
G1 Y57.437
; Layer WorkSpace Pass 9 of 9
G1 Y59.648
G0 X270.999Y59.648
; Layer WorkSpace Pass 1 of 9
G1 X459.248
; Layer WorkSpace Pass 2 of 9
G1 X270.999
; Layer WorkSpace Pass 3 of 9
G1 X459.248
; Layer WorkSpace Pass 4 of 9
G1 X270.999
; Layer WorkSpace Pass 5 of 9
G1 X459.248
; Layer WorkSpace Pass 6 of 9
G1 X270.999
; Layer WorkSpace Pass 7 of 9
G1 X459.248
; Layer WorkSpace Pass 8 of 9
G1 X270.999
; Layer WorkSpace Pass 9 of 9
G1 X459.248
G0 X459.248Y59.651
; Layer WorkSpace Pass 1 of 9
G1 Y309.534
; Layer WorkSpace Pass 2 of 9
G1 Y59.651
; Layer WorkSpace Pass 3 of 9
G1 Y309.534
; Layer WorkSpace Pass 4 of 9
G1 Y59.651
; Layer WorkSpace Pass 5 of 9
G1 Y309.534
; Layer WorkSpace Pass 6 of 9
G1 Y59.651
; Layer WorkSpace Pass 7 of 9
G1 Y309.534
; Layer WorkSpace Pass 8 of 9
G1 Y59.651
; Layer WorkSpace Pass 9 of 9
G1 Y309.534
G0 X459.251Y309.534
; Layer WorkSpace Pass 1 of 9
G1 X457.109
G1 X456.193
G1 X456.069
G1 X456.003
; Layer WorkSpace Pass 2 of 9
G1 X456.069
G1 X456.193
G1 X457.109
G1 X459.251
; Layer WorkSpace Pass 3 of 9
G1 X457.109
G1 X456.193
G1 X456.069
G1 X456.003
; Layer WorkSpace Pass 4 of 9
G1 X456.069
G1 X456.193
G1 X457.109
G1 X459.251
; Layer WorkSpace Pass 5 of 9
G1 X457.109
G1 X456.193
G1 X456.069
G1 X456.003
; Layer WorkSpace Pass 6 of 9
G1 X456.069
G1 X456.193
G1 X457.109
G1 X459.251
; Layer WorkSpace Pass 7 of 9
G1 X457.109
G1 X456.193
G1 X456.069
G1 X456.003
; Layer WorkSpace Pass 8 of 9
G1 X456.069
G1 X456.193
G1 X457.109
G1 X459.251
; Layer WorkSpace Pass 9 of 9
G1 X457.109
G1 X456.193
G1 X456.069
G1 X456.003
G0 X456.005Y309.539
; Layer WorkSpace Pass 1 of 9
G1 Y316.421
; Layer WorkSpace Pass 2 of 9
G1 Y309.539
; Layer WorkSpace Pass 3 of 9
G1 Y316.421
; Layer WorkSpace Pass 4 of 9
G1 Y309.539
; Layer WorkSpace Pass 5 of 9
G1 Y316.421
; Layer WorkSpace Pass 6 of 9
G1 Y309.539
; Layer WorkSpace Pass 7 of 9
G1 Y316.421
; Layer WorkSpace Pass 8 of 9
G1 Y309.539
; Layer WorkSpace Pass 9 of 9
G1 Y316.421
G0 X455.997Y316.412
; Layer WorkSpace Pass 1 of 9
G1 X459.245
; Layer WorkSpace Pass 2 of 9
G1 X455.997
; Layer WorkSpace Pass 3 of 9
G1 X459.245
; Layer WorkSpace Pass 4 of 9
G1 X455.997
; Layer WorkSpace Pass 5 of 9
G1 X459.245
; Layer WorkSpace Pass 6 of 9
G1 X455.997
; Layer WorkSpace Pass 7 of 9
G1 X459.245
; Layer WorkSpace Pass 8 of 9
G1 X455.997
; Layer WorkSpace Pass 9 of 9
G1 X459.245
G0 X459.245Y316.413
; Layer WorkSpace Pass 1 of 9
G1 Y319.563
; Layer WorkSpace Pass 2 of 9
G1 Y316.413
; Layer WorkSpace Pass 3 of 9
G1 Y319.563
; Layer WorkSpace Pass 4 of 9
G1 Y316.413
; Layer WorkSpace Pass 5 of 9
G1 Y319.563
; Layer WorkSpace Pass 6 of 9
G1 Y316.413
; Layer WorkSpace Pass 7 of 9
G1 Y319.563
; Layer WorkSpace Pass 8 of 9
G1 Y316.413
; Layer WorkSpace Pass 9 of 9
G1 Y319.563
G0 X459.245Y319.562
; Layer WorkSpace Pass 1 of 9
G1 X255.951
G1 X52.749
; Layer WorkSpace Pass 2 of 9
G1 X255.951
G1 X459.245
; Layer WorkSpace Pass 3 of 9
G1 X255.951
G1 X52.749
; Layer WorkSpace Pass 4 of 9
G1 X255.951
G1 X459.245
; Layer WorkSpace Pass 5 of 9
G1 X255.951
G1 X52.749
; Layer WorkSpace Pass 6 of 9
G1 X255.951
G1 X459.245
; Layer WorkSpace Pass 7 of 9
G1 X255.951
G1 X52.749
; Layer WorkSpace Pass 8 of 9
G1 X255.951
G1 X459.245
; Layer WorkSpace Pass 9 of 9
G1 X255.951
G1 X52.749
G0 X52.749Y319.563
; Layer WorkSpace Pass 1 of 9
G1 Y316.413
; Layer WorkSpace Pass 2 of 9
G1 Y319.563
; Layer WorkSpace Pass 3 of 9
G1 Y316.413
; Layer WorkSpace Pass 4 of 9
G1 Y319.563
; Layer WorkSpace Pass 5 of 9
G1 Y316.413
; Layer WorkSpace Pass 6 of 9
G1 Y319.563
; Layer WorkSpace Pass 7 of 9
G1 Y316.413
; Layer WorkSpace Pass 8 of 9
G1 Y319.563
; Layer WorkSpace Pass 9 of 9
G1 Y316.413
G0 X52.749Y316.412
; Layer WorkSpace Pass 1 of 9
G1 X55.997
; Layer WorkSpace Pass 2 of 9
G1 X52.749
; Layer WorkSpace Pass 3 of 9
G1 X55.997
; Layer WorkSpace Pass 4 of 9
G1 X52.749
; Layer WorkSpace Pass 5 of 9
G1 X55.997
; Layer WorkSpace Pass 6 of 9
G1 X52.749
; Layer WorkSpace Pass 7 of 9
G1 X55.997
; Layer WorkSpace Pass 8 of 9
G1 X52.749
; Layer WorkSpace Pass 9 of 9
G1 X55.997
G0 X55.995Y316.421
; Layer WorkSpace Pass 1 of 9
G1 Y309.539
; Layer WorkSpace Pass 2 of 9
G1 Y316.421
; Layer WorkSpace Pass 3 of 9
G1 Y309.539
; Layer WorkSpace Pass 4 of 9
G1 Y316.421
; Layer WorkSpace Pass 5 of 9
G1 Y309.539
; Layer WorkSpace Pass 6 of 9
G1 Y316.421
; Layer WorkSpace Pass 7 of 9
G1 Y309.539
; Layer WorkSpace Pass 8 of 9
G1 Y316.421
; Layer WorkSpace Pass 9 of 9
G1 Y309.539
G0 X56.003Y309.534
; Layer WorkSpace Pass 1 of 9
G1 X53.86
G1 X52.945
G1 X52.82
G1 X52.755
; Layer WorkSpace Pass 2 of 9
G1 X52.82
G1 X52.945
G1 X53.86
G1 X56.003
; Layer WorkSpace Pass 3 of 9
G1 X53.86
G1 X52.945
G1 X52.82
G1 X52.755
; Layer WorkSpace Pass 4 of 9
G1 X52.82
G1 X52.945
G1 X53.86
G1 X56.003
; Layer WorkSpace Pass 5 of 9
G1 X53.86
G1 X52.945
G1 X52.82
G1 X52.755
; Layer WorkSpace Pass 6 of 9
G1 X52.82
G1 X52.945
G1 X53.86
G1 X56.003
; Layer WorkSpace Pass 7 of 9
G1 X53.86
G1 X52.945
G1 X52.82
G1 X52.755
; Layer WorkSpace Pass 8 of 9
G1 X52.82
G1 X52.945
G1 X53.86
G1 X56.003
; Layer WorkSpace Pass 9 of 9
G1 X53.86
G1 X52.945
G1 X52.82
G1 X52.755
G0 X52.755Y309.534
; Layer WorkSpace Pass 1 of 9
G1 Y59.651
; Layer WorkSpace Pass 2 of 9
G1 Y309.534
; Layer WorkSpace Pass 3 of 9
G1 Y59.651
; Layer WorkSpace Pass 4 of 9
G1 Y309.534
; Layer WorkSpace Pass 5 of 9
G1 Y59.651
; Layer WorkSpace Pass 6 of 9
G1 Y309.534
; Layer WorkSpace Pass 7 of 9
G1 Y59.651
; Layer WorkSpace Pass 8 of 9
G1 Y309.534
; Layer WorkSpace Pass 9 of 9
G1 Y59.651
G0 X248.006Y57.199
; Layer WorkSpace Pass 1 of 9
G1 X264.006
G1 Y63.199
G1 X248.006
G1 Y57.199
; Layer WorkSpace Pass 2 of 9
G1 X264.006
G1 Y63.199
G1 X248.006
G1 Y57.199
; Layer WorkSpace Pass 3 of 9
G1 X264.006
G1 Y63.199
G1 X248.006
G1 Y57.199
; Layer WorkSpace Pass 4 of 9
G1 X264.006
G1 Y63.199
G1 X248.006
G1 Y57.199
; Layer WorkSpace Pass 5 of 9
G1 X264.006
G1 Y63.199
G1 X248.006
G1 Y57.199
; Layer WorkSpace Pass 6 of 9
G1 X264.006
G1 Y63.199
G1 X248.006
G1 Y57.199
; Layer WorkSpace Pass 7 of 9
G1 X264.006
G1 Y63.199
G1 X248.006
G1 Y57.199
; Layer WorkSpace Pass 8 of 9
G1 X264.006
G1 Y63.199
G1 X248.006
G1 Y57.199
; Layer WorkSpace Pass 9 of 9
G1 X264.006
G1 Y63.199
G1 X248.006
G1 Y57.199
; Scan @ 3000 mm/min, 100% power
M8
G0 X95.221Y114.95
; Layer GatoPeq
G91
G0 X1.25
G1 X0.098F3000
G0 X1.25
G0 X0.087Y0.1
G0 X-1.25
G1 X-0.274
G0 X-1.25
G0 X-0.089Y0.1
G0 X1.25
G1 X0.45
G0 X1.25
G0 X0.087Y0.1
G0 X-1.25
G1 X-0.626
G0 X-1.25
G0 X-0.089Y0.1
G0 X1.25
G1 X0.801
G0 X1.25
G0 X0.087Y0.1
G0 X-1.25
G1 X-0.978
G0 X-1.25
G0 X-0.089Y0.1
G0 X1.25
G1 X1.154
G0 X1.25
G0 X0.086Y0.1
G0 X-1.25
G1 X-1.329
G0 X-1.25
G0 X-0.088Y0.1
G0 X1.25
G1 X1.504
G0 X1.25
G0 X0.087Y0.1
G0 X-1.25
G1 X-1.679
G0 X-1.25
G0 X-0.089Y0.1
G0 X1.25
G1 X1.855
G0 X1.25
G0 X0.086Y0.1
G0 X-1.25
G1 X-2.029
G0 X-1.25
G0 X-0.087Y0.1
G0 X1.25
G1 X2.203
G0 X1.25
G0 X0.082Y0.1
G0 X-1.25
G1 X-2.371
G0 X-1.25
G0 X-0.087Y0.1
G0 X1.25
G1 X2.541
G0 X1.25
G0 X0.082Y0.1
G0 X-1.25
G1 X-2.709
G0 X-1.25
G0 X-0.084Y0.1
G0 X1.25
G1 X2.876
G0 X1.25
G0 X0.082Y0.1
G0 X-1.25
G1 X-3.041
G0 X-1.25
G0 X-0.083Y0.1
G0 X1.25
G1 X3.204
G0 X1.25
G0 X0.076Y0.1
G0 X-1.25
G1 X-3.363
G0 X-1.25
G0 X-0.079Y0.1
G0 X1.25
G1 X3.517
G0 X1.25
G0 X0.076Y0.1
G0 X-1.25
G1 X-3.671
G0 X-1.25
G0 X-6.29Y0.1
G0 X1.25
G1 X0.102
G1 X6.109F5000S0
G1 X3.826F3000S1000
G1 X6.145F5000S0
G1 X0.102F3000S1000
G0 X1.25
G0 X0.025Y0.1
G0 X-1.25
G1 X-0.419
G1 X-5.777F5000S0
G1 X-3.976F3000S1000
G1 X-5.743F5000S0
G1 X-0.419F3000S1000
G0 X-1.25
G0 X-0.025Y0.1
G0 X1.25
G1 X0.736
G1 X5.381F5000S0
G1 X4.12F3000S1000
G1 X5.411F5000S0
G1 X0.736F3000S1000
G0 X1.25
G0 X0.025Y0.1
G0 X-1.25
G1 X-1.053
G1 X-5.047F5000S0
G1 X-4.261F3000S1000
G1 X-5.02F5000S0
G1 X-1.053F3000S1000
G0 X-1.25
G0 X-0.025Y0.1
G0 X1.25
G1 X1.37
G1 X4.658F5000S0
G1 X4.402F3000S1000
G1 X4.684F5000S0
G1 X1.37F3000S1000
G0 X1.25
G0 X0.025Y0.1
G0 X-1.25
G1 X-1.687
G1 X-4.322F5000S0
G1 X-4.541F3000S1000
G1 X-4.297F5000S0
G1 X-1.686F3000S1000
G0 X-1.25
G0 X-0.025Y0.1
G0 X1.25
G1 X1.985
G1 X3.953F5000S0
G1 X4.679F3000S1000
G1 X3.98F5000S0
G1 X1.986F3000S1000
G0 X1.25
G0 X0.025Y0.1
G0 X-1.25
G1 X-2.282
G1 X-3.641F5000S0
G1 X-4.811F3000S1000
G1 X-3.618F5000S0
G1 X-2.281F3000S1000
G0 X-1.25
G0 X-0.025Y0.1
G0 X1.25
G1 X2.568
G1 X3.298F5000S0
G1 X2.421F3000S1000
G1 X0.037S0
G1 X2.476S1000
G1 X3.314F5000S0
G1 X2.569F3000S1000
G0 X1.25
G0 X0.024Y0.1
G0 X-1.25
G1 X-2.834
G1 X-3.009F5000S0
G1 X-2.459F3000S1000
G1 X-0.183S0
G1 X-2.414S1000
G1 X-2.999F5000S0
G1 X-2.834F3000S1000
G0 X-1.25
G0 X-0.025Y0.1
G0 X1.25
G1 X3.101
G1 X2.699F5000S0
G1 X2.407F3000S1000
G1 X0.33S0
G1 X2.439S1000
G1 X2.705F5000S0
G1 X3.101F3000S1000
G0 X1.25
G0 X0.023Y0.1
G0 X-1.25
G1 X-3.357
G1 X-2.413F5000S0
G1 X-2.417F3000S1000
G1 X-0.475S0
G1 X-2.401S1000
G1 X-2.408F5000S0
G1 X-3.357F3000S1000
G0 X-1.25
G0 X-0.022Y0.1
G0 X1.25
G1 X3.602
G1 X2.127F5000S0
G1 X2.394F3000S1000
G1 X0.621S0
G1 X2.394S1000
G1 X2.132F5000S0
G1 X3.603F3000S1000
G0 X1.25
G0 X0.021Y0.1
G0 X-1.25
G1 X-3.835
G1 X-1.867F5000S0
G1 X-2.374F3000S1000
G1 X-0.759S0
G1 X-2.385S1000
G1 X-1.861F5000S0
G1 X-3.834F3000S1000
G0 X-1.25
G0 X-0.019Y0.1
G0 X1.25
G1 X4.054
G1 X1.606F5000S0
G1 X2.374F3000S1000
G1 X0.897S0
G1 X2.356S1000
G1 X1.611F5000S0
G1 X4.054F3000S1000
G0 X1.25
G0 X0.019Y0.1
G0 X-1.25
G1 X-4.263
G1 X-1.366F5000S0
G1 X-2.338F3000S1000
G1 X-1.035F5000S0
G1 X-2.362F3000S1000
G1 X-1.363F5000S0
G1 X-4.262F3000S1000
G0 X-1.25
G0 X-0.018Y0.1
G0 X1.25
G1 X4.455
G1 X1.134F5000S0
G1 X2.352F3000S1000
G1 X1.166F5000S0
G1 X2.325F3000S1000
G1 X1.137F5000S0
G1 X4.455F3000S1000
G0 X1.25
G0 X0.016Y0.1
G0 X-1.25
G1 X-4.635
G1 X-0.918S0
G1 X-2.318S1000
G1 X-1.293F5000S0
G1 X-2.34F3000S1000
G1 X-0.917S0
G1 X-4.635S1000
G0 X-1.25
G0 X-0.016Y0.1
G0 X1.25
G1 X4.814
G1 X0.7S0
G1 X2.334S1000
G1 X1.414F5000S0
G1 X2.312F3000S1000
G1 X0.7S0
G1 X4.814S1000
G0 X1.25
G0 X0.016Y0.1
G0 X-1.25
G1 X-4.994
G1 X-0.481S0
G1 X-2.306S1000
G1 X-1.536F5000S0
G1 X-2.326F3000S1000
G1 X-0.483S0
G1 X-4.993S1000
G0 X-1.25
G0 X-0.014Y0.1
G0 X1.25
G1 X5.17
G1 X0.267S0
G1 X2.319S1000
G1 X1.653F5000S0
G1 X2.303F3000S1000
G1 X0.264S0
G1 X5.17S1000
G0 X1.25
G0 X0.014Y0.1
G0 X-1.25
G1 X-5.348
G1 X-0.045S0
G1 X-2.305S1000
G1 X-1.767F5000S0
G1 X-2.312F3000S1000
G1 X-0.049S0
G1 X-5.348S1000
G0 X-1.25
G0 X-0.014Y0.1
G0 X1.25
G1 X7.668
G1 X1.875F5000S0
G1 X7.659F3000S1000
G0 X1.25
G0 X0.013Y0.1
G0 X-1.25
G1 X-7.619
G1 X-1.983F5000S0
G1 X-7.625F3000S1000
G0 X-1.25
G0 X-0.012Y0.1
G0 X1.25
G1 X7.583
G1 X2.09F5000S0
G1 X7.577F3000S1000
G0 X1.25
G0 X0.011Y0.1
G0 X-1.25
G1 X-7.542
G1 X-2.191F5000S0
G1 X-7.539F3000S1000
G0 X-1.25
G0 X-0.011Y0.1
G0 X1.25
G1 X1.922
G1 X0.137S0
G1 X5.438S1000
G1 X2.29F5000S0
G1 X5.449F3000S1000
G1 X0.136S0
G1 X1.922S1000
G0 X1.25
G0 X0.011Y0.1
G0 X-1.25
G1 X-1.912
G1 X-0.443S0
G1 X-5.117S1000
G1 X-2.385F5000S0
G1 X-5.103F3000S1000
G1 X-0.444S0
G1 X-1.912S1000
G0 X-1.25
G0 X-0.011Y0.1
G0 X1.25
G1 X1.916
G1 X0.667S0
G1 X4.837S1000
G1 X2.481F5000S0
G1 X4.854F3000S1000
G1 X0.667S0
G1 X1.917S1000
G0 X1.25
G0 X0.011Y0.1
G0 X-1.25
G1 X-1.924
G1 X-0.859S0
G1 X-4.621S1000
G1 X-2.575F5000S0
G1 X-4.6F3000S1000
G1 X-0.859S0
G1 X-1.924S1000
G0 X-1.25
G0 X-0.01Y0.1
G0 X1.25
G1 X1.933
G1 X1.048F5000S0
G1 X4.363F3000S1000
G1 X2.664F5000S0
G1 X4.393F3000S1000
G1 X1.048F5000S0
G1 X1.933F3000S1000
G0 X1.25
G0 X0.008Y0.1
G0 X-1.25
G1 X-1.941
G1 X-1.22F5000S0
G1 X-4.181F3000S1000
G1 X-2.749F5000S0
G1 X-4.146F3000S1000
G1 X-1.22F5000S0
G1 X-1.941F3000S1000
G0 X-1.25
G0 X-0.007Y0.1
G0 X1.25
G1 X1.949
G1 X1.385F5000S0
G1 X3.938F3000S1000
G1 X2.831F5000S0
G1 X3.975F3000S1000
G1 X1.385F5000S0
G1 X1.949F3000S1000
G0 X1.25
G0 X0.008Y0.1
G0 X-1.25
G1 X-1.959
G1 X-1.549F5000S0
G1 X-3.769F3000S1000
G1 X-2.914F5000S0
G1 X-3.729F3000S1000
G1 X-1.549F5000S0
G1 X-1.959F3000S1000
G0 X-1.25
G0 X-0.007Y0.1
G0 X1.25
G1 X1.968
G1 X1.701F5000S0
G1 X3.532F3000S1000
G1 X2.997F5000S0
G1 X3.575F3000S1000
G1 X1.701F5000S0
G1 X1.968F3000S1000
G0 X1.25
G0 X0.008Y0.1
G0 X-1.25
G1 X-1.979
G1 X-1.849F5000S0
G1 X-3.39F3000S1000
G1 X-3.064F5000S0
G1 X-3.348F3000S1000
G1 X-1.848F5000S0
G1 X-1.979F3000S1000
G0 X-1.25
G0 X-0.008Y0.1
G0 X1.25
G1 X1.99
G1 X1.996F5000S0
G1 X3.164F3000S1000
G1 X3.132F5000S0
G1 X3.204F3000S1000
G1 X1.996F5000S0
G1 X1.99F3000S1000
G0 X1.25
G0 X0.007Y0.1
G0 X-1.25
G1 X-2
G1 X-2.136F5000S0
G1 X-3.027F3000S1000
G1 X-3.199F5000S0
G1 X-2.987F3000S1000
G1 X-2.136F5000S0
G1 X-2.001F3000S1000
G0 X-1.25
G0 X-0.005Y0.1
G0 X1.25
G1 X2.01
G1 X2.269F5000S0
G1 X2.817F3000S1000
G1 X3.266F5000S0
G1 X2.855F3000S1000
G1 X2.269F5000S0
G1 X2.011F3000S1000
G0 X1.25
G0 Y0.1
G0 X-1.245
G1 X-2.02
G1 X-2.401F5000S0
G1 X-2.684F3000S1000
G1 X-3.328F5000S0
G1 X-2.651F3000S1000
G1 X-2.402F5000S0
G1 X-2.021F3000S1000
G0 X-1.25
G0 Y0.1
G0 X1.245
G1 X2.03
G1 X2.534F5000S0
G1 X2.489F3000S1000
G1 X3.383F5000S0
G1 X2.518F3000S1000
G1 X2.534F5000S0
G1 X2.03F3000S1000
G0 X1.25
G0 X0.005Y0.1
G0 X-1.25
G1 X-2.04
G1 X-2.652F5000S0
G1 X-2.366F3000S1000
G1 X-3.438F5000S0
G1 X-2.34F3000S1000
G1 X-2.651F5000S0
G1 X-2.041F3000S1000
G0 X-1.25
G0 X-0.005Y0.1
G0 X1.25
G1 X2.051
G1 X2.769F5000S0
G1 X2.191F3000S1000
G1 X3.492F5000S0
G1 X2.215F3000S1000
G1 X2.769F5000S0
G1 X2.051F3000S1000
G0 X1.25
G0 X0.005Y0.1
G0 X-1.25
G1 X-2.062
G1 X-2.886F5000S0
G1 X-2.064F3000S1000
G1 X-3.546F5000S0
G1 X-2.041F3000S1000
G1 X-2.887F5000S0
G1 X-2.062F3000S1000
G0 X-1.25
G0 X-0.005Y0.1
G0 X1.25
G1 X2.073
G1 X2.99F5000S0
G1 X1.911F3000S1000
G1 X3.595F5000S0
G1 X1.926F3000S1000
G1 X2.99F5000S0
G1 X2.074F3000S1000
G0 X1.25
G0 Y0.1
G0 X-1.245
G1 X-2.086
G1 X-3.088F5000S0
G1 X-1.798F3000S1000
G1 X-3.638F5000S0
G1 X-1.785F3000S1000
G1 X-3.089F5000S0
G1 X-2.086F3000S1000
G0 X-1.25
G0 Y0.1
G0 X1.245
G1 X2.098
G1 X3.187F5000S0
G1 X1.659F3000S1000
G1 X3.681F5000S0
G1 X1.67F3000S1000
G1 X3.187F5000S0
G1 X2.098F3000S1000
G0 X1.25
G0 X0.005Y0.1
G0 X-1.25
G1 X-2.11
G1 X-3.276F5000S0
G1 X-1.552F3000S1000
G1 X-3.723F5000S0
G1 X-1.543F3000S1000
G1 X-3.276F5000S0
G1 X-2.11F3000S1000
G0 X-1.25
G0 X-0.005Y0.1
G0 X1.25
G1 X2.122
G1 X3.36F5000S0
G1 X1.431F3000S1000
G1 X3.765F5000S0
G1 X1.44F3000S1000
G1 X3.36F5000S0
G1 X2.122F3000S1000
G0 X1.25
G0 X0.005Y0.1
G0 X-1.25
G1 X-2.134
G1 X-3.429F5000S0
G1 X-1.342F3000S1000
G1 X-3.803F5000S0
G1 X-1.339F3000S1000
G1 X-3.429F5000S0
G1 X-2.134F3000S1000
G0 X-1.25
G0 X-0.005Y0.1
G0 X1.25
G1 X2.146
G1 X3.486F5000S0
G1 X1.259F3000S1000
G1 X3.831F5000S0
G1 X1.266F3000S1000
G1 X3.486F5000S0
G1 X2.147F3000S1000
G0 X1.25
G0 Y0.1
G0 X-1.245
G1 X-2.16
G1 X-3.531F5000S0
G1 X-1.201F3000S1000
G1 X-3.859F5000S0
G1 X-1.19F3000S1000
G1 X-3.531F5000S0
G1 X-2.16F3000S1000
G0 X-1.25
G0 Y0.1
G0 X1.245
G1 X2.174
G1 X3.554F5000S0
G1 X1.142F3000S1000
G1 X3.887F5000S0
G1 X1.157F3000S1000
G1 X3.554F5000S0
G1 X2.174F3000S1000
G0 X1.25
G0 X0.005Y0.1
G0 X-1.25
G1 X-2.188
G1 X-3.575F5000S0
G1 X-1.116F3000S1000
G1 X-3.914F5000S0
G1 X-1.096F3000S1000
G1 X-3.575F5000S0
G1 X-2.188F3000S1000
G0 X-1.25
G0 X-1.809Y0.1
G0 X1.25
G1 X4.006
G1 X3.583F5000S0
G1 X1.067F3000S1000
G1 X3.938F5000S0
G1 X1.087F3000S1000
G1 X3.583F5000S0
G1 X4.007F3000S1000
G0 X1.25
G0 X1.062Y0.1
G0 X-1.25
G1 X-5.078
G1 X-3.59F5000S0
G1 X-1.059F3000S1000
G1 X-3.961F5000S0
G1 X-1.04F3000S1000
G1 X-3.59F5000S0
G1 X-5.078F3000S1000
G0 X-1.25
G0 X-0.729Y0.1
G0 X1.25
G1 X5.816
G1 X3.595F5000S0
G1 X1.015F3000S1000
G1 X3.984F5000S0
G1 X1.033F3000S1000
G1 X3.595F5000S0
G1 X5.816F3000S1000
G0 X1.25
G0 X0.539Y0.1
G0 X-1.25
G1 X-6.364
G1 X-3.595F5000S0
G1 X-1.013F3000S1000
G1 X-4.007F5000S0
G1 X-0.994F3000S1000
G1 X-3.595F5000S0
G1 X-6.364F3000S1000
G0 X-1.25
G0 X-0.416Y0.1
G0 X1.25
G1 X6.791
G1 X3.593F5000S0
G1 X0.974F3000S1000
G1 X4.03F5000S0
G1 X0.992F3000S1000
G1 X3.593F5000S0
G1 X6.791F3000S1000
G0 X1.25
G0 X0.401Y0.1
G0 X-1.25
G1 X-7.203
G1 X-3.59F5000S0
G1 X-0.974F3000S1000
G1 X-4.048F5000S0
G1 X-0.957F3000S1000
G1 X-3.591F5000S0
G1 X-7.202F3000S1000
G0 X-1.25
G0 X-0.376Y0.1
G0 X1.25
G1 X7.59
G1 X3.585F5000S0
G1 X0.945F3000S1000
G1 X4.056F5000S0
G1 X0.965F3000S1000
G1 X3.585F5000S0
G1 X7.59F3000S1000
G0 X1.25
G0 X-0.034Y0.1
G0 X-1.25
G1 X-7.569
G1 X-3.578F5000S0
G1 X-0.956F3000S1000
G1 X-4.066F5000S0
G1 X-0.932F3000S1000
G1 X-3.578F5000S0
G1 X-7.569F3000S1000
G0 X-1.25
G0 X0.034Y0.1
G0 X1.25
G1 X7.549
G1 X3.57F5000S0
G1 X0.92F3000S1000
G1 X4.074F5000S0
G1 X0.948F3000S1000
G1 X3.57F5000S0
G1 X7.549F3000S1000
G0 X1.25
G0 X-0.034Y0.1
G0 X-1.25
G1 X-7.531
G1 X-3.559F5000S0
G1 X-0.941F3000S1000
G1 X-4.083F5000S0
G1 X-0.909F3000S1000
G1 X-3.558F5000S0
G1 X-7.53F3000S1000
G0 X-1.25
G0 X0.034Y0.1
G0 X1.25
G1 X7.513
G1 X3.546F5000S0
G1 X0.903F3000S1000
G1 X4.086F5000S0
G1 X0.934F3000S1000
G1 X3.547F5000S0
G1 X7.513F3000S1000
G0 X1.25
G0 X-0.034Y0.1
G0 X-1.25
G1 X-7.502
G1 X-3.528F5000S0
G1 X-0.928F3000S1000
G1 X-1.303F5000S0
G1 X-0.038F3000S1000
G1 X-1.375F5000S0
G1 X-0.038F3000S1000
G1 X-1.335F5000S0
G1 X-0.897F3000S1000
G1 X-3.527F5000S0
G1 X-7.503F3000S1000
G0 X-1.25
G0 X0.034Y0.1
G0 X1.25
G1 X7.502
G1 X3.498F5000S0
G1 X0.892F3000S1000
G1 X1.304F5000S0
G1 X0.093F3000S1000
G1 X1.328F5000S0
G1 X0.093F3000S1000
G1 X1.275F5000S0
G1 X0.921F3000S1000
G1 X3.498F5000S0
G1 X7.502F3000S1000
G0 X1.25
G0 X-0.035Y0.1
G0 X-1.25
G1 X-7.508
G1 X-3.462F5000S0
G1 X-0.914F3000S1000
G1 X-1.246F5000S0
G1 X-0.147F3000S1000
G1 X-1.282F5000S0
G1 X-0.147F3000S1000
G1 X-1.273F5000S0
G1 X-0.887F3000S1000
G1 X-3.462F5000S0
G1 X-7.508F3000S1000
G0 X-1.25
G0 X0.034Y0.1
G0 X1.25
G1 X7.515
G1 X3.425F5000S0
G1 X0.886F3000S1000
G1 X1.239F5000S0
G1 X0.201F3000S1000
G1 X1.236F5000S0
G1 X0.201F3000S1000
G1 X1.217F5000S0
G1 X0.908F3000S1000
G1 X3.426F5000S0
G1 X7.514F3000S1000
G0 X1.25
G0 X-0.034Y0.1
G0 X-1.25
G1 X-7.545
G1 X-3.365F5000S0
G1 X-0.904F3000S1000
G1 X-1.185F5000S0
G1 X-0.256F3000S1000
G1 X-1.19F5000S0
G1 X-0.256F3000S1000
G1 X-1.2F5000S0
G1 X-0.888F3000S1000
G1 X-3.366F5000S0
G1 X-7.545F3000S1000
G0 X-1.25
G0 X0.034Y0.1
G0 X1.25
G1 X7.587
G1 X3.294F5000S0
G1 X0.891F3000S1000
G1 X1.162F5000S0
G1 X0.31F3000S1000
G1 X1.144F5000S0
G1 X0.31F3000S1000
G1 X1.149F5000S0
G1 X0.904F3000S1000
G1 X3.296F5000S0
G1 X7.585F3000S1000
G0 X1.25
G0 X-0.035Y0.1
G0 X-1.25
G1 X-7.643
G1 X-3.206F5000S0
G1 X-0.906F3000S1000
G1 X-1.115F5000S0
G1 X-0.362F3000S1000
G1 X-1.097F5000S0
G1 X-0.363F3000S1000
G1 X-1.126F5000S0
G1 X-0.894F3000S1000
G1 X-3.207F5000S0
G1 X-7.643F3000S1000
G0 X-1.25
G0 X0.034Y0.1
G0 X1.25
G1 X7.735
G1 X3.084F5000S0
G1 X0.902F3000S1000
G1 X1.087F5000S0
G1 X0.414F3000S1000
G1 X1.05F5000S0
G1 X0.414F3000S1000
G1 X1.083F5000S0
G1 X0.906F3000S1000
G1 X3.082F5000S0
G1 X7.737F3000S1000
G0 X1.25
G0 X-0.034Y0.1
G0 X-1.25
G1 X-7.86
G1 X-2.929F5000S0
G1 X-0.907F3000S1000
G1 X-1.051F5000S0
G1 X-0.464F3000S1000
G1 X-1.004F5000S0
G1 X-0.464F3000S1000
G1 X-1.046F5000S0
G1 X-0.912F3000S1000
G1 X-2.937F5000S0
G1 X-7.852F3000S1000
G0 X-1.25
G0 X0.034Y0.1
G0 X1.25
G1 X2.297
G1 X1.737F5000S0
G1 X3.956F3000S1000
G1 X2.769F5000S0
G1 X0.921F3000S1000
G1 X1.009F5000S0
G1 X0.513F3000S1000
G1 X0.955S0
G1 X0.512S1000
G1 X1.017F5000S0
G1 X0.913F3000S1000
G1 X2.753F5000S0
G1 X3.972F3000S1000
G1 X1.738F5000S0
G1 X2.296F3000S1000
G0 X1.25
G0 X-0.035Y0.1
G0 X-1.25
G1 X-2.104
G1 X-3.072F5000S0
G1 X-2.98F3000S1000
G1 X-2.571F5000S0
G1 X-0.921F3000S1000
G1 X-0.982S0
G1 X-0.561S1000
G1 X-0.906S0
G1 X-0.561S1000
G1 X-0.972S0
G1 X-0.93S1000
G1 X-2.585F5000S0
G1 X-2.967F3000S1000
G1 X-3.072F5000S0
G1 X-2.104F3000S1000
G0 X-1.25
G0 X0.034Y0.1
G0 X1.25
G1 X2.104
G1 X3.62F5000S0
G1 X2.565F3000S1000
G1 X2.408F5000S0
G1 X0.941F3000S1000
G1 X0.939S0
G1 X0.608S1000
G1 X0.85S0
G1 X0.608S1000
G1 X0.951S0
G1 X0.93S1000
G1 X2.401F5000S0
G1 X2.571F3000S1000
G1 X3.62F5000S0
G1 X2.104F3000S1000
G0 X1.25
G0 X-0.037Y0.1
G0 X-1.25
G1 X-2.108
G1 X-3.904F5000S0
G1 X-2.419F3000S1000
G1 X-2.23F5000S0
G1 X-0.939F3000S1000
G1 X-0.921S0
G1 X-0.655S1000
G1 X-0.793S0
G1 X-0.656S1000
G1 X-0.905S0
G1 X-0.954S1000
G1 X-2.231F5000S0
G1 X-2.419F3000S1000
G1 X-3.903F5000S0
G1 X-2.109F3000S1000
G0 X-1.25
G0 X0.037Y0.1
G0 X1.25
G1 X2.117
G1 X4.181F5000S0
G1 X2.261F3000S1000
G1 X2.069F5000S0
G1 X0.968F3000S1000
G1 X0.873S0
G1 X0.706S1000
G1 X0.722S0
G1 X0.705S1000
G1 X0.89S0
G1 X0.953S1000
G1 X2.061F5000S0
G1 X2.268F3000S1000
G1 X4.181F5000S0
G1 X2.117F3000S1000
G0 X1.25
G0 X-0.037Y0.1
G0 X-1.25
G1 X-2.129
G1 X-4.389F5000S0
G1 X-2.18F3000S1000
G1 X-1.894F5000S0
G1 X-0.97F3000S1000
G1 X-0.86S0
G1 X-0.76S1000
G1 X-0.634S0
G1 X-0.761S1000
G1 X-0.844S0
G1 X-0.984S1000
G1 X-1.91F5000S0
G1 X-2.165F3000S1000
G1 X-4.389F5000S0
G1 X-2.129F3000S1000
G0 X-1.25
G0 X0.037Y0.1
G0 X1.25
G1 X2.141
G1 X4.591F5000S0
G1 X2.073F3000S1000
G1 X1.753F5000S0
G1 X1.006F3000S1000
G1 X0.803S0
G1 X0.843S1000
G1 X0.504S0
G1 X0.846S1000
G1 X0.815S0
G1 X0.993S1000
G1 X1.752F5000S0
G1 X2.073F3000S1000
G1 X4.591F5000S0
G1 X2.14F3000S1000
G0 X1.25
G0 X-0.036Y0.1
G0 X-1.25
G1 X-2.155
G1 X-4.781F5000S0
G1 X-1.976F3000S1000
G1 X-1.609F5000S0
G1 X-1.023F3000S1000
G1 X-0.741S0
G1 X-1.137S1000
G1 X-1.136
G1 X-0.742S0
G1 X-1.03S1000
G1 X-1.606F5000S0
G1 X-1.98F3000S1000
G1 X-4.781F5000S0
G1 X-2.154F3000S1000
G0 X-1.25
G0 X0.037Y0.1
G0 X1.25
G1 X2.169
G1 X4.937F5000S0
G1 X1.92F3000S1000
G1 X1.459F5000S0
G1 X1.067F3000S1000
G1 X0.642S0
G1 X2.413S1000
G1 X0.62S0
G1 X1.066S1000
G1 X1.466F5000S0
G1 X1.912F3000S1000
G1 X4.936F5000S0
G1 X2.17F3000S1000
G0 X1.25
G0 X-0.038Y0.1
G0 X-1.25
G1 X-2.184
G1 X-5.092F5000S0
G1 X-1.847F3000S1000
G1 X-1.323F5000S0
G1 X-1.146F3000S1000
G1 X-0.405S0
G1 X-2.669S1000
G1 X-0.464S0
G1 X-1.124S1000
G1 X-1.317F5000S0
G1 X-1.855F3000S1000
G1 X-5.092F5000S0
G1 X-2.184F3000S1000
G0 X-1.25
G0 X0.042Y0.1
G0 X1.25
G1 X2.195
G1 X5.242F5000S0
G1 X1.785F3000S1000
G1 X1.181F5000S0
G1 X5.814F3000S1000
G1 X1.183F5000S0
G1 X1.781F3000S1000
G1 X5.242F5000S0
G1 X2.196F3000S1000
G0 X1.25
G0 X-0.042Y0.1
G0 X-1.25
G1 X-2.209
G1 X-5.362F5000S0
G1 X-1.733F3000S1000
G1 X-1.054F5000S0
G1 X-5.819F3000S1000
G1 X-1.044F5000S0
G1 X-1.744F3000S1000
G1 X-5.362F5000S0
G1 X-2.209F3000S1000
G0 X-1.25
G0 X0.042Y0.1
G0 X1.25
G1 X2.222
G1 X5.482F5000S0
G1 X1.703F3000S1000
G1 X0.905S0
G1 X5.83S1000
G1 X0.921S0
G1 X1.685S1000
G1 X5.482F5000S0
G1 X2.223F3000S1000
G0 X1.25
G0 X-0.042Y0.1
G0 X-1.25
G1 X-2.236
G1 X-5.602F5000S0
G1 X-1.639F3000S1000
G1 X-0.785S0
G1 X-5.845S1000
G1 X-0.764S0
G1 X-1.661S1000
G1 X-5.602F5000S0
G1 X-2.236F3000S1000
G0 X-1.25
G0 X0.041Y0.1
G0 X1.25
G1 X2.252
G1 X5.703F5000S0
G1 X1.654F3000S1000
G1 X0.599S0
G1 X5.872S1000
G1 X0.641S0
G1 X1.612S1000
G1 X5.703F5000S0
G1 X2.252F3000S1000
G0 X1.25
G0 X-0.042Y0.1
G0 X-1.25
G1 X-2.268
G1 X-5.796F5000S0
G1 X-1.596F3000S1000
G1 X-0.487S0
G1 X-5.912S1000
G1 X-0.419S0
G1 X-1.661S1000
G1 X-5.797F5000S0
G1 X-2.268F3000S1000
G0 X-1.25
G0 X0.042Y0.1
G0 X1.25
G1 X2.283
G1 X5.879F5000S0
G1 X1.731F3000S1000
G1 X0.152S0
G1 X6.023S1000
G1 X0.261S0
G1 X1.63S1000
G1 X5.878F5000S0
G1 X2.283F3000S1000
G0 X1.25
G0 X-0.045Y0.1
G0 X-1.25
G1 X-2.298
G1 X-5.95F5000S0
G1 X-9.534F3000S1000
G1 X-5.95F5000S0
G1 X-2.298F3000S1000
G0 X-1.25
G0 X0.045Y0.1
G0 X1.25
G1 X2.313
G1 X6.014F5000S0
G1 X4.048F3000S1000
G1 X1.19F5000S0
G1 X4.048F3000S1000
G1 X6.014F5000S0
G1 X2.313F3000S1000
G0 X1.25
G0 X-0.044Y0.1
G0 X-1.25
G1 X-2.33
G1 X-6.062F5000S0
G1 X-3.37F3000S1000
G1 X-2.328F5000S0
G1 X-3.37F3000S1000
G1 X-6.062F5000S0
G1 X-2.329F3000S1000
G0 X-1.25
G0 X0.047Y0.1
G0 X1.25
G1 X2.345
G1 X6.1F5000S0
G1 X2.895F3000S1000
G1 X3.076F5000S0
G1 X2.895F3000S1000
G1 X6.1F5000S0
G1 X2.345F3000S1000
G0 X1.25
G0 X-0.048Y0.1
G0 X-1.25
G1 X-2.362
G1 X-6.122F5000S0
G1 X-2.553F3000S1000
G1 X-3.586F5000S0
G1 X-2.553F3000S1000
G1 X-6.121F5000S0
G1 X-2.363F3000S1000
G0 X-1.25
G0 X0.048Y0.1
G0 X1.25
G1 X2.38
G1 X6.123F5000S0
G1 X2.247F3000S1000
G1 X4.064F5000S0
G1 X2.247F3000S1000
G1 X6.123F5000S0
G1 X2.381F3000S1000
G0 X1.25
G0 X-0.052Y0.1
G0 X-1.25
G1 X-2.403
G1 X-6.098F5000S0
G1 X-2.004F3000S1000
G1 X-4.452F5000S0
G1 X-2.004F3000S1000
G1 X-6.098F5000S0
G1 X-2.403F3000S1000
G0 X-1.25
G0 X0.051Y0.1
G0 X1.25
G1 X2.428
G1 X4.193F5000S0
G1 X0.411F3000S1000
G1 X1.439F5000S0
G1 X1.793F3000S1000
G1 X4.832F5000S0
G1 X1.793F3000S1000
G1 X1.439F5000S0
G1 X0.411F3000S1000
G1 X4.193F5000S0
G1 X2.428F3000S1000
G0 X1.25
G0 X-0.054Y0.1
G0 X-1.25
G1 X-2.449
G1 X-4.177F5000S0
G1 X-0.652F3000S1000
G1 X-1.121F5000S0
G1 X-1.649F3000S1000
G1 X-5.156F5000S0
G1 X-1.649F3000S1000
G1 X-1.121F5000S0
G1 X-0.652F3000S1000
G1 X-4.177F5000S0
G1 X-2.449F3000S1000
G0 X-1.25
G0 X0.057Y0.1
G0 X1.25
G1 X2.471
G1 X4.179F5000S0
G1 X0.865F3000S1000
G1 X0.773S0
G1 X1.542S1000
G1 X5.479F5000S0
G1 X1.541F3000S1000
G1 X0.773S0
G1 X0.866S1000
G1 X4.178F5000S0
G1 X2.471F3000S1000
G0 X1.25
G0 X-0.058Y0.1
G0 X-1.25
G1 X-2.5
G1 X-4.178F5000S0
G1 X-1.148F3000S1000
G1 X-0.283S0
G1 X-1.522S1000
G1 X-5.76F5000S0
G1 X-1.522F3000S1000
G1 X-0.283S0
G1 X-1.148S1000
G1 X-4.178F5000S0
G1 X-2.499F3000S1000
G0 X-1.25
G0 X0.061Y0.1
G0 X1.25
G1 X2.526
G1 X4.186F5000S0
G1 X2.722F3000S1000
G1 X6.03F5000S0
G1 X2.722F3000S1000
G1 X4.186F5000S0
G1 X2.526F3000S1000
G0 X1.25
G0 X-0.061Y0.1
G0 X-1.25
G1 X-2.553
G1 X-4.194F5000S0
G1 X-2.496F3000S1000
G1 X-6.29F5000S0
G1 X-2.496F3000S1000
G1 X-4.194F5000S0
G1 X-2.553F3000S1000
G0 X-1.25
G0 X0.061Y0.1
G0 X1.25
G1 X2.586
G1 X4.197F5000S0
G1 X2.287F3000S1000
G1 X6.515F5000S0
G1 X2.287F3000S1000
G1 X4.196F5000S0
G1 X2.586F3000S1000
G0 X1.25
G0 X-0.061Y0.1
G0 X-1.25
G1 X-2.625
G1 X-4.193F5000S0
G1 X-2.078F3000S1000
G1 X-6.74F5000S0
G1 X-2.078F3000S1000
G1 X-4.193F5000S0
G1 X-2.625F3000S1000
G0 X-1.25
G0 X0.061Y0.1
G0 X1.25
G1 X2.664
G1 X4.185F5000S0
G1 X1.88F3000S1000
G1 X6.952F5000S0
G1 X1.88F3000S1000
G1 X4.186F5000S0
G1 X2.663F3000S1000
G0 X1.25
G0 X-0.061Y0.1
G0 X-1.25
G1 X-2.702
G1 X-4.176F5000S0
G1 X-1.696F3000S1000
G1 X-7.139F5000S0
G1 X-1.697F3000S1000
G1 X-4.176F5000S0
G1 X-2.701F3000S1000
G0 X-1.25
G0 X0.061Y0.1
G0 X1.25
G1 X2.75
G1 X4.146F5000S0
G1 X1.523F3000S1000
G1 X7.326F5000S0
G1 X1.523F3000S1000
G1 X4.146F5000S0
G1 X2.75F3000S1000
G0 X1.25
G0 X-0.061Y0.1
G0 X-1.25
G1 X-2.8
G1 X-4.095F5000S0
G1 X-1.372F3000S1000
G1 X-7.508F5000S0
G1 X-1.371F3000S1000
G1 X-4.095F5000S0
G1 X-2.801F3000S1000
G0 X-1.25
G0 X-0.127Y0.1
G0 X1.25
G1 X3.039
G1 X2.44F5000S0
G1 X0.014F3000S1000
G1 X1.549F5000S0
G1 X1.274F3000S1000
G1 X7.664F5000S0
G1 X1.274F3000S1000
G1 X1.548F5000S0
G1 X0.014F3000S1000
G1 X2.441F5000S0
G1 X3.039F3000S1000
G0 X1.25
G0 X0.183Y0.1
G0 X-1.25
G1 X-3.337
G1 X-2.231F5000S0
G1 X-0.514F3000S1000
G1 X-1.107F5000S0
G1 X-1.232F3000S1000
G1 X-7.82F5000S0
G1 X-1.232F3000S1000
G1 X-1.106F5000S0
G1 X-0.514F3000S1000
G1 X-2.231F5000S0
G1 X-3.338F3000S1000
G0 X-1.25
G0 X-0.183Y0.1
G0 X1.25
G1 X3.645
G1 X2.161F5000S0
G1 X0.717F3000S1000
G1 X0.764S0
G1 X1.24S1000
G1 X7.975F5000S0
G1 X1.24F3000S1000
G1 X0.763S0
G1 X0.719S1000
G1 X2.16F5000S0
G1 X3.644F3000S1000
G0 X1.25
G0 X0.183Y0.1
G0 X-1.25
G1 X-3.951
G1 X-2.118F5000S0
G1 X-0.895F3000S1000
G1 X-0.386S0
G1 X-1.291S1000
G1 X-8.111F5000S0
G1 X-1.292F3000S1000
G1 X-0.386S0
G1 X-0.893S1000
G1 X-2.119F5000S0
G1 X-3.952F3000S1000
G0 X-1.25
G0 X-0.183Y0.1
G0 X1.25
G1 X4.259
G1 X2.085F5000S0
G1 X2.416F3000S1000
G1 X8.241F5000S0
G1 X2.416F3000S1000
G1 X2.084F5000S0
G1 X4.259F3000S1000
G0 X1.25
G0 X0.175Y0.1
G0 X-1.25
G1 X-4.572
G1 X-2.05F5000S0
G1 X-2.247F3000S1000
G1 X-8.371F5000S0
G1 X-2.247F3000S1000
G1 X-2.05F5000S0
G1 X-4.573F3000S1000
G0 X-1.25
G0 X-0.165Y0.1
G0 X1.25
G1 X4.877
G1 X2.015F5000S0
G1 X2.078F3000S1000
G1 X8.5F5000S0
G1 X2.079F3000S1000
G1 X2.015F5000S0
G1 X4.876F3000S1000
G0 X1.25
G0 X0.156Y0.1
G0 X-1.25
G1 X-5.17
G1 X-1.983F5000S0
G1 X-1.919F3000S1000
G1 X-8.608F5000S0
G1 X-1.923F3000S1000
G1 X-1.977F5000S0
G1 X-5.172F3000S1000
G0 X-1.25
G0 X-0.149Y0.1
G0 X1.25
G1 X5.475
G1 X1.925F5000S0
G1 X1.767F3000S1000
G1 X8.716F5000S0
G1 X1.764F3000S1000
G1 X1.929F5000S0
G1 X5.474F3000S1000
G0 X1.25
G0 X0.146Y0.1
G0 X-1.25
G1 X-5.777
G1 X-1.865F5000S0
G1 X-1.617F3000S1000
G1 X-8.824F5000S0
G1 X-1.624F3000S1000
G1 X-1.857F5000S0
G1 X-5.778F3000S1000
G0 X-1.25
G0 X-0.141Y0.1
G0 X1.25
G1 X6.078
G1 X1.78F5000S0
G1 X1.489F3000S1000
G1 X8.931F5000S0
G1 X1.48F3000S1000
G1 X1.789F5000S0
G1 X6.077F3000S1000
G0 X1.25
G0 X0.14Y0.1
G0 X-1.25
G1 X-6.4
G1 X-1.683F5000S0
G1 X-1.355F3000S1000
G1 X-9.027F5000S0
G1 X-1.366F3000S1000
G1 X-1.673F5000S0
G1 X-6.4F3000S1000
G0 X-1.25
G0 X-0.133Y0.1
G0 X1.25
G1 X6.716
G1 X1.546F5000S0
G1 X1.262F3000S1000
G1 X9.123F5000S0
G1 X1.248F3000S1000
G1 X1.56F5000S0
G1 X6.715F3000S1000
G0 X1.25
G0 X0.132Y0.1
G0 X-1.25
G1 X-4.538
G1 X-0.411S0
G1 X-2.095S1000
G1 X-1.406F5000S0
G1 X-1.158F3000S1000
G1 X-9.218F5000S0
G1 X-1.172F3000S1000
G1 X-1.389F5000S0
G1 X-2.096F3000S1000
G1 X-0.392S0
G1 X-4.558S1000
G0 X-1.25
G0 X-0.132Y0.1
G0 X1.25
G1 X4.259
G1 X1.093F5000S0
G1 X2.033F3000S1000
G1 X1.198F5000S0
G1 X1.113F3000S1000
G1 X9.304F5000S0
G1 X1.093F3000S1000
G1 X1.225F5000S0
G1 X2.027F3000S1000
G1 X1.094F5000S0
G1 X4.257F3000S1000
G0 X1.25
G0 X0.132Y0.1
G0 X-1.25
G1 X-4.095
G1 X-1.575F5000S0
G1 X-2.054F3000S1000
G1 X-1.005F5000S0
G1 X-1.055F3000S1000
G1 X-9.391F5000S0
G1 X-1.096F3000S1000
G1 X-0.945S0
G1 X-2.073S1000
G1 X-1.599F5000S0
G1 X-4.072F3000S1000
G0 X-1.25
G0 X-0.129Y0.1
G0 X1.25
G1 X3.928
G1 X2.04F5000S0
G1 X2.16F3000S1000
G1 X0.632S0
G1 X1.114S1000
G1 X9.47F5000S0
G1 X1.061F3000S1000
G1 X0.732S0
G1 X2.114S1000
G1 X2.004F5000S0
G1 X3.963F3000S1000
G0 X1.25
G0 X0.121Y0.1
G0 X-1.25
G1 X-3.846
G1 X-2.404F5000S0
G1 X-2.223F3000S1000
G1 X-0.359S0
G1 X-1.127S1000
G1 X-9.542F5000S0
G1 X-3.709F3000S1000
G1 X-2.45F5000S0
G1 X-3.8F3000S1000
G0 X-1.25
G0 X-0.121Y0.1
G0 X1.25
G1 X3.692
G1 X2.85F5000S0
G1 X3.504F3000S1000
G1 X9.61F5000S0
G1 X3.504F3000S1000
G1 X2.802F5000S0
G1 X3.74F3000S1000
G0 X1.25
G0 X0.121Y0.1
G0 X-1.25
G1 X-3.645
G1 X-3.189F5000S0
G1 X-3.306F3000S1000
G1 X-9.664F5000S0
G1 X-3.305F3000S1000
G1 X-3.229F5000S0
G1 X-3.606F3000S1000
G0 X-1.25
G0 X-0.122Y0.1
G0 X1.25
G1 X3.533
G1 X3.613F5000S0
G1 X3.09F3000S1000
G1 X9.716F5000S0
G1 X3.091F3000S1000
G1 X3.585F5000S0
G1 X3.56F3000S1000
G0 X1.25
G0 X0.117Y0.1
G0 X-1.25
G1 X-3.478
G1 X-3.977F5000S0
G1 X-2.88F3000S1000
G1 X-9.751F5000S0
G1 X-2.881F3000S1000
G1 X-4.001F5000S0
G1 X-3.454F3000S1000
G0 X-1.25
G0 X-0.115Y0.1
G0 X1.25
G1 X3.373
G1 X4.402F5000S0
G1 X2.658F3000S1000
G1 X9.787F5000S0
G1 X2.657F3000S1000
G1 X4.376F5000S0
G1 X3.399F3000S1000
G0 X1.25
G0 X0.116Y0.1
G0 X-1.25
G1 X-3.333
G1 X-4.772F5000S0
G1 X-2.432F3000S1000
G1 X-9.809F5000S0
G1 X-2.433F3000S1000
G1 X-4.781F5000S0
G1 X-3.323F3000S1000
G0 X-1.25
G0 X-0.116Y0.1
G0 X1.25
G1 X3.277
G1 X5.175F5000S0
G1 X2.192F3000S1000
G1 X9.828F5000S0
G1 X2.19F3000S1000
G1 X5.186F5000S0
G1 X3.266F3000S1000
G0 X1.25
G0 X0.115Y0.1
G0 X-1.25
G1 X-3.217
G1 X-5.595F5000S0
G1 X-1.936F3000S1000
G1 X-9.845F5000S0
G1 X-1.939F3000S1000
G1 X-5.581F5000S0
G1 X-3.231F3000S1000
G0 X-1.25
G0 X-0.115Y0.1
G0 X1.25
G1 X3.185
G1 X6.003F5000S0
G1 X1.674F3000S1000
G1 X9.853F5000S0
G1 X1.672F3000S1000
G1 X6.018F5000S0
G1 X3.17F3000S1000
G0 X1.25
G0 X0.115Y0.1
G0 X-1.25
G1 X-3.141
G1 X-6.386F5000S0
G1 X-1.444F3000S1000
G1 X-9.861F5000S0
G1 X-1.446F3000S1000
G1 X-6.378F5000S0
G1 X-3.15F3000S1000
G0 X-1.25
G0 X-0.115Y0.1
G0 X1.25
G1 X3.12
G1 X6.695F5000S0
G1 X1.271F3000S1000
G1 X9.867F5000S0
G1 X1.269F3000S1000
G1 X6.697F5000S0
G1 X3.117F3000S1000
G0 X1.25
G0 X0.116Y0.1
G0 X-1.25
G1 X-3.107
G1 X-6.917F5000S0
G1 X-1.174F3000S1000
G1 X-9.868F5000S0
G1 X-1.179F3000S1000
G1 X-6.933F5000S0
G1 X-3.089F3000S1000
G0 X-1.25
G0 X-0.116Y0.1
G0 X1.25
G1 X3.06
G1 X7.135F5000S0
G1 X1.121F3000S1000
G1 X9.87F5000S0
G1 X1.117F3000S1000
G1 X7.096F5000S0
G1 X3.099F3000S1000
G0 X1.25
G0 X0.115Y0.1
G0 X-1.25
G1 X-3.091
G1 X-7.239F5000S0
G1 X-1.096F3000S1000
G1 X-9.871F5000S0
G1 X-1.101F3000S1000
G1 X-7.3F5000S0
G1 X-3.03F3000S1000
G0 X-1.25
G0 X0.073Y0.1
G0 X1.25
G1 X3.075
G1 X7.177F5000S0
G1 X1.107F3000S1000
G1 X9.87F5000S0
G1 X1.104F3000S1000
G1 X7.259F5000S0
G1 X2.99F3000S1000
G0 X1.25
G0 X-0.112Y0.1
G0 X-1.25
G1 X-3.033
G1 X-7.083F5000S0
G1 X-1.127F3000S1000
G1 X-9.866F5000S0
G1 X-1.126F3000S1000
G1 X-7.036F5000S0
G1 X-3.087F3000S1000
G0 X-1.25
G0 X0.113Y0.1
G0 X1.25
G1 X3.099
G1 X6.838F5000S0
G1 X1.2F3000S1000
G1 X9.864F5000S0
G1 X1.214F3000S1000
G1 X6.842F5000S0
G1 X3.076F3000S1000
G0 X1.25
G0 X-0.112Y0.1
G0 X-1.25
G1 X-3.118
G1 X-6.565F5000S0
G1 X-1.339F3000S1000
G1 X-9.859F5000S0
G1 X-1.318F3000S1000
G1 X-6.591F5000S0
G1 X-3.119F3000S1000
G0 X-1.25
G0 X0.112Y0.1
G0 X1.25
G1 X3.143
G1 X6.245F5000S0
G1 X1.533F3000S1000
G1 X9.85F5000S0
G1 X1.538F3000S1000
G1 X6.215F5000S0
G1 X3.16F3000S1000
G0 X1.25
G0 X-0.112Y0.1
G0 X-1.25
G1 X-3.203
G1 X-5.815F5000S0
G1 X-1.788F3000S1000
G1 X-9.84F5000S0
G1 X-1.811F3000S1000
G1 X-5.823F5000S0
G1 X-3.18F3000S1000
G0 X-1.25
G0 X0.113Y0.1
G0 X1.25
G1 X3.22
G1 X5.407F5000S0
G1 X2.081F3000S1000
G1 X9.827F5000S0
G1 X2.05F3000S1000
G1 X5.4F5000S0
G1 X3.25F3000S1000
G0 X1.25
G0 X-0.113Y0.1
G0 X-1.25
G1 X-3.301
G1 X-4.992F5000S0
G1 X-2.304F3000S1000
G1 X-9.807F5000S0
G1 X-2.322F3000S1000
G1 X-5.011F5000S0
G1 X-3.272F3000S1000
G0 X-1.25
G0 X0.113Y0.1
G0 X1.25
G1 X3.33
G1 X4.625F5000S0
G1 X2.547F3000S1000
G1 X9.788F5000S0
G1 X2.531F3000S1000
G1 X4.609F5000S0
G1 X3.352F3000S1000
G0 X1.25
G0 X-0.113Y0.1
G0 X-1.25
G1 X-3.42
G1 X-4.216F5000S0
G1 X-2.758F3000S1000
G1 X-9.758F5000S0
G1 X-2.763F3000S1000
G1 X-4.243F5000S0
G1 X-3.398F3000S1000
G0 X-1.25
G0 X0.114Y0.1
G0 X1.25
G1 X3.481
G1 X3.851F5000S0
G1 X2.974F3000S1000
G1 X9.726F5000S0
G1 X2.97F3000S1000
G1 X3.838F5000S0
G1 X3.488F3000S1000
G0 X1.25
G0 X-0.116Y0.1
G0 X-1.25
G1 X-3.563
G1 X-3.455F5000S0
G1 X-3.187F3000S1000
G1 X-9.676F5000S0
G1 X-3.189F3000S1000
G1 X-3.453F5000S0
G1 X-3.573F3000S1000
G0 X-1.25
G0 X0.116Y0.1
G0 X1.25
G1 X3.665
G1 X3.069F5000S0
G1 X3.392F3000S1000
G1 X9.622F5000S0
G1 X3.394F3000S1000
G1 X3.073F5000S0
G1 X3.649F3000S1000
G0 X1.25
G0 X-0.116Y0.1
G0 X-1.25
G1 X-3.744
G1 X-2.691F5000S0
G1 X-3.593F3000S1000
G1 X-9.568F5000S0
G1 X-3.595F3000S1000
G1 X-2.673F5000S0
G1 X-3.768F3000S1000
G0 X-1.25
G0 X0.119Y0.1
G0 X1.25
G1 X3.906
G1 X2.248F5000S0
G1 X2.215F3000S1000
G1 X0.442S0
G1 X1.133S1000
G1 X9.514F5000S0
G1 X1.125F3000S1000
G1 X0.443S0
G1 X2.22S1000
G1 X2.286F5000S0
G1 X3.862F3000S1000
G0 X1.25
G0 X-0.121Y0.1
G0 X-1.25
G1 X-4.006
G1 X-1.859F5000S0
G1 X-2.114F3000S1000
G1 X-0.815S0
G1 X-1.056S1000
G1 X-9.444F5000S0
G1 X-1.064F3000S1000
G1 X-0.815S0
G1 X-2.114S1000
G1 X-1.824F5000S0
G1 X-4.041F3000S1000
G0 X-1.25
G0 X0.121Y0.1
G0 X1.25
G1 X4.194
G1 X1.38F5000S0
G1 X2.049F3000S1000
G1 X1.079F5000S0
G1 X1.076F3000S1000
G1 X9.361F5000S0
G1 X1.069F3000S1000
G1 X1.079F5000S0
G1 X2.053F3000S1000
G1 X1.406F5000S0
G1 X4.165F3000S1000
G0 X1.25
G0 X-0.125Y0.1
G0 X-1.25
G1 X-4.35
G1 X-0.89S0
G1 X-2.051S1000
G1 X-1.278F5000S0
G1 X-1.12F3000S1000
G1 X-9.278F5000S0
G1 X-1.126F3000S1000
G1 X-1.278F5000S0
G1 X-2.013F3000S1000
G1 X-0.912S0
G1 X-4.366S1000
G0 X-1.25
G0 X0.128Y0.1
G0 X1.25
G1 X4.536
G1 X0.436S0
G1 X1.993S1000
G1 X1.444F5000S0
G1 X1.199F3000S1000
G1 X9.195F5000S0
G1 X1.194F3000S1000
G1 X1.444F5000S0
G1 X6.965F3000S1000
G0 X1.25
G0 X-0.128Y0.1
G0 X-1.25
G1 X-6.648
G1 X-1.585F5000S0
G1 X-1.284F3000S1000
G1 X-9.111F5000S0
G1 X-1.289F3000S1000
G1 X-1.585F5000S0
G1 X-6.648F3000S1000
G0 X-1.25
G0 X0.143Y0.1
G0 X1.25
G1 X6.33
G1 X1.691F5000S0
G1 X1.41F3000S1000
G1 X9.008F5000S0
G1 X1.404F3000S1000
G1 X1.691F5000S0
G1 X6.33F3000S1000
G0 X1.25
G0 X-0.144Y0.1
G0 X-1.25
G1 X-6.011
G1 X-1.792F5000S0
G1 X-1.529F3000S1000
G1 X-8.905F5000S0
G1 X-1.536F3000S1000
G1 X-1.792F5000S0
G1 X-6.011F3000S1000
G0 X-1.25
G0 X0.144Y0.1
G0 X1.25
G1 X5.703
G1 X1.867F5000S0
G1 X1.677F3000S1000
G1 X8.801F5000S0
G1 X1.67F3000S1000
G1 X1.867F5000S0
G1 X5.704F3000S1000
G0 X1.25
G0 X-0.144Y0.1
G0 X-1.25
G1 X-5.403
G1 X-1.931F5000S0
G1 X-1.814F3000S1000
G1 X-8.698F5000S0
G1 X-1.822F3000S1000
G1 X-1.931F5000S0
G1 X-5.403F3000S1000
G0 X-1.25
G0 X0.168Y0.1
G0 X1.25
G1 X5.078
G1 X1.984F5000S0
G1 X1.982F3000S1000
G1 X8.582F5000S0
G1 X1.978F3000S1000
G1 X1.984F5000S0
G1 X5.078F3000S1000
G0 X1.25
G0 X-0.172Y0.1
G0 X-1.25
G1 X-4.757
G1 X-2.029F5000S0
G1 X-2.144F3000S1000
G1 X-8.455F5000S0
G1 X-2.151F3000S1000
G1 X-2.028F5000S0
G1 X-4.757F3000S1000
G0 X-1.25
G0 X0.172Y0.1
G0 X1.25
G1 X4.445
G1 X2.065F5000S0
G1 X2.319F3000S1000
G1 X8.328F5000S0
G1 X2.31F3000S1000
G1 X2.064F5000S0
G1 X4.445F3000S1000
G0 X1.25
G0 X-0.178Y0.1
G0 X-1.25
G1 X-4.127
G1 X-2.103F5000S0
G1 X-2.473F3000S1000
G1 X-8.201F5000S0
G1 X-2.486F3000S1000
G1 X-2.103F5000S0
G1 X-4.127F3000S1000
G0 X-1.25
G0 X0.187Y0.1
G0 X1.25
G1 X3.806
G1 X2.152F5000S0
G1 X0.815F3000S1000
G1 X0.556S0
G1 X1.265S1000
G1 X8.062F5000S0
G1 X1.262F3000S1000
G1 X0.555S0
G1 X0.815S1000
G1 X2.152F5000S0
G1 X3.806F3000S1000
G0 X1.25
G0 X-0.187Y0.1
G0 X-1.25
G1 X-3.498
G1 X-2.205F5000S0
G1 X-0.629F3000S1000
G1 X-0.918S0
G1 X-1.227S1000
G1 X-7.912F5000S0
G1 X-1.233F3000S1000
G1 X-0.918S0
G1 X-0.629S1000
G1 X-2.204F5000S0
G1 X-3.499F3000S1000
G0 X-1.25
G0 X0.187Y0.1
G0 X1.25
G1 X3.191
G1 X2.299F5000S0
G1 X0.37F3000S1000
G1 X1.273F5000S0
G1 X1.243F3000S1000
G1 X7.759F5000S0
G1 X1.23F3000S1000
G1 X1.274F5000S0
G1 X0.37F3000S1000
G1 X2.298F5000S0
G1 X3.191F3000S1000
G0 X1.25
G0 X-0.187Y0.1
G0 X-1.25
G1 X-2.886
G1 X-4.066F5000S0
G1 X-1.306F3000S1000
G1 X-7.597F5000S0
G1 X-1.317F3000S1000
G1 X-4.065F5000S0
G1 X-2.887F3000S1000
G0 X-1.25
G0 X0.014Y0.1
G0 X1.25
G1 X2.77
G1 X4.126F5000S0
G1 X1.439F3000S1000
G1 X7.429F5000S0
G1 X1.436F3000S1000
G1 X4.127F5000S0
G1 X2.769F3000S1000
G0 X1.25
G0 X0.061Y0.1
G0 X-1.25
G1 X-2.727
G1 X-4.161F5000S0
G1 X-1.593F3000S1000
G1 X-7.248F5000S0
G1 X-1.601F3000S1000
G1 X-4.16F5000S0
G1 X-2.728F3000S1000
G0 X-1.25
G0 X-0.061Y0.1
G0 X1.25
G1 X2.686
G1 X4.18F5000S0
G1 X1.781F3000S1000
G1 X7.056F5000S0
G1 X1.771F3000S1000
G1 X4.181F5000S0
G1 X2.686F3000S1000
G0 X1.25
G0 X0.061Y0.1
G0 X-1.25
G1 X-2.655
G1 X-4.181F5000S0
G1 X-1.968F3000S1000
G1 X-6.853F5000S0
G1 X-1.971F3000S1000
G1 X-4.181F5000S0
G1 X-2.654F3000S1000
G0 X-1.25
G0 X-0.062Y0.1
G0 X1.25
G1 X2.623
G1 X4.179F5000S0
G1 X2.166F3000S1000
G1 X6.648F5000S0
G1 X2.168F3000S1000
G1 X4.179F5000S0
G1 X2.623F3000S1000
G0 X1.25
G0 X0.061Y0.1
G0 X-1.25
G1 X-2.591
G1 X-4.176F5000S0
G1 X-2.379F3000S1000
G1 X-6.414F5000S0
G1 X-2.381F3000S1000
G1 X-4.176F5000S0
G1 X-2.591F3000S1000
G0 X-1.25
G0 X-0.061Y0.1
G0 X1.25
G1 X2.564
G1 X4.168F5000S0
G1 X2.595F3000S1000
G1 X6.17F5000S0
G1 X2.601F3000S1000
G1 X4.168F5000S0
G1 X2.564F3000S1000
G0 X1.25
G0 X0.061Y0.1
G0 X-1.25
G1 X-2.54
G1 X-4.157F5000S0
G1 X-2.822F3000S1000
G1 X-5.926F5000S0
G1 X-2.81F3000S1000
G1 X-4.156F5000S0
G1 X-2.541F3000S1000
G0 X-1.25
G0 X-0.061Y0.1
G0 X1.25
G1 X2.517
G1 X4.149F5000S0
G1 X1.003F3000S1000
G1 X0.541S0
G1 X1.502S1000
G1 X5.634F5000S0
G1 X1.518F3000S1000
G1 X0.541S0
G1 X1.003S1000
G1 X4.149F5000S0
G1 X2.517F3000S1000
G0 X1.25
G0 X0.057Y0.1
G0 X-1.25
G1 X-2.49
G1 X-4.146F5000S0
G1 X-0.774F3000S1000
G1 X-0.93S0
G1 X-1.596S1000
G1 X-5.337F5000S0
G1 X-1.575F3000S1000
G1 X-0.929S0
G1 X-0.774S1000
G1 X-4.147F5000S0
G1 X-2.49F3000S1000
G0 X-1.25
G0 X-0.057Y0.1
G0 X1.25
G1 X2.468
G1 X4.155F5000S0
G1 X0.55F3000S1000
G1 X1.263F5000S0
G1 X1.688F3000S1000
G1 X5.018F5000S0
G1 X1.724F3000S1000
G1 X1.263F5000S0
G1 X0.55F3000S1000
G1 X4.155F5000S0
G1 X2.468F3000S1000
G0 X1.25
G0 X0.051Y0.1
G0 X-1.25
G1 X-2.442
G1 X-4.198F5000S0
G1 X-0.261F3000S1000
G1 X-1.589F5000S0
G1 X-1.905F3000S1000
G1 X-4.651F5000S0
G1 X-1.868F3000S1000
G1 X-1.588F5000S0
G1 X-0.261F3000S1000
G1 X-4.199F5000S0
G1 X-2.442F3000S1000
G0 X-1.25
G0 X-0.052Y0.1
G0 X1.25
G1 X2.417
G1 X6.093F5000S0
G1 X2.083F3000S1000
G1 X4.265F5000S0
G1 X2.139F3000S1000
G1 X6.094F5000S0
G1 X2.417F3000S1000
G0 X1.25
G0 X0.05Y0.1
G0 X-1.25
G1 X-2.39
G1 X-6.112F5000S0
G1 X-2.429F3000S1000
G1 X-3.807F5000S0
G1 X-2.372F3000S1000
G1 X-6.108F5000S0
G1 X-2.389F3000S1000
G0 X-1.25
G0 X-0.048Y0.1
G0 X1.25
G1 X2.366
G1 X6.101F5000S0
G1 X2.687F3000S1000
G1 X3.315F5000S0
G1 X2.761F3000S1000
G1 X6.106F5000S0
G1 X2.366F3000S1000
G0 X1.25
G0 X0.048Y0.1
G0 X-1.25
G1 X-2.344
G1 X-6.086F5000S0
G1 X-3.165F3000S1000
G1 X-2.681F5000S0
G1 X-3.097F3000S1000
G1 X-6.081F5000S0
G1 X-2.344F3000S1000
G0 X-1.25
G0 X-0.046Y0.1
G0 X1.25
G1 X2.32
G1 X6.044F5000S0
G1 X3.62F3000S1000
G1 X1.838F5000S0
G1 X3.695F3000S1000
G1 X6.053F5000S0
G1 X2.32F3000S1000
G0 X1.25
G0 X0.045Y0.1
G0 X-1.25
G1 X-2.295
G1 X-6.006F5000S0
G1 X-9.386F3000S1000
G1 X-5.998F5000S0
G1 X-2.295F3000S1000
G0 X-1.25
G0 X-0.045Y0.1
G0 X1.25
G1 X2.277
G1 X5.937F5000S0
G1 X9.635F3000S1000
G1 X5.944F5000S0
G1 X2.277F3000S1000
G0 X1.25
G0 X0.044Y0.1
G0 X-1.25
G1 X-2.257
G1 X-5.873F5000S0
G1 X-1.68F3000S1000
G1 X-0.288S0
G1 X-5.959S1000
G1 X-0.268S0
G1 X-1.714S1000
G1 X-5.861F5000S0
G1 X-2.258F3000S1000
G0 X-1.25
G0 X-0.041Y0.1
G0 X1.25
G1 X2.235
G1 X5.782F5000S0
G1 X1.668F3000S1000
G1 X0.489S0
G1 X5.893S1000
G1 X0.499S0
G1 X1.649S1000
G1 X5.79F5000S0
G1 X2.235F3000S1000
G0 X1.25
G0 X0.042Y0.1
G0 X-1.25
G1 X-2.215
G1 X-5.7F5000S0
G1 X-1.642F3000S1000
G1 X-0.677S0
G1 X-5.857S1000
G1 X-0.668S0
G1 X-1.66S1000
G1 X-5.69F5000S0
G1 X-2.215F3000S1000
G0 X-1.25
G0 X-0.041Y0.1
G0 X1.25
G1 X2.2
G1 X5.579F5000S0
G1 X1.671F3000S1000
G1 X0.833S0
G1 X5.839S1000
G1 X0.826S0
G1 X1.672S1000
G1 X5.586F5000S0
G1 X2.2F3000S1000
G0 X1.25
G0 X0.042Y0.1
G0 X-1.25
G1 X-2.187
G1 X-5.471F5000S0
G1 X-1.709F3000S1000
G1 X-0.968S0
G1 X-5.822S1000
G1 X-0.982S0
G1 X-1.705S1000
G1 X-5.459F5000S0
G1 X-2.187F3000S1000
G0 X-1.25
G0 X-0.041Y0.1
G0 X1.25
G1 X2.172
G1 X5.34F5000S0
G1 X1.739F3000S1000
G1 X1.127F5000S0
G1 X5.816F3000S1000
G1 X1.104F5000S0
G1 X1.746F3000S1000
G1 X5.356F5000S0
G1 X2.172F3000S1000
G0 X1.25
G0 X0.042Y0.1
G0 X-1.25
G1 X-2.161
G1 X-5.21F5000S0
G1 X-1.811F3000S1000
G1 X-1.241F5000S0
G1 X-1.266F3000S1000
G1 X-0.131S0
G1 X-3.042S1000
G1 X-0.051S0
G1 X-1.321S1000
G1 X-1.268F5000S0
G1 X-1.785F3000S1000
G1 X-5.207F5000S0
G1 X-2.162F3000S1000
G0 X-1.25
G0 X-0.04Y0.1
G0 X1.25
G1 X2.155
G1 X5.047F5000S0
G1 X1.854F3000S1000
G1 X1.408F5000S0
G1 X1.126F3000S1000
G1 X0.498S0
G1 X2.56S1000
G1 X0.522S0
G1 X1.101S1000
G1 X1.377F5000S0
G1 X1.878F3000S1000
G1 X5.055F5000S0
G1 X2.155F3000S1000
G0 X1.25
G0 X0.037Y0.1
G0 X-1.25
G1 X-2.145
G1 X-4.902F5000S0
G1 X-1.931F3000S1000
G1 X-1.523F5000S0
G1 X-1.051F3000S1000
G1 X-0.679S0
G1 X-2.371S1000
G1 X-0.639S0
G1 X-1.068S1000
G1 X-1.547F5000S0
G1 X-1.923F3000S1000
G1 X-4.886F5000S0
G1 X-2.145F3000S1000
G0 X-1.25
G0 X-0.037Y0.1
G0 X1.25
G1 X2.135
G1 X4.717F5000S0
G1 X1.989F3000S1000
G1 X1.696F5000S0
G1 X1.031F3000S1000
G1 X0.735S0
G1 X0.951S1000
G1 X0.375S0
G1 X0.928S1000
G1 X0.766S0
G1 X1.023S1000
G1 X1.671F5000S0
G1 X2.019F3000S1000
G1 X4.713F5000S0
G1 X2.135F3000S1000
G0 X1.25
G0 X0.037Y0.1
G0 X-1.25
G1 X-2.13
G1 X-4.516F5000S0
G1 X-2.107F3000S1000
G1 X-1.821F5000S0
G1 X-1.001F3000S1000
G1 X-0.816S0
G1 X-0.801S1000
G1 X-0.574S0
G1 X-0.816S1000
G1 X-0.796S0
G1 X-1.006S1000
G1 X-1.845F5000S0
G1 X-2.09F3000S1000
G1 X-4.509F5000S0
G1 X-2.129F3000S1000
G0 X-1.25
G0 X-0.037Y0.1
G0 X1.25
G1 X2.125
G1 X4.299F5000S0
G1 X2.189F3000S1000
G1 X1.995F5000S0
G1 X0.985F3000S1000
G1 X0.846S0
G1 X0.738S1000
G1 X0.677S0
G1 X0.733S1000
G1 X0.851S0
G1 X0.984S1000
G1 X1.98F5000S0
G1 X2.195F3000S1000
G1 X4.308F5000S0
G1 X2.126F3000S1000
G0 X1.25
G0 X0.036Y0.1
G0 X-1.25
G1 X-2.122
G1 X-4.05F5000S0
G1 X-2.332F3000S1000
G1 X-2.138F5000S0
G1 X-0.97F3000S1000
G1 X-0.879S0
G1 X-0.684S1000
G1 X-0.752S0
G1 X-0.68S1000
G1 X-0.885S0
G1 X-0.97S1000
G1 X-2.153F5000S0
G1 X-2.317F3000S1000
G1 X-4.05F5000S0
G1 X-2.122F3000S1000
G0 X-1.25
G0 X-0.037Y0.1
G0 X1.25
G1 X2.12
G1 X3.766F5000S0
G1 X2.479F3000S1000
G1 X2.312F5000S0
G1 X0.957F3000S1000
G1 X0.917S0
G1 X0.632S1000
G1 X0.816S0
G1 X0.634S1000
G1 X0.912S0
G1 X0.956S1000
G1 X2.309F5000S0
G1 X2.456F3000S1000
G1 X3.792F5000S0
G1 X2.12F3000S1000
G0 X1.25
G0 X0.036Y0.1
G0 X-1.25
G1 X-2.119
G1 X-3.34F5000S0
G1 X-2.766F3000S1000
G1 X-2.485F5000S0
G1 X-0.943F3000S1000
G1 X-0.947S0
G1 X-0.587S1000
G1 X-0.872S0
G1 X-0.588S1000
G1 X-0.949S0
G1 X-0.944S1000
G1 X-2.483F5000S0
G1 X-2.705F3000S1000
G1 X-3.403F5000S0
G1 X-2.119F3000S1000
G0 X-1.25
G0 X-0.034Y0.1
G0 X1.25
G1 X2.12
G1 X2.613F5000S0
G1 X3.349F3000S1000
G1 X2.659F5000S0
G1 X0.935F3000S1000
G1 X0.977S0
G1 X0.547S1000
G1 X0.923S0
G1 X0.539S1000
G1 X0.984S0
G1 X0.931S1000
G1 X2.66F5000S0
G1 X3.451F3000S1000
G1 X2.511F5000S0
G1 X2.12F3000S1000
G0 X1.25
G0 X0.034Y0.1
G0 X-1.25
G1 X-2.825
G1 X-0.07S0
G1 X-5.042S1000
G1 X-2.835F5000S0
G1 X-0.924F3000S1000
G1 X-1.019F5000S0
G1 X-0.491F3000S1000
G1 X-0.97S0
G1 X-0.509S1000
G1 X-1.004F5000S0
G1 X-0.927F3000S1000
G1 X-2.841F5000S0
G1 X-7.931F3000S1000
G0 X-1.25
G0 X-0.034Y0.1
G0 X1.25
G1 X7.795
G1 X3.007F5000S0
G1 X0.92F3000S1000
G1 X1.031F5000S0
G1 X0.469F3000S1000
G1 X1.018F5000S0
G1 X0.443F3000S1000
G1 X1.055F5000S0
G1 X0.916F3000S1000
G1 X2.982F5000S0
G1 X7.82F3000S1000
G0 X1.25
G0 X0.034Y0.1
G0 X-1.25
G1 X-7.719
G1 X-3.113F5000S0
G1 X-0.909F3000S1000
G1 X-1.094F5000S0
G1 X-0.391F3000S1000
G1 X-1.068F5000S0
G1 X-0.426F3000S1000
G1 X-1.059F5000S0
G1 X-0.913F3000S1000
G1 X-3.146F5000S0
G1 X-7.686F3000S1000
G0 X-1.25
G0 X-0.034Y0.1
G0 X1.25
G1 X7.607
G1 X3.255F5000S0
G1 X0.911F3000S1000
G1 X1.087F5000S0
G1 X0.379F3000S1000
G1 X1.116F5000S0
G1 X0.339F3000S1000
G1 X1.132F5000S0
G1 X0.904F3000S1000
G1 X3.213F5000S0
G1 X7.65F3000S1000
G0 X1.25
G0 X0.034Y0.1
G0 X-1.25
G1 X-7.596
G1 X-3.297F5000S0
G1 X-0.903F3000S1000
G1 X-1.167F5000S0
G1 X-0.286F3000S1000
G1 X-1.167F5000S0
G1 X-0.33F3000S1000
G1 X-1.113F5000S0
G1 X-0.91F3000S1000
G1 X-3.327F5000S0
G1 X-7.566F3000S1000
G0 X-1.25
G0 X-0.034Y0.1
G0 X1.25
G1 X7.528
G1 X3.395F5000S0
G1 X0.908F3000S1000
G1 X1.148F5000S0
G1 X0.267F3000S1000
G1 X1.224F5000S0
G1 X0.232F3000S1000
G1 X1.203F5000S0
G1 X0.902F3000S1000
G1 X3.369F5000S0
G1 X7.554F3000S1000
G0 X1.25
G0 X0.034Y0.1
G0 X-1.25
G1 X-7.537
G1 X-3.416F5000S0
G1 X-0.9F3000S1000
G1 X-1.24F5000S0
G1 X-0.178F3000S1000
G1 X-1.288F5000S0
G1 X-0.192F3000S1000
G1 X-1.188F5000S0
G1 X-0.906F3000S1000
G1 X-3.442F5000S0
G1 X-7.511F3000S1000
G0 X-1.25
G0 X-0.034Y0.1
G0 X1.25
G1 X7.505
G1 X3.478F5000S0
G1 X0.905F3000S1000
G1 X1.26F5000S0
G1 X0.026F3000S1000
G1 X1.41F5000S0
G1 X0.123F3000S1000
G1 X1.277F5000S0
G1 X0.899F3000S1000
G1 X3.464F5000S0
G1 X7.52F3000S1000
G0 X1.25
G0 X0.034Y0.1
G0 X-1.25
G1 X-7.51
G1 X-3.503F5000S0
G1 X-0.9F3000S1000
G1 X-1.312F5000S0
G1 X-0.068F3000S1000
G1 X-2.726F5000S0
G1 X-0.904F3000S1000
G1 X-3.513F5000S0
G1 X-7.5F3000S1000
G0 X-1.25
G0 X-0.034Y0.1
G0 X1.25
G1 X7.507
G1 X3.536F5000S0
G1 X0.904F3000S1000
G1 X2.753F5000S0
G1 X0.014F3000S1000
G1 X1.34F5000S0
G1 X0.907F3000S1000
G1 X3.532F5000S0
G1 X7.511F3000S1000
G0 X1.25
G0 X0.034Y0.1
G0 X-1.25
G1 X-7.518
G1 X-3.554F5000S0
G1 X-0.915F3000S1000
G1 X-4.101F5000S0
G1 X-0.912F3000S1000
G1 X-3.553F5000S0
G1 X-7.519F3000S1000
G0 X-1.25
G0 X-0.034Y0.1
G0 X1.25
G1 X7.535
G1 X3.566F5000S0
G1 X0.92F3000S1000
G1 X4.095F5000S0
G1 X0.923F3000S1000
G1 X3.573F5000S0
G1 X7.529F3000S1000
G0 X1.25
G0 X0.034Y0.1
G0 X-1.25
G1 X-7.543
G1 X-3.588F5000S0
G1 X-0.931F3000S1000
G1 X-4.088F5000S0
G1 X-0.928F3000S1000
G1 X-3.578F5000S0
G1 X-7.554F3000S1000
G0 X-1.25
G0 X-0.034Y0.1
G0 X1.25
G1 X7.575
G1 X3.585F5000S0
G1 X0.937F3000S1000
G1 X4.082F5000S0
G1 X0.939F3000S1000
G1 X3.6F5000S0
G1 X7.56F3000S1000
G0 X1.25
G0 X-0.132Y0.1
G0 X-1.25
G1 X-7.412
G1 X-3.61F5000S0
G1 X-0.952F3000S1000
G1 X-4.071F5000S0
G1 X-0.947F3000S1000
G1 X-3.593F5000S0
G1 X-7.429F3000S1000
G0 X-1.25
G0 X0.401Y0.1
G0 X1.25
G1 X7.017
G1 X3.596F5000S0
G1 X0.958F3000S1000
G1 X4.058F5000S0
G1 X0.971F3000S1000
G1 X3.614F5000S0
G1 X6.998F3000S1000
G0 X1.25
G0 X-0.4Y0.1
G0 X-1.25
G1 X-6.585
G1 X-3.619F5000S0
G1 X-0.988F3000S1000
G1 X-4.045F5000S0
G1 X-0.971F3000S1000
G1 X-3.598F5000S0
G1 X-6.606F3000S1000
G0 X-1.25
G0 X0.457Y0.1
G0 X1.25
G1 X6.138
G1 X3.6F5000S0
G1 X0.993F3000S1000
G1 X4.022F5000S0
G1 X1.007F3000S1000
G1 X3.62F5000S0
G1 X6.119F3000S1000
G0 X1.25
G0 X-0.612Y0.1
G0 X-1.25
G1 X-5.497
G1 X-3.62F5000S0
G1 X-1.027F3000S1000
G1 X-4F5000S0
G1 X-1.015F3000S1000
G1 X-3.599F5000S0
G1 X-5.518F3000S1000
G0 X-1.25
G0 X0.832Y0.1
G0 X1.25
G1 X4.677
G1 X3.592F5000S0
G1 X1.043F3000S1000
G1 X3.978F5000S0
G1 X1.053F3000S1000
G1 X3.613F5000S0
G1 X4.656F3000S1000
G0 X1.25
G0 X-1.433Y0.1
G0 X-1.25
G1 X-3.215
G1 X-3.605F5000S0
G1 X-1.084F3000S1000
G1 X-3.951F5000S0
G1 X-1.071F3000S1000
G1 X-3.584F5000S0
G1 X-3.236F3000S1000
G0 X-1.25
G0 X1.049Y0.1
G0 X1.25
G1 X2.178
G1 X3.57F5000S0
G1 X1.106F3000S1000
G1 X3.923F5000S0
G1 X1.123F3000S1000
G1 X3.589F5000S0
G1 X2.159F3000S1000
G0 X1.25
G0 X-0.005Y0.1
G0 X-1.25
G1 X-2.147
G1 X-3.565F5000S0
G1 X-1.17F3000S1000
G1 X-3.894F5000S0
G1 X-1.15F3000S1000
G1 X-3.548F5000S0
G1 X-2.164F3000S1000
G0 X-1.25
G0 X0.006Y0.1
G0 X1.25
G1 X2.15
G1 X3.515F5000S0
G1 X1.203F3000S1000
G1 X3.866F5000S0
G1 X1.228F3000S1000
G1 X3.529F5000S0
G1 X2.136F3000S1000
G0 X1.25
G0 X-0.006Y0.1
G0 X-1.25
G1 X-2.124
G1 X-3.483F5000S0
G1 X-1.296F3000S1000
G1 X-3.829F5000S0
G1 X-1.277F3000S1000
G1 X-3.47F5000S0
G1 X-2.137F3000S1000
G0 X-1.25
G0 Y0.1
G0 X1.255
G1 X2.126
G1 X3.401F5000S0
G1 X1.373F3000S1000
G1 X3.792F5000S0
G1 X1.387F3000S1000
G1 X3.413F5000S0
G1 X2.114F3000S1000
G0 X1.25
G0 Y0.1
G0 X-1.255
G1 X-2.104
G1 X-3.335F5000S0
G1 X-1.492F3000S1000
G1 X-3.749F5000S0
G1 X-1.477F3000S1000
G1 X-3.324F5000S0
G1 X-2.115F3000S1000
G0 X-1.25
G0 X0.005Y0.1
G0 X1.25
G1 X2.103
G1 X3.24F5000S0
G1 X1.589F3000S1000
G1 X3.705F5000S0
G1 X1.606F3000S1000
G1 X3.249F5000S0
G1 X2.094F3000S1000
G0 X1.25
G0 X-0.005Y0.1
G0 X-1.25
G1 X-2.084
G1 X-3.151F5000S0
G1 X-1.731F3000S1000
G1 X-3.662F5000S0
G1 X-1.708F3000S1000
G1 X-3.148F5000S0
G1 X-2.091F3000S1000
G0 X-1.25
G0 Y0.1
G0 X1.255
G1 X2.08
G1 X3.054F5000S0
G1 X1.829F3000S1000
G1 X3.619F5000S0
G1 X1.858F3000S1000
G1 X3.05F5000S0
G1 X2.075F3000S1000
G0 X1.25
G0 X-0.006Y0.1
G0 X-1.25
G1 X-2.065
G1 X-2.948F5000S0
G1 X-1.987F3000S1000
G1 X-3.575F5000S0
G1 X-1.956F3000S1000
G1 X-2.955F5000S0
G1 X-2.068F3000S1000
G0 X-1.25
G0 X0.005Y0.1
G0 X1.25
G1 X2.058
G1 X2.848F5000S0
G1 X2.098F3000S1000
G1 X3.522F5000S0
G1 X2.13F3000S1000
G1 X2.832F5000S0
G1 X2.056F3000S1000
G0 X1.25
G0 X-0.005Y0.1
G0 X-1.25
G1 X-2.047
G1 X-2.713F5000S0
G1 X-2.282F3000S1000
G1 X-3.463F5000S0
G1 X-2.244F3000S1000
G1 X-2.736F5000S0
G1 X-2.049F3000S1000
G0 X-1.25
G0 X0.005Y0.1
G0 X1.25
G1 X2.039
G1 X2.618F5000S0
G1 X2.397F3000S1000
G1 X3.404F5000S0
G1 X2.435F3000S1000
G1 X2.592F5000S0
G1 X2.039F3000S1000
G0 X1.25
G0 X-0.005Y0.1
G0 X-1.25
G1 X-2.031
G1 X-2.465F5000S0
G1 X-2.594F3000S1000
G1 X-3.345F5000S0
G1 X-2.552F3000S1000
G1 X-2.497F5000S0
G1 X-2.029F3000S1000
G0 X-1.25
G0 Y0.1
G0 X1.255
G1 X2.02
G1 X2.365F5000S0
G1 X2.717F3000S1000
G1 X3.287F5000S0
G1 X2.76F3000S1000
G1 X2.33F5000S0
G1 X2.023F3000S1000
G0 X1.25
G0 Y0.1
G0 X-1.255
G1 X-2.016
G1 X-2.195F5000S0
G1 X-2.925F3000S1000
G1 X-3.229F5000S0
G1 X-2.882F3000S1000
G1 X-2.233F5000S0
G1 X-2.012F3000S1000
G0 X-1.25
G0 X0.006Y0.1
G0 X1.25
G1 X2.003
G1 X2.084F5000S0
G1 X3.065F3000S1000
G1 X3.166F5000S0
G1 X3.096F3000S1000
G1 X2.058F5000S0
G1 X2.008F3000S1000
G0 X1.25
G0 X-0.007Y0.1
G0 X-1.25
G1 X-2
G1 X-1.91F5000S0
G1 X-3.282F3000S1000
G1 X-3.09F5000S0
G1 X-3.258F3000S1000
G1 X-1.932F5000S0
G1 X-1.994F3000S1000
G0 X-1.25
G0 X0.008Y0.1
G0 X1.25
G1 X1.984
G1 X1.78F5000S0
G1 X3.451F3000S1000
G1 X3.015F5000S0
G1 X3.467F3000S1000
G1 X1.761F5000S0
G1 X1.992F3000S1000
G0 X1.25
G0 X-0.007Y0.1
G0 X-1.25
G1 X-1.985
G1 X-1.612F5000S0
G1 X-3.652F3000S1000
G1 X-2.94F5000S0
G1 X-3.643F3000S1000
G1 X-1.629F5000S0
G1 X-1.975F3000S1000
G0 X-1.25
G0 X0.008Y0.1
G0 X1.25
G1 X1.967
G1 X1.455F5000S0
G1 X3.856F3000S1000
G1 X2.865F5000S0
G1 X3.849F3000S1000
G1 X1.449F5000S0
G1 X1.979F3000S1000
G0 X1.25
G0 X-0.007Y0.1
G0 X-1.25
G1 X-1.974
G1 X-1.284F5000S0
G1 X-4.049F3000S1000
G1 X-2.789F5000S0
G1 X-4.077F3000S1000
G1 X-1.273F5000S0
G1 X-1.96F3000S1000
G0 X-1.25
G0 X0.008Y0.1
G0 X1.25
G1 X1.953
G1 X1.09F5000S0
G1 X4.298F3000S1000
G1 X2.706F5000S0
G1 X4.255F3000S1000
G1 X1.119F5000S0
G1 X1.969F3000S1000
G0 X1.25
G0 X-0.008Y0.1
G0 X-1.25
G1 X-1.965
G1 X-0.934S0
G1 X-4.481S1000
G1 X-2.619F5000S0
G1 X-4.522F3000S1000
G1 X-0.906S0
G1 X-1.947S1000
G0 X-1.25
G0 X0.011Y0.1
G0 X1.25
G1 X1.941
G1 X0.7S0
G1 X4.772S1000
G1 X2.525F5000S0
G1 X4.708F3000S1000
G1 X0.746S0
G1 X1.96S1000
G0 X1.25
G0 X-0.011Y0.1
G0 X-1.25
G1 X-1.958
G1 X-0.541S0
G1 X-4.949S1000
G1 X-2.432F5000S0
G1 X-5.031F3000S1000
G1 X-0.482S0
G1 X-1.936S1000
G0 X-1.25
G0 X0.011Y0.1
G0 X1.25
G1 X1.939
G1 X0.244S0
G1 X5.304S1000
G1 X2.338F5000S0
G1 X5.221F3000S1000
G1 X0.298S0
G1 X1.962S1000
G0 X1.25
G0 X-0.011Y0.1
G0 X-1.25
G1 X-7.522
G1 X-2.237F5000S0
G1 X-7.525F3000S1000
G0 X-1.25
G0 X0.011Y0.1
G0 X1.25
G1 X7.562
G1 X2.136F5000S0
G1 X7.564F3000S1000
G0 X1.25
G0 X-0.011Y0.1
G0 X-1.25
G1 X-7.605
G1 X-2.035F5000S0
G1 X-7.6F3000S1000
G0 X-1.25
G0 X0.012Y0.1
G0 X1.25
G1 X7.644
G1 X1.927F5000S0
G1 X7.646F3000S1000
G0 X1.25
G0 X-0.014Y0.1
G0 X-1.25
G1 X-7.688
G1 X-1.812F5000S0
G1 X-7.69F3000S1000
G0 X-1.25
G0 X0.014Y0.1
G0 X1.25
G1 X5.27
G1 X0.141S0
G1 X2.324S1000
G1 X1.696F5000S0
G1 X2.317F3000S1000
G1 X0.144S0
G1 X5.27S1000
G0 X1.25
G0 X-0.014Y0.1
G0 X-1.25
G1 X-5.092
G1 X-0.362S0
G1 X-2.32S1000
G1 X-1.58F5000S0
G1 X-2.328F3000S1000
G1 X-0.359S0
G1 X-5.093S1000
G0 X-1.25
G0 X0.014Y0.1
G0 X1.25
G1 X4.915
G1 X0.578S0
G1 X2.332S1000
G1 X1.464F5000S0
G1 X2.324F3000S1000
G1 X0.578S0
G1 X4.915S1000
G0 X1.25
G0 X-0.016Y0.1
G0 X-1.25
G1 X-4.735
G1 X-0.796S0
G1 X-2.329S1000
G1 X-1.346F5000S0
G1 X-2.337F3000S1000
G1 X-0.795S0
G1 X-4.736S1000
G0 X-1.25
G0 X0.016Y0.1
G0 X1.25
G1 X4.556
G1 X1.014F5000S0
G1 X2.343F3000S1000
G1 X1.225F5000S0
G1 X2.336F3000S1000
G1 X1.012F5000S0
G1 X4.556F3000S1000
G0 X1.25
G0 X-0.016Y0.1
G0 X-1.25
G1 X-4.372
G1 X-1.234F5000S0
G1 X-2.345F3000S1000
G1 X-1.097F5000S0
G1 X-2.353F3000S1000
G1 X-1.237F5000S0
G1 X-4.372F3000S1000
G0 X-1.25
G0 X0.019Y0.1
G0 X1.25
G1 X4.174
G1 X1.471F5000S0
G1 X2.363F3000S1000
G1 X0.969S0
G1 X2.355S1000
G1 X1.467F5000S0
G1 X4.173F3000S1000
G0 X1.25
G0 X288.444Y0.1
G0 X-1.25
G1 X-1.939
G1 X-286.523F5000S0
G1 X-3.96F3000S1000
G1 X-1.715F5000S0
G1 X-2.37F3000S1000
G1 X-0.837S0
G1 X-2.373S1000
G1 X-1.72F5000S0
G1 X-3.961F3000S1000
G0 X-1.25
G0 X0.019Y0.1
G0 X1.25
G1 X3.733
G1 X1.984F5000S0
G1 X2.383F3000S1000
G1 X0.7S0
G1 X2.388S1000
G1 X1.977F5000S0
G1 X3.733F3000S1000
G1 X286.011F5000S0
G1 X2.976F3000S1000
G0 X1.25
G0 X0.365Y0.1
G0 X-1.25
G1 X-3.712
G1 X-285.662F5000S0
G1 X-3.495F3000S1000
G1 X-2.251F5000S0
G1 X-2.408F3000S1000
G1 X-0.557S0
G1 X-2.392S1000
G1 X-2.256F5000S0
G1 X-3.495F3000S1000
G0 X-1.25
G0 X0.023Y0.1
G0 X1.25
G1 X3.249
G1 X2.537F5000S0
G1 X2.398F3000S1000
G1 X0.411S0
G1 X2.432S1000
G1 X2.532F5000S0
G1 X3.249F3000S1000
G1 X285.384F5000S0
G1 X4.253F3000S1000
G0 X1.25
G0 X0.232Y0.1
G0 X-1.25
G1 X-4.747
G1 X-285.146F5000S0
G1 X-2.983F3000S1000
G1 X-2.832F5000S0
G1 X-2.455F3000S1000
G1 X-0.265S0
G1 X-2.404S1000
G1 X-2.837F5000S0
G1 X-2.984F3000S1000
G0 X-1.25
G0 X0.025Y0.1
G0 X1.25
G1 X2.717
G1 X3.143F5000S0
G1 X2.405F3000S1000
G1 X0.119S0
G1 X2.479S1000
G1 X3.13F5000S0
G1 X2.718F3000S1000
G1 X284.928F5000S0
G1 X5.195F3000S1000
G0 X1.25
G0 X0.165Y0.1
G0 X-1.25
G1 X-5.558
G1 X-284.755F5000S0
G1 X-2.447F3000S1000
G1 X-3.434F5000S0
G1 X-4.88F3000S1000
G1 X-3.453F5000S0
G1 X-2.447F3000S1000
G0 X-1.25
G0 X0.025Y0.1
G0 X1.25
G1 X2.151
G1 X3.79F5000S0
G1 X4.756F3000S1000
G1 X3.762F5000S0
G1 X2.152F3000S1000
G1 X284.581F5000S0
G1 X5.922F3000S1000
G0 X1.25
G0 X0.163Y0.1
G0 X-1.25
G1 X-6.268
G1 X-284.423F5000S0
G1 X-1.856F3000S1000
G1 X-4.102F5000S0
G1 X-4.619F3000S1000
G1 X-4.129F5000S0
G1 X-1.855F3000S1000
G0 X-1.25
G0 X0.025Y0.1
G0 X1.25
G1 X1.546
G1 X4.482F5000S0
G1 X4.48F3000S1000
G1 X4.456F5000S0
G1 X1.547F3000S1000
G1 X284.292F5000S0
G1 X6.54F3000S1000
G0 X1.25
G0 X0.117Y0.1
G0 X-1.25
G1 X-6.813
G1 X-284.161F5000S0
G1 X-1.23F3000S1000
G1 X-4.818F5000S0
G1 X-4.339F3000S1000
G1 X-4.844F5000S0
G1 X-1.231F3000S1000
G0 X-1.25
G0 X0.025Y0.1
G0 X1.25
G1 X0.914
G1 X5.207F5000S0
G1 X4.199F3000S1000
G1 X5.179F5000S0
G1 X0.913F3000S1000
G1 X284.03F5000S0
G1 X7.085F3000S1000
G0 X1.25
G0 X0.117Y0.1
G0 X-1.25
G1 X-7.334
G1 X-283.923F5000S0
G1 X-0.596F3000S1000
G1 X-5.541F5000S0
G1 X-4.057F3000S1000
G1 X-5.571F5000S0
G1 X-0.597F3000S1000
G0 X-1.25
G0 X0.025Y0.1
G0 X1.25
G1 X0.28
G1 X5.938F5000S0
G1 X3.913F3000S1000
G1 X5.901F5000S0
G1 X0.28F3000S1000
G1 X283.822F5000S0
G1 X7.552F3000S1000
G0 X1.25
G0 X0.088Y0.1
G0 X-1.25
G1 X-7.765
G1 X-289.957F5000S0
G1 X-3.758F3000S1000
G0 X-1.25
G0 X0.076Y0.1
G0 X1.25
G1 X3.604
G1 X289.91F5000S0
G1 X7.979F3000S1000
G0 X1.25
G0 X0.089Y0.1
G0 X-1.25
G1 X-8.18
G1 X-289.876F5000S0
G1 X-3.45F3000S1000
G0 X-1.25
G0 X0.076Y0.1
G0 X1.25
G1 X3.293
G1 X289.853F5000S0
G1 X8.37F3000S1000
G0 X1.25
G0 X0.066Y0.1
G0 X-1.25
G1 X-8.539
G1 X-289.833F5000S0
G1 X-3.134F3000S1000
G0 X-1.25
G0 X0.082Y0.1
G0 X1.25
G1 X2.969
G1 X289.812F5000S0
G1 X8.71F3000S1000
G0 X1.25
G0 X0.067Y0.1
G0 X-1.25
G1 X-8.881
G1 X-289.791F5000S0
G1 X-2.803F3000S1000
G0 X-1.25
G0 X0.082Y0.1
G0 X1.25
G1 X2.635
G1 X289.774F5000S0
G1 X9.051F3000S1000
G0 X1.25
G0 X0.067Y0.1
G0 X-1.25
G1 X-9.222
G1 X-289.756F5000S0
G1 X-2.466F3000S1000
G0 X-1.25
G0 X0.082Y0.1
G0 X1.25
G1 X2.298
G1 X289.751F5000S0
G1 X9.364F3000S1000
G0 X1.25
G0 X0.049Y0.1
G0 X-1.25
G1 X-9.502
G1 X-289.748F5000S0
G1 X-2.128F3000S1000
G0 X-1.25
G0 X0.087Y0.1
G0 X1.25
G1 X1.953
G1 X289.747F5000S0
G1 X9.64F3000S1000
G0 X1.25
G0 X0.048Y0.1
G0 X-1.25
G1 X-9.777
G1 X-289.747F5000S0
G1 X-1.777F3000S1000
G0 X-1.25
G0 X0.087Y0.1
G0 X1.25
G1 X1.602
G1 X289.746F5000S0
G1 X5.765F3000S1000
G1 X0.671S0
G1 X3.479S1000
G0 X1.25
G0 X0.047Y0.1
G0 X-1.25
G1 X-3.223
G1 X-1.306F5000S0
G1 X-5.522F3000S1000
G1 X-289.746F5000S0
G1 X-1.427F3000S1000
G0 X-1.25
G0 X0.087Y0.1
G0 X1.25
G1 X1.252
G1 X289.746F5000S0
G1 X5.398F3000S1000
G1 X1.695F5000S0
G1 X3.079F3000S1000
G0 X1.25
G0 X0.034Y0.1
G0 X-1.25
G1 X-2.979
G1 X-1.989F5000S0
G1 X-5.32F3000S1000
G1 X-289.753F5000S0
G1 X-1.076F3000S1000
G0 X-1.25
G0 X0.086Y0.1
G0 X1.25
G1 X0.901
G1 X289.766F5000S0
G1 X5.244F3000S1000
G1 X2.242F5000S0
G1 X2.911F3000S1000
G0 X1.25
G0 X0.033Y0.1
G0 X-1.25
G1 X-2.857
G1 X-2.443F5000S0
G1 X-5.206F3000S1000
G1 X-289.78F5000S0
G1 X-0.724F3000S1000
G0 X-1.25
G0 X0.087Y0.1
G0 X1.25
G1 X0.548
G1 X289.793F5000S0
G1 X5.167F3000S1000
G1 X2.631F5000S0
G1 X2.817F3000S1000
G0 X1.25
G0 X0.033Y0.1
G0 X-1.25
G1 X-2.794
G1 X-2.778F5000S0
G1 X-5.152F3000S1000
G1 X-289.806F5000S0
G1 X-0.372F3000S1000
G0 X-1.25
G0 X0.086Y0.1
G0 X1.25
G1 X0.197
G1 X289.819F5000S0
G1 X5.141F3000S1000
G1 X2.917F5000S0
G1 X2.775F3000S1000
G0 X1.25
G0 X0.024Y0.1
G0 X-1.25
G1 X-2.761
G1 X-3.036F5000S0
G1 X-5.136F3000S1000
G1 X-289.832F5000S0
G1 X-0.021F3000S1000
G0 X-1.25
G0 X289.777Y0.1
G0 X1.25
G1 X5.145
G1 X3.14F5000S0
G1 X2.747F3000S1000
G0 X1.25
G0 X0.022Y0.1
G0 X-1.25
G1 X-2.733
G1 X-3.243F5000S0
G1 X-5.145F3000S1000
G0 X-1.25
G0 X-0.065Y0.1
G0 X1.25
G1 X5.143
G1 X3.344F5000S0
G1 X2.722F3000S1000
G0 X1.25
G0 X0.023Y0.1
G0 X-1.25
G1 X-2.719
G1 X-3.438F5000S0
G1 X-5.139F3000S1000
G0 X-1.25
G0 X-0.065Y0.1
G0 X1.25
G1 X5.142
G1 X3.526F5000S0
G1 X2.715F3000S1000
G0 X1.25
G0 X0.023Y0.1
G0 X-1.25
G1 X-2.713
G1 X-3.61F5000S0
G1 X-5.147F3000S1000
G0 X-1.25
G0 X-0.065Y0.1
G0 X1.25
G1 X5.153
G1 X3.69F5000S0
G1 X2.709F3000S1000
G0 X1.25
G0 X0.013Y0.1
G0 X-1.25
G1 X-2.707
G1 X-3.763F5000S0
G1 X-5.159F3000S1000
G0 X-1.25
G0 X-0.064Y0.1
G0 X1.25
G1 X5.164
G1 X3.838F5000S0
G1 X2.703F3000S1000
G0 X1.25
G0 X0.013Y0.1
G0 X-1.25
G1 X-2.701
G1 X-3.907F5000S0
G1 X-5.17F3000S1000
G0 X-1.25
G0 X-0.055Y0.1
G0 X1.25
G1 X5.174
G1 X3.967F5000S0
G1 X2.704F3000S1000
G0 X1.25
G0 X0.013Y0.1
G0 X-1.25
G1 X-2.712
G1 X-4.023F5000S0
G1 X-5.177F3000S1000
G0 X-1.25
G0 X-0.055Y0.1
G0 X1.25
G1 X5.182
G1 X4.078F5000S0
G1 X2.72F3000S1000
G0 X1.25
G0 X0.012Y0.1
G0 X-1.25
G1 X-2.726
G1 X-4.135F5000S0
G1 X-5.186F3000S1000
G0 X-1.25
G0 X-0.055Y0.1
G0 X1.25
G1 X5.194
G1 X4.182F5000S0
G1 X2.729F3000S1000
G0 X1.25
G0 Y0.1
G0 X-1.248
G1 X-2.731
G1 X-4.226F5000S0
G1 X-5.204F3000S1000
G0 X-1.25
G0 X-0.055Y0.1
G0 X1.25
G1 X5.216
G1 X4.268F5000S0
G1 X2.735F3000S1000
G0 X1.25
G0 Y0.1
G0 X-1.247
G1 X-2.738
G1 X-4.312F5000S0
G1 X-5.227F3000S1000
G0 X-1.25
G0 X-0.055Y0.1
G0 X1.25
G1 X5.239
G1 X4.354F5000S0
G1 X2.742F3000S1000
G0 X1.25
G0 Y0.1
G0 X-1.247
G1 X-2.745
G1 X-4.396F5000S0
G1 X-5.251F3000S1000
G0 X-1.25
G0 X-0.055Y0.1
G0 X1.25
G1 X5.268
G1 X4.433F5000S0
G1 X2.748F3000S1000
G0 X1.25
G0 Y0.1
G0 X-1.25
G1 X-2.748
G1 X-4.472F5000S0
G1 X-5.279F3000S1000
G0 X-1.25
G0 X-0.047Y0.1
G0 X1.25
G1 X5.287
G1 X4.502F5000S0
G1 X2.755F3000S1000
G0 X1.25
G0 Y0.1
G0 X-1.253
G1 X-2.762
G1 X-4.53F5000S0
G1 X-5.297F3000S1000
G0 X-1.25
G0 X-0.047Y0.1
G0 X1.25
G1 X5.305
G1 X4.56F5000S0
G1 X2.768F3000S1000
G0 X1.25
G0 Y0.1
G0 X-1.253
G1 X-2.774
G1 X-4.59F5000S0
G1 X-5.313F3000S1000
G0 X-1.25
G0 X-0.048Y0.1
G0 X1.25
G1 X5.323
G1 X4.619F5000S0
G1 X2.781F3000S1000
G0 X1.25
G0 Y0.1
G0 X-1.254
G1 X-2.786
G1 X-4.649F5000S0
G1 X-5.331F3000S1000
G0 X-1.25
G0 X-0.047Y0.1
G0 X1.25
G1 X5.342
G1 X4.676F5000S0
G1 X2.787F3000S1000
G0 X1.25
G0 X-0.009Y0.1
G0 X-1.25
G1 X-2.789
G1 X-4.698F5000S0
G1 X-5.357F3000S1000
G0 X-1.25
G0 X-0.047Y0.1
G0 X1.25
G1 X5.37
G1 X4.714F5000S0
G1 X2.798F3000S1000
G0 X1.25
G0 X-0.009Y0.1
G0 X-1.25
G1 X-2.807
G1 X-4.729F5000S0
G1 X-5.384F3000S1000
G0 X-1.25
G0 X-0.048Y0.1
G0 X1.25
G1 X5.398
G1 X4.745F5000S0
G1 X2.816F3000S1000
G0 X1.25
G0 X-0.009Y0.1
G0 X-1.25
G1 X-2.825
G1 X-4.761F5000S0
G1 X-5.408F3000S1000
G0 X-1.25
G0 X-0.04Y0.1
G0 X1.25
G1 X5.415
G1 X4.776F5000S0
G1 X2.83F3000S1000
G0 X1.25
G0 X-0.015Y0.1
G0 X-1.25
G1 X-2.833
G1 X-4.792F5000S0
G1 X-5.421F3000S1000
G0 X-1.25
G0 X-0.041Y0.1
G0 X1.25
G1 X5.429
G1 X4.807F5000S0
G1 X2.836F3000S1000
G0 X1.25
G0 X-0.015Y0.1
G0 X-1.25
G1 X-2.844
G1 X-4.815F5000S0
G1 X-5.438F3000S1000
G0 X-1.25
G0 X-0.041Y0.1
G0 X1.25
G1 X5.45
G1 X4.817F5000S0
G1 X2.856F3000S1000
G0 X1.25
G0 X-0.015Y0.1
G0 X-1.25
G1 X-2.867
G1 X-4.82F5000S0
G1 X-5.461F3000S1000
G0 X-1.25
G0 X-0.04Y0.1
G0 X1.25
G1 X5.473
G1 X4.821F5000S0
G1 X2.877F3000S1000
G0 X1.25
G0 X-0.021Y0.1
G0 X-1.25
G1 X-2.883
G1 X-4.823F5000S0
G1 X-5.485F3000S1000
G0 X-1.25
G0 X-0.04Y0.1
G0 X1.25
G1 X5.496
G1 X4.825F5000S0
G1 X2.889F3000S1000
G0 X1.25
G0 X-0.022Y0.1
G0 X-1.25
G1 X-2.894
G1 X-4.826F5000S0
G1 X-5.508F3000S1000
G0 X-1.25
G0 X-0.041Y0.1
G0 X1.25
G1 X5.52
G1 X4.827F5000S0
G1 X2.901F3000S1000
G0 X1.25
G0 X-0.021Y0.1
G0 X-1.25
G1 X-2.916
G1 X-4.82F5000S0
G1 X-5.531F3000S1000
G0 X-1.25
G0 X-0.034Y0.1
G0 X1.25
G1 X5.539
G1 X4.81F5000S0
G1 X2.93F3000S1000
G0 X1.25
G0 X-0.028Y0.1
G0 X-1.25
G1 X-2.939
G1 X-4.797F5000S0
G1 X-5.549F3000S1000
G0 X-1.25
G0 X-0.033Y0.1
G0 X1.25
G1 X5.558
G1 X4.785F5000S0
G1 X2.948F3000S1000
G0 X1.25
G0 X-0.028Y0.1
G0 X-1.25
G1 X-2.956
G1 X-4.773F5000S0
G1 X-5.568F3000S1000
G0 X-1.25
G0 X-0.034Y0.1
G0 X1.25
G1 X5.578
G1 X4.76F5000S0
G1 X2.965F3000S1000
G0 X1.25
G0 X-0.027Y0.1
G0 X-1.25
G1 X-2.974
G1 X-4.748F5000S0
G1 X-5.588F3000S1000
G0 X-1.25
G0 X-0.033Y0.1
G0 X1.25
G1 X5.598
G1 X4.727F5000S0
G1 X2.99F3000S1000
G0 X1.25
G0 X-0.033Y0.1
G0 X-1.25
G1 X-3.003
G1 X-4.705F5000S0
G1 X-5.608F3000S1000
G0 X-1.25
G0 X-0.034Y0.1
G0 X1.25
G1 X5.618
G1 X4.682F5000S0
G1 X3.015F3000S1000
G0 X1.25
G0 X-0.034Y0.1
G0 X-1.25
G1 X-3.027
G1 X-4.659F5000S0
G1 X-5.628F3000S1000
G0 X-1.25
G0 X-0.034Y0.1
G0 X1.25
G1 X5.641
G1 X4.634F5000S0
G1 X3.039F3000S1000
G0 X1.25
G0 X-0.035Y0.1
G0 X-1.25
G1 X-3.051
G1 X-4.608F5000S0
G1 X-5.654F3000S1000
G0 X-1.25
G0 X-0.033Y0.1
G0 X1.25
G1 X5.667
G1 X4.582F5000S0
G1 X3.063F3000S1000
G0 X1.25
G0 X-0.04Y0.1
G0 X-1.25
G1 X-3.077
G1 X-4.549F5000S0
G1 X-5.675F3000S1000
G0 X-1.25
G0 X-0.03Y0.1
G0 X1.25
G1 X5.685
G1 X4.511F5000S0
G1 X3.094F3000S1000
G0 X1.25
G0 X-0.041Y0.1
G0 X-1.25
G1 X-3.11
G1 X-4.475F5000S0
G1 X-5.693F3000S1000
G0 X-1.25
G0 X-0.03Y0.1
G0 X1.25
G1 X5.702
G1 X4.439F5000S0
G1 X3.125F3000S1000
G0 X1.25
G0 X-0.041Y0.1
G0 X-1.25
G1 X-3.141
G1 X-4.402F5000S0
G1 X-5.712F3000S1000
G0 X-1.25
G0 X-0.029Y0.1
G0 X1.25
G1 X5.72
G1 X4.365F5000S0
G1 X3.158F3000S1000
G0 X1.25
G0 X-0.048Y0.1
G0 X-1.25
G1 X-3.167
G1 X-4.329F5000S0
G1 X-5.729F3000S1000
G0 X-1.25
G0 X-0.029Y0.1
G0 X1.25
G1 X5.738
G1 X4.281F5000S0
G1 X3.187F3000S1000
G0 X1.25
G0 X-0.049Y0.1
G0 X-1.25
G1 X-3.208
G1 X-4.232F5000S0
G1 X-5.747F3000S1000
G0 X-1.25
G0 X-0.03Y0.1
G0 X1.25
G1 X5.756
G1 X4.184F5000S0
G1 X3.229F3000S1000
G0 X1.25
G0 X-0.049Y0.1
G0 X-1.25
G1 X-3.25
G1 X-4.134F5000S0
G1 X-5.763F3000S1000
G0 X-1.25
G0 X-0.027Y0.1
G0 X1.25
G1 X5.769
G1 X4.086F5000S0
G1 X3.27F3000S1000
G0 X1.25
G0 X-0.054Y0.1
G0 X-1.25
G1 X-3.285
G1 X-4.037F5000S0
G1 X-5.775F3000S1000
G0 X-1.25
G0 X-0.027Y0.1
G0 X1.25
G1 X5.784
G1 X3.981F5000S0
G1 X3.305F3000S1000
G0 X1.25
G0 X-0.055Y0.1
G0 X-1.25
G1 X-3.329
G1 X-3.919F5000S0
G1 X-5.794F3000S1000
G0 X-1.25
G0 X-0.026Y0.1
G0 X1.25
G1 X5.803
G1 X3.857F5000S0
G1 X3.354F3000S1000
G0 X1.25
G0 X-0.054Y0.1
G0 X-1.25
G1 X-3.379
G1 X-3.795F5000S0
G1 X-5.813F3000S1000
G0 X-1.25
G0 X-0.027Y0.1
G0 X1.25
G1 X5.824
G1 X3.732F5000S0
G1 X3.404F3000S1000
G0 X1.25
G0 X-0.055Y0.1
G0 X-1.25
G1 X-3.428
G1 X-3.67F5000S0
G1 X-5.833F3000S1000
G0 X-1.25
G0 X-0.027Y0.1
G0 X1.25
G1 X5.843
G1 X3.608F5000S0
G1 X3.453F3000S1000
G0 X1.25
G0 X-0.054Y0.1
G0 X-1.25
G1 X-3.478
G1 X-3.546F5000S0
G1 X-5.852F3000S1000
G0 X-1.25
G0 X-0.024Y0.1
G0 X1.25
G1 X5.859
G1 X3.484F5000S0
G1 X3.497F3000S1000
G0 X1.25
G0 X-0.062Y0.1
G0 X-1.25
G1 X-3.514
G1 X-3.421F5000S0
G1 X-5.867F3000S1000
G0 X-1.25
G0 X-0.024Y0.1
G0 X1.25
G1 X5.874
G1 X3.359F5000S0
G1 X3.53F3000S1000
G0 X1.25
G0 X-0.062Y0.1
G0 X-1.25
G1 X-3.546
G1 X-3.298F5000S0
G1 X-5.88F3000S1000
G0 X-1.25
G0 X-0.024Y0.1
G0 X1.25
G1 X5.887
G1 X3.228F5000S0
G1 X3.571F3000S1000
G0 X1.25
G0 X-0.063Y0.1
G0 X-1.25
G1 X-3.595
G1 X-3.158F5000S0
G1 X-5.894F3000S1000
G0 X-1.25
G0 X-0.024Y0.1
G0 X1.25
G1 X5.901
G1 X3.088F5000S0
G1 X3.62F3000S1000
G0 X1.25
G0 X-0.062Y0.1
G0 X-1.25
G1 X-3.645
G1 X-3.017F5000S0
G1 X-5.908F3000S1000
G0 X-1.25
G0 X-0.024Y0.1
G0 X1.25
G1 X5.916
G1 X2.946F5000S0
G1 X3.669F3000S1000
G0 X1.25
G0 X-0.067Y0.1
G0 X-1.25
G1 X-3.689
G1 X-2.873F5000S0
G1 X-5.926F3000S1000
G0 X-1.25
G0 X-0.023Y0.1
G0 X1.25
G1 X5.936
G1 X2.799F5000S0
G1 X3.705F3000S1000
G0 X1.25
G0 X-0.071Y0.1
G0 X-1.25
G1 X-3.721
G1 X-2.725F5000S0
G1 X-5.943F3000S1000
G0 X-1.25
G0 X-0.021Y0.1
G0 X1.25
G1 X5.951
G1 X2.651F5000S0
G1 X3.737F3000S1000
G0 X1.25
G0 X-0.071Y0.1
G0 X-1.25
G1 X-3.753
G1 X-2.577F5000S0
G1 X-5.959F3000S1000
G0 X-1.25
G0 X-0.021Y0.1
G0 X1.25
G1 X5.967
G1 X2.503F5000S0
G1 X3.769F3000S1000
G0 X1.25
G0 X-0.071Y0.1
G0 X-1.25
G1 X-3.791
G1 X-2.423F5000S0
G1 X-5.975F3000S1000
G0 X-1.25
G0 X-0.021Y0.1
G0 X1.25
G1 X5.983
G1 X2.34F5000S0
G1 X3.816F3000S1000
G0 X1.25
G0 X-0.071Y0.1
G0 X-1.25
G1 X-3.841
G1 X-2.257F5000S0
G1 X-5.991F3000S1000
G0 X-1.25
G0 X-0.02Y0.1
G0 X1.25
G1 X5.998
G1 X2.174F5000S0
G1 X3.858F3000S1000
G0 X1.25
G0 X-0.081Y0.1
G0 X-1.25
G1 X-3.873
G1 X-2.091F5000S0
G1 X-6.006F3000S1000
G0 X-1.25
G0 X-0.021Y0.1
G0 X1.25
G1 X6.014
G1 X2.009F5000S0
G1 X3.888F3000S1000
G0 X1.25
G0 X-0.08Y0.1
G0 X-1.25
G1 X-3.904
G1 X-1.927F5000S0
G1 X-6.02F3000S1000
G0 X-1.25
G0 X-0.019Y0.1
G0 X1.25
G1 X6.026
G1 X1.844F5000S0
G1 X3.919F3000S1000
G0 X1.25
G0 X-0.08Y0.1
G0 X-1.25
G1 X-3.935
G1 X-1.761F5000S0
G1 X-6.032F3000S1000
G0 X-1.25
G0 X-0.019Y0.1
G0 X1.25
G1 X6.038
G1 X1.678F5000S0
G1 X3.95F3000S1000
G0 X1.25
G0 X-0.08Y0.1
G0 X-1.25
G1 X-3.967
G1 X-1.592F5000S0
G1 X-6.046F3000S1000
G0 X-1.25
G0 X-0.019Y0.1
G0 X1.25
G1 X6.056
G1 X1.496F5000S0
G1 X3.988F3000S1000
G0 X1.25
G0 X-0.088Y0.1
G0 X-1.25
G1 X-4.005
G1 X-1.401F5000S0
G1 X-6.065F3000S1000
G0 X-1.25
G0 X-0.019Y0.1
G0 X1.25
G1 X6.075
G1 X1.304F5000S0
G1 X4.023F3000S1000
G0 X1.25
G0 X-0.088Y0.1
G0 X-1.25
G1 X-4.04
G1 X-1.208F5000S0
G1 X-6.085F3000S1000
G0 X-1.25
G0 X-0.019Y0.1
G0 X1.25
G1 X6.094
G1 X1.112F5000S0
G1 X4.058F3000S1000
G0 X1.25
G0 X-0.088Y0.1
G0 X-1.25
G1 X-4.075
G1 X-1.016F5000S0
G1 X-6.104F3000S1000
G0 X-1.25
G0 X-0.019Y0.1
G0 X1.25
G1 X6.114
G1 X0.919S0
G1 X4.093S1000
G0 X1.25
G0 X-0.088Y0.1
G0 X-1.25
G1 X-4.11
G1 X-0.824S0
G1 X-6.123S1000
G0 X-1.25
G0 X-0.019Y0.1
G0 X1.25
G1 X6.133
G1 X0.728S0
G1 X4.127S1000
G0 X1.25
G0 X-0.094Y0.1
G0 X-1.25
G1 X-4.139
G1 X-0.631S0
G1 X-6.143S1000
G0 X-1.25
G0 X-0.019Y0.1
G0 X1.25
G1 X6.152
G1 X0.53S0
G1 X4.155S1000
G0 X1.25
G0 X-0.095Y0.1
G0 X-1.25
G1 X-4.171
G1 X-0.428S0
G1 X-6.161S1000
G0 X-1.25
G0 X-0.017Y0.1
G0 X1.25
G1 X6.168
G1 X0.326S0
G1 X4.189S1000
G0 X1.25
G0 X-0.095Y0.1
G0 X-1.25
G1 X-4.205
G1 X-0.224S0
G1 X-6.176S1000
G0 X-1.25
G0 X-0.017Y0.1
G0 X1.25
G1 X6.184
G1 X0.122S0
G1 X4.221S1000
G0 X1.25
G0 X-0.095Y0.1
G0 X-1.25
G1 X-4.238
G1 X-0.02S0
G1 X-6.191S1000
G0 X-1.25
G0 X-0.017Y0.1
G0 X1.25
G1 X10.371
G0 X1.25
G0 X-0.098Y0.1
G0 X-1.25
G1 X-10.29
G0 X-1.25
G0 X-0.017Y0.1
G0 X1.25
G1 X10.205
G0 X1.25
G0 X-0.102Y0.1
G0 X-1.25
G1 X-10.12
G0 X-1.25
G0 X-0.017Y0.1
G0 X1.25
G1 X10.034
G0 X1.25
G0 X-0.102Y0.1
G0 X-1.25
G1 X-9.949
G0 X-1.25
G0 X-0.017Y0.1
G0 X1.25
G1 X9.864
G0 X1.25
G0 X-0.103Y0.1
G0 X-1.25
G1 X-9.778
G0 X-1.25
G0 X-0.017Y0.1
G0 X1.25
G1 X9.693
G0 X1.25
G0 X-0.104Y0.1
G0 X-1.25
G1 X-9.606
G0 X-1.25
G0 X-0.017Y0.1
G0 X1.25
G1 X9.512
G0 X1.25
G0 X-0.11Y0.1
G0 X-1.25
G1 X-9.418
G0 X-1.25
G0 X-0.015Y0.1
G0 X1.25
G1 X9.323
G0 X1.25
G0 X-0.111Y0.1
G0 X-1.25
G1 X-9.227
G0 X-1.25
G0 X-0.015Y0.1
G0 X1.25
G1 X9.132
G0 X1.25
G0 X13.71Y0.1
G0 X-1.25
G1 X-0.536
G1 X-13.284F5000S0
G1 X-9.037F3000S1000
G1 X-7.968F5000S0
G1 X-0.535F3000S1000
G1 X-38.154F5000S0
G1 X-0.221F3000S1000
G1 X-21.831F5000S0
G1 X-0.748F3000S1000
G1 X-48.697F5000S0
G1 X-0.563F3000S1000
G1 X-49.539F5000S0
G1 X-0.534F3000S1000
G1 X-58.278F5000S0
G1 X-0.562F3000S1000
G1 X-38.223F5000S0
G1 X-3.193F3000S1000
G0 X-1.25
G0 X-0.803Y0.1
G0 X1.25
G1 X4.784
G1 X18.291F5000S0
G1 X1.495F3000S1000
G1 X17.025F5000S0
G1 X1.761F3000S1000
G1 X42.551F5000S0
G1 X1.194F3000S1000
G1 X13.305F5000S0
G1 X1.791F3000S1000
G1 X15.285F5000S0
G1 X2.044F3000S1000
G1 X12.513F5000S0
G1 X1.444F3000S1000
G1 X17.025F5000S0
G1 X1.762F3000S1000
G1 X46.883F5000S0
G1 X3.4F3000S1000
G1 X19.449F5000S0
G1 X2.267F3000S1000
G1 X11.446F5000S0
G1 X1.321F3000S1000
G1 X23.657F5000S0
G1 X1.792F3000S1000
G1 X7.349F5000S0
G1 X8.941F3000S1000
G1 X12.742F5000S0
G1 X1.792F3000S1000
G0 X1.25
G0 X0.364Y0.1
G0 X-1.25
G1 X-2.485
G1 X-12.524F5000S0
G1 X-8.845F3000S1000
G1 X-6.97F5000S0
G1 X-2.485F3000S1000
G1 X-22.733F5000S0
G1 X-2.497F3000S1000
G1 X-10.376F5000S0
G1 X-3.185F3000S1000
G1 X-18.431F5000S0
G1 X-4.617F3000S1000
G1 X-45.891F5000S0
G1 X-2.463F3000S1000
G1 X-16.046F5000S0
G1 X-2.704F3000S1000
G1 X-11.525F5000S0
G1 X-2.88F3000S1000
G1 X-14.455F5000S0
G1 X-2.485F3000S1000
G1 X-12.464F5000S0
G1 X-2.246F3000S1000
G1 X-41.646F5000S0
G1 X-2.462F3000S1000
G1 X-16.034F5000S0
G1 X-2.774F3000S1000
G1 X-17.094F5000S0
G1 X-5.899F3000S1000
G0 X-1.25
G0 X-0.469Y0.1
G0 X1.25
G1 X6.835
G1 X16.216F5000S0
G1 X3.605F3000S1000
G1 X15.345F5000S0
G1 X2.991F3000S1000
G1 X9.142F5000S0
G1 X0.293F3000S1000
G1 X31.622F5000S0
G1 X2.894F3000S1000
G1 X11.884F5000S0
G1 X3.006F3000S1000
G1 X13.873F5000S0
G1 X3.486F3000S1000
G1 X10.815F5000S0
G1 X3.559F3000S1000
G1 X15.349F5000S0
G1 X2.991F3000S1000
G1 X45.14F5000S0
G1 X5.554F3000S1000
G1 X17.682F5000S0
G1 X3.848F3000S1000
G1 X9.626F5000S0
G1 X3.277F3000S1000
G1 X22.081F5000S0
G1 X3.006F3000S1000
G1 X6.696F5000S0
G1 X8.749F3000S1000
G1 X12.374F5000S0
G1 X3.006F3000S1000
G0 X1.25
G0 X0.226Y0.1
G0 X-1.25
G1 X-3.443
G1 X-12.274F5000S0
G1 X-8.653F3000S1000
G1 X-6.455F5000S0
G1 X-3.443F3000S1000
G1 X-21.561F5000S0
G1 X-3.898F3000S1000
G1 X-8.993F5000S0
G1 X-4.441F3000S1000
G1 X-17.031F5000S0
G1 X-6.331F3000S1000
G1 X-44.517F5000S0
G1 X-3.411F3000S1000
G1 X-14.819F5000S0
G1 X-4.205F3000S1000
G1 X-10.264F5000S0
G1 X-4.023F3000S1000
G1 X-13.35F5000S0
G1 X-3.443F3000S1000
G1 X-11.419F5000S0
G1 X-3.402F3000S1000
G1 X-30.935F5000S0
G1 X-1.184F3000S1000
G1 X-8.458F5000S0
G1 X-3.411F3000S1000
G1 X-14.832F5000S0
G1 X-4.23F3000S1000
G1 X-15.505F5000S0
G1 X-7.643F3000S1000
G0 X-1.25
G0 X-0.357Y0.1
G0 X1.25
G1 X8.339
G1 X14.897F5000S0
G1 X4.789F3000S1000
G1 X14.351F5000S0
G1 X3.802F3000S1000
G1 X8.038F5000S0
G1 X1.625F3000S1000
G1 X30.489F5000S0
G1 X3.839F3000S1000
G1 X11.023F5000S0
G1 X3.827F3000S1000
G1 X12.907F5000S0
G1 X4.463F3000S1000
G1 X9.774F5000S0
G1 X4.782F3000S1000
G1 X14.344F5000S0
G1 X3.802F3000S1000
G1 X43.964F5000S0
G1 X7.001F3000S1000
G1 X16.508F5000S0
G1 X4.915F3000S1000
G1 X8.461F5000S0
G1 X4.43F3000S1000
G1 X21.109F5000S0
G1 X3.827F3000S1000
G1 X6.24F5000S0
G1 X8.556F3000S1000
G1 X12.202F5000S0
G1 X3.827F3000S1000
G0 X1.25
G0 X0.157Y0.1
G0 X-1.25
G1 X-4.143
G1 X-12.154F5000S0
G1 X-8.46F3000S1000
G1 X-6.067F5000S0
G1 X-4.144F3000S1000
G1 X-20.727F5000S0
G1 X-4.876F3000S1000
G1 X-7.987F5000S0
G1 X-5.371F3000S1000
G1 X-16.013F5000S0
G1 X-7.615F3000S1000
G1 X-43.482F5000S0
G1 X-4.112F3000S1000
G1 X-13.953F5000S0
G1 X-5.257F3000S1000
G1 X-9.357F5000S0
G1 X-4.858F3000S1000
G1 X-12.536F5000S0
G1 X-4.144F3000S1000
G1 X-10.684F5000S0
G1 X-4.21F3000S1000
G1 X-30.135F5000S0
G1 X-1.936F3000S1000
G1 X-7.732F5000S0
G1 X-4.111F3000S1000
G1 X-13.957F5000S0
G1 X-5.26F3000S1000
G1 X-14.344F5000S0
G1 X-8.985F3000S1000
G0 X-1.25
G0 X-0.31Y0.1
G0 X1.25
G1 X9.571
G1 X13.849F5000S0
G1 X5.696F3000S1000
G1 X13.596F5000S0
G1 X4.413F3000S1000
G1 X7.425F5000S0
G1 X2.222F3000S1000
G1 X29.826F5000S0
G1 X4.549F3000S1000
G1 X10.364F5000S0
G1 X4.455F3000S1000
G1 X12.165F5000S0
G1 X5.234F3000S1000
G1 X8.959F5000S0
G1 X5.72F3000S1000
G1 X13.581F5000S0
G1 X4.413F3000S1000
G1 X43.038F5000S0
G1 X8.168F3000S1000
G1 X15.562F5000S0
G1 X5.771F3000S1000
G1 X7.558F5000S0
G1 X5.298F3000S1000
G1 X20.365F5000S0
G1 X4.455F3000S1000
G1 X5.895F5000S0
G1 X8.364F3000S1000
G1 X12.111F5000S0
G1 X4.455F3000S1000
G0 X1.25
G0 X0.148Y0.1
G0 X-1.25
G1 X-4.726
G1 X-12.1F5000S0
G1 X-8.267F3000S1000
G1 X-5.732F5000S0
G1 X-4.726F3000S1000
G1 X-20.056F5000S0
G1 X-5.664F3000S1000
G1 X-7.163F5000S0
G1 X-6.126F3000S1000
G1 X-15.181F5000S0
G1 X-8.681F3000S1000
G1 X-42.618F5000S0
G1 X-4.698F3000S1000
G1 X-13.249F5000S0
G1 X-6.093F3000S1000
G1 X-8.633F5000S0
G1 X-5.559F3000S1000
G1 X-11.84F5000S0
G1 X-4.727F3000S1000
G1 X-10.096F5000S0
G1 X-4.849F3000S1000
G1 X-29.581F5000S0
G1 X-2.457F3000S1000
G1 X-7.131F5000S0
G1 X-4.699F3000S1000
G1 X-13.241F5000S0
G1 X-6.093F3000S1000
G1 X-13.4F5000S0
G1 X-10.106F3000S1000
G0 X-1.25
G0 X-0.266Y0.1
G0 X1.25
G1 X10.617
G1 X12.975F5000S0
G1 X6.445F3000S1000
G1 X12.959F5000S0
G1 X4.924F3000S1000
G1 X6.913F5000S0
G1 X2.649F3000S1000
G1 X29.348F5000S0
G1 X5.128F3000S1000
G1 X9.838F5000S0
G1 X4.965F3000S1000
G1 X11.562F5000S0
G1 X5.859F3000S1000
G1 X8.321F5000S0
G1 X6.46F3000S1000
G1 X12.946F5000S0
G1 X4.925F3000S1000
G1 X42.25F5000S0
G1 X9.162F3000S1000
G1 X14.813F5000S0
G1 X6.446F3000S1000
G1 X6.803F5000S0
G1 X6.017F3000S1000
G1 X19.758F5000S0
G1 X4.965F3000S1000
G1 X5.602F5000S0
G1 X8.171F3000S1000
G1 X12.087F5000S0
G1 X4.965F3000S1000
G0 X1.25
G0 X0.115Y0.1
G0 X-1.25
G1 X-5.194
G1 X-12.084F5000S0
G1 X-8.075F3000S1000
G1 X-5.471F5000S0
G1 X-5.194F3000S1000
G1 X-19.488F5000S0
G1 X-6.322F3000S1000
G1 X-6.477F5000S0
G1 X-6.764F3000S1000
G1 X-14.463F5000S0
G1 X-9.601F3000S1000
G1 X-41.906F5000S0
G1 X-5.151F3000S1000
G1 X-12.669F5000S0
G1 X-6.782F3000S1000
G1 X-8.038F5000S0
G1 X-6.149F3000S1000
G1 X-11.284F5000S0
G1 X-5.194F3000S1000
G1 X-9.599F5000S0
G1 X-5.381F3000S1000
G1 X-29.155F5000S0
G1 X-2.818F3000S1000
G1 X-6.694F5000S0
G1 X-5.15F3000S1000
G1 X-12.677F5000S0
G1 X-6.78F3000S1000
G1 X-12.583F5000S0
G1 X-11.095F3000S1000
G0 X-1.25
G0 X-0.225Y0.1
G0 X1.25
G1 X11.548
G1 X12.209F5000S0
G1 X7.097F3000S1000
G1 X12.396F5000S0
G1 X5.376F3000S1000
G1 X6.474F5000S0
G1 X2.982F3000S1000
G1 X28.967F5000S0
G1 X5.619F3000S1000
G1 X9.395F5000S0
G1 X5.403F3000S1000
G1 X11.01F5000S0
G1 X6.423F3000S1000
G1 X7.772F5000S0
G1 X7.1F3000S1000
G1 X12.393F5000S0
G1 X5.375F3000S1000
G1 X41.562F5000S0
G1 X10.022F3000S1000
G1 X14.138F5000S0
G1 X7.073F3000S1000
G1 X6.153F5000S0
G1 X6.625F3000S1000
G1 X19.239F5000S0
G1 X5.403F3000S1000
G1 X5.341F5000S0
G1 X7.978F3000S1000
G1 X12.102F5000S0
G1 X5.403F3000S1000
G0 X1.25
G0 X0.108Y0.1
G0 X-1.25
G1 X-5.604
G1 X-12.12F5000S0
G1 X-7.882F3000S1000
G1 X-5.219F5000S0
G1 X-5.604F3000S1000
G1 X-19.007F5000S0
G1 X-6.907F3000S1000
G1 X-5.861F5000S0
G1 X-7.335F3000S1000
G1 X-13.842F5000S0
G1 X-10.422F3000S1000
G1 X-41.237F5000S0
G1 X-5.568F3000S1000
G1 X-12.16F5000S0
G1 X-7.39F3000S1000
G1 X-7.514F5000S0
G1 X-6.666F3000S1000
G1 X-10.774F5000S0
G1 X-5.605F3000S1000
G1 X-9.192F5000S0
G1 X-5.826F3000S1000
G1 X-28.769F5000S0
G1 X-3.178F3000S1000
G1 X-6.271F5000S0
G1 X-5.568F3000S1000
G1 X-12.164F5000S0
G1 X-7.389F3000S1000
G1 X-11.865F5000S0
G1 X-11.972F3000S1000
G0 X-1.25
G0 X-0.221Y0.1
G0 X1.25
G1 X12.39
G1 X11.528F5000S0
G1 X7.667F3000S1000
G1 X11.94F5000S0
G1 X5.747F3000S1000
G1 X6.106F5000S0
G1 X3.263F3000S1000
G1 X28.659F5000S0
G1 X6.022F3000S1000
G1 X9F5000S0
G1 X5.79F3000S1000
G1 X10.555F5000S0
G1 X6.895F3000S1000
G1 X7.281F5000S0
G1 X7.664F3000S1000
G1 X11.932F5000S0
G1 X5.746F3000S1000
G1 X40.955F5000S0
G1 X10.775F3000S1000
G1 X13.564F5000S0
G1 X7.598F3000S1000
G1 X5.58F5000S0
G1 X7.177F3000S1000
G1 X18.775F5000S0
G1 X5.791F3000S1000
G1 X5.113F5000S0
G1 X7.784F3000S1000
G1 X12.137F5000S0
G1 X5.79F3000S1000
G0 X1.25
G0 X0.093Y0.1
G0 X-1.25
G1 X-5.977
G1 X-12.155F5000S0
G1 X-7.685F3000S1000
G1 X-5.008F5000S0
G1 X-5.977F3000S1000
G1 X-18.543F5000S0
G1 X-7.447F3000S1000
G1 X-5.299F5000S0
G1 X-7.861F3000S1000
G1 X-13.286F5000S0
G1 X-11.128F3000S1000
G1 X-40.673F5000S0
G1 X-5.925F3000S1000
G1 X-11.709F5000S0
G1 X-7.933F3000S1000
G1 X-7.047F5000S0
G1 X-7.125F3000S1000
G1 X-10.334F5000S0
G1 X-5.977F3000S1000
G1 X-8.814F5000S0
G1 X-6.211F3000S1000
G1 X-28.532F5000S0
G1 X-3.366F3000S1000
G1 X-5.94F5000S0
G1 X-5.925F3000S1000
G1 X-11.718F5000S0
G1 X-7.923F3000S1000
G1 X-11.213F5000S0
G1 X-12.78F3000S1000
G0 X-1.25
G0 X-0.193Y0.1
G0 X1.25
G1 X13.147
G1 X10.92F5000S0
G1 X8.179F3000S1000
G1 X11.496F5000S0
G1 X6.103F3000S1000
G1 X5.775F5000S0
G1 X3.458F3000S1000
G1 X28.415F5000S0
G1 X6.401F3000S1000
G1 X8.631F5000S0
G1 X6.159F3000S1000
G1 X10.114F5000S0
G1 X7.355F3000S1000
G1 X6.826F5000S0
G1 X8.177F3000S1000
G1 X11.499F5000S0
G1 X6.103F3000S1000
G1 X40.392F5000S0
G1 X11.458F3000S1000
G1 X13.03F5000S0
G1 X8.111F3000S1000
G1 X5.034F5000S0
G1 X7.704F3000S1000
G1 X18.326F5000S0
G1 X6.159F3000S1000
G1 X4.902F5000S0
G1 X7.583F3000S1000
G1 X12.18F5000S0
G1 X6.16F3000S1000
G0 X1.25
G0 X0.092Y0.1
G0 X-1.25
G1 X-6.331
G1 X-12.215F5000S0
G1 X-7.482F3000S1000
G1 X-4.796F5000S0
G1 X-6.332F3000S1000
G1 X-18.121F5000S0
G1 X-7.948F3000S1000
G1 X-4.782F5000S0
G1 X-8.345F3000S1000
G1 X-12.787F5000S0
G1 X-11.774F3000S1000
G1 X-40.125F5000S0
G1 X-6.281F3000S1000
G1 X-11.29F5000S0
G1 X-8.416F3000S1000
G1 X-6.609F5000S0
G1 X-7.563F3000S1000
G1 X-9.915F5000S0
G1 X-6.331F3000S1000
G1 X-8.46F5000S0
G1 X-6.589F3000S1000
G1 X-28.302F5000S0
G1 X-3.548F3000S1000
G1 X-5.609F5000S0
G1 X-6.282F3000S1000
G1 X-11.295F5000S0
G1 X-8.413F3000S1000
G1 X-10.63F5000S0
G1 X-13.512F3000S1000
G0 X-1.25
G0 X-0.18Y0.1
G0 X1.25
G1 X13.864
G1 X10.353F5000S0
G1 X8.63F3000S1000
G1 X11.102F5000S0
G1 X6.456F3000S1000
G1 X5.463F5000S0
G1 X3.622F3000S1000
G1 X28.204F5000S0
G1 X6.759F3000S1000
G1 X8.288F5000S0
G1 X6.503F3000S1000
G1 X9.721F5000S0
G1 X7.766F3000S1000
G1 X6.391F5000S0
G1 X8.648F3000S1000
G1 X11.093F5000S0
G1 X6.455F3000S1000
G1 X39.873F5000S0
G1 X12.068F3000S1000
G1 X12.559F5000S0
G1 X8.571F3000S1000
G1 X4.53F5000S0
G1 X8.193F3000S1000
G1 X17.916F5000S0
G1 X6.503F3000S1000
G1 X4.691F5000S0
G1 X7.381F3000S1000
G1 X12.25F5000S0
G1 X6.503F3000S1000
G0 X1.25
G0 X0.093Y0.1
G0 X-1.25
G1 X-6.675
G1 X-12.286F5000S0
G1 X-7.279F3000S1000
G1 X-4.585F5000S0
G1 X-6.675F3000S1000
G1 X-17.715F5000S0
G1 X-8.433F3000S1000
G1 X-4.279F5000S0
G1 X-8.798F3000S1000
G1 X-12.342F5000S0
G1 X-12.349F3000S1000
G1 X-39.622F5000S0
G1 X-6.62F3000S1000
G1 X-10.913F5000S0
G1 X-8.858F3000S1000
G1 X-6.187F5000S0
G1 X-7.969F3000S1000
G1 X-9.528F5000S0
G1 X-6.675F3000S1000
G1 X-8.115F5000S0
G1 X-6.929F3000S1000
G1 X-28.106F5000S0
G1 X-3.692F3000S1000
G1 X-5.321F5000S0
G1 X-6.621F3000S1000
G1 X-10.918F5000S0
G1 X-8.835F3000S1000
G1 X-10.101F5000S0
G1 X-14.187F3000S1000
G0 X-1.25
G0 X-0.164Y0.1
G0 X1.25
G1 X14.502
G1 X9.857F5000S0
G1 X9.041F3000S1000
G1 X10.733F5000S0
G1 X6.776F3000S1000
G1 X5.19F5000S0
G1 X3.762F3000S1000
G1 X28.008F5000S0
G1 X7.096F3000S1000
G1 X7.945F5000S0
G1 X6.836F3000S1000
G1 X9.344F5000S0
G1 X8.165F3000S1000
G1 X5.992F5000S0
G1 X9.068F3000S1000
G1 X10.731F5000S0
G1 X6.776F3000S1000
G1 X39.38F5000S0
G1 X12.631F3000S1000
G1 X12.126F5000S0
G1 X9.024F3000S1000
G1 X4.039F5000S0
G1 X8.654F3000S1000
G1 X17.522F5000S0
G1 X6.836F3000S1000
G1 X4.49F5000S0
G1 X7.178F3000S1000
G1 X12.32F5000S0
G1 X6.836F3000S1000
G0 X1.25
G0 X0.079Y0.1
G0 X-1.25
G1 X-6.994
G1 X-12.355F5000S0
G1 X-7.077F3000S1000
G1 X-4.399F5000S0
G1 X-6.993F3000S1000
G1 X-17.328F5000S0
G1 X-8.876F3000S1000
G1 X-3.799F5000S0
G1 X-9.251F3000S1000
G1 X-11.916F5000S0
G1 X-12.9F3000S1000
G1 X-39.147F5000S0
G1 X-6.928F3000S1000
G1 X-10.557F5000S0
G1 X-9.272F3000S1000
G1 X-5.802F5000S0
G1 X-8.354F3000S1000
G1 X-9.164F5000S0
G1 X-6.994F3000S1000
G1 X-7.788F5000S0
G1 X-7.251F3000S1000
G1 X-27.91F5000S0
G1 X-3.832F3000S1000
G1 X-5.062F5000S0
G1 X-6.928F3000S1000
G1 X-10.556F5000S0
G1 X-9.238F3000S1000
G1 X-9.613F5000S0
G1 X-14.817F3000S1000
G0 X-1.25
G0 X-0.163Y0.1
G0 X1.25
G1 X15.131
G1 X9.369F5000S0
G1 X9.428F3000S1000
G1 X10.387F5000S0
G1 X7.08F3000S1000
G1 X4.933F5000S0
G1 X3.902F3000S1000
G1 X27.812F5000S0
G1 X7.407F3000S1000
G1 X7.641F5000S0
G1 X7.141F3000S1000
G1 X8.997F5000S0
G1 X8.529F3000S1000
G1 X5.626F5000S0
G1 X9.458F3000S1000
G1 X10.388F5000S0
G1 X7.08F3000S1000
G1 X38.932F5000S0
G1 X13.142F3000S1000
G1 X11.725F5000S0
G1 X9.452F3000S1000
G1 X3.574F5000S0
G1 X9.098F3000S1000
G1 X17.145F5000S0
G1 X7.141F3000S1000
G1 X4.307F5000S0
G1 X6.975F3000S1000
G1 X12.402F5000S0
G1 X7.141F3000S1000
G0 X1.25
G0 X0.079Y0.1
G0 X-1.25
G1 X-7.287
G1 X-12.449F5000S0
G1 X-6.874F3000S1000
G1 X-4.215F5000S0
G1 X-7.286F3000S1000
G1 X-16.97F5000S0
G1 X-9.307F3000S1000
G1 X-3.359F5000S0
G1 X-9.643F3000S1000
G1 X-11.541F5000S0
G1 X-13.385F3000S1000
G1 X-38.718F5000S0
G1 X-7.232F3000S1000
G1 X-10.218F5000S0
G1 X-9.645F3000S1000
G1 X-5.448F5000S0
G1 X-8.702F3000S1000
G1 X-8.833F5000S0
G1 X-7.287F3000S1000
G1 X-7.495F5000S0
G1 X-7.552F3000S1000
G1 X-27.724F5000S0
G1 X-3.961F3000S1000
G1 X-4.816F5000S0
G1 X-7.232F3000S1000
G1 X-10.218F5000S0
G1 X-9.618F3000S1000
G1 X-9.141F5000S0
G1 X-15.412F3000S1000
G0 X-1.25
G0 X-0.143Y0.1
G0 X1.25
G1 X15.688
G1 X8.915F5000S0
G1 X9.808F3000S1000
G1 X10.052F5000S0
G1 X7.381F3000S1000
G1 X4.701F5000S0
G1 X4.017F3000S1000
G1 X27.643F5000S0
G1 X7.691F3000S1000
G1 X7.35F5000S0
G1 X7.431F3000S1000
G1 X8.67F5000S0
G1 X8.874F3000S1000
G1 X5.272F5000S0
G1 X9.831F3000S1000
G1 X10.053F5000S0
G1 X7.38F3000S1000
G1 X38.503F5000S0
G1 X13.622F3000S1000
G1 X11.362F5000S0
G1 X9.835F3000S1000
G1 X3.148F5000S0
G1 X9.507F3000S1000
G1 X16.799F5000S0
G1 X7.432F3000S1000
G1 X4.123F5000S0
G1 X6.773F3000S1000
G1 X12.497F5000S0
G1 X7.432F3000S1000
G0 X1.25
G0 X0.078Y0.1
G0 X-1.25
G1 X-7.577
G1 X-12.545F5000S0
G1 X-6.671F3000S1000
G1 X-4.031F5000S0
G1 X-7.577F3000S1000
G1 X-16.629F5000S0
G1 X-9.708F3000S1000
G1 X-2.937F5000S0
G1 X-10.025F3000S1000
G1 X-11.192F5000S0
G1 X-13.851F3000S1000
G1 X-38.288F5000S0
G1 X-7.521F3000S1000
G1 X-9.894F5000S0
G1 X-10.01F3000S1000
G1 X-5.103F5000S0
G1 X-9.047F3000S1000
G1 X-8.506F5000S0
G1 X-7.577F3000S1000
G1 X-7.204F5000S0
G1 X-7.83F3000S1000
G1 X-27.561F5000S0
G1 X-4.074F3000S1000
G1 X-4.586F5000S0
G1 X-7.522F3000S1000
G1 X-9.894F5000S0
G1 X-9.988F3000S1000
G1 X-8.698F5000S0
G1 X-15.964F3000S1000
G0 X-1.25
G0 X-0.142Y0.1
G0 X1.25
G1 X16.24
G1 X8.489F5000S0
G1 X10.16F3000S1000
G1 X9.737F5000S0
G1 X7.661F3000S1000
G1 X4.472F5000S0
G1 X4.13F3000S1000
G1 X27.48F5000S0
G1 X7.969F3000S1000
G1 X7.059F5000S0
G1 X7.722F3000S1000
G1 X8.341F5000S0
G1 X9.22F3000S1000
G1 X4.938F5000S0
G1 X10.185F3000S1000
G1 X9.736F5000S0
G1 X7.662F3000S1000
G1 X38.082F5000S0
G1 X14.071F3000S1000
G1 X11.021F5000S0
G1 X10.217F3000S1000
G1 X2.726F5000S0
G1 X9.908F3000S1000
G1 X16.458F5000S0
G1 X7.723F3000S1000
G1 X3.939F5000S0
G1 X6.57F3000S1000
G1 X12.593F5000S0
G1 X7.722F3000S1000
G0 X1.25
G0 X0.069Y0.1
G0 X-1.25
G1 X-7.856
G1 X-12.64F5000S0
G1 X-6.471F3000S1000
G1 X-3.857F5000S0
G1 X-7.857F3000S1000
G1 X-16.294F5000S0
G1 X-10.094F3000S1000
G1 X-2.524F5000S0
G1 X-10.408F3000S1000
G1 X-10.852F5000S0
G1 X-14.28F3000S1000
G1 X-37.896F5000S0
G1 X-7.792F3000S1000
G1 X-9.585F5000S0
G1 X-10.355F3000S1000
G1 X-4.779F5000S0
G1 X-9.385F3000S1000
G1 X-8.187F5000S0
G1 X-7.857F3000S1000
G1 X-6.916F5000S0
G1 X-8.105F3000S1000
G1 X-27.4F5000S0
G1 X-4.184F3000S1000
G1 X-4.368F5000S0
G1 X-7.793F3000S1000
G1 X-9.585F5000S0
G1 X-10.327F3000S1000
G1 X-8.295F5000S0
G1 X-16.5F3000S1000
G0 X-1.25
G0 X-0.129Y0.1
G0 X1.25
G1 X8.714
G1 X1.613F5000S0
G1 X6.42F3000S1000
G1 X8.102F5000S0
G1 X10.491F3000S1000
G1 X9.436F5000S0
G1 X7.921F3000S1000
G1 X4.271F5000S0
G1 X4.235F3000S1000
G1 X27.318F5000S0
G1 X8.232F3000S1000
G1 X6.794F5000S0
G1 X7.979F3000S1000
G1 X8.035F5000S0
G1 X9.545F3000S1000
G1 X4.63F5000S0
G1 X10.518F3000S1000
G1 X9.435F5000S0
G1 X7.922F3000S1000
G1 X37.711F5000S0
G1 X14.478F3000S1000
G1 X10.705F5000S0
G1 X10.582F3000S1000
G1 X2.328F5000S0
G1 X10.276F3000S1000
G1 X16.144F5000S0
G1 X7.979F3000S1000
G1 X3.777F5000S0
G1 X6.484F3000S1000
G1 X12.585F5000S0
G1 X7.978F3000S1000
G0 X1.25
G0 X0.067Y0.1
G0 X-1.25
G1 X-3.341
G1 X-0.566S0
G1 X-4.193S1000
G1 X-12.453F5000S0
G1 X-6.574F3000S1000
G1 X-3.698F5000S0
G1 X-3.367F3000S1000
G1 X-0.549S0
G1 X-4.184S1000
G1 X-15.994F5000S0
G1 X-10.458F3000S1000
G1 X-2.141F5000S0
G1 X-5.187F3000S1000
G1 X-0.207S0
G1 X-5.352S1000
G1 X-10.558F5000S0
G1 X-9.177F3000S1000
G1 X-1.295F5000S0
G1 X-4.204F3000S1000
G1 X-37.528F5000S0
G1 X-3.355F3000S1000
G1 X-0.565S0
G1 X-4.13S1000
G1 X-9.286F5000S0
G1 X-2.917F3000S1000
G1 X-0.67S0
G1 X-7.089S1000
G1 X-4.486F5000S0
G1 X-4.02F3000S1000
G1 X-0.784S0
G1 X-4.901S1000
G1 X-7.883F5000S0
G1 X-3.341F3000S1000
G1 X-0.566S0
G1 X-4.194S1000
G1 X-6.672F5000S0
G1 X-8.348F3000S1000
G1 X-27.248F5000S0
G1 X-4.285F3000S1000
G1 X-4.174F5000S0
G1 X-3.354F3000S1000
G1 X-0.565S0
G1 X-4.131S1000
G1 X-9.286F5000S0
G1 X-2.917F3000S1000
G1 X-0.669S0
G1 X-7.069S1000
G1 X-7.909F5000S0
G1 X-5.776F3000S1000
G1 X-3.1F5000S0
G1 X-8.113F3000S1000
G0 X-1.25
G0 X-0.125Y0.1
G0 X1.25
G1 X7.752
G1 X4.069F5000S0
G1 X5.411F3000S1000
G1 X7.716F5000S0
G1 X6.91F3000S1000
G1 X1.149F5000S0
G1 X2.76F3000S1000
G1 X9.137F5000S0
G1 X4.021F3000S1000
G1 X0.905S0
G1 X3.253S1000
G1 X4.076F5000S0
G1 X4.335F3000S1000
G1 X27.182F5000S0
G1 X4.901F3000S1000
G1 X0.526S0
G1 X3.032S1000
G1 X6.551F5000S0
G1 X4.079F3000S1000
G1 X0.915S0
G1 X3.228S1000
G1 X7.734F5000S0
G1 X4.758F3000S1000
G1 X1.246F5000S0
G1 X3.859F3000S1000
G1 X4.342F5000S0
G1 X6.925F3000S1000
G1 X1.148F5000S0
G1 X2.761F3000S1000
G1 X9.136F5000S0
G1 X4.021F3000S1000
G1 X0.905S0
G1 X3.253S1000
G1 X37.344F5000S0
G1 X3.854F3000S1000
G1 X2.189F5000S0
G1 X8.831F3000S1000
G1 X10.411F5000S0
G1 X4.874F3000S1000
G1 X1.271F5000S0
G1 X4.765F3000S1000
G1 X1.958F5000S0
G1 X4.814F3000S1000
G1 X1.218F5000S0
G1 X4.605F3000S1000
G1 X15.844F5000S0
G1 X4.073F3000S1000
G1 X0.918S0
G1 X3.231S1000
G1 X3.62F5000S0
G1 X6.703F3000S1000
G1 X12.28F5000S0
G1 X4.078F3000S1000
G1 X0.916S0
G1 X3.228S1000
G0 X1.25
G0 X0.066Y0.1
G0 X-1.25
G1 X-3.156
G1 X-1.165F5000S0
G1 X-4.022F3000S1000
G1 X-12.107F5000S0
G1 X-6.832F3000S1000
G1 X-3.542F5000S0
G1 X-3.145F3000S1000
G1 X-1.177F5000S0
G1 X-4.022F3000S1000
G1 X-15.699F5000S0
G1 X-4.403F3000S1000
G1 X-1.733F5000S0
G1 X-4.67F3000S1000
G1 X-1.779F5000S0
G1 X-4.566F3000S1000
G1 X-1.811F5000S0
G1 X-4.698F3000S1000
G1 X-10.271F5000S0
G1 X-8.575F3000S1000
G1 X-2.843F5000S0
G1 X-3.643F3000S1000
G1 X-37.164F5000S0
G1 X-3.177F3000S1000
G1 X-1.16F5000S0
G1 X-3.961F3000S1000
G1 X-8.996F5000S0
G1 X-2.666F3000S1000
G1 X-1.502F5000S0
G1 X-6.823F3000S1000
G1 X-4.2F5000S0
G1 X-3.739F3000S1000
G1 X-1.591F5000S0
G1 X-4.68F3000S1000
G1 X-7.594F5000S0
G1 X-3.156F3000S1000
G1 X-1.165F5000S0
G1 X-4.023F3000S1000
G1 X-6.429F5000S0
G1 X-2.953F3000S1000
G1 X-0.76S0
G1 X-4.858S1000
G1 X-27.115F5000S0
G1 X-4.386F3000S1000
G1 X-3.979F5000S0
G1 X-3.178F3000S1000
G1 X-1.159F5000S0
G1 X-3.962F3000S1000
G1 X-8.995F5000S0
G1 X-2.667F3000S1000
G1 X-1.502F5000S0
G1 X-6.816F3000S1000
G1 X-7.522F5000S0
G1 X-5.15F3000S1000
G1 X-4.838F5000S0
G1 X-7.486F3000S1000
G0 X-1.25
G0 X-0.124Y0.1
G0 X1.25
G1 X7.278
G1 X5.498F5000S0
G1 X4.94F3000S1000
G1 X7.329F5000S0
G1 X6.767F3000S1000
G1 X1.766F5000S0
G1 X2.616F3000S1000
G1 X8.857F5000S0
G1 X3.938F3000S1000
G1 X1.354F5000S0
G1 X3.124F3000S1000
G1 X3.887F5000S0
G1 X4.431F3000S1000
G1 X27.049F5000S0
G1 X4.849F3000S1000
G1 X0.925S0
G1 X2.909S1000
G1 X6.307F5000S0
G1 X4.006F3000S1000
G1 X1.353F5000S0
G1 X3.107F3000S1000
G1 X7.455F5000S0
G1 X4.636F3000S1000
G1 X1.872F5000S0
G1 X3.649F3000S1000
G1 X4.063F5000S0
G1 X6.761F3000S1000
G1 X1.766F5000S0
G1 X2.615F3000S1000
G1 X8.857F5000S0
G1 X3.939F3000S1000
G1 X1.354F5000S0
G1 X3.123F3000S1000
G1 X36.996F5000S0
G1 X3.483F3000S1000
G1 X3.349F5000S0
G1 X8.401F3000S1000
G1 X10.135F5000S0
G1 X4.578F3000S1000
G1 X2.226F5000S0
G1 X4.434F3000S1000
G1 X1.602F5000S0
G1 X4.577F3000S1000
G1 X2.119F5000S0
G1 X4.275F3000S1000
G1 X15.557F5000S0
G1 X4.005F3000S1000
G1 X1.363F5000S0
G1 X3.097F3000S1000
G1 X3.465F5000S0
G1 X6.961F3000S1000
G1 X11.934F5000S0
G1 X4.005F3000S1000
G1 X1.353F5000S0
G1 X3.107F3000S1000
G0 X1.25
G0 X0.067Y0.1
G0 X-1.25
G1 X-3.071
G1 X-1.525F5000S0
G1 X-3.991F3000S1000
G1 X-11.761F5000S0
G1 X-7.09F3000S1000
G1 X-3.387F5000S0
G1 X-3.067F3000S1000
G1 X-1.528F5000S0
G1 X-3.992F3000S1000
G1 X-15.415F5000S0
G1 X-4.168F3000S1000
G1 X-2.459F5000S0
G1 X-4.51F3000S1000
G1 X-1.423F5000S0
G1 X-4.318F3000S1000
G1 X-2.584F5000S0
G1 X-4.501F3000S1000
G1 X-9.998F5000S0
G1 X-8.237F3000S1000
G1 X-3.794F5000S0
G1 X-3.373F3000S1000
G1 X-36.829F5000S0
G1 X-3.089F3000S1000
G1 X-1.524F5000S0
G1 X-3.921F3000S1000
G1 X-8.724F5000S0
G1 X-2.579F3000S1000
G1 X-1.992F5000S0
G1 X-6.716F3000S1000
G1 X-3.926F5000S0
G1 X-3.588F3000S1000
G1 X-2.102F5000S0
G1 X-4.615F3000S1000
G1 X-7.315F5000S0
G1 X-3.071F3000S1000
G1 X-1.525F5000S0
G1 X-3.992F3000S1000
G1 X-6.185F5000S0
G1 X-2.893F3000S1000
G1 X-1.048F5000S0
G1 X-4.854F3000S1000
G1 X-26.983F5000S0
G1 X-4.475F3000S1000
G1 X-3.796F5000S0
G1 X-3.09F3000S1000
G1 X-1.524F5000S0
G1 X-3.921F3000S1000
G1 X-8.723F5000S0
G1 X-2.579F3000S1000
G1 X-1.992F5000S0
G1 X-6.721F3000S1000
G1 X-7.151F5000S0
G1 X-4.759F3000S1000
G1 X-6.08F5000S0
G1 X-7.116F3000S1000
G0 X-1.25
G0 X-0.109Y0.1
G0 X1.25
G1 X6.961
G1 X6.596F5000S0
G1 X4.613F3000S1000
G1 X6.985F5000S0
G1 X6.697F3000S1000
G1 X2.178F5000S0
G1 X2.558F3000S1000
G1 X8.592F5000S0
G1 X3.908F3000S1000
G1 X1.68F5000S0
G1 X3.061F3000S1000
G1 X3.708F5000S0
G1 X4.521F3000S1000
G1 X26.916F5000S0
G1 X4.859F3000S1000
G1 X1.163F5000S0
G1 X2.884F3000S1000
G1 X6.074F5000S0
G1 X3.974F3000S1000
G1 X1.671F5000S0
G1 X3.05F3000S1000
G1 X7.181F5000S0
G1 X4.611F3000S1000
G1 X2.303F5000S0
G1 X3.536F3000S1000
G1 X3.792F5000S0
G1 X6.693F3000S1000
G1 X2.178F5000S0
G1 X2.559F3000S1000
G1 X8.592F5000S0
G1 X3.907F3000S1000
G1 X1.681F5000S0
G1 X3.061F3000S1000
G1 X36.664F5000S0
G1 X3.275F3000S1000
G1 X4.183F5000S0
G1 X8.117F3000S1000
G1 X9.862F5000S0
G1 X4.457F3000S1000
G1 X2.865F5000S0
G1 X4.246F3000S1000
G1 X1.249F5000S0
G1 X4.474F3000S1000
G1 X2.744F5000S0
G1 X4.08F3000S1000
G1 X15.283F5000S0
G1 X3.973F3000S1000
G1 X1.673F5000S0
G1 X3.049F3000S1000
G1 X3.313F5000S0
G1 X7.218F3000S1000
G1 X11.599F5000S0
G1 X3.973F3000S1000
G1 X1.671F5000S0
G1 X3.05F3000S1000
G0 X1.25
G0 X0.056Y0.1
G0 X-1.25
G1 X-3.028
G1 X-1.803F5000S0
G1 X-3.964F3000S1000
G1 X-11.436F5000S0
G1 X-7.347F3000S1000
G1 X-3.247F5000S0
G1 X-3.028F3000S1000
G1 X-1.803F5000S0
G1 X-3.964F3000S1000
G1 X-15.154F5000S0
G1 X-4.009F3000S1000
G1 X-3.006F5000S0
G1 X-4.438F3000S1000
G1 X-1.084F5000S0
G1 X-4.169F3000S1000
G1 X-3.129F5000S0
G1 X-4.428F3000S1000
G1 X-9.735F5000S0
G1 X-7.989F3000S1000
G1 X-4.538F5000S0
G1 X-3.21F3000S1000
G1 X-36.508F5000S0
G1 X-3.039F3000S1000
G1 X-1.814F5000S0
G1 X-3.903F3000S1000
G1 X-8.461F5000S0
G1 X-2.545F3000S1000
G1 X-2.354F5000S0
G1 X-6.673F3000S1000
G1 X-3.667F5000S0
G1 X-3.491F3000S1000
G1 X-2.487F5000S0
G1 X-4.609F3000S1000
G1 X-7.052F5000S0
G1 X-3.028F3000S1000
G1 X-1.804F5000S0
G1 X-3.963F3000S1000
G1 X-5.971F5000S0
G1 X-2.87F3000S1000
G1 X-1.269F5000S0
G1 X-4.867F3000S1000
G1 X-26.854F5000S0
G1 X-4.566F3000S1000
G1 X-3.626F5000S0
G1 X-3.04F3000S1000
G1 X-1.813F5000S0
G1 X-3.903F3000S1000
G1 X-8.461F5000S0
G1 X-2.545F3000S1000
G1 X-2.355F5000S0
G1 X-6.675F3000S1000
G1 X-6.82F5000S0
G1 X-4.473F3000S1000
G1 X-7.042F5000S0
G1 X-6.869F3000S1000
G0 X-1.25
G0 X-0.109Y0.1
G0 X1.25
G1 X6.777
G1 X7.459F5000S0
G1 X4.361F3000S1000
G1 X6.656F5000S0
G1 X6.671F3000S1000
G1 X2.506F5000S0
G1 X2.54F3000S1000
G1 X8.329F5000S0
G1 X3.898F3000S1000
G1 X1.938F5000S0
G1 X3.027F3000S1000
G1 X3.549F5000S0
G1 X4.608F3000S1000
G1 X26.797F5000S0
G1 X4.873F3000S1000
G1 X1.37F5000S0
G1 X2.854F3000S1000
G1 X5.87F5000S0
G1 X3.954F3000S1000
G1 X1.929F5000S0
G1 X3.013F3000S1000
G1 X6.923F5000S0
G1 X4.607F3000S1000
G1 X2.658F5000S0
G1 X3.458F3000S1000
G1 X3.543F5000S0
G1 X6.669F3000S1000
G1 X2.506F5000S0
G1 X2.54F3000S1000
G1 X8.329F5000S0
G1 X3.899F3000S1000
G1 X1.938F5000S0
G1 X3.027F3000S1000
G1 X36.35F5000S0
G1 X3.154F3000S1000
G1 X4.852F5000S0
G1 X7.893F3000S1000
G1 X9.617F5000S0
G1 X4.39F3000S1000
G1 X3.364F5000S0
G1 X4.114F3000S1000
G1 X0.928S0
G1 X4.423S1000
G1 X3.245F5000S0
G1 X3.934F3000S1000
G1 X15.03F5000S0
G1 X3.955F3000S1000
G1 X1.928F5000S0
G1 X3.013F3000S1000
G1 X3.18F5000S0
G1 X7.476F3000S1000
G1 X11.273F5000S0
G1 X3.954F3000S1000
G1 X1.929F5000S0
G1 X3.013F3000S1000
G0 X1.25
G0 X0.056Y0.1
G0 X-1.25
G1 X-2.998
G1 X-2.046F5000S0
G1 X-3.953F3000S1000
G1 X-11.111F5000S0
G1 X-7.604F3000S1000
G1 X-3.113F5000S0
G1 X-2.998F3000S1000
